; G-Code generated by Simplify3D(R) Version 4.1.0
; May 16, 2019 at 2:52:37 PM
; Settings Summary
;   processName,Cement
;   applyToModels,Brick
;   profileName,Cement 1
;   profileVersion,2017-03-01 08:00:00
;   baseProfile,Default (modified)
;   printMaterial,Cement
;   printQuality,High
;   printExtruders,
;   extruderName,Primary Extruder
;   extruderToolheadNumber,0
;   extruderDiameter,4
;   extruderAutoWidth,0
;   extruderWidth,5
;   extrusionMultiplier,1
;   extruderUseRetract,0
;   extruderRetractionDistance,1
;   extruderExtraRestartDistance,0
;   extruderRetractionZLift,0
;   extruderRetractionSpeed,1800
;   extruderUseCoasting,0
;   extruderCoastingDistance,0.2
;   extruderUseWipe,0
;   extruderWipeDistance,5
;   primaryExtruder,0
;   layerHeight,4
;   topSolidLayers,0
;   bottomSolidLayers,0
;   perimeterOutlines,1
;   printPerimetersInsideOut,1
;   startPointOption,2
;   startPointOriginX,0
;   startPointOriginY,0
;   sequentialIslands,0
;   spiralVaseMode,0
;   firstLayerHeightPercentage,100
;   firstLayerWidthPercentage,100
;   firstLayerUnderspeed,1
;   useRaft,0
;   raftExtruder,0
;   raftTopLayers,3
;   raftBaseLayers,2
;   raftOffset,3
;   raftSeparationDistance,0.14
;   raftTopInfill,100
;   aboveRaftSpeedMultiplier,0.3
;   useSkirt,0
;   skirtExtruder,0
;   skirtLayers,2
;   skirtOutlines,2
;   skirtOffset,4
;   usePrimePillar,0
;   primePillarExtruder,999
;   primePillarWidth,12
;   primePillarLocation,7
;   primePillarSpeedMultiplier,1
;   useOozeShield,0
;   oozeShieldExtruder,999
;   oozeShieldOffset,2
;   oozeShieldOutlines,1
;   oozeShieldSidewallShape,1
;   oozeShieldSidewallAngle,30
;   oozeShieldSpeedMultiplier,1
;   infillExtruder,0
;   internalInfillPattern,Full Honeycomb
;   externalInfillPattern,Rectilinear
;   infillPercentage,30
;   outlineOverlapPercentage,0
;   infillExtrusionWidthPercentage,50
;   minInfillLength,1
;   infillLayerInterval,1
;   internalInfillAngles,0,120,-120
;   overlapInternalInfillAngles,0
;   externalInfillAngles,45,-45
;   generateSupport,0
;   supportExtruder,0
;   supportInfillPercentage,40
;   supportExtraInflation,0
;   supportBaseLayers,0
;   denseSupportExtruder,0
;   denseSupportLayers,0
;   denseSupportInfillPercentage,70
;   supportLayerInterval,1
;   supportHorizontalPartOffset,0.3
;   supportUpperSeparationLayers,1
;   supportLowerSeparationLayers,1
;   supportType,0
;   supportGridSpacing,4
;   maxOverhangAngle,45
;   supportAngles,0
;   temperatureName,Primary Extruder
;   temperatureNumber,0
;   temperatureSetpointCount,1
;   temperatureSetpointLayers,1
;   temperatureSetpointTemperatures,0
;   temperatureStabilizeAtStartup,0
;   temperatureHeatedBed,0
;   fanLayers,1
;   fanSpeeds,0
;   blipFanToFullPower,0
;   adjustSpeedForCooling,0
;   minSpeedLayerTime,15
;   minCoolingSpeedSlowdown,20
;   increaseFanForCooling,0
;   minFanLayerTime,45
;   maxCoolingFanSpeed,100
;   increaseFanForBridging,0
;   bridgingFanSpeed,100
;   use5D,1
;   relativeEdistances,1
;   allowEaxisZeroing,0
;   independentExtruderAxes,1
;   includeM10123,1
;   stickySupport,1
;   applyToolheadOffsets,0
;   gcodeXoffset,0
;   gcodeYoffset,0
;   gcodeZoffset,0
;   overrideMachineDefinition,1
;   machineTypeOverride,0
;   strokeXoverride,200
;   strokeYoverride,200
;   strokeZoverride,200
;   originOffsetXoverride,0
;   originOffsetYoverride,0
;   originOffsetZoverride,0
;   homeXdirOverride,-1
;   homeYdirOverride,-1
;   homeZdirOverride,-1
;   flipXoverride,1
;   flipYoverride,-1
;   flipZoverride,1
;   toolheadOffsets,0,0|0,0|0,0|0,0|0,0|0,0
;   overrideFirmwareConfiguration,1
;   firmwareTypeOverride,RepRap (Marlin/Repetier/Sprinter)
;   GPXconfigOverride,r2
;   baudRateOverride,115200
;   overridePrinterModels,0
;   printerModelsOverride
;   startingGcode,G28 ; home all axes
;   layerChangeGcode,
;   retractionGcode,
;   toolChangeGcode,
;   endingGcode,M104 S0 ; turn off extruder,M140 S0 ; turn off bed,M84 ; disable motors
;   exportFileFormat,gcode
;   celebration,0
;   celebrationSong,Random Song
;   postProcessing,
;   defaultSpeed,600
;   outlineUnderspeed,0.5
;   solidInfillUnderspeed,0.8
;   supportUnderspeed,0.8
;   rapidXYspeed,600
;   rapidZspeed,600
;   minBridgingArea,50
;   bridgingExtraInflation,0
;   bridgingExtrusionMultiplier,1
;   bridgingSpeedMultiplier,1
;   useFixedBridgingAngle,0
;   fixedBridgingAngle,0
;   applyBridgingToPerimeters,0
;   filamentDiameters,4|1.75|1.75|1.75|1.75|1.75
;   filamentPricesPerKg,46|46|46|46|46|46
;   filamentDensities,1.25|1.25|1.25|1.25|1.25|1.25
;   useMinPrintHeight,0
;   minPrintHeight,0
;   useMaxPrintHeight,0
;   maxPrintHeight,0
;   useDiaphragm,0
;   diaphragmLayerInterval,20
;   robustSlicing,1
;   mergeAllIntoSolid,0
;   onlyRetractWhenCrossingOutline,1
;   retractBetweenLayers,1
;   useRetractionMinTravel,0
;   retractionMinTravel,3
;   retractWhileWiping,0
;   onlyWipeOutlines,1
;   avoidCrossingOutline,0
;   maxMovementDetourFactor,3
;   toolChangeRetractionDistance,12
;   toolChangeExtraRestartDistance,-0.5
;   toolChangeRetractionSpeed,600
;   externalThinWallType,0
;   internalThinWallType,2
;   thinWallAllowedOverlapPercentage,10
;   singleExtrusionMinLength,1
;   singleExtrusionMinPrintingWidthPercentage,50
;   singleExtrusionMaxPrintingWidthPercentage,200
;   singleExtrusionEndpointExtension,0.2
;   horizontalSizeCompensation,0
G90
M83
M106 S0
M104 S0 T0
G28 ; home all axes
; process Cement
; layer 1, Z = 4.000
T0
; feature outer perimeter
; tool H4.000 W5.000
G1 Z4.000 F600
G1 X2.500 Y52.500 F600
M101
G1 X197.500 Y52.500 E310.3521 F300
G1 X197.500 Y147.500 E151.1972
G1 X2.500 Y147.500 E310.3521
G1 X2.500 Y52.500 E151.1972
M103
; feature infill
; tool H4.000 W2.500
G1 X6.250 Y56.806 F600
M101
G1 X10.910 Y56.806 E3.7083 F600
G1 X15.882 Y65.417 E7.9126
G1 X30.155 Y65.417 E11.3586
G1 X35.127 Y56.806 E7.9126
G1 X49.401 Y56.806 E11.3586
G1 X54.372 Y65.417 E7.9126
G1 X68.646 Y65.417 E11.3586
G1 X73.618 Y56.806 E7.9126
G1 X87.891 Y56.806 E11.3586
G1 X92.863 Y65.417 E7.9126
G1 X107.137 Y65.417 E11.3586
G1 X112.109 Y56.806 E7.9126
G1 X126.382 Y56.806 E11.3586
G1 X131.354 Y65.417 E7.9126
G1 X145.628 Y65.417 E11.3586
G1 X150.599 Y56.806 E7.9126
G1 X164.873 Y56.806 E11.3586
G1 X169.845 Y65.417 E7.9126
G1 X184.118 Y65.417 E11.3586
G1 X189.090 Y56.806 E7.9126
G1 X193.750 Y56.806 E3.7083
G1 X193.750 Y76.528 E15.6943
G1 X189.090 Y76.528 E3.7083
G1 X184.118 Y67.917 E7.9126
G1 X169.845 Y67.917 E11.3586
G1 X164.873 Y76.528 E7.9126
G1 X150.599 Y76.528 E11.3586
G1 X145.628 Y67.917 E7.9126
G1 X131.354 Y67.917 E11.3586
G1 X126.382 Y76.528 E7.9126
G1 X112.109 Y76.528 E11.3586
G1 X107.137 Y67.917 E7.9126
G1 X92.863 Y67.917 E11.3586
G1 X87.891 Y76.528 E7.9126
G1 X73.618 Y76.528 E11.3586
G1 X68.646 Y67.917 E7.9126
G1 X54.372 Y67.917 E11.3586
G1 X49.401 Y76.528 E7.9126
G1 X35.127 Y76.528 E11.3586
G1 X30.155 Y67.917 E7.9126
G1 X15.882 Y67.917 E11.3586
G1 X10.910 Y76.528 E7.9126
G1 X6.250 Y76.528 E3.7083
G1 X6.250 Y79.028 E1.9894
G1 X10.910 Y79.028 E3.7083
G1 X15.882 Y87.639 E7.9126
G1 X30.155 Y87.639 E11.3586
G1 X35.127 Y79.028 E7.9126
G1 X49.401 Y79.028 E11.3586
G1 X54.372 Y87.639 E7.9126
G1 X68.646 Y87.639 E11.3586
G1 X73.618 Y79.028 E7.9126
G1 X87.891 Y79.028 E11.3586
G1 X92.863 Y87.639 E7.9126
G1 X107.137 Y87.639 E11.3586
G1 X112.109 Y79.028 E7.9126
G1 X126.382 Y79.028 E11.3586
G1 X131.354 Y87.639 E7.9126
G1 X145.628 Y87.639 E11.3586
G1 X150.599 Y79.028 E7.9126
G1 X164.873 Y79.028 E11.3586
G1 X169.845 Y87.639 E7.9126
G1 X184.118 Y87.639 E11.3586
G1 X189.090 Y79.028 E7.9126
G1 X193.750 Y79.028 E3.7083
G1 X193.750 Y98.750 E15.6943
G1 X189.090 Y98.750 E3.7083
G1 X184.118 Y90.139 E7.9126
G1 X169.845 Y90.139 E11.3586
G1 X164.873 Y98.750 E7.9126
G1 X150.599 Y98.750 E11.3586
G1 X145.628 Y90.139 E7.9126
G1 X131.354 Y90.139 E11.3586
G1 X126.382 Y98.750 E7.9126
G1 X112.109 Y98.750 E11.3586
G1 X107.137 Y90.139 E7.9126
G1 X92.863 Y90.139 E11.3586
G1 X87.891 Y98.750 E7.9126
G1 X73.618 Y98.750 E11.3586
G1 X68.646 Y90.139 E7.9126
G1 X54.372 Y90.139 E11.3586
G1 X49.401 Y98.750 E7.9126
G1 X35.127 Y98.750 E11.3586
G1 X30.155 Y90.139 E7.9126
G1 X15.882 Y90.139 E11.3586
G1 X10.910 Y98.750 E7.9126
G1 X6.250 Y98.750 E3.7083
G1 X6.250 Y101.250 E1.9894
G1 X10.910 Y101.250 E3.7083
G1 X15.882 Y109.861 E7.9126
G1 X30.155 Y109.861 E11.3586
G1 X35.127 Y101.250 E7.9126
G1 X49.401 Y101.250 E11.3586
G1 X54.372 Y109.861 E7.9126
G1 X68.646 Y109.861 E11.3586
G1 X73.618 Y101.250 E7.9126
G1 X87.891 Y101.250 E11.3586
G1 X92.863 Y109.861 E7.9126
G1 X107.137 Y109.861 E11.3586
G1 X112.109 Y101.250 E7.9126
G1 X126.382 Y101.250 E11.3586
G1 X131.354 Y109.861 E7.9126
G1 X145.628 Y109.861 E11.3586
G1 X150.599 Y101.250 E7.9126
G1 X164.873 Y101.250 E11.3586
G1 X169.845 Y109.861 E7.9126
G1 X184.118 Y109.861 E11.3586
G1 X189.090 Y101.250 E7.9126
G1 X193.750 Y101.250 E3.7083
G1 X193.750 Y120.972 E15.6943
G1 X189.090 Y120.972 E3.7083
G1 X184.118 Y112.361 E7.9126
G1 X169.845 Y112.361 E11.3586
G1 X164.873 Y120.972 E7.9126
G1 X150.599 Y120.972 E11.3586
G1 X145.628 Y112.361 E7.9126
G1 X131.354 Y112.361 E11.3586
G1 X126.382 Y120.972 E7.9126
G1 X112.109 Y120.972 E11.3586
G1 X107.137 Y112.361 E7.9126
G1 X92.863 Y112.361 E11.3586
G1 X87.891 Y120.972 E7.9126
G1 X73.618 Y120.972 E11.3586
G1 X68.646 Y112.361 E7.9126
G1 X54.372 Y112.361 E11.3586
G1 X49.401 Y120.972 E7.9126
G1 X35.127 Y120.972 E11.3586
G1 X30.155 Y112.361 E7.9126
G1 X15.882 Y112.361 E11.3586
G1 X10.910 Y120.972 E7.9126
G1 X6.250 Y120.972 E3.7083
G1 X6.250 Y123.472 E1.9894
G1 X10.910 Y123.472 E3.7083
G1 X15.882 Y132.083 E7.9126
G1 X30.155 Y132.083 E11.3586
G1 X35.127 Y123.472 E7.9126
G1 X49.401 Y123.472 E11.3586
G1 X54.372 Y132.083 E7.9126
G1 X68.646 Y132.083 E11.3586
G1 X73.618 Y123.472 E7.9126
G1 X87.891 Y123.472 E11.3586
G1 X92.863 Y132.083 E7.9126
G1 X107.137 Y132.083 E11.3586
G1 X112.109 Y123.472 E7.9126
G1 X126.382 Y123.472 E11.3586
G1 X131.354 Y132.083 E7.9126
G1 X145.628 Y132.083 E11.3586
G1 X150.599 Y123.472 E7.9126
G1 X164.873 Y123.472 E11.3586
G1 X169.845 Y132.083 E7.9126
G1 X184.118 Y132.083 E11.3586
G1 X189.090 Y123.472 E7.9126
G1 X193.750 Y123.472 E3.7083
G1 X193.750 Y143.194 E15.6943
G1 X189.090 Y143.194 E3.7083
G1 X184.118 Y134.583 E7.9126
G1 X169.845 Y134.583 E11.3586
G1 X164.873 Y143.194 E7.9126
G1 X150.599 Y143.194 E11.3586
G1 X145.628 Y134.583 E7.9126
G1 X131.354 Y134.583 E11.3586
G1 X126.382 Y143.194 E7.9126
G1 X112.109 Y143.194 E11.3586
G1 X107.137 Y134.583 E7.9126
G1 X92.863 Y134.583 E11.3586
G1 X87.891 Y143.194 E7.9126
G1 X73.618 Y143.194 E11.3586
G1 X68.646 Y134.583 E7.9126
G1 X54.372 Y134.583 E11.3586
G1 X49.401 Y143.194 E7.9126
G1 X35.127 Y143.194 E11.3586
G1 X30.155 Y134.583 E7.9126
G1 X15.882 Y134.583 E11.3586
G1 X10.910 Y143.194 E7.9126
G1 X6.250 Y143.194 E3.7083
M103
; layer 2, Z = 8.000
; feature outer perimeter
; tool H4.000 W5.000
G1 Z8.000 F600
G1 X2.500 Y147.500 F600
M101
G1 X2.500 Y52.500 E151.1972 F300
G1 X197.500 Y52.500 E310.3521
G1 X197.500 Y147.500 E151.1972
G1 X2.500 Y147.500 E310.3521
M103
; feature infill
; tool H4.000 W2.500
G1 X11.234 Y56.250 F600
M101
G1 X10.913 Y56.806 E0.5111 F600
G1 X15.884 Y65.417 E7.9126
G1 X8.747 Y77.779 E11.3586
G1 X6.250 Y77.779 E1.9872
G1 X6.250 Y100.001 E17.6841
G1 X8.747 Y100.001 E1.9870
G1 X15.884 Y87.640 E11.3586
G1 X10.912 Y79.029 E7.9126
G1 X18.049 Y66.667 E11.3586
G1 X27.992 Y66.667 E7.9126
G1 X34.007 Y56.250 E9.5722
G1 X36.893 Y56.250 E2.2972
G1 X30.157 Y67.917 E10.7208
G1 X35.129 Y76.528 E7.9126
G1 X27.992 Y88.890 E11.3586
G1 X18.049 Y88.890 E7.9126
G1 X10.912 Y101.251 E11.3586
G1 X15.883 Y109.862 E7.9126
G1 X8.747 Y122.224 E11.3586
G1 X6.250 Y122.224 E1.9868
G1 X6.250 Y143.750 E17.1301
G1 X9.148 Y143.750 E2.3064
G1 X15.883 Y132.085 E10.7190
G1 X10.912 Y123.474 E7.9126
G1 X18.049 Y111.112 E11.3586
G1 X27.992 Y111.112 E7.9126
G1 X35.129 Y98.751 E11.3586
G1 X30.157 Y90.140 E7.9126
G1 X37.294 Y77.778 E11.3586
G1 X47.237 Y77.778 E7.9126
G1 X54.374 Y65.417 E11.3586
G1 X49.402 Y56.806 E7.9126
G1 X49.723 Y56.250 E0.5106
G1 X72.496 Y56.250 E18.1222
G1 X66.482 Y66.667 E9.5717
G1 X56.539 Y66.667 E7.9126
G1 X49.402 Y79.028 E11.3586
G1 X54.374 Y87.639 E7.9126
G1 X47.237 Y100.001 E11.3586
G1 X37.294 Y100.001 E7.9126
G1 X30.157 Y112.362 E11.3586
G1 X35.128 Y120.973 E7.9126
G1 X27.991 Y133.335 E11.3586
G1 X18.048 Y133.335 E7.9126
G1 X12.035 Y143.750 E9.5704
G1 X34.808 Y143.750 E18.1222
G1 X35.128 Y143.196 E0.5093
G1 X30.157 Y134.585 E7.9126
G1 X37.293 Y122.223 E11.3586
G1 X47.237 Y122.223 E7.9126
G1 X54.373 Y109.862 E11.3586
G1 X49.402 Y101.251 E7.9126
G1 X56.539 Y88.889 E11.3586
G1 X66.482 Y88.889 E7.9126
G1 X73.619 Y76.528 E11.3586
G1 X68.647 Y67.917 E7.9126
G1 X75.383 Y56.250 E10.7203
G1 X88.213 Y56.250 E10.2097
G1 X87.892 Y56.805 E0.5102
G1 X92.864 Y65.416 E7.9126
G1 X85.727 Y77.778 E11.3586
G1 X75.784 Y77.778 E7.9126
G1 X68.647 Y90.139 E11.3586
G1 X73.618 Y98.750 E7.9126
G1 X66.482 Y111.112 E11.3586
G1 X56.538 Y111.112 E7.9126
G1 X49.402 Y123.473 E11.3586
G1 X54.373 Y132.084 E7.9126
G1 X47.638 Y143.750 E10.7194
G1 X50.525 Y143.750 E2.2972
G1 X56.538 Y133.334 E9.5708
G1 X66.481 Y133.334 E7.9126
G1 X73.618 Y120.973 E11.3586
G1 X68.647 Y112.362 E7.9126
G1 X75.783 Y100.000 E11.3586
G1 X85.727 Y100.000 E7.9126
G1 X92.863 Y87.639 E11.3586
G1 X87.892 Y79.028 E7.9126
G1 X95.029 Y66.666 E11.3586
G1 X104.972 Y66.666 E7.9126
G1 X110.986 Y56.250 E9.5713
G1 X113.873 Y56.250 E2.2972
G1 X107.137 Y67.916 E10.7199
G1 X112.109 Y76.527 E7.9126
G1 X104.972 Y88.889 E11.3586
G1 X95.029 Y88.889 E7.9126
G1 X87.892 Y101.250 E11.3586
G1 X92.863 Y109.861 E7.9126
G1 X85.726 Y122.223 E11.3586
G1 X75.783 Y122.223 E7.9126
G1 X68.646 Y134.584 E11.3586
G1 X73.618 Y143.195 E7.9126
G1 X73.298 Y143.750 E0.5097
G1 X86.127 Y143.750 E10.2097
G1 X92.863 Y132.084 E10.7199
G1 X87.891 Y123.473 E7.9126
G1 X95.028 Y111.111 E11.3586
G1 X104.971 Y111.111 E7.9126
G1 X112.108 Y98.750 E11.3586
G1 X107.137 Y90.139 E7.9126
G1 X114.274 Y77.777 E11.3586
G1 X124.217 Y77.777 E7.9126
G1 X131.354 Y65.416 E11.3586
G1 X126.382 Y56.805 E7.9126
G1 X126.702 Y56.250 E0.5098
G1 X149.475 Y56.250 E18.1222
G1 X143.462 Y66.666 E9.5708
G1 X133.519 Y66.666 E7.9126
G1 X126.382 Y79.027 E11.3586
G1 X131.353 Y87.638 E7.9126
G1 X124.217 Y100.000 E11.3586
G1 X114.273 Y100.000 E7.9126
G1 X107.137 Y112.361 E11.3586
G1 X112.108 Y120.972 E7.9126
G1 X104.971 Y133.334 E11.3586
G1 X95.028 Y133.334 E7.9126
G1 X89.014 Y143.750 E9.5713
G1 X111.787 Y143.750 E18.1222
G1 X112.108 Y143.195 E0.5102
G1 X107.136 Y134.584 E7.9126
G1 X114.273 Y122.222 E11.3586
G1 X124.216 Y122.222 E7.9126
G1 X131.353 Y109.861 E11.3586
G1 X126.382 Y101.250 E7.9126
G1 X133.518 Y88.888 E11.3586
G1 X143.462 Y88.888 E7.9126
G1 X150.598 Y76.527 E11.3586
G1 X145.627 Y67.916 E7.9126
G1 X152.362 Y56.250 E10.7194
G1 X165.192 Y56.250 E10.2097
G1 X164.872 Y56.804 E0.5093
G1 X169.844 Y65.415 E7.9126
G1 X162.707 Y77.777 E11.3586
G1 X152.764 Y77.777 E7.9126
G1 X145.627 Y90.138 E11.3586
G1 X150.598 Y98.749 E7.9126
G1 X143.461 Y111.111 E11.3586
G1 X133.518 Y111.111 E7.9126
G1 X126.381 Y123.472 E11.3586
G1 X131.353 Y132.083 E7.9126
G1 X124.617 Y143.750 E10.7203
G1 X127.504 Y143.750 E2.2972
G1 X133.518 Y133.333 E9.5717
G1 X143.461 Y133.333 E7.9126
G1 X150.598 Y120.972 E11.3586
G1 X145.626 Y112.361 E7.9126
G1 X152.763 Y99.999 E11.3586
G1 X162.706 Y99.999 E7.9126
G1 X169.843 Y87.638 E11.3586
G1 X164.872 Y79.027 E7.9126
G1 X172.009 Y66.665 E11.3586
G1 X181.952 Y66.665 E7.9126
G1 X187.965 Y56.250 E9.5704
G1 X190.852 Y56.250 E2.2972
G1 X184.117 Y67.915 E10.7190
G1 X189.088 Y76.526 E7.9126
