RISC-NYUAD/HeavyPayloadDrone/projects/kinova-ros/devel/lib/ne_kinova_demo/VulcanTrajectory/Vulcan1_Vicon_y19m11d27h13min10.csv
time (NSec) 	Kinova Tip Position (t_x) 	t_y 	t_z 	Kinova Tip Angle (theta_x) 	Kinova Tip Angle (theta_y) 	Kinova Tip Angle (theta_z) 	Kinova Joint Angle (j1) 	(j2) 	(j3) 	(j4) 	Kinova Joint Angle (j5) 	(j6) 	(j7)
0.0299757 	-0.00383036 	-0.485763 	-0.243215 	1.76538 	0.0102515 	-3.10831 	90.1469 	62.2912 	-0.572852 	268.863 	360.997 	284.883 	539.24 	
0.046536 	-0.00383036 	-0.485763 	-0.243215 	1.76538 	0.0102515 	-3.10831 	90.1469 	62.2912 	-0.572852 	268.863 	360.997 	284.883 	539.24 	
0.085474 	-0.0038306 	-0.485937 	-0.243052 	1.76505 	0.0102515 	-3.10866 	90.1469 	62.2914 	-0.572852 	268.863 	360.997 	284.883 	539.241 	
0.188745 	-0.00380546 	-0.487549 	-0.239957 	1.7654 	0.0103535 	-3.12085 	90.1469 	62.4937 	-0.572852 	269.048 	360.997 	284.882 	539.429 	
0.292116 	-0.00375849 	-0.490725 	-0.233544 	1.76539 	0.0105475 	-3.12534 	90.1469 	63.4041 	-0.572852 	269.944 	360.997 	284.882 	539.694 	
0.39505 	-0.00371223 	-0.493788 	-0.227078 	1.76539 	0.0107424 	-3.12529 	90.1469 	64.394 	-0.572852 	270.9 	360.997 	284.882 	539.723 	
0.498223 	-0.00366667 	-0.496737 	-0.220558 	1.76539 	0.0109381 	-3.12524 	90.1469 	65.3646 	-0.572852 	271.901 	360.997 	284.882 	539.726 	
0.601204 	-0.00362185 	-0.499573 	-0.213988 	1.76539 	0.0111347 	-3.1252 	90.1469 	66.4657 	-0.572852 	272.998 	360.997 	284.882 	539.727 	
0.704153 	-0.00357777 	-0.502293 	-0.20737 	1.76539 	0.0113319 	-3.12516 	90.1469 	67.4595 	-0.572852 	273.992 	360.997 	284.882 	539.727 	
0.80726 	-0.00353444 	-0.504898 	-0.200705 	1.76539 	0.0115298 	-3.12513 	90.1469 	68.4568 	-0.572852 	274.995 	360.997 	284.882 	539.728 	
0.910367 	-0.00349188 	-0.507386 	-0.193996 	1.76539 	0.0117283 	-3.12509 	90.1469 	69.5338 	-0.572852 	276.1 	360.997 	284.882 	539.728 	
1.01365 	-0.0034501 	-0.509756 	-0.187244 	1.76539 	0.0119273 	-3.12507 	90.1469 	70.5543 	-0.572852 	277.099 	360.997 	284.882 	539.728 	
1.11663 	-0.00340911 	-0.512008 	-0.180452 	1.76539 	0.0121267 	-3.12504 	90.1469 	71.5309 	-0.572852 	278.097 	360.997 	284.882 	539.728 	
1.21948 	-0.00336894 	-0.514141 	-0.173622 	1.76539 	0.0123266 	-3.12502 	90.1469 	72.6378 	-0.572852 	279.199 	360.997 	284.882 	539.729 	
1.32266 	-0.00332958 	-0.516155 	-0.166755 	1.76539 	0.0125268 	-3.125 	90.1469 	73.6213 	-0.572852 	280.201 	360.997 	284.882 	539.729 	
1.42591 	-0.00329105 	-0.518049 	-0.159855 	1.76539 	0.0127273 	-3.12499 	90.1469 	74.6227 	-0.572852 	281.198 	360.997 	284.882 	539.729 	
1.52897 	-0.00325336 	-0.519821 	-0.152922 	1.76539 	0.0129281 	-3.12497 	90.1469 	75.6343 	-0.572852 	282.204 	360.997 	284.882 	539.729 	
1.63183 	-0.00321653 	-0.521473 	-0.14596 	1.76539 	0.013129 	-3.12497 	90.1469 	76.7205 	-0.572852 	283.293 	360.997 	284.882 	539.729 	
1.73481 	-0.00318056 	-0.523003 	-0.13897 	1.76539 	0.01333 	-3.12496 	90.1469 	77.7235 	-0.572852 	284.293 	360.997 	284.882 	539.729 	
1.83795 	-0.00314547 	-0.52441 	-0.131954 	1.76539 	0.0135311 	-3.12496 	90.1469 	78.7059 	-0.572852 	285.306 	360.997 	284.882 	539.729 	
1.94115 	-0.00311127 	-0.525695 	-0.124915 	1.76539 	0.0137321 	-3.12496 	90.1469 	79.8197 	-0.572852 	286.395 	360.997 	284.882 	539.729 	
2.04434 	-0.00307796 	-0.526857 	-0.117854 	1.76539 	0.013933 	-3.12497 	90.1469 	80.7971 	-0.572852 	287.394 	360.997 	284.882 	539.729 	
2.15128 	-0.00304556 	-0.527895 	-0.110774 	1.76539 	0.0141338 	-3.12498 	90.1469 	81.9062 	-0.572852 	288.497 	360.997 	284.882 	539.729 	
2.25403 	-0.00301408 	-0.52881 	-0.103677 	1.76539 	0.0143345 	-3.12499 	90.1469 	82.8938 	-0.572852 	289.496 	360.997 	284.882 	539.729 	
2.35713 	-0.00298353 	-0.529601 	-0.0965653 	1.76539 	0.0145348 	-3.12501 	90.1469 	83.9026 	-0.572852 	290.497 	360.997 	284.882 	539.729 	
2.4633 	-0.00295391 	-0.530267 	-0.0894408 	1.76539 	0.0147348 	-3.12503 	90.1469 	84.9904 	-0.572852 	291.6 	360.997 	284.882 	539.729 	
2.56696 	-0.00289751 	-0.531226 	-0.0751623 	1.76539 	0.0151336 	-3.12508 	90.1469 	85.9967 	-0.572852 	292.596 	360.997 	284.882 	539.729 	
2.66917 	-0.00287075 	-0.531519 	-0.0680127 	1.7654 	0.0153323 	-3.12511 	90.1469 	86.9964 	-0.572852 	293.497 	360.997 	284.882 	539.729 	
2.77214 	-0.00284497 	-0.531687 	-0.060859 	1.7654 	0.0155304 	-3.12515 	90.1469 	88.0874 	-0.572852 	294.699 	360.997 	284.882 	539.729 	
2.87558 	-0.00282016 	-0.531729 	-0.0537036 	1.7654 	0.0157279 	-3.12519 	90.1469 	89.0985 	-0.572852 	295.703 	360.997 	284.882 	539.729 	
2.97849 	-0.00279633 	-0.531648 	-0.0465483 	1.7654 	0.0159247 	-3.12523 	90.1469 	90.0788 	-0.572852 	296.703 	360.997 	284.882 	539.729 	
3.08163 	-0.0027735 	-0.531441 	-0.0393957 	1.7654 	0.0161208 	-3.12527 	90.1469 	91.1981 	-0.572852 	297.8 	360.997 	284.882 	539.73 	
3.18968 	-0.00275167 	-0.531109 	-0.0322478 	1.7654 	0.016316 	-3.12532 	90.1469 	92.1807 	-0.572852 	298.798 	360.997 	284.882 	539.73 	
3.2927 	-0.00273085 	-0.530653 	-0.0251066 	1.7654 	0.0165104 	-3.12537 	90.1469 	93.305 	-0.572852 	299.896 	360.997 	284.882 	539.73 	
3.39563 	-0.00271104 	-0.530072 	-0.0179747 	1.7654 	0.0167038 	-3.12543 	90.1469 	94.2792 	-0.572852 	300.901 	360.997 	284.882 	539.73 	
3.49874 	-0.00269225 	-0.529366 	-0.0108539 	1.7654 	0.0168963 	-3.12548 	90.1469 	95.292 	-0.572852 	301.9 	360.997 	284.882 	539.73 	
3.60187 	-0.00267448 	-0.528537 	-0.00374655 	1.7654 	0.0170877 	-3.12555 	90.1469 	96.3818 	-0.572852 	302.992 	360.997 	284.882 	539.73 	
3.70498 	-0.00265775 	-0.527584 	0.00334535 	1.76541 	0.017278 	-3.12561 	90.1469 	97.3901 	-0.572852 	303.992 	360.997 	284.882 	539.73 	
3.80809 	-0.00264204 	-0.526507 	0.0104195 	1.76541 	0.0174672 	-3.12568 	90.1469 	98.3892 	-0.572852 	305.002 	360.997 	284.882 	539.73 	
3.91123 	-0.00262738 	-0.525306 	0.0174737 	1.76541 	0.0176551 	-3.12575 	90.1469 	99.4907 	-0.572852 	306.006 	360.997 	284.882 	539.73 	
4.01408 	-0.00261377 	-0.523983 	0.0245059 	1.76541 	0.0178418 	-3.12582 	90.1469 	100.499 	-0.572852 	307.097 	360.997 	284.882 	539.73 	
4.11724 	-0.0026012 	-0.522537 	0.031514 	1.76541 	0.0180271 	-3.1259 	90.1469 	101.49 	-0.572852 	308.091 	360.997 	284.882 	539.73 	
4.22033 	-0.00258969 	-0.520969 	0.0384958 	1.76541 	0.0182111 	-3.12598 	90.1469 	102.506 	-0.572852 	309.096 	360.997 	284.882 	539.73 	
4.32341 	-0.00257923 	-0.51928 	0.045449 	1.76542 	0.0183936 	-3.12607 	90.1469 	103.597 	-0.572852 	310.206 	360.997 	284.882 	539.73 	
4.42645 	-0.00256983 	-0.517469 	0.0523718 	1.76542 	0.0185745 	-3.12616 	90.1469 	104.612 	-0.572852 	311.197 	360.997 	284.882 	539.73 	
4.52977 	-0.00256149 	-0.515538 	0.059262 	1.76542 	0.018754 	-3.12625 	90.1469 	105.597 	-0.572852 	312.201 	360.997 	284.882 	539.73 	
4.63263 	-0.00255422 	-0.513487 	0.0661174 	1.76542 	0.0189318 	-3.12634 	90.1469 	106.716 	-0.572852 	313.297 	360.997 	284.882 	539.73 	
4.73557 	-0.00254801 	-0.511317 	0.072936 	1.76542 	0.019108 	-3.12644 	90.1469 	107.706 	-0.572852 	314.304 	360.997 	284.882 	539.73 	
4.83885 	-0.00254288 	-0.509028 	0.0797155 	1.76543 	0.0192824 	-3.12654 	90.1469 	108.72 	-0.572852 	315.303 	360.997 	284.882 	539.73 	
4.94198 	-0.00253881 	-0.506621 	0.0864542 	1.76543 	0.0194551 	-3.12664 	90.1469 	109.808 	-0.572852 	316.303 	360.997 	284.882 	539.73 	
5.04532 	-0.00253582 	-0.504096 	0.0931498 	1.76543 	0.019626 	-3.12675 	90.1469 	110.812 	-0.572852 	317.133 	360.997 	284.882 	539.73 	
5.15054 	-0.00253903 	-0.506245 	0.101605 	1.75089 	0.0196505 	-3.12678 	90.1469 	111.829 	-0.572852 	317.273 	360.997 	284.882 	539.73 	
5.25479 	-0.00254315 	-0.509202 	0.110467 	1.73344 	0.0196464 	-3.12681 	90.1469 	112.918 	-0.572852 	317.304 	360.997 	284.882 	539.73 	
5.35819 	-0.00254707 	-0.512005 	0.119378 	1.71599 	0.0196427 	-3.12683 	90.1469 	113.928 	-0.572852 	317.306 	360.997 	284.882 	539.73 	
5.46295 	-0.00255076 	-0.514652 	0.128338 	1.69853 	0.0196393 	-3.12686 	90.1469 	115.02 	-0.572852 	317.31 	360.997 	284.882 	539.73 	
5.56704 	-0.00255743 	-0.519429 	0.146207 	1.66398 	0.019634 	-3.1269 	90.1469 	116.025 	-0.572852 	317.315 	360.997 	284.882 	539.73 	
5.59281 	-0.00255743 	-0.519429 	0.146207 	1.66398 	0.019634 	-3.1269 	90.1469 	116.285 	-0.572852 	317.315 	360.997 	284.882 	539.73 	
5.69613 	-0.00256095 	-0.52232 	0.14813 	1.65418 	0.0195478 	-3.12686 	90.1469 	116.552 	-0.572852 	317.075 	360.997 	284.882 	539.73 	
5.79927 	-0.00256847 	-0.52779 	0.150929 	1.63672 	0.0193745 	-3.12678 	90.1469 	116.589 	-0.572852 	316.24 	360.997 	284.882 	539.73 	
5.90221 	-0.00257715 	-0.533209 	0.153824 	1.61927 	0.0191998 	-3.12671 	90.1469 	116.589 	-0.572852 	315.272 	360.997 	284.882 	539.73 	
6.00541 	-0.002587 	-0.538578 	0.156812 	1.60181 	0.0190238 	-3.12663 	90.1469 	116.59 	-0.572852 	314.182 	360.997 	284.882 	539.73 	
6.10856 	-0.00259801 	-0.543893 	0.159894 	1.58436 	0.0188466 	-3.12656 	90.1469 	116.592 	-0.572852 	313.192 	360.997 	284.882 	539.73 	
6.21122 	-0.00261017 	-0.549154 	0.163068 	1.5669 	0.0186681 	-3.12649 	90.1469 	116.592 	-0.572852 	312.198 	360.997 	284.882 	539.73 	
6.31461 	-0.00262349 	-0.554358 	0.166333 	1.54945 	0.0184884 	-3.12643 	90.1469 	116.592 	-0.572852 	311.096 	360.997 	284.882 	539.73 	
6.41786 	-0.00263795 	-0.559505 	0.169689 	1.53199 	0.0183076 	-3.12636 	90.1469 	116.593 	-0.572852 	310.104 	360.997 	284.882 	539.73 	
6.52078 	-0.00265357 	-0.564593 	0.173134 	1.51454 	0.0181258 	-3.1263 	90.1469 	116.592 	-0.572852 	309.1 	360.997 	284.882 	539.73 	
6.62362 	-0.00267032 	-0.569619 	0.176668 	1.49708 	0.017943 	-3.12625 	90.1469 	116.592 	-0.572852 	308.014 	360.997 	284.882 	539.73 	
6.72657 	-0.0026882 	-0.574583 	0.180288 	1.47963 	0.0177592 	-3.1262 	90.1469 	116.592 	-0.572852 	307.013 	360.997 	284.882 	539.73 	
6.8299 	-0.00270722 	-0.579484 	0.183995 	1.46218 	0.0175746 	-3.12615 	90.1469 	116.592 	-0.572852 	306.023 	360.997 	284.882 	539.73 	
6.93315 	-0.00272736 	-0.584318 	0.187786 	1.44472 	0.0173891 	-3.1261 	90.1469 	116.592 	-0.572852 	305.022 	360.997 	284.882 	539.73 	
7.03602 	-0.00274862 	-0.589086 	0.191662 	1.42727 	0.0172028 	-3.12606 	90.1469 	116.592 	-0.572852 	303.922 	360.997 	284.882 	539.73 	
7.13912 	-0.00277098 	-0.593786 	0.19562 	1.40981 	0.0170158 	-3.12602 	90.1469 	116.592 	-0.572852 	302.934 	360.997 	284.882 	539.73 	
7.24207 	-0.00279446 	-0.598415 	0.199659 	1.39236 	0.0168281 	-3.12598 	90.1469 	116.592 	-0.572852 	301.93 	360.997 	284.881 	539.73 	
7.35113 	-0.00281902 	-0.602974 	0.203779 	1.37491 	0.0166399 	-3.12595 	90.1469 	116.592 	-0.572852 	300.835 	360.997 	284.881 	539.73 	
7.45402 	-0.00284468 	-0.60746 	0.207977 	1.35745 	0.0164511 	-3.12592 	90.1469 	116.592 	-0.572852 	299.751 	360.997 	284.881 	539.73 	
7.55725 	-0.00287142 	-0.611872 	0.212253 	1.34 	0.0162618 	-3.12589 	90.1469 	116.592 	-0.572852 	298.752 	360.997 	284.881 	539.73 	
7.66335 	-0.00289924 	-0.616208 	0.216606 	1.32255 	0.016072 	-3.12587 	90.1469 	116.592 	-0.572852 	297.75 	360.997 	284.881 	539.73 	
7.76738 	-0.00292812 	-0.620468 	0.221033 	1.30509 	0.0158819 	-3.12585 	90.1469 	116.592 	-0.572852 	296.649 	360.997 	284.881 	539.73 	
7.87032 	-0.00298903 	-0.628753 	0.230108 	1.27018 	0.0155008 	-3.12582 	90.1469 	116.592 	-0.572852 	295.659 	360.997 	284.881 	539.73 	
7.97329 	-0.00302105 	-0.632775 	0.234752 	1.25273 	0.0153099 	-3.12581 	90.1469 	116.592 	-0.572852 	294.659 	360.997 	284.881 	539.73 	
8.07667 	-0.0030541 	-0.636716 	0.239466 	1.23528 	0.0151189 	-3.1258 	90.1469 	116.592 	-0.572852 	293.563 	360.997 	284.881 	539.73 	
8.17949 	-0.00308817 	-0.640574 	0.244248 	1.21782 	0.0149278 	-3.1258 	90.1469 	116.592 	-0.572852 	292.572 	360.997 	284.881 	539.73 	
8.28293 	-0.00312324 	-0.644348 	0.249097 	1.20037 	0.0147366 	-3.1258 	90.1469 	116.592 	-0.572852 	291.572 	360.997 	284.881 	539.73 	
8.38969 	-0.00315931 	-0.648036 	0.25401 	1.18292 	0.0145455 	-3.1258 	90.1469 	116.592 	-0.572852 	290.472 	360.997 	284.881 	539.73 	
8.49264 	-0.00319637 	-0.651638 	0.258988 	1.16546 	0.0143545 	-3.12581 	90.1469 	116.591 	-0.572852 	289.484 	360.997 	284.881 	539.73 	
8.59572 	-0.0032344 	-0.655153 	0.264027 	1.14801 	0.0141636 	-3.12582 	90.1469 	116.591 	-0.572852 	288.387 	360.997 	284.881 	539.73 	
8.6987 	-0.00326945 	-0.658241 	0.268614 	1.1323 	0.013992 	-3.12583 	90.1469 	116.591 	-0.572852 	287.385 	360.997 	284.881 	539.73 	
8.80183 	-0.00331334 	-0.661916 	0.274286 	1.11311 	0.0137825 	-3.12585 	90.1469 	116.591 	-0.572852 	286.389 	360.997 	284.881 	539.73 	
8.90483 	-0.0033501 	-0.664842 	0.278978 	1.0974 	0.0136114 	-3.12587 	90.1469 	116.591 	-0.572852 	285.289 	360.997 	284.881 	539.73 	
9.00791 	-0.00339604 	-0.668317 	0.284775 	1.0782 	0.0134027 	-3.12589 	90.1469 	116.591 	-0.572852 	284.297 	360.997 	284.881 	539.73 	
9.11131 	-0.00343445 	-0.671078 	0.289566 	1.06249 	0.0132324 	-3.12592 	90.1469 	116.591 	-0.572852 	283.295 	360.997 	284.881 	539.73 	
9.21419 	-0.00347798 	-0.674056 	0.29494 	1.04504 	0.0130435 	-3.12595 	90.1469 	116.591 	-0.572852 	282.304 	360.997 	284.881 	539.73 	
9.31735 	-0.00352241 	-0.67694 	0.300365 	1.02759 	0.0128553 	-3.12598 	90.1469 	116.591 	-0.572852 	281.204 	360.997 	284.881 	539.73 	
9.42001 	-0.00356771 	-0.679729 	0.30584 	1.01013 	0.0126676 	-3.12602 	90.1469 	116.59 	-0.572852 	280.21 	360.997 	284.881 	539.73 	
9.52346 	-0.00361387 	-0.682421 	0.311362 	0.99268 	0.0124806 	-3.12606 	90.1469 	116.59 	-0.572852 	279.212 	360.997 	284.881 	539.73 	
9.62629 	-0.00366088 	-0.685017 	0.316931 	0.975227 	0.0122943 	-3.1261 	90.1469 	116.59 	-0.572852 	278.118 	360.997 	284.881 	539.73 	
9.72956 	-0.00370872 	-0.687516 	0.322544 	0.957775 	0.0121088 	-3.12615 	90.1469 	116.59 	-0.572852 	277.125 	360.997 	284.881 	539.73 	
9.83248 	-0.00375738 	-0.689916 	0.3282 	0.940322 	0.0119241 	-3.12619 	90.1469 	116.59 	-0.572852 	276.128 	360.997 	284.881 	539.73 	
9.93592 	-0.00381184 	-0.692441 	0.334468 	0.921124 	0.0117219 	-3.12625 	90.1469 	116.589 	-0.572852 	275.032 	360.997 	284.881 	539.73 	
10.0387 	-0.00386217 	-0.694633 	0.340209 	0.903671 	0.0115392 	-3.12631 	90.1469 	116.589 	-0.572852 	274.038 	360.997 	284.881 	539.73 	
10.1418 	-0.00390813 	-0.696519 	0.345406 	0.887964 	0.0113755 	-3.12636 	90.1469 	116.589 	-0.572852 	273.037 	360.997 	284.881 	539.73 	
10.245 	-0.00395991 	-0.698519 	0.351216 	0.870511 	0.0111947 	-3.12642 	90.1469 	116.589 	-0.572852 	272.035 	360.997 	284.881 	539.73 	
10.3519 	-0.00401773 	-0.700601 	0.357645 	0.851313 	0.0109971 	-3.1265 	90.1469 	116.589 	-0.572852 	270.942 	360.997 	284.881 	539.73 	
10.4547 	-0.00407105 	-0.702386 	0.363524 	0.833861 	0.0108187 	-3.12656 	90.1469 	116.588 	-0.572852 	269.939 	360.997 	284.881 	539.73 	
10.5577 	-0.00411965 	-0.703905 	0.368841 	0.818154 	0.0106592 	-3.12663 	90.1469 	116.588 	-0.572852 	268.858 	360.997 	284.881 	539.73 	
10.6627 	-0.00417981 	-0.705648 	0.375371 	0.798956 	0.0104656 	-3.12671 	90.1469 	116.588 	-0.572852 	267.86 	360.997 	284.881 	539.73 	
10.7688 	-0.00428563 	-0.708362 	0.386724 	0.765796 	0.0101351 	-3.12686 	90.1469 	116.574 	-0.572852 	266.773 	360.997 	284.881 	539.73 	
10.872 	-0.00434226 	-0.709638 	0.392734 	0.748344 	0.00996323 	-3.12694 	90.1468 	116.572 	-0.572852 	265.777 	360.997 	284.881 	539.73 	
10.9751 	-0.00439952 	-0.71081 	0.398765 	0.730891 	0.00979281 	-3.12703 	90.1469 	116.637 	-0.572852 	264.768 	360.997 	284.89 	539.73 	
11.0781 	-0.00445739 	-0.711876 	0.404816 	0.713439 	0.00962393 	-3.12712 	90.1468 	116.627 	-0.572949 	263.664 	360.997 	284.885 	539.73 	
11.1814 	-0.00451585 	-0.712836 	0.410884 	0.695986 	0.00945664 	-3.12721 	90.1465 	116.567 	-0.573047 	262.7 	360.997 	284.88 	539.73 	
11.2893 	-0.00457488 	-0.713691 	0.416968 	0.678534 	0.009291 	-3.12731 	90.1466 	116.567 	-0.573047 	261.687 	360.997 	284.877 	539.73 	
11.3923 	-0.00463446 	-0.714439 	0.423066 	0.661082 	0.00912704 	-3.12741 	90.1466 	116.609 	-0.573047 	260.572 	360.997 	284.883 	539.73 	
11.4955 	-0.00469459 	-0.71508 	0.429177 	0.643629 	0.00896482 	-3.12751 	90.1465 	116.571 	-0.573047 	259.684 	360.997 	284.881 	539.73 	
11.5984 	-0.00475523 	-0.715615 	0.435297 	0.626177 	0.00880439 	-3.12761 	90.1467 	116.568 	-0.573047 	258.495 	360.997 	284.88 	539.73 	
11.7015 	-0.00481637 	-0.716043 	0.441426 	0.608724 	0.00864579 	-3.12772 	90.1466 	116.579 	-0.573047 	257.472 	360.997 	284.882 	539.73 	
11.805 	-0.00487799 	-0.716363 	0.447562 	0.591272 	0.00848909 	-3.12783 	90.1466 	116.569 	-0.573047 	256.5 	360.997 	284.881 	539.73 	
11.9077 	-0.00494007 	-0.716577 	0.453702 	0.573819 	0.00833432 	-3.12794 	90.1467 	116.567 	-0.573047 	255.405 	360.997 	284.881 	539.73 	
12.0107 	-0.0050026 	-0.716683 	0.459845 	0.556367 	0.00818153 	-3.12806 	90.1466 	116.568 	-0.573047 	254.388 	360.997 	284.881 	539.73 	
12.1139 	-0.00506555 	-0.716683 	0.465989 	0.538915 	0.00803076 	-3.12817 	90.1466 	116.568 	-0.573047 	253.4 	360.997 	284.881 	539.73 	
12.2169 	-0.00512891 	-0.716575 	0.472132 	0.521462 	0.00788207 	-3.12829 	90.1466 	116.567 	-0.573047 	252.31 	360.997 	284.881 	539.73 	
12.3198 	-0.00519265 	-0.716359 	0.478272 	0.50401 	0.0077355 	-3.12842 	90.1466 	116.567 	-0.573047 	251.317 	360.997 	284.881 	539.73 	
12.423 	-0.00525676 	-0.716037 	0.484407 	0.486558 	0.00759109 	-3.12854 	90.1466 	116.568 	-0.573047 	250.308 	360.997 	284.881 	539.73 	
12.526 	-0.00532121 	-0.715607 	0.490536 	0.469106 	0.00744889 	-3.12867 	90.1466 	116.568 	-0.573047 	249.305 	360.997 	284.881 	539.73 	
12.6291 	-0.00539249 	-0.715012 	0.497268 	0.449908 	0.00729508 	-3.12881 	90.1466 	116.567 	-0.573047 	248.203 	360.997 	284.881 	539.73 	
12.7321 	-0.00545108 	-0.714428 	0.502766 	0.434201 	0.00717129 	-3.12893 	90.1466 	116.567 	-0.573047 	247.206 	360.997 	284.881 	539.73 	
12.8351 	-0.00551646 	-0.713678 	0.508864 	0.416748 	0.00703597 	-3.12907 	90.1466 	116.567 	-0.573047 	246.212 	360.997 	284.881 	539.73 	
12.9381 	-0.00558211 	-0.712822 	0.514948 	0.399296 	0.00690303 	-3.1292 	90.1466 	116.567 	-0.573047 	245.109 	360.997 	284.881 	539.73 	
13.0416 	-0.005648 	-0.71186 	0.521016 	0.381843 	0.0067725 	-3.12934 	90.1466 	116.567 	-0.573047 	244.113 	360.997 	284.882 	539.73 	
13.1445 	-0.00571412 	-0.710792 	0.527067 	0.364391 	0.00664443 	-3.12949 	90.1466 	116.567 	-0.573047 	243.122 	360.997 	284.882 	539.73 	
13.2517 	-0.00578045 	-0.709619 	0.533097 	0.346939 	0.00651886 	-3.12963 	90.1466 	116.567 	-0.573047 	242.029 	360.997 	284.882 	539.73 	
13.3544 	-0.00584697 	-0.708341 	0.539107 	0.329487 	0.00639581 	-3.12978 	90.1466 	116.567 	-0.573047 	241.03 	360.997 	284.882 	539.73 	
13.4583 	-0.00591365 	-0.706958 	0.545093 	0.312034 	0.00627535 	-3.12992 	90.1466 	116.567 	-0.573047 	239.922 	360.997 	284.882 	539.73 	
13.5633 	-0.00598048 	-0.705471 	0.551054 	0.294582 	0.00615748 	-3.13007 	90.1466 	116.567 	-0.573047 	238.93 	360.997 	284.882 	539.73 	
13.6673 	-0.00604744 	-0.703879 	0.556988 	0.27713 	0.00604227 	-3.13023 	90.1466 	116.567 	-0.573047 	237.835 	360.997 	284.882 	539.73 	
13.7692 	-0.00618165 	-0.700388 	0.568769 	0.242225 	0.00581991 	-3.13054 	90.1466 	116.567 	-0.573047 	236.828 	360.997 	284.882 	539.73 	
13.8713 	-0.00624886 	-0.698488 	0.574612 	0.224772 	0.00571283 	-3.1307 	90.1466 	116.567 	-0.573047 	235.828 	360.997 	284.882 	539.73 	
13.9733 	-0.00631612 	-0.696487 	0.58042 	0.20732 	0.00560854 	-3.13086 	90.1466 	116.567 	-0.573047 	234.826 	360.997 	284.883 	539.73 	
14.0756 	-0.0063834 	-0.694385 	0.586193 	0.189868 	0.00550705 	-3.13102 	90.1466 	116.567 	-0.573047 	233.833 	360.997 	284.883 	539.73 	
14.1788 	-0.00645069 	-0.692182 	0.591929 	0.172415 	0.00540841 	-3.13118 	90.1466 	116.567 	-0.573047 	232.737 	360.997 	284.883 	539.73 	
14.2815 	-0.00651796 	-0.689879 	0.597625 	0.154963 	0.00531264 	-3.13135 	90.1466 	116.567 	-0.573047 	231.737 	360.997 	284.883 	539.73 	
14.3886 	-0.00658519 	-0.687478 	0.60328 	0.13751 	0.00521977 	-3.13151 	90.1466 	116.567 	-0.573047 	230.635 	360.997 	284.883 	539.73 	
14.4921 	-0.00665236 	-0.684978 	0.608892 	0.120058 	0.00512983 	-3.13168 	90.1466 	116.567 	-0.573047 	229.638 	360.997 	284.883 	539.73 	
14.5949 	-0.00671946 	-0.68238 	0.61446 	0.102605 	0.00504284 	-3.13185 	90.1466 	116.567 	-0.573047 	228.648 	360.997 	284.883 	539.73 	
14.6983 	-0.00678646 	-0.679686 	0.619981 	0.0851528 	0.00495884 	-3.13203 	90.1466 	116.567 	-0.573047 	227.539 	360.997 	284.883 	539.73 	
14.8013 	-0.00685333 	-0.676896 	0.625455 	0.0677003 	0.00487786 	-3.1322 	90.1466 	116.567 	-0.573047 	226.545 	360.997 	284.884 	539.73 	
14.9044 	-0.00692007 	-0.67401 	0.630879 	0.0502478 	0.0047999 	-3.13237 	90.1466 	116.567 	-0.573047 	225.535 	360.997 	284.884 	539.73 	
15.0073 	-0.00698665 	-0.671031 	0.636252 	0.0327953 	0.004725 	-3.13255 	90.1466 	116.567 	-0.573047 	224.538 	360.997 	284.884 	539.73 	
15.1102 	-0.00705305 	-0.667958 	0.641572 	0.0153428 	0.00465318 	-3.13273 	90.1466 	116.567 	-0.573047 	223.444 	360.997 	284.884 	539.73 	
15.2136 	-0.00711925 	-0.664792 	0.646837 	-0.00210949 	0.00458447 	-3.1329 	90.1466 	116.567 	-0.573047 	222.437 	360.997 	284.884 	539.73 	
15.3163 	-0.00718523 	-0.661536 	0.652047 	-0.0195619 	0.00451888 	-3.13308 	90.1466 	116.567 	-0.573047 	221.433 	360.997 	284.884 	539.73 	
15.4194 	-0.00725096 	-0.658188 	0.657199 	-0.0370146 	0.00445643 	-3.13326 	90.1466 	116.567 	-0.573047 	220.337 	360.997 	284.884 	539.73 	
15.5229 	-0.00731644 	-0.654752 	0.662292 	-0.054467 	0.00439714 	-3.13345 	90.1466 	116.567 	-0.573047 	219.337 	360.997 	284.884 	539.73 	
15.6258 	-0.00738164 	-0.651227 	0.667324 	-0.0719196 	0.00434103 	-3.13363 	90.1466 	116.567 	-0.573047 	218.335 	360.997 	284.885 	539.73 	
15.7288 	-0.00744653 	-0.647614 	0.672294 	-0.0893722 	0.00428813 	-3.13381 	90.1466 	116.567 	-0.573047 	217.244 	360.997 	284.885 	539.73 	
15.8319 	-0.00751111 	-0.643916 	0.677199 	-0.106825 	0.00423843 	-3.134 	90.1466 	116.567 	-0.573047 	216.24 	360.997 	284.885 	539.73 	
15.935 	-0.00757534 	-0.640132 	0.68204 	-0.124277 	0.00419196 	-3.13418 	90.1466 	116.567 	-0.573047 	215.24 	360.997 	284.885 	539.73 	
16.038 	-0.00763922 	-0.636265 	0.686814 	-0.14173 	0.00414874 	-3.13437 	90.1466 	116.567 	-0.573047 	214.242 	360.997 	284.885 	539.73 	
16.1411 	-0.00770271 	-0.632315 	0.691519 	-0.159182 	0.00410877 	-3.13456 	90.1466 	116.567 	-0.573047 	213.149 	360.997 	284.885 	539.73 	
16.2448 	-0.00776581 	-0.628283 	0.696155 	-0.176635 	0.00407207 	-3.13474 	90.1466 	116.566 	-0.573047 	212.136 	360.997 	284.885 	539.73 	
16.351 	-0.00782849 	-0.624171 	0.70072 	-0.194087 	0.00403865 	-3.13493 	90.1466 	116.567 	-0.573047 	211.037 	360.997 	284.886 	539.73 	
16.4552 	-0.00789074 	-0.61998 	0.705213 	-0.21154 	0.00400852 	-3.13512 	90.1466 	116.567 	-0.573047 	210.036 	360.997 	284.886 	539.73 	
16.5569 	-0.00795253 	-0.615711 	0.709631 	-0.228992 	0.00398169 	-3.13531 	90.1466 	116.567 	-0.573047 	209.028 	360.997 	284.886 	539.73 	
16.6633 	-0.00801384 	-0.611365 	0.713975 	-0.246445 	0.00395816 	-3.1355 	90.1466 	116.567 	-0.573047 	207.93 	360.997 	284.887 	539.73 	
16.7668 	-0.00807467 	-0.606945 	0.718242 	-0.263898 	0.00393795 	-3.13569 	90.1466 	116.567 	-0.573047 	206.925 	360.997 	284.887 	539.73 	
16.8704 	-0.00813498 	-0.602451 	0.722431 	-0.28135 	0.00392106 	-3.13588 	90.1466 	116.567 	-0.573047 	205.834 	360.997 	284.887 	539.73 	
16.9723 	-0.00825399 	-0.593246 	0.73057 	-0.316255 	0.00389726 	-3.13626 	90.1466 	116.567 	-0.573047 	204.827 	360.997 	284.888 	539.73 	
17.0752 	-0.00831265 	-0.588539 	0.734518 	-0.333708 	0.00389035 	-3.13645 	90.1466 	116.567 	-0.573047 	203.831 	360.997 	284.888 	539.73 	
17.1782 	-0.00837074 	-0.583763 	0.738384 	-0.35116 	0.00388679 	-3.13664 	90.1466 	116.567 	-0.573047 	202.83 	360.997 	284.89 	539.73 	
17.2816 	-0.00842822 	-0.578921 	0.742165 	-0.368613 	0.00388655 	-3.13683 	90.1466 	116.567 	-0.573047 	201.726 	360.997 	284.912 	539.73 	
17.3896 	-0.00848508 	-0.574013 	0.745862 	-0.386066 	0.00388965 	-3.13703 	90.1466 	116.567 	-0.573047 	200.623 	360.997 	284.913 	539.73 	
17.4924 	-0.0085413 	-0.569042 	0.749472 	-0.403518 	0.00389609 	-3.13722 	90.1466 	116.567 	-0.573047 	199.626 	360.997 	284.914 	539.73 	
17.5957 	-0.00859687 	-0.564008 	0.752994 	-0.420971 	0.00390586 	-3.13741 	90.1466 	116.567 	-0.573047 	198.619 	360.997 	284.915 	539.73 	
17.6986 	-0.00865177 	-0.558913 	0.756429 	-0.438423 	0.00391896 	-3.1376 	90.1466 	116.567 	-0.573047 	197.622 	360.997 	284.916 	539.73 	
17.8017 	-0.00870599 	-0.55376 	0.759774 	-0.455876 	0.00393539 	-3.13779 	90.1466 	116.567 	-0.573047 	196.509 	360.997 	284.917 	539.73 	
17.9048 	-0.0087595 	-0.548549 	0.763028 	-0.473328 	0.00395514 	-3.13798 	90.1466 	116.567 	-0.573047 	195.506 	360.997 	284.918 	539.73 	
18.008 	-0.00881229 	-0.543282 	0.766191 	-0.490781 	0.0039782 	-3.13817 	90.1466 	116.567 	-0.573047 	194.513 	360.997 	284.919 	539.73 	
18.1109 	-0.00886434 	-0.53796 	0.769262 	-0.508233 	0.00400457 	-3.13836 	90.1466 	116.567 	-0.573047 	193.411 	360.997 	284.92 	539.73 	
18.2139 	-0.00891564 	-0.532586 	0.772239 	-0.525686 	0.00403424 	-3.13855 	90.1466 	116.567 	-0.573047 	192.417 	360.997 	284.921 	539.73 	
18.3169 	-0.00896617 	-0.52716 	0.775122 	-0.543139 	0.0040672 	-3.13874 	90.1466 	116.567 	-0.573047 	191.414 	360.997 	284.923 	539.73 	
18.4199 	-0.00901592 	-0.521685 	0.77791 	-0.560591 	0.00410344 	-3.13892 	90.1466 	116.567 	-0.573047 	190.311 	360.997 	284.925 	539.73 	
18.5233 	-0.00906487 	-0.516162 	0.780602 	-0.578044 	0.00414296 	-3.13911 	90.1466 	116.567 	-0.573047 	189.301 	360.997 	284.933 	539.73 	
18.6261 	-0.00911301 	-0.510593 	0.783197 	-0.595496 	0.00418573 	-3.1393 	90.1466 	116.567 	-0.573047 	188.306 	360.997 	284.939 	539.73 	
18.7291 	-0.00916032 	-0.50498 	0.785695 	-0.612949 	0.00423174 	-3.13948 	90.1466 	116.567 	-0.573047 	187.29 	360.997 	284.944 	539.73 	
18.8325 	-0.00920679 	-0.499324 	0.788094 	-0.630401 	0.00428098 	-3.13967 	90.1466 	116.567 	-0.573047 	186.198 	360.997 	284.947 	539.73 	
18.9355 	-0.0092524 	-0.493626 	0.790394 	-0.647854 	0.00433345 	-3.13985 	90.1466 	116.567 	-0.573047 	185.193 	360.997 	284.948 	539.73 	
19.0384 	-0.00929714 	-0.48789 	0.792595 	-0.665306 	0.0043891 	-3.14003 	90.1466 	116.567 	-0.573047 	184.184 	360.997 	284.949 	539.73 	
19.1417 	-0.009341 	-0.482116 	0.794694 	-0.682759 	0.00444795 	-3.14021 	90.1466 	116.567 	-0.573047 	183.081 	360.997 	284.95 	539.73 	
19.2451 	-0.00938396 	-0.476306 	0.796693 	-0.700211 	0.00450996 	-3.1404 	90.1466 	116.567 	-0.573047 	182.077 	360.997 	284.951 	539.73 	
19.3516 	-0.00942601 	-0.470462 	0.79859 	-0.717664 	0.00457511 	-3.14058 	90.1466 	116.567 	-0.573047 	180.981 	360.997 	284.953 	539.73 	
19.4546 	-0.00946713 	-0.464586 	0.800385 	-0.735116 	0.00464339 	-3.14075 	90.1466 	116.567 	-0.573047 	179.973 	360.997 	284.954 	539.73 	
19.5578 	-0.00950732 	-0.45868 	0.802077 	-0.752569 	0.00471477 	-3.14093 	90.1466 	116.567 	-0.573047 	178.977 	360.997 	284.96 	539.73 	
19.6638 	-0.00958485 	-0.446783 	0.805151 	-0.787474 	0.00486677 	-3.14128 	90.1466 	116.567 	-0.573047 	177.981 	360.997 	284.98 	539.73 	
19.7684 	-0.00962216 	-0.440796 	0.806531 	-0.804926 	0.00494734 	-3.14146 	90.1466 	116.567 	-0.573047 	176.874 	360.997 	284.99 	539.73 	
19.8716 	-0.00965848 	-0.434785 	0.807807 	-0.822379 	0.00503092 	3.14156 	90.1466 	116.567 	-0.573047 	175.762 	360.997 	284.994 	539.73 	
19.9749 	-0.00969382 	-0.428754 	0.808978 	-0.839831 	0.00511749 	3.14139 	90.1466 	116.567 	-0.573047 	174.789 	360.997 	284.995 	539.73 	
20.078 	-0.00972815 	-0.422703 	0.810043 	-0.857284 	0.00520702 	3.14122 	90.1466 	116.567 	-0.573047 	173.757 	360.997 	284.997 	539.73 	
20.1809 	-0.00976146 	-0.416634 	0.811002 	-0.874736 	0.00529948 	3.14105 	90.1466 	116.567 	-0.573047 	172.65 	360.997 	284.997 	539.73 	
20.2888 	-0.00979375 	-0.41055 	0.811856 	-0.892188 	0.00539484 	3.14089 	90.1466 	116.567 	-0.573047 	171.652 	360.997 	284.998 	539.73 	
20.3919 	-0.009825 	-0.404451 	0.812603 	-0.909641 	0.00549309 	3.14072 	90.1466 	116.567 	-0.573047 	170.539 	360.997 	284.998 	539.73 	
20.4951 	-0.00985521 	-0.398341 	0.813244 	-0.927093 	0.00559418 	3.14056 	90.1466 	116.567 	-0.573047 	169.541 	360.997 	284.999 	539.73 	
20.598 	-0.00988436 	-0.39222 	0.813777 	-0.944546 	0.00569808 	3.1404 	90.1466 	116.567 	-0.573047 	168.544 	360.997 	285 	539.73 	
20.7013 	-0.00991245 	-0.38609 	0.814204 	-0.961998 	0.00580477 	3.14024 	90.1466 	116.567 	-0.573047 	167.438 	360.997 	285 	539.73 	
20.8043 	-0.00993947 	-0.379955 	0.814524 	-0.979451 	0.00591421 	3.14008 	90.1466 	116.567 	-0.573047 	166.426 	360.997 	285.001 	539.73 	
20.9074 	-0.00996541 	-0.373814 	0.814737 	-0.996903 	0.00602637 	3.13993 	90.1466 	116.567 	-0.573047 	165.429 	360.997 	285.002 	539.73 	
21.0106 	-0.00999026 	-0.367671 	0.814843 	-1.01436 	0.00614122 	3.13978 	90.1466 	116.567 	-0.573047 	164.428 	360.997 	285.003 	539.73 	
21.1135 	-0.010014 	-0.361527 	0.814841 	-1.03181 	0.00625871 	3.13963 	90.1466 	116.567 	-0.573047 	163.325 	360.997 	285.004 	539.73 	
21.2165 	-0.0100367 	-0.355384 	0.814732 	-1.04926 	0.00637882 	3.13948 	90.1466 	116.567 	-0.573047 	162.315 	360.997 	285.005 	539.73 	
21.3196 	-0.0100582 	-0.349243 	0.814516 	-1.06671 	0.0065015 	3.13933 	90.1466 	116.567 	-0.573047 	161.312 	360.997 	285.007 	539.73 	
21.4226 	-0.0100787 	-0.343108 	0.814193 	-1.08416 	0.00662672 	3.13919 	90.1466 	116.567 	-0.573145 	160.205 	360.997 	285.035 	539.73 	
21.526 	-0.010098 	-0.336979 	0.813762 	-1.10162 	0.00675445 	3.13904 	90.1466 	116.567 	-0.573145 	159.202 	360.997 	285.048 	539.73 	
21.6287 	-0.0101161 	-0.330858 	0.813225 	-1.11907 	0.00688463 	3.1389 	90.1466 	116.567 	-0.573145 	158.193 	360.997 	285.053 	539.73 	
21.7319 	-0.0101332 	-0.324748 	0.812581 	-1.13652 	0.00701724 	3.13877 	90.1466 	116.567 	-0.573145 	157.098 	360.997 	285.056 	539.73 	
21.8348 	-0.0101491 	-0.318649 	0.811831 	-1.15397 	0.00715223 	3.13863 	90.1466 	116.568 	-0.573145 	156.094 	360.997 	285.057 	539.73 	
21.9381 	-0.0101639 	-0.312565 	0.810974 	-1.17143 	0.00728956 	3.1385 	90.1466 	116.568 	-0.573145 	155.086 	360.997 	285.059 	539.73 	
22.041 	-0.0101775 	-0.306497 	0.810011 	-1.18888 	0.00742919 	3.13837 	90.1466 	116.568 	-0.573145 	154.08 	360.997 	285.06 	539.73 	
22.1446 	-0.0101899 	-0.300447 	0.808943 	-1.20633 	0.00757108 	3.13824 	90.1466 	116.568 	-0.573145 	152.976 	360.997 	285.061 	539.73 	
22.2511 	-0.0102012 	-0.294416 	0.807769 	-1.22378 	0.00771518 	3.13811 	90.1466 	116.568 	-0.573145 	151.98 	360.997 	285.061 	539.73 	
22.354 	-0.0102114 	-0.288406 	0.80649 	-1.24124 	0.00786145 	3.13799 	90.1466 	116.568 	-0.573145 	150.874 	360.997 	285.063 	539.73 	
22.4568 	-0.0102204 	-0.28242 	0.805106 	-1.25869 	0.00800985 	3.13787 	90.1466 	116.568 	-0.573145 	149.869 	360.997 	285.065 	539.73 	
22.5618 	-0.0102282 	-0.276458 	0.803618 	-1.27614 	0.00816033 	3.13775 	90.1466 	116.568 	-0.573145 	148.762 	360.997 	285.066 	539.73 	
22.665 	-0.0102349 	-0.270524 	0.802026 	-1.29359 	0.00831284 	3.13764 	90.1466 	116.568 	-0.573145 	147.762 	360.997 	285.069 	539.73 	
22.7688 	-0.0102403 	-0.264618 	0.800331 	-1.31105 	0.00846734 	3.13752 	90.1466 	116.568 	-0.573145 	146.754 	360.997 	285.074 	539.73 	
22.8713 	-0.0102478 	-0.2529 	0.796633 	-1.34595 	0.0087821 	3.13731 	90.1466 	116.568 	-0.573145 	145.751 	360.997 	285.082 	539.73 	
22.9738 	-0.0102498 	-0.247091 	0.794631 	-1.3634 	0.00894228 	3.1372 	90.1466 	116.568 	-0.573145 	144.644 	360.997 	285.086 	539.73 	
23.0765 	-0.0102505 	-0.241318 	0.792528 	-1.38085 	0.00910425 	3.1371 	90.1466 	116.568 	-0.573145 	143.646 	360.997 	285.088 	539.73 	
23.1792 	-0.0102502 	-0.235583 	0.790324 	-1.39831 	0.00926797 	3.137 	90.1466 	116.568 	-0.573145 	142.638 	360.997 	285.088 	539.73 	
23.2826 	-0.0102486 	-0.229887 	0.788021 	-1.41576 	0.00943339 	3.13691 	90.1466 	116.568 	-0.573145 	141.528 	360.997 	285.089 	539.73 	
23.3893 	-0.0102459 	-0.224231 	0.785619 	-1.43321 	0.00960045 	3.13681 	90.1466 	116.569 	-0.573145 	140.521 	360.997 	285.089 	539.73 	
23.4926 	-0.010242 	-0.218619 	0.783118 	-1.45066 	0.00976911 	3.13672 	90.1466 	116.569 	-0.573145 	139.425 	360.997 	285.089 	539.73 	
23.5957 	-0.0102369 	-0.213051 	0.78052 	-1.46812 	0.00993931 	3.13664 	90.1466 	116.569 	-0.573145 	138.422 	360.997 	285.089 	539.73 	
23.6986 	-0.0102307 	-0.20753 	0.777825 	-1.48557 	0.010111 	3.13655 	90.1466 	116.569 	-0.573145 	137.414 	360.997 	285.09 	539.73 	
23.8016 	-0.0102232 	-0.202056 	0.775034 	-1.50302 	0.0102841 	3.13647 	90.1466 	116.569 	-0.573145 	136.408 	360.997 	285.09 	539.73 	
23.9046 	-0.0102147 	-0.196632 	0.772148 	-1.52047 	0.0104587 	3.13639 	90.1466 	116.569 	-0.573145 	135.309 	360.997 	285.09 	539.73 	
24.0081 	-0.0102049 	-0.191259 	0.769168 	-1.53793 	0.0106345 	3.13632 	90.1466 	116.57 	-0.573145 	134.302 	360.997 	285.09 	539.73 	
24.1109 	-0.010194 	-0.185939 	0.766094 	-1.55538 	0.0108117 	3.13625 	90.1466 	116.57 	-0.573145 	133.301 	360.997 	285.09 	539.73 	
24.2139 	-0.0101819 	-0.180673 	0.762928 	-1.57283 	0.01099 	3.13618 	90.1466 	116.58 	-0.573145 	132.188 	360.997 	285.09 	539.73 	
24.3167 	-0.0101687 	-0.175463 	0.759671 	-1.59028 	0.0111695 	3.13611 	90.1466 	116.581 	-0.573145 	131.19 	360.997 	285.09 	539.73 	
24.42 	-0.0101544 	-0.170311 	0.756323 	-1.60774 	0.0113502 	3.13605 	90.1466 	116.583 	-0.573145 	130.184 	360.997 	285.09 	539.73 	
24.5232 	-0.0101389 	-0.165219 	0.752886 	-1.62519 	0.0115319 	3.13599 	90.1466 	116.584 	-0.573145 	129.072 	360.997 	285.091 	539.73 	
24.626 	-0.0101222 	-0.160186 	0.749361 	-1.64264 	0.0117146 	3.13594 	90.1466 	116.585 	-0.573145 	128.078 	360.997 	285.091 	539.73 	
24.7297 	-0.0101044 	-0.155217 	0.745748 	-1.66009 	0.0118983 	3.13588 	90.1466 	116.588 	-0.573145 	127.071 	360.997 	285.091 	539.731 	
24.8322 	-0.0100855 	-0.150312 	0.742049 	-1.67755 	0.0120829 	3.13583 	90.1466 	116.603 	-0.573145 	126.064 	360.997 	285.091 	539.731 	
24.9353 	-0.0100655 	-0.145471 	0.738266 	-1.695 	0.0122682 	3.13579 	90.1466 	116.611 	-0.573145 	124.96 	360.997 	285.091 	539.731 	
25.0382 	-0.0100443 	-0.140698 	0.734398 	-1.71245 	0.0124544 	3.13574 	90.1466 	116.612 	-0.573242 	123.953 	360.997 	285.091 	539.731 	
25.1415 	-0.010022 	-0.135993 	0.730448 	-1.7299 	0.0126413 	3.1357 	90.1466 	116.613 	-0.573242 	122.952 	360.997 	285.091 	539.731 	
25.2448 	-0.00999868 	-0.131357 	0.726416 	-1.74735 	0.0128289 	3.13567 	90.1466 	116.614 	-0.573242 	121.856 	360.997 	285.091 	539.731 	
25.3517 	-0.00997421 	-0.126792 	0.722304 	-1.7648 	0.0130171 	3.13563 	90.1466 	116.615 	-0.573242 	120.842 	360.997 	285.091 	539.731 	
25.4542 	-0.00994865 	-0.1223 	0.718113 	-1.78225 	0.0132058 	3.1356 	90.1466 	116.617 	-0.573242 	119.744 	360.997 	285.091 	539.731 	
25.5574 	-0.00992201 	-0.117882 	0.713844 	-1.79971 	0.0133951 	3.13558 	90.1466 	116.618 	-0.573242 	118.738 	360.997 	285.091 	539.731 	
25.6639 	-0.00989429 	-0.113539 	0.709498 	-1.81716 	0.0135847 	3.13555 	90.1466 	116.62 	-0.573242 	117.64 	360.997 	285.091 	539.731 	
25.7677 	-0.00986551 	-0.109272 	0.705078 	-1.83461 	0.0137748 	3.13553 	90.1466 	116.621 	-0.573242 	116.639 	360.997 	285.091 	539.731 	
25.8707 	-0.00980792 	-0.101381 	0.696477 	-1.86777 	0.0141368 	3.1355 	90.1466 	116.623 	-0.573242 	115.624 	360.997 	285.091 	539.731 	
25.9734 	-0.00977351 	-0.0970244 	0.691473 	-1.88662 	0.0143429 	3.13549 	90.1466 	116.626 	-0.573242 	114.535 	360.997 	285.091 	539.731 	
26.0004 	-0.00977351 	-0.0970244 	0.691473 	-1.88662 	0.0143429 	3.13549 	90.1466 	116.628 	-0.573242 	114.349 	360.997 	285.091 	539.731 	
26.1038 	-0.00976925 	-0.0941312 	0.690805 	-1.88904 	0.0143943 	3.13538 	90.1466 	116.67 	-0.573242 	113.686 	360.997 	284.847 	539.731 	
26.2069 	-0.00982499 	-0.0917365 	0.69809 	-1.86007 	0.0141843 	3.13496 	90.1466 	116.679 	-0.573242 	113.552 	360.997 	282.987 	539.731 	
26.3099 	-0.00989632 	-0.0892638 	0.706958 	-1.82516 	0.0139138 	3.13447 	90.1466 	116.687 	-0.573242 	113.53 	360.997 	280.998 	539.731 	
26.4131 	-0.00997213 	-0.087102 	0.715907 	-1.79025 	0.0136263 	3.13399 	90.1466 	116.689 	-0.573242 	113.529 	360.997 	279.014 	539.731 	
26.516 	-0.0100606 	-0.0850865 	0.725831 	-1.75184 	0.013291 	3.13347 	90.1466 	116.689 	-0.573242 	113.528 	360.997 	276.826 	539.731 	
26.6192 	-0.0101368 	-0.0837218 	0.734004 	-1.72042 	0.013002 	3.13306 	90.1466 	116.69 	-0.573242 	113.528 	360.997 	274.811 	539.731 	
26.7221 	-0.0102345 	-0.0824035 	0.744044 	-1.68202 	0.0126314 	3.13257 	90.1466 	116.693 	-0.573242 	113.527 	360.997 	272.839 	539.731 	
26.8253 	-0.0103181 	-0.0816122 	0.752292 	-1.65061 	0.0123143 	3.13218 	90.1466 	116.695 	-0.573242 	113.526 	360.997 	270.627 	539.731 	
26.9284 	-0.0104148 	-0.0810374 	0.761481 	-1.6157 	0.0119478 	3.13175 	90.1466 	116.695 	-0.573242 	113.526 	360.997 	268.626 	539.731 	
27.0313 	-0.0105153 	-0.0807836 	0.770683 	-1.58079 	0.0115667 	3.13134 	90.1466 	116.696 	-0.573242 	113.526 	360.997 	266.618 	539.731 	
27.1348 	-0.0106196 	-0.0808511 	0.779889 	-1.54588 	0.0111714 	3.13095 	90.1466 	116.696 	-0.573242 	113.526 	360.997 	264.619 	539.731 	
27.2377 	-0.0107384 	-0.0812964 	0.790006 	-1.50748 	0.010721 	3.13053 	90.1466 	116.696 	-0.573242 	113.526 	360.997 	262.413 	539.731 	
27.3405 	-0.01085 	-0.082038 	0.799182 	-1.47257 	0.0102978 	3.13016 	90.1466 	116.696 	-0.57334 	113.525 	360.997 	260.417 	539.731 	
27.4437 	-0.0109649 	-0.0830995 	0.808327 	-1.43766 	0.00986204 	3.12981 	90.1466 	116.697 	-0.57334 	113.525 	360.997 	258.43 	539.731 	
27.5516 	-0.011071 	-0.0843271 	0.816521 	-1.40625 	0.00945957 	3.1295 	90.1466 	116.697 	-0.57334 	113.525 	360.997 	256.219 	539.731 	
27.6546 	-0.0112041 	-0.0861761 	0.826476 	-1.36785 	0.00895505 	3.12915 	90.1466 	116.697 	-0.57334 	113.525 	360.997 	254.206 	539.731 	
27.7588 	-0.0113281 	-0.0881874 	0.835459 	-1.33295 	0.00848492 	3.12885 	90.1466 	116.697 	-0.57334 	113.525 	360.997 	252.009 	539.731 	
27.8629 	-0.0114548 	-0.0905111 	0.844366 	-1.29804 	0.00800447 	3.12856 	90.1466 	116.697 	-0.57334 	113.526 	360.997 	250.01 	539.731 	
27.9673 	-0.0115711 	-0.092867 	0.852309 	-1.26663 	0.00756371 	3.12831 	90.1466 	116.697 	-0.57334 	113.526 	360.997 	247.803 	539.731 	
28.0697 	-0.0117025 	-0.0957758 	0.861042 	-1.23173 	0.00706524 	3.12806 	90.1466 	116.697 	-0.57334 	113.525 	360.997 	245.796 	539.731 	
28.1726 	-0.0119721 	-0.102499 	0.878178 	-1.16192 	0.00604309 	3.1276 	90.1466 	116.697 	-0.57334 	113.525 	360.997 	243.978 	539.731 	
28.2757 	-0.0121099 	-0.106305 	0.886559 	-1.12702 	0.00552067 	3.1274 	90.1466 	116.697 	-0.57334 	113.526 	360.997 	241.572 	539.731 	
28.3789 	-0.0122495 	-0.1104 	0.894802 	-1.09211 	0.00499152 	3.12722 	90.1466 	116.697 	-0.57334 	113.526 	360.997 	239.585 	539.731 	
28.4819 	-0.0123906 	-0.114782 	0.902898 	-1.05721 	0.00445629 	3.12705 	90.1466 	116.697 	-0.57334 	113.526 	360.997 	237.57 	539.731 	
28.589 	-0.0125332 	-0.119443 	0.910835 	-1.02231 	0.00391563 	3.1269 	90.1466 	116.697 	-0.57334 	113.526 	360.997 	235.379 	539.731 	
28.6921 	-0.0126771 	-0.124378 	0.918605 	-0.987408 	0.00337021 	3.12678 	90.1466 	116.697 	-0.57334 	113.525 	360.997 	233.358 	539.731 	
28.795 	-0.012822 	-0.129582 	0.926198 	-0.952505 	0.00282067 	3.12667 	90.1466 	116.697 	-0.57334 	113.526 	360.997 	231.359 	539.731 	
28.8982 	-0.0129679 	-0.135047 	0.933605 	-0.917604 	0.0022677 	3.12658 	90.1466 	116.697 	-0.57334 	113.526 	360.997 	229.134 	539.731 	
29.0014 	-0.0131144 	-0.140767 	0.940816 	-0.882702 	0.00171197 	3.12651 	90.1466 	116.697 	-0.57334 	113.526 	360.997 	227.137 	539.731 	
29.1043 	-0.0132616 	-0.146736 	0.947824 	-0.8478 	0.00115416 	3.12646 	90.1466 	116.697 	-0.57334 	113.526 	360.997 	225.123 	539.731 	
29.2074 	-0.013409 	-0.152946 	0.954619 	-0.812899 	0.000594938 	3.12643 	90.1466 	116.697 	-0.57334 	113.526 	360.997 	222.923 	539.731 	
29.3103 	-0.0135567 	-0.159389 	0.961192 	-0.777997 	3.49958e-05 	3.12642 	90.1466 	116.697 	-0.57334 	113.526 	360.997 	220.915 	539.731 	
29.4136 	-0.0137044 	-0.166057 	0.967538 	-0.743096 	-0.000524993 	3.12643 	90.1466 	116.697 	-0.57334 	113.526 	360.997 	218.904 	539.731 	
29.5165 	-0.013852 	-0.172943 	0.973646 	-0.708194 	-0.00108434 	3.12646 	90.1466 	116.697 	-0.57334 	113.526 	360.997 	216.693 	539.731 	
29.6196 	-0.0139991 	-0.180038 	0.97951 	-0.673292 	-0.00164237 	3.1265 	90.1466 	116.697 	-0.57334 	113.526 	360.997 	214.685 	539.731 	
29.7227 	-0.0141458 	-0.187334 	0.985123 	-0.638391 	-0.0021984 	3.12657 	90.1466 	116.697 	-0.57334 	113.526 	360.997 	212.685 	539.731 	
29.8257 	-0.0143063 	-0.195579 	0.991 	-0.599999 	-0.00280691 	3.12667 	90.1466 	116.697 	-0.57334 	113.526 	360.997 	210.651 	539.731 	
29.9286 	-0.0144368 	-0.20249 	0.995569 	-0.568587 	-0.00330174 	3.12676 	90.1466 	116.697 	-0.57334 	113.526 	360.997 	208.469 	539.731 	
30.0318 	-0.0145808 	-0.210332 	1.00039 	-0.533685 	-0.00384772 	3.12689 	90.1466 	116.697 	-0.57334 	113.526 	360.997 	206.451 	539.731 	
30.1349 	-0.0147236 	-0.218337 	1.00493 	-0.498783 	-0.00438901 	3.12703 	90.1466 	116.697 	-0.57334 	113.527 	360.997 	204.444 	539.731 	
30.2381 	-0.0148649 	-0.226497 	1.00919 	-0.463881 	-0.00492495 	3.12719 	90.1466 	116.696 	-0.57334 	113.527 	360.997 	202.216 	539.731 	
30.3407 	-0.0150047 	-0.2348 	1.01317 	-0.428978 	-0.0054549 	3.12737 	90.1466 	116.696 	-0.57334 	113.527 	360.997 	200.221 	539.731 	
30.444 	-0.0151427 	-0.243237 	1.01685 	-0.394075 	-0.0059782 	3.12757 	90.1466 	116.696 	-0.57334 	113.527 	360.997 	198.202 	539.731 	
30.5522 	-0.0152788 	-0.251797 	1.02023 	-0.359173 	-0.00649422 	3.12779 	90.1466 	116.696 	-0.57334 	113.528 	360.997 	195.999 	539.731 	
30.655 	-0.0154261 	-0.261343 	1.02361 	-0.320779 	-0.00705268 	3.12805 	90.1466 	116.696 	-0.57334 	113.528 	360.997 	193.999 	539.731 	
30.7577 	-0.0155446 	-0.269245 	1.0261 	-0.289366 	-0.00750191 	3.12828 	90.1466 	116.696 	-0.57334 	113.528 	360.997 	191.784 	539.731 	
30.8631 	-0.0158007 	-0.28706 	1.03073 	-0.219558 	-0.00847305 	3.12884 	90.1466 	116.696 	-0.57334 	113.528 	360.997 	189.786 	539.731 	
30.9667 	-0.0159248 	-0.296079 	1.03257 	-0.184654 	-0.00894344 	3.12914 	90.1466 	116.696 	-0.57334 	113.528 	360.997 	187.566 	539.731 	
31.0686 	-0.016046 	-0.305156 	1.0341 	-0.14975 	-0.00940293 	3.12946 	90.1466 	116.696 	-0.57334 	113.529 	360.997 	185.556 	539.731 	
31.1711 	-0.0161641 	-0.314281 	1.03532 	-0.114845 	-0.00985097 	3.1298 	90.1466 	116.696 	-0.573438 	113.529 	360.997 	183.554 	539.731 	
31.2738 	-0.0162791 	-0.323442 	1.03621 	-0.0799398 	-0.010287 	3.13015 	90.1466 	116.696 	-0.573438 	113.529 	360.997 	181.524 	539.731 	
31.3761 	-0.0163908 	-0.33263 	1.03679 	-0.0450343 	-0.0107105 	3.13052 	90.1466 	116.696 	-0.573438 	113.529 	360.997 	179.508 	539.731 	
31.4792 	-0.0164991 	-0.341832 	1.03704 	-0.0101287 	-0.011121 	3.1309 	90.1466 	116.696 	-0.573438 	113.53 	360.997 	177.293 	539.731 	
31.5825 	-0.0166037 	-0.351037 	1.03697 	0.0247775 	-0.0115179 	3.13129 	90.1466 	116.696 	-0.573438 	113.53 	360.997 	175.295 	539.731 	
31.6894 	-0.0167047 	-0.360234 	1.03658 	0.0596839 	-0.0119008 	3.1317 	90.1466 	116.696 	-0.573438 	113.53 	360.997 	173.077 	539.731 	
31.7923 	-0.0168019 	-0.369412 	1.03587 	0.0945904 	-0.0122691 	3.13212 	90.1466 	116.696 	-0.573438 	113.531 	360.997 	171.07 	539.731 	
31.8954 	-0.0168951 	-0.37856 	1.03484 	0.129497 	-0.0126226 	3.13256 	90.1466 	116.696 	-0.573438 	113.531 	360.997 	169.073 	539.731 	
31.9987 	-0.0169842 	-0.387666 	1.03349 	0.164405 	-0.0129606 	3.133 	90.1466 	116.696 	-0.573438 	113.531 	360.997 	166.854 	539.731 	
32.1017 	-0.0170692 	-0.396719 	1.03182 	0.199312 	-0.0132829 	3.13346 	90.1466 	116.696 	-0.573438 	113.531 	360.997 	164.864 	539.731 	
32.2047 	-0.0171499 	-0.405709 	1.02984 	0.23422 	-0.013589 	3.13393 	90.1466 	116.696 	-0.573438 	113.532 	360.997 	162.851 	539.731 	
32.3078 	-0.0172263 	-0.414625 	1.02755 	0.269128 	-0.0138785 	3.13441 	90.1466 	116.696 	-0.573438 	113.533 	360.996 	160.642 	539.731 	
32.4108 	-0.0172982 	-0.423455 	1.02495 	0.304037 	-0.0141511 	3.1349 	90.1466 	116.695 	-0.573438 	113.534 	360.996 	158.635 	539.731 	
32.5139 	-0.0173656 	-0.432189 	1.02204 	0.338945 	-0.0144065 	3.1354 	90.1466 	116.696 	-0.573438 	113.534 	360.996 	156.634 	539.731 	
32.6173 	-0.0174283 	-0.440816 	1.01882 	0.373854 	-0.0146443 	3.13591 	90.1466 	116.696 	-0.573438 	113.534 	360.996 	154.64 	539.731 	
32.7198 	-0.0174863 	-0.449325 	1.01531 	0.408764 	-0.0148643 	3.13642 	90.1466 	116.695 	-0.573438 	113.534 	360.996 	152.422 	539.731 	
32.8225 	-0.0175395 	-0.457707 	1.0115 	0.443673 	-0.0150662 	3.13694 	90.1466 	116.695 	-0.573438 	113.534 	360.996 	150.413 	539.731 	
32.9262 	-0.0175879 	-0.465951 	1.00741 	0.478582 	-0.0152497 	3.13747 	90.1466 	116.695 	-0.573438 	113.535 	360.996 	148.398 	539.731 	
33.029 	-0.0176314 	-0.474047 	1.00303 	0.513492 	-0.0154147 	3.13801 	90.1466 	116.695 	-0.573438 	113.535 	360.996 	146.182 	539.731 	
33.1322 	-0.01767 	-0.481985 	0.998364 	0.548402 	-0.0155608 	3.13855 	90.1466 	116.695 	-0.573438 	113.535 	360.996 	144.19 	539.731 	
33.2351 	-0.0177035 	-0.489756 	0.993428 	0.583312 	-0.015688 	3.13909 	90.1466 	116.695 	-0.573438 	113.535 	360.996 	142.174 	539.731 	
33.3382 	-0.017732 	-0.49735 	0.988224 	0.618222 	-0.0157961 	3.13964 	90.1466 	116.695 	-0.573438 	113.535 	360.996 	139.98 	539.731 	
33.4411 	-0.0177554 	-0.504757 	0.982758 	0.653133 	-0.015885 	3.1402 	90.1466 	116.695 	-0.573438 	113.536 	360.996 	137.969 	539.731 	
33.5446 	-0.0177738 	-0.51197 	0.977036 	0.688043 	-0.0159544 	3.14075 	90.1466 	116.695 	-0.573438 	113.537 	360.996 	135.964 	539.731 	
33.6516 	-0.017787 	-0.518978 	0.971067 	0.722954 	-0.0160045 	3.14131 	90.1466 	116.695 	-0.573438 	113.537 	360.996 	133.749 	539.731 	
33.7543 	-0.017795 	-0.525774 	0.964856 	0.757864 	-0.016035 	-3.14132 	90.1466 	116.695 	-0.573438 	113.537 	360.996 	131.758 	539.731 	
33.8574 	-0.0177979 	-0.532349 	0.958413 	0.792775 	-0.016046 	-3.14076 	90.1466 	116.695 	-0.573438 	113.537 	360.996 	129.76 	539.731 	
33.9632 	-0.0177957 	-0.538695 	0.951743 	0.827685 	-0.0160375 	-3.1402 	90.1466 	116.695 	-0.573438 	113.537 	360.996 	127.552 	539.731 	
34.0664 	-0.0177775 	-0.549979 	0.938623 	0.893317 	-0.0159686 	-3.13914 	90.1466 	116.694 	-0.573438 	113.537 	360.996 	125.658 	539.731 	
34.1692 	-0.0177687 	-0.553115 	0.934648 	0.912519 	-0.0159354 	-3.13884 	90.1466 	116.694 	-0.573438 	113.538 	360.996 	124.203 	539.731 	
38.5306 	-0.0177646 	-0.554405 	0.932966 	0.920558 	-0.0159198 	-3.13871 	90.1465 	116.693 	-0.573535 	113.538 	360.996 	123.447 	539.731 	
38.6332 	-0.0177665 	-0.554074 	0.933252 	0.919161 	-0.0159255 	-3.13873 	90.1465 	116.692 	-0.573535 	113.538 	360.996 	123.714 	539.731 	
38.7364 	-0.0177784 	-0.549987 	0.938471 	0.894026 	-0.0159705 	-3.13913 	90.1465 	116.692 	-0.573535 	113.538 	360.996 	125.388 	539.731 	
38.8391 	-0.0177904 	-0.544097 	0.945546 	0.859115 	-0.0160163 	-3.13969 	90.1465 	116.691 	-0.573535 	113.538 	360.996 	127.353 	539.731 	
38.9414 	-0.0177974 	-0.537964 	0.952411 	0.824205 	-0.0160426 	-3.14025 	90.1465 	116.691 	-0.573535 	113.538 	360.996 	129.567 	539.731 	
39.0444 	-0.0177991 	-0.531595 	0.959058 	0.789294 	-0.0160493 	-3.14081 	90.1465 	116.691 	-0.573535 	113.538 	360.996 	131.594 	539.731 	
39.1515 	-0.0177958 	-0.524998 	0.965479 	0.754383 	-0.0160365 	-3.14137 	90.1465 	116.691 	-0.573535 	113.537 	360.996 	133.782 	539.731 	
39.2544 	-0.0177872 	-0.51818 	0.971666 	0.719473 	-0.0160042 	3.14126 	90.1465 	116.691 	-0.573535 	113.538 	360.996 	135.803 	539.731 	
39.3583 	-0.0177736 	-0.511151 	0.977611 	0.684562 	-0.0159523 	3.1407 	90.1465 	116.691 	-0.573535 	113.538 	360.996 	137.791 	539.731 	
39.4613 	-0.0177548 	-0.503919 	0.983307 	0.649652 	-0.015881 	3.14015 	90.1465 	116.691 	-0.573535 	113.538 	360.996 	140 	539.731 	
39.5653 	-0.0177308 	-0.496493 	0.988747 	0.614742 	-0.0157904 	3.13959 	90.1465 	116.691 	-0.573535 	113.537 	360.996 	142.016 	539.731 	
39.6676 	-0.0177019 	-0.488881 	0.993925 	0.579832 	-0.0156805 	3.13904 	90.1465 	116.691 	-0.573535 	113.537 	360.996 	144.017 	539.731 	
39.7696 	-0.0176288 	-0.473139 	1.00347 	0.510011 	-0.0154036 	3.13796 	90.1465 	116.691 	-0.573535 	113.537 	360.996 	146.021 	539.731 	
39.8728 	-0.0175849 	-0.465027 	1.00782 	0.475102 	-0.0152369 	3.13742 	90.1465 	116.691 	-0.573535 	113.537 	360.996 	148.22 	539.731 	
39.9758 	-0.017536 	-0.456769 	1.01189 	0.440192 	-0.0150516 	3.13689 	90.1465 	116.691 	-0.573535 	113.537 	360.996 	150.242 	539.731 	
40.079 	-0.0174823 	-0.448374 	1.01567 	0.405283 	-0.014848 	3.13637 	90.1465 	116.691 	-0.573535 	113.537 	360.996 	152.252 	539.731 	
40.1819 	-0.0174239 	-0.439852 	1.01915 	0.370374 	-0.0146263 	3.13586 	90.1465 	116.691 	-0.573535 	113.537 	360.996 	154.473 	539.731 	
40.2887 	-0.0173607 	-0.431214 	1.02233 	0.335465 	-0.0143868 	3.13535 	90.1465 	116.692 	-0.573535 	113.536 	360.996 	156.476 	539.731 	
40.391 	-0.0172929 	-0.42247 	1.02521 	0.300556 	-0.0141297 	3.13485 	90.1465 	116.692 	-0.573535 	113.536 	360.996 	158.698 	539.731 	
40.494 	-0.0172206 	-0.413631 	1.02778 	0.265648 	-0.0138555 	3.13436 	90.1465 	116.692 	-0.573535 	113.536 	360.996 	160.693 	539.731 	
40.5972 	-0.0171438 	-0.404708 	1.03005 	0.23074 	-0.0135643 	3.13389 	90.1465 	116.692 	-0.573535 	113.536 	360.996 	162.686 	539.731 	
40.7003 	-0.0170627 	-0.395711 	1.032 	0.195832 	-0.0132567 	3.13342 	90.1465 	116.692 	-0.573535 	113.536 	360.996 	164.703 	539.731 	
40.8033 	-0.0169773 	-0.386652 	1.03363 	0.160924 	-0.0129328 	3.13296 	90.1465 	116.692 	-0.573633 	113.536 	360.996 	166.932 	539.731 	
40.9064 	-0.0168877 	-0.377541 	1.03495 	0.126017 	-0.0125933 	3.13252 	90.1465 	116.692 	-0.573535 	113.535 	360.996 	168.937 	539.731 	
41.0098 	-0.0167941 	-0.36839 	1.03595 	0.0911099 	-0.0122384 	3.13208 	90.1465 	116.692 	-0.573633 	113.535 	360.996 	170.951 	539.731 	
41.1124 	-0.0166966 	-0.359209 	1.03663 	0.0562034 	-0.0118685 	3.13166 	90.1465 	116.692 	-0.573535 	113.534 	360.996 	173.155 	539.731 	
41.2154 	-0.0165952 	-0.350011 	1.03698 	0.021297 	-0.0114843 	3.13125 	90.1465 	116.692 	-0.573633 	113.534 	360.996 	175.15 	539.731 	
41.3186 	-0.0164902 	-0.340805 	1.03702 	-0.0136089 	-0.011086 	3.13086 	90.1465 	116.692 	-0.573633 	113.534 	360.996 	177.169 	539.731 	
41.4218 	-0.0163816 	-0.331604 	1.03674 	-0.0485147 	-0.0106742 	3.13048 	90.1465 	116.692 	-0.573633 	113.534 	360.996 	179.379 	539.731 	
41.5245 	-0.0162696 	-0.322419 	1.03613 	-0.0834201 	-0.0102494 	3.13011 	90.1465 	116.692 	-0.573633 	113.534 	360.996 	181.397 	539.731 	
41.6277 	-0.0161542 	-0.31326 	1.0352 	-0.118325 	-0.00981218 	3.12976 	90.1465 	116.692 	-0.573633 	113.533 	360.996 	183.403 	539.731 	
41.7309 	-0.0160358 	-0.30414 	1.03396 	-0.15323 	-0.00936296 	3.12943 	90.1465 	116.692 	-0.573633 	113.533 	360.996 	185.388 	539.731 	
41.8338 	-0.0159143 	-0.295068 	1.0324 	-0.188134 	-0.00890234 	3.12911 	90.1465 	116.692 	-0.573633 	113.533 	360.996 	187.609 	539.731 	
41.9371 	-0.0157899 	-0.286057 	1.03052 	-0.223039 	-0.00843087 	3.12881 	90.1465 	116.692 	-0.573633 	113.533 	360.996 	189.618 	539.731 	
42.04 	-0.0156629 	-0.277116 	1.02833 	-0.257943 	-0.00794913 	3.12852 	90.1465 	116.692 	-0.573633 	113.532 	360.996 	191.633 	539.731 	
42.1431 	-0.0155333 	-0.268258 	1.02583 	-0.292846 	-0.00745772 	3.12825 	90.1465 	116.692 	-0.573633 	113.531 	360.996 	193.833 	539.731 	
42.2515 	-0.0154013 	-0.259492 	1.02302 	-0.327749 	-0.00695721 	3.128 	90.1465 	116.692 	-0.573633 	113.531 	360.996 	195.838 	539.731 	
42.354 	-0.015267 	-0.25083 	1.0199 	-0.362653 	-0.00644824 	3.12777 	90.1465 	116.692 	-0.573633 	113.531 	360.996 	198.053 	539.731 	
42.457 	-0.0151307 	-0.242281 	1.01649 	-0.397556 	-0.00593141 	3.12755 	90.1465 	116.692 	-0.573633 	113.53 	360.996 	200.041 	539.731 	
42.563 	-0.0149925 	-0.233857 	1.01278 	-0.432458 	-0.00540735 	3.12735 	90.1465 	116.692 	-0.573633 	113.53 	360.996 	202.268 	539.731 	
42.6671 	-0.014711 	-0.217424 	1.00448 	-0.502263 	-0.00434012 	3.12701 	90.1465 	116.693 	-0.573633 	113.528 	360.996 	204.275 	539.731 	
42.7697 	-0.0145681 	-0.209434 	0.999913 	-0.537165 	-0.00379826 	3.12687 	90.1465 	116.693 	-0.573633 	113.528 	360.996 	206.284 	539.731 	
42.8721 	-0.014424 	-0.201609 	0.995066 	-0.572067 	-0.00325176 	3.12675 	90.1465 	116.693 	-0.573633 	113.527 	360.996 	208.471 	539.731 	
42.9752 	-0.0142788 	-0.193957 	0.989949 	-0.606969 	-0.0027013 	3.12664 	90.1465 	116.693 	-0.573633 	113.527 	360.996 	210.481 	539.731 	
43.0781 	-0.0141327 	-0.186489 	0.984568 	-0.641871 	-0.00214756 	3.12656 	90.1465 	116.693 	-0.573633 	113.526 	360.996 	212.484 	539.731 	
43.1814 	-0.013986 	-0.179213 	0.97893 	-0.676772 	-0.00159119 	3.12649 	90.1465 	116.694 	-0.573633 	113.526 	360.996 	214.506 	539.731 	
43.2894 	-0.0138387 	-0.172139 	0.973041 	-0.711674 	-0.0010329 	3.12645 	90.1465 	116.694 	-0.573633 	113.525 	360.996 	216.698 	539.731 	
43.3924 	-0.0136912 	-0.165274 	0.966908 	-0.746576 	-0.000473338 	3.12642 	90.1465 	116.694 	-0.573633 	113.524 	360.996 	218.909 	539.731 	
43.4956 	-0.0135434 	-0.158628 	0.96054 	-0.781477 	8.6795e-05 	3.12642 	90.1465 	116.694 	-0.573633 	113.524 	360.996 	220.918 	539.731 	
43.5985 	-0.0133957 	-0.152208 	0.953944 	-0.816379 	0.000646825 	3.12643 	90.1465 	116.694 	-0.573633 	113.524 	360.996 	222.916 	539.731 	
43.7016 	-0.0132482 	-0.146022 	0.947127 	-0.85128 	0.00120607 	3.12646 	90.1465 	116.694 	-0.573633 	113.523 	360.996 	224.928 	539.731 	
43.8046 	-0.0131011 	-0.140077 	0.940099 	-0.886182 	0.00176384 	3.12651 	90.1465 	116.695 	-0.573633 	113.521 	360.996 	227.125 	539.731 	
43.9078 	-0.0129546 	-0.134382 	0.932868 	-0.921084 	0.00231946 	3.12658 	90.1465 	116.695 	-0.573633 	113.521 	360.996 	229.155 	539.731 	
44.0107 	-0.0128088 	-0.128943 	0.925442 	-0.955985 	0.00287226 	3.12667 	90.1465 	116.695 	-0.573633 	113.519 	360.996 	231.138 	539.731 	
44.1139 	-0.0126639 	-0.123766 	0.917831 	-0.990888 	0.00342157 	3.12678 	90.1465 	116.695 	-0.573633 	113.519 	360.996 	233.348 	539.731 	
44.217 	-0.0125201 	-0.118857 	0.910044 	-1.02579 	0.0039667 	3.12691 	90.1465 	116.695 	-0.573633 	113.517 	360.996 	235.353 	539.731 	
44.3198 	-0.0123776 	-0.114224 	0.90209 	-1.06069 	0.00450699 	3.12706 	90.1465 	116.695 	-0.573633 	113.517 	360.996 	237.36 	539.731 	
44.423 	-0.0122365 	-0.109871 	0.89398 	-1.09559 	0.0050418 	3.12723 	90.1465 	116.695 	-0.573633 	113.516 	360.996 	239.568 	539.731 	
44.5262 	-0.0120971 	-0.105804 	0.885722 	-1.1305 	0.00557048 	3.12741 	90.1465 	116.695 	-0.573633 	113.516 	360.996 	241.552 	539.731 	
44.6291 	-0.0119595 	-0.102027 	0.877328 	-1.1654 	0.00609236 	3.12762 	90.1465 	116.695 	-0.573633 	113.514 	360.996 	243.575 	539.731 	
44.7323 	-0.0118238 	-0.0985457 	0.868806 	-1.2003 	0.00660683 	3.12784 	90.1465 	116.695 	-0.573633 	113.513 	360.996 	245.592 	539.731 	
44.8353 	-0.0116902 	-0.0953638 	0.860169 	-1.23521 	0.00711325 	3.12808 	90.1465 	116.695 	-0.573633 	113.513 	360.996 	247.769 	539.731 	
44.9383 	-0.0115589 	-0.0924854 	0.851425 	-1.27011 	0.007611 	3.12834 	90.1465 	116.696 	-0.573633 	113.512 	360.996 	249.77 	539.731 	
45.0414 	-0.0114301 	-0.0899139 	0.842587 	-1.30501 	0.00809948 	3.12861 	90.1465 	116.696 	-0.573633 	113.512 	360.996 	251.784 	539.731 	
45.1446 	-0.0113039 	-0.0876524 	0.833664 	-1.33992 	0.0085781 	3.1289 	90.1465 	116.696 	-0.573633 	113.512 	360.996 	253.972 	539.731 	
45.2517 	-0.0111804 	-0.0857037 	0.824667 	-1.37482 	0.00904626 	3.12921 	90.1465 	116.696 	-0.573633 	113.512 	360.996 	255.971 	539.731 	
45.3541 	-0.0110598 	-0.0840701 	0.815608 	-1.40973 	0.00950342 	3.12953 	90.1465 	116.696 	-0.573633 	113.511 	360.996 	258.197 	539.731 	
45.4584 	-0.0109423 	-0.0827537 	0.806496 	-1.44463 	0.00994903 	3.12987 	90.1465 	116.696 	-0.573633 	113.511 	360.996 	260.19 	539.731 	
45.5631 	-0.010828 	-0.081756 	0.797344 	-1.47954 	0.0103825 	3.13023 	90.1465 	116.696 	-0.573633 	113.511 	360.996 	262.4 	539.731 	
45.6662 	-0.010717 	-0.0810784 	0.788163 	-1.51445 	0.0108033 	3.1306 	90.1465 	116.696 	-0.573633 	113.511 	360.996 	264.381 	539.731 	
45.7694 	-0.0106095 	-0.0807216 	0.778964 	-1.54936 	0.011211 	3.13098 	90.1465 	116.696 	-0.573633 	113.511 	360.996 	266.406 	539.731 	
45.8725 	-0.0104054 	-0.080972 	0.760556 	-1.61918 	0.0119849 	3.13179 	90.1465 	116.696 	-0.573633 	113.511 	360.996 	268.397 	539.731 	
45.9755 	-0.010309 	-0.0815788 	0.75137 	-1.65409 	0.0123502 	3.13222 	90.1465 	116.696 	-0.573633 	113.511 	360.996 	270.588 	539.731 	
46.0786 	-0.0102167 	-0.0825059 	0.742211 	-1.689 	0.0127004 	3.13265 	90.1465 	116.696 	-0.573633 	113.511 	360.996 	272.597 	539.731 	
46.1817 	-0.0101284 	-0.083752 	0.733089 	-1.72391 	0.0130351 	3.1331 	90.1465 	116.696 	-0.573633 	113.511 	360.996 	274.618 	539.731 	
46.2895 	-0.0100443 	-0.0853158 	0.724017 	-1.75882 	0.013354 	3.13356 	90.1465 	116.696 	-0.573633 	113.511 	360.996 	276.799 	539.731 	
46.3926 	-0.0099645 	-0.0871952 	0.715004 	-1.79373 	0.0136566 	3.13403 	90.1465 	116.696 	-0.573633 	113.511 	360.996 	278.786 	539.731 	
46.4958 	-0.00988909 	-0.0893881 	0.706063 	-1.82864 	0.0139425 	3.13452 	90.1465 	116.696 	-0.573633 	113.51 	360.996 	280.992 	539.731 	
46.5988 	-0.00981815 	-0.0918916 	0.697203 	-1.86355 	0.0142115 	3.13501 	90.1465 	116.696 	-0.573633 	113.51 	360.996 	283 	539.731 	
46.6246 	-0.00981815 	-0.0918916 	0.697203 	-1.86355 	0.0142115 	3.13501 	90.1465 	116.696 	-0.573633 	113.51 	360.996 	283.591 	539.731 	
46.728 	-0.00977321 	-0.0943915 	0.691361 	-1.88694 	0.014374 	3.13537 	90.1465 	116.696 	-0.573633 	113.708 	360.996 	284.801 	539.731 	
46.8309 	-0.00979003 	-0.0989704 	0.693925 	-1.87788 	0.0142435 	3.1355 	90.1465 	116.696 	-0.573633 	114.519 	360.996 	285.023 	539.731 	
46.9339 	-0.0098214 	-0.103042 	0.698526 	-1.86042 	0.0140527 	3.13551 	90.1465 	116.696 	-0.573633 	115.585 	360.996 	285.069 	539.731 	
47.0372 	-0.00985171 	-0.107193 	0.703055 	-1.84297 	0.0138622 	3.13552 	90.1465 	116.696 	-0.573633 	116.582 	360.996 	285.086 	539.731 	
47.1402 	-0.00988098 	-0.111422 	0.707511 	-1.82552 	0.013672 	3.13554 	90.1465 	116.696 	-0.573633 	117.588 	360.996 	285.097 	539.731 	
47.2433 	-0.00990919 	-0.115729 	0.711893 	-1.80807 	0.0134821 	3.13557 	90.1465 	116.696 	-0.573633 	118.587 	360.996 	285.101 	539.731 	
47.3518 	-0.00993632 	-0.120111 	0.716199 	-1.79062 	0.0132927 	3.13559 	90.1465 	116.696 	-0.573633 	119.69 	360.996 	285.103 	539.731 	
47.4542 	-0.00996238 	-0.124568 	0.720427 	-1.77317 	0.0131037 	3.13562 	90.1465 	116.696 	-0.573633 	120.798 	360.996 	285.104 	539.731 	
47.5573 	-0.00998735 	-0.129098 	0.724577 	-1.75571 	0.0129153 	3.13565 	90.1465 	116.696 	-0.573633 	121.798 	360.996 	285.104 	539.731 	
47.6605 	-0.0100112 	-0.1337 	0.728648 	-1.73826 	0.0127275 	3.13569 	90.1465 	116.696 	-0.573633 	122.805 	360.996 	285.105 	539.731 	
47.7633 	-0.010034 	-0.138372 	0.732637 	-1.72081 	0.0125402 	3.13572 	90.1465 	116.696 	-0.573633 	123.808 	360.996 	285.106 	539.731 	
47.866 	-0.0100557 	-0.143113 	0.736545 	-1.70336 	0.0123537 	3.13577 	90.1465 	116.696 	-0.573633 	124.909 	360.996 	285.106 	539.731 	
47.9691 	-0.0100956 	-0.152796 	0.744108 	-1.66846 	0.011983 	3.13586 	90.1465 	116.696 	-0.573633 	125.918 	360.996 	285.106 	539.731 	
48.0724 	-0.0101139 	-0.157735 	0.747762 	-1.651 	0.011799 	3.13591 	90.1465 	116.696 	-0.573633 	126.919 	360.996 	285.106 	539.731 	
48.1756 	-0.0101311 	-0.162737 	0.75133 	-1.63355 	0.0116158 	3.13597 	90.1465 	116.696 	-0.573633 	128.03 	360.996 	285.106 	539.731 	
48.2787 	-0.0101472 	-0.167801 	0.754809 	-1.6161 	0.0114336 	3.13602 	90.1465 	116.696 	-0.573633 	129.04 	360.996 	285.106 	539.731 	
48.3815 	-0.010162 	-0.172925 	0.7582 	-1.59865 	0.0112525 	3.13608 	90.1465 	116.696 	-0.573633 	130.039 	360.996 	285.107 	539.731 	
48.4896 	-0.0101745 	-0.177586 	0.761175 	-1.58294 	0.0110904 	3.13614 	90.1465 	116.696 	-0.573633 	131.144 	360.996 	285.107 	539.731 	
48.5923 	-0.0101884 	-0.183346 	0.764711 	-1.56374 	0.0108936 	3.13622 	90.1465 	116.696 	-0.573633 	132.147 	360.996 	285.107 	539.731 	
48.6956 	-0.0101998 	-0.18864 	0.767829 	-1.54629 	0.0107159 	3.13629 	90.1465 	116.695 	-0.573633 	133.252 	360.996 	285.107 	539.731 	
48.7986 	-0.0102091 	-0.193451 	0.770555 	-1.53058 	0.010557 	3.13635 	90.1465 	116.695 	-0.573633 	134.259 	360.996 	285.107 	539.731 	
48.9017 	-0.0102183 	-0.198846 	0.773496 	-1.51313 	0.0103817 	3.13643 	90.1465 	116.695 	-0.573633 	135.257 	360.996 	285.107 	539.731 	
49.0048 	-0.0102264 	-0.204291 	0.776342 	-1.49568 	0.0102078 	3.13651 	90.1465 	116.695 	-0.573633 	136.363 	360.996 	285.107 	539.731 	
49.1079 	-0.0102333 	-0.209785 	0.779093 	-1.47822 	0.0100353 	3.13659 	90.1465 	116.695 	-0.573633 	137.364 	360.996 	285.107 	539.731 	
49.2109 	-0.010239 	-0.215326 	0.781747 	-1.46077 	0.00986428 	3.13668 	90.1465 	116.695 	-0.573633 	138.371 	360.996 	285.107 	539.731 	
49.3143 	-0.0102436 	-0.220913 	0.784304 	-1.44332 	0.00969476 	3.13676 	90.1465 	116.695 	-0.573633 	139.371 	360.996 	285.107 	539.731 	
49.4171 	-0.010247 	-0.226543 	0.786764 	-1.42587 	0.00952681 	3.13686 	90.1465 	116.695 	-0.573633 	140.473 	360.996 	285.107 	539.731 	
49.52 	-0.0102492 	-0.232216 	0.789124 	-1.40842 	0.00936047 	3.13695 	90.1465 	116.695 	-0.573633 	141.483 	360.996 	285.107 	539.731 	
49.6232 	-0.0102502 	-0.237929 	0.791386 	-1.39096 	0.00919581 	3.13705 	90.1465 	116.695 	-0.573633 	142.495 	360.996 	285.107 	539.731 	
49.7262 	-0.0102501 	-0.24368 	0.793547 	-1.37351 	0.00903286 	3.13715 	90.1465 	116.695 	-0.573633 	143.589 	360.996 	285.107 	539.731 	
49.8294 	-0.0102486 	-0.25005 	0.795808 	-1.35431 	0.00885566 	3.13726 	90.1465 	116.695 	-0.573633 	144.6 	360.996 	285.108 	539.731 	
49.9323 	-0.0102463 	-0.255292 	0.797567 	-1.33861 	0.00871232 	3.13735 	90.1465 	116.695 	-0.573633 	145.595 	360.996 	285.108 	539.731 	
50.035 	-0.0102427 	-0.261149 	0.799424 	-1.32115 	0.00855482 	3.13746 	90.1465 	116.695 	-0.573633 	146.702 	360.996 	285.108 	539.731 	
50.1383 	-0.0102378 	-0.267037 	0.801179 	-1.3037 	0.00839924 	3.13757 	90.1465 	116.695 	-0.573633 	147.709 	360.996 	285.108 	539.731 	
50.2415 	-0.0102312 	-0.273549 	0.80299 	-1.2845 	0.00823036 	3.1377 	90.1465 	116.695 	-0.573633 	148.708 	360.996 	285.108 	539.731 	
50.3447 	-0.0102247 	-0.278901 	0.804379 	-1.2688 	0.008094 	3.1378 	90.1465 	116.694 	-0.573633 	149.717 	360.996 	285.108 	539.731 	
50.4514 	-0.0102163 	-0.284873 	0.805823 	-1.25134 	0.00794444 	3.13792 	90.1465 	116.694 	-0.573633 	150.809 	360.996 	285.108 	539.731 	
50.5542 	-0.0102058 	-0.29147 	0.807291 	-1.23215 	0.00778236 	3.13806 	90.1465 	116.694 	-0.573633 	151.82 	360.996 	285.108 	539.731 	
50.6583 	-0.0101962 	-0.296888 	0.808398 	-1.21644 	0.00765167 	3.13817 	90.1465 	116.694 	-0.573633 	152.921 	360.996 	285.108 	539.731 	
50.7624 	-0.0101714 	-0.308986 	0.810552 	-1.18153 	0.00736765 	3.13843 	90.1465 	116.694 	-0.573633 	153.937 	360.996 	285.108 	539.731 	
50.8662 	-0.0101573 	-0.315061 	0.81147 	-1.16408 	0.00722903 	3.13856 	90.1465 	116.694 	-0.573633 	154.93 	360.996 	285.108 	539.731 	
50.9691 	-0.010142 	-0.321151 	0.812282 	-1.14663 	0.00709273 	3.13869 	90.1465 	116.694 	-0.573633 	156.042 	360.996 	285.108 	539.731 	
51.0715 	-0.0101256 	-0.327255 	0.812987 	-1.12918 	0.00695879 	3.13883 	90.1465 	116.694 	-0.573633 	157.047 	360.996 	285.108 	539.731 	
51.1742 	-0.010108 	-0.33337 	0.813586 	-1.11173 	0.00682725 	3.13897 	90.1465 	116.694 	-0.573633 	158.056 	360.996 	285.108 	539.731 	
51.2765 	-0.0100894 	-0.339494 	0.814079 	-1.09427 	0.00669816 	3.13911 	90.1465 	116.694 	-0.573633 	159.15 	360.996 	285.108 	539.731 	
51.3796 	-0.0100696 	-0.345626 	0.814464 	-1.07682 	0.00657153 	3.13925 	90.1465 	116.694 	-0.573633 	160.153 	360.996 	285.108 	539.731 	
51.4828 	-0.0100486 	-0.351764 	0.814742 	-1.05937 	0.00644743 	3.1394 	90.1465 	116.693 	-0.573633 	161.158 	360.996 	285.108 	539.731 	
51.5897 	-0.0100266 	-0.357906 	0.814913 	-1.04192 	0.00632589 	3.13954 	90.1465 	116.693 	-0.573633 	162.257 	360.996 	285.108 	539.731 	
51.6928 	-0.0100035 	-0.36405 	0.814977 	-1.02446 	0.00620693 	3.13969 	90.1465 	116.693 	-0.573633 	163.269 	360.996 	285.108 	539.731 	
51.7959 	-0.00997921 	-0.370194 	0.814933 	-1.00701 	0.00609061 	3.13984 	90.1465 	116.693 	-0.573633 	164.372 	360.996 	285.108 	539.731 	
51.899 	-0.00995388 	-0.376336 	0.814783 	-0.989558 	0.00597695 	3.14 	90.1465 	116.693 	-0.573633 	165.38 	360.996 	285.108 	539.731 	
52.0018 	-0.00992746 	-0.382475 	0.814525 	-0.972106 	0.00586599 	3.14015 	90.1465 	116.693 	-0.573633 	166.367 	360.996 	285.108 	539.731 	
52.1051 	-0.00989997 	-0.388608 	0.81416 	-0.954654 	0.00575776 	3.14031 	90.1465 	116.693 	-0.573633 	167.378 	360.996 	285.108 	539.731 	
52.2081 	-0.00987141 	-0.394734 	0.813688 	-0.937201 	0.0056523 	3.14047 	90.1465 	116.693 	-0.573633 	168.49 	360.996 	285.108 	539.731 	
52.3111 	-0.00984179 	-0.400851 	0.813109 	-0.919749 	0.00554963 	3.14063 	90.1465 	116.693 	-0.573633 	169.503 	360.996 	285.108 	539.731 	
52.414 	-0.00981113 	-0.406956 	0.812424 	-0.902296 	0.0054498 	3.14079 	90.1465 	116.693 	-0.573633 	170.496 	360.996 	285.108 	539.731 	
52.5174 	-0.00977942 	-0.413049 	0.811632 	-0.884844 	0.00535282 	3.14096 	90.1465 	116.693 	-0.573633 	171.601 	360.996 	285.108 	539.731 	
52.6203 	-0.00974668 	-0.419127 	0.810734 	-0.867392 	0.00525874 	3.14113 	90.1465 	116.693 	-0.573633 	172.606 	360.996 	285.108 	539.731 	
52.723 	-0.00971292 	-0.425189 	0.80973 	-0.849939 	0.00516757 	3.14129 	90.1465 	116.692 	-0.573633 	173.605 	360.996 	285.108 	539.731 	
52.8262 	-0.00967814 	-0.431232 	0.80862 	-0.832487 	0.00507935 	3.14146 	90.1465 	116.692 	-0.573633 	174.718 	360.996 	285.108 	539.731 	
52.9295 	-0.00964237 	-0.437255 	0.807405 	-0.815034 	0.0049941 	-3.14155 	90.1465 	116.692 	-0.573633 	175.714 	360.996 	285.108 	539.731 	
53.0336 	-0.00960561 	-0.443255 	0.806085 	-0.797582 	0.00491185 	-3.14138 	90.1465 	116.691 	-0.573633 	176.718 	360.996 	285.108 	539.731 	
53.1366 	-0.00956787 	-0.449232 	0.80466 	-0.780129 	0.00483262 	-3.1412 	90.1465 	116.67 	-0.573633 	177.819 	360.996 	285.108 	539.731 	
53.2396 	-0.00952917 	-0.455183 	0.803132 	-0.762677 	0.00475644 	-3.14103 	90.1465 	116.666 	-0.573633 	178.834 	360.996 	285.108 	539.731 	
53.3428 	-0.00948951 	-0.461106 	0.8015 	-0.745224 	0.00468333 	-3.14085 	90.1465 	116.665 	-0.573633 	179.838 	360.996 	285.108 	539.731 	
53.4509 	-0.0094489 	-0.467 	0.799764 	-0.727772 	0.00461331 	-3.14068 	90.1465 	116.664 	-0.573633 	180.94 	360.996 	285.108 	539.731 	
53.554 	-0.00940737 	-0.472863 	0.797926 	-0.710319 	0.00454641 	-3.1405 	90.1465 	116.664 	-0.573633 	181.948 	360.996 	285.108 	539.731 	
53.6566 	-0.00936492 	-0.478692 	0.795987 	-0.692867 	0.00448264 	-3.14032 	90.1465 	116.663 	-0.573633 	183.052 	360.996 	285.108 	539.731 	
53.7595 	-0.00932157 	-0.484487 	0.793945 	-0.675414 	0.00442203 	-3.14013 	90.1465 	116.663 	-0.573633 	184.052 	360.996 	285.107 	539.731 	
53.8625 	-0.00927732 	-0.490246 	0.791803 	-0.657962 	0.00436459 	-3.13995 	90.1465 	116.662 	-0.573633 	185.062 	360.996 	285.107 	539.731 	
53.9658 	-0.0092322 	-0.495966 	0.78956 	-0.640509 	0.00431034 	-3.13977 	90.1465 	116.662 	-0.573633 	186.059 	360.996 	285.107 	539.731 	
54.0686 	-0.00913937 	-0.507285 	0.784778 	-0.605604 	0.00421148 	-3.1394 	90.1465 	116.661 	-0.573633 	187.162 	360.996 	285.107 	539.731 	
54.1715 	-0.00909169 	-0.51288 	0.782239 	-0.588152 	0.00416689 	-3.13921 	90.1465 	116.661 	-0.573633 	188.164 	360.996 	285.107 	539.731 	
54.2747 	-0.0090432 	-0.518429 	0.779603 	-0.570699 	0.00412556 	-3.13903 	90.1465 	116.661 	-0.573633 	189.156 	360.996 	285.107 	539.731 	
54.3774 	-0.00898892 	-0.52448 	0.776592 	-0.551501 	0.00408386 	-3.13882 	90.1465 	116.66 	-0.573633 	190.268 	360.996 	285.107 	539.731 	
54.48 	-0.0089438 	-0.529387 	0.774043 	-0.535794 	0.00405269 	-3.13865 	90.1465 	116.658 	-0.573633 	191.264 	360.996 	285.107 	539.731 	
54.583 	-0.00889293 	-0.534791 	0.77112 	-0.518342 	0.00402119 	-3.13846 	90.1465 	116.658 	-0.573633 	192.273 	360.996 	285.107 	539.731 	
54.689 	-0.0088413 	-0.540143 	0.768103 	-0.500889 	0.00399297 	-3.13827 	90.1465 	116.657 	-0.573633 	193.369 	360.996 	285.106 	539.731 	
54.792 	-0.00878892 	-0.545442 	0.764993 	-0.483436 	0.00396806 	-3.13808 	90.1465 	116.657 	-0.573633 	194.378 	360.996 	285.106 	539.731 	
54.8951 	-0.00873581 	-0.550686 	0.761792 	-0.465984 	0.00394646 	-3.13789 	90.1465 	116.656 	-0.573633 	195.383 	360.996 	285.106 	539.731 	
54.998 	-0.00868199 	-0.555873 	0.758499 	-0.448531 	0.00392817 	-3.1377 	90.1465 	116.655 	-0.573633 	196.478 	360.996 	285.106 	539.731 	
55.1013 	-0.00862748 	-0.561002 	0.755116 	-0.431079 	0.00391321 	-3.13751 	90.1465 	116.654 	-0.573633 	197.481 	360.996 	285.106 	539.731 	
55.2042 	-0.00857228 	-0.566071 	0.751645 	-0.413626 	0.00390158 	-3.13732 	90.1465 	116.654 	-0.573633 	198.486 	360.996 	285.106 	539.731 	
55.3073 	-0.00851642 	-0.571079 	0.748085 	-0.396174 	0.00389328 	-3.13713 	90.1465 	116.654 	-0.573633 	199.583 	360.996 	285.106 	539.731 	
55.4103 	-0.00845992 	-0.576023 	0.744439 	-0.378721 	0.00388831 	-3.13694 	90.1465 	116.653 	-0.573633 	200.587 	360.996 	285.105 	539.731 	
55.5134 	-0.00840278 	-0.580904 	0.740706 	-0.361269 	0.00388668 	-3.13675 	90.1465 	116.653 	-0.573633 	201.587 	360.996 	285.105 	539.731 	
55.6164 	-0.00834504 	-0.585718 	0.736889 	-0.343816 	0.00388838 	-3.13656 	90.1465 	116.652 	-0.573633 	202.59 	360.996 	285.105 	539.731 	
55.7196 	-0.0082867 	-0.590465 	0.732989 	-0.326363 	0.00389343 	-3.13637 	90.1465 	116.652 	-0.573633 	203.692 	360.996 	285.105 	539.731 	
55.8224 	-0.00822778 	-0.595144 	0.729006 	-0.308911 	0.0039018 	-3.13618 	90.1465 	116.652 	-0.573633 	204.688 	360.996 	285.105 	539.731 	
55.9256 	-0.00816831 	-0.599752 	0.724943 	-0.291458 	0.0039135 	-3.13599 	90.1465 	116.652 	-0.573633 	205.692 	360.996 	285.105 	539.731 	
56.0285 	-0.0081083 	-0.604288 	0.720799 	-0.274006 	0.00392853 	-3.1358 	90.1465 	116.651 	-0.573633 	206.789 	360.996 	285.104 	539.731 	
56.1319 	-0.00804776 	-0.608751 	0.716577 	-0.256553 	0.00394689 	-3.13561 	90.1465 	116.651 	-0.573633 	207.799 	360.996 	285.104 	539.731 	
56.2346 	-0.00798672 	-0.613141 	0.712278 	-0.2391 	0.00396856 	-3.13542 	90.1465 	116.651 	-0.573633 	208.801 	360.996 	285.104 	539.731 	
56.3379 	-0.0079252 	-0.617454 	0.707903 	-0.221648 	0.00399354 	-3.13523 	90.1465 	116.65 	-0.573633 	209.9 	360.996 	285.104 	539.731 	
56.4409 	-0.00786321 	-0.62169 	0.703453 	-0.204195 	0.00402183 	-3.13504 	90.1465 	116.65 	-0.573633 	210.892 	360.996 	285.104 	539.731 	
56.5439 	-0.00780077 	-0.625848 	0.69893 	-0.186743 	0.00405341 	-3.13485 	90.1465 	116.65 	-0.573633 	211.896 	360.996 	285.103 	539.731 	
56.6513 	-0.0077379 	-0.629927 	0.694335 	-0.16929 	0.00408828 	-3.13466 	90.1465 	116.65 	-0.573633 	213.001 	360.996 	285.103 	539.731 	
56.7538 	-0.00767463 	-0.633924 	0.68967 	-0.151838 	0.00412642 	-3.13447 	90.1465 	116.65 	-0.573633 	213.995 	360.996 	285.103 	539.731 	
56.8573 	-0.00761097 	-0.63784 	0.684935 	-0.134385 	0.00416782 	-3.13429 	90.1465 	116.649 	-0.573633 	215.001 	360.996 	285.102 	539.731 	
56.9607 	-0.00754693 	-0.641672 	0.680133 	-0.116933 	0.00421247 	-3.1341 	90.1465 	116.649 	-0.573633 	216.096 	360.996 	285.102 	539.731 	
57.0649 	-0.00741783 	-0.649082 	0.670332 	-0.0820278 	0.00431147 	-3.13373 	90.1465 	116.649 	-0.573633 	217.106 	360.996 	285.101 	539.731 	
57.1675 	-0.0073528 	-0.652658 	0.665336 	-0.0645752 	0.00436579 	-3.13355 	90.1465 	116.649 	-0.573633 	218.2 	360.996 	285.095 	539.731 	
57.271 	-0.00728748 	-0.656146 	0.660278 	-0.0471227 	0.0044233 	-3.13337 	90.1465 	116.649 	-0.573633 	219.2 	360.996 	285.086 	539.731 	
57.3737 	-0.00722189 	-0.659545 	0.65516 	-0.0296701 	0.00448398 	-3.13318 	90.1465 	116.649 	-0.573633 	220.202 	360.996 	285.084 	539.731 	
57.4762 	-0.00715605 	-0.662854 	0.649984 	-0.0122176 	0.00454782 	-3.133 	90.1465 	116.649 	-0.573633 	221.2 	360.996 	285.082 	539.731 	
57.5793 	-0.00708997 	-0.666073 	0.64475 	0.00523486 	0.00461479 	-3.13283 	90.1465 	116.648 	-0.573633 	222.299 	360.996 	285.078 	539.731 	
57.6823 	-0.00702369 	-0.669199 	0.639462 	0.0226874 	0.00468487 	-3.13265 	90.1465 	116.648 	-0.573633 	223.304 	360.996 	285.071 	539.731 	
57.7891 	-0.00695721 	-0.672233 	0.634119 	0.0401399 	0.00475805 	-3.13247 	90.1465 	116.648 	-0.573633 	224.399 	360.996 	285.06 	539.731 	
57.8922 	-0.00689056 	-0.675173 	0.628724 	0.0575924 	0.00483429 	-3.1323 	90.1465 	116.648 	-0.573633 	225.395 	360.996 	285.055 	539.731 	
57.9953 	-0.00682376 	-0.678019 	0.623279 	0.0750447 	0.00491358 	-3.13212 	90.1465 	116.648 	-0.573633 	226.405 	360.996 	285.05 	539.731 	
58.0983 	-0.00675683 	-0.680769 	0.617785 	0.0924972 	0.0049959 	-3.13195 	90.1465 	116.648 	-0.573633 	227.496 	360.996 	285.045 	539.731 	
58.2014 	-0.00668979 	-0.683422 	0.612244 	0.10995 	0.00508122 	-3.13178 	90.1465 	116.648 	-0.573633 	228.504 	360.996 	285.042 	539.731 	
58.3042 	-0.00662266 	-0.685979 	0.606657 	0.127402 	0.0051695 	-3.13161 	90.1465 	116.648 	-0.573633 	229.503 	360.996 	285.04 	539.731 	
58.4073 	-0.00655546 	-0.688438 	0.601027 	0.144854 	0.00526073 	-3.13144 	90.1465 	116.648 	-0.573633 	230.503 	360.996 	285.038 	539.731 	
58.5104 	-0.00648821 	-0.690798 	0.595354 	0.162307 	0.00535488 	-3.13127 	90.1465 	116.648 	-0.573633 	231.601 	360.996 	285.034 	539.731 	
58.6138 	-0.00642094 	-0.693058 	0.589642 	0.179759 	0.00545192 	-3.13111 	90.1465 	116.647 	-0.573633 	232.606 	360.996 	285.028 	539.731 	
58.7165 	-0.00635365 	-0.695219 	0.58389 	0.197212 	0.00555182 	-3.13095 	90.1465 	116.647 	-0.573633 	233.593 	360.996 	285.023 	539.731 	
58.8195 	-0.00628638 	-0.697279 	0.578102 	0.214664 	0.00565454 	-3.13079 	90.1465 	116.647 	-0.573633 	234.696 	360.996 	285.021 	539.731 	
58.9225 	-0.00621914 	-0.699237 	0.572279 	0.232117 	0.00576006 	-3.13063 	90.1465 	116.647 	-0.573633 	235.699 	360.996 	285.015 	539.731 	
59.0257 	-0.00615196 	-0.701094 	0.566422 	0.249569 	0.00586835 	-3.13047 	90.1465 	116.647 	-0.573633 	236.698 	360.996 	284.996 	539.731 	
59.1288 	-0.00608485 	-0.702848 	0.560534 	0.267022 	0.00597937 	-3.13031 	90.1465 	116.647 	-0.573633 	237.792 	360.996 	284.986 	539.731 	
59.232 	-0.00601783 	-0.704499 	0.554616 	0.284474 	0.00609309 	-3.13016 	90.1465 	116.647 	-0.573633 	238.788 	360.996 	284.975 	539.731 	
59.3347 	-0.00595093 	-0.706046 	0.548671 	0.301926 	0.00620947 	-3.13001 	90.1465 	116.647 	-0.573633 	239.795 	360.996 	284.97 	539.731 	
59.4379 	-0.00588417 	-0.70749 	0.542699 	0.319379 	0.00632848 	-3.12986 	90.1465 	116.647 	-0.573633 	240.797 	360.996 	284.965 	539.731 	
59.5412 	-0.00581756 	-0.708829 	0.536703 	0.336831 	0.00645008 	-3.12971 	90.1465 	116.647 	-0.573633 	241.899 	360.996 	284.96 	539.731 	
59.6441 	-0.00575112 	-0.710063 	0.530684 	0.354283 	0.00657424 	-3.12957 	90.1465 	116.647 	-0.573633 	242.892 	360.996 	284.951 	539.731 	
59.7519 	-0.00568489 	-0.711192 	0.524645 	0.371735 	0.00670091 	-3.12942 	90.1465 	116.647 	-0.573633 	244 	360.996 	284.945 	539.731 	
59.8548 	-0.00561886 	-0.712215 	0.518587 	0.389188 	0.00683006 	-3.12928 	90.1465 	116.647 	-0.573633 	244.996 	360.996 	284.938 	539.731 	
59.9579 	-0.00555308 	-0.713133 	0.512512 	0.40664 	0.00696165 	-3.12914 	90.1468 	116.647 	-0.573633 	245.99 	360.996 	284.934 	539.731 	
60.0645 	-0.00548755 	-0.713944 	0.506422 	0.424093 	0.00709565 	-3.12901 	90.1467 	116.647 	-0.573633 	247.092 	360.996 	284.931 	539.731 	
60.1676 	-0.00535735 	-0.715247 	0.494204 	0.458997 	0.00737066 	-3.12874 	90.1467 	116.657 	-0.573633 	248.07 	360.996 	284.932 	539.731 	
60.2698 	-0.00529271 	-0.715738 	0.48808 	0.47645 	0.0075116 	-3.12861 	90.1508 	116.608 	-0.573535 	249.184 	360.996 	284.916 	539.731 	
60.3718 	-0.00522841 	-0.716123 	0.481948 	0.493902 	0.00765478 	-3.12849 	90.147 	116.595 	-0.573828 	250.179 	360.996 	284.911 	539.731 	
60.4753 	-0.00516446 	-0.7164 	0.47581 	0.511355 	0.00780014 	-3.12836 	90.1506 	116.573 	-0.57373 	251.187 	360.996 	284.906 	539.731 	
60.578 	-0.00510089 	-0.71657 	0.469669 	0.528807 	0.00794764 	-3.12824 	90.1504 	116.575 	-0.57373 	252.169 	360.996 	284.906 	539.731 	
60.6814 	-0.00503771 	-0.716633 	0.463525 	0.546259 	0.00809725 	-3.12812 	90.1499 	116.574 	-0.57373 	253.28 	360.996 	284.905 	539.731 	
60.7894 	-0.00497495 	-0.716589 	0.457382 	0.563712 	0.0082489 	-3.128 	90.1501 	116.573 	-0.57373 	254.385 	360.996 	284.904 	539.731 	
60.8924 	-0.00491262 	-0.716437 	0.45124 	0.581164 	0.00840257 	-3.12789 	90.1496 	116.573 	-0.57373 	255.384 	360.996 	284.904 	539.731 	
60.9955 	-0.00485074 	-0.716179 	0.445101 	0.598616 	0.00855819 	-3.12778 	90.1497 	116.573 	-0.57373 	256.376 	360.996 	284.904 	539.731 	
61.0984 	-0.00478933 	-0.715813 	0.438968 	0.616069 	0.00871573 	-3.12767 	90.1496 	116.573 	-0.57373 	257.377 	360.996 	284.903 	539.731 	
61.2015 	-0.00472841 	-0.71534 	0.432843 	0.633521 	0.00887513 	-3.12757 	90.1482 	116.573 	-0.57373 	258.467 	360.996 	284.903 	539.731 	
61.3046 	-0.004668 	-0.714761 	0.426726 	0.650973 	0.00903635 	-3.12746 	90.1482 	116.573 	-0.57373 	259.468 	360.996 	284.903 	539.731 	
61.4077 	-0.00460811 	-0.714074 	0.420621 	0.668426 	0.00919934 	-3.12736 	90.1483 	116.573 	-0.57373 	260.47 	360.996 	284.903 	539.731 	
61.5106 	-0.00454877 	-0.713281 	0.414528 	0.685878 	0.00936404 	-3.12727 	90.1481 	116.573 	-0.57373 	261.56 	360.996 	284.903 	539.731 	
61.6138 	-0.00448999 	-0.712382 	0.40845 	0.703331 	0.00953041 	-3.12717 	90.1481 	116.573 	-0.57373 	262.565 	360.996 	284.903 	539.731 	
61.7168 	-0.00443179 	-0.711378 	0.402389 	0.720783 	0.0096984 	-3.12708 	90.1479 	116.573 	-0.57373 	263.551 	360.996 	284.902 	539.731 	
61.8197 	-0.00437419 	-0.710267 	0.396347 	0.738235 	0.00986795 	-3.12699 	90.1478 	116.573 	-0.57373 	264.663 	360.996 	284.902 	539.731 	
61.9231 	-0.00431721 	-0.709051 	0.390324 	0.755688 	0.010039 	-3.12691 	90.1477 	116.573 	-0.57373 	265.653 	360.996 	284.901 	539.731 	
62.0258 	-0.00426086 	-0.70773 	0.384324 	0.77314 	0.0102115 	-3.12683 	90.1476 	116.573 	-0.57373 	266.654 	360.996 	284.901 	539.731 	
62.1288 	-0.00420516 	-0.706305 	0.378348 	0.790593 	0.0103855 	-3.12675 	90.1475 	116.573 	-0.57373 	267.643 	360.996 	284.9 	539.731 	
62.2317 	-0.00415013 	-0.704775 	0.372397 	0.808045 	0.0105608 	-3.12667 	90.1475 	116.573 	-0.57373 	268.745 	360.996 	284.9 	539.731 	
62.3348 	-0.00409578 	-0.703142 	0.366474 	0.825498 	0.0107374 	-3.1266 	90.1475 	116.573 	-0.57373 	269.744 	360.996 	284.899 	539.731 	
62.4382 	-0.00404213 	-0.701406 	0.360581 	0.842951 	0.0109152 	-3.12653 	90.1474 	116.574 	-0.57373 	270.736 	360.996 	284.899 	539.731 	
62.5413 	-0.0039892 	-0.699567 	0.354718 	0.860403 	0.0110943 	-3.12646 	90.1471 	116.573 	-0.573828 	271.833 	360.996 	284.898 	539.731 	
62.6444 	-0.003937 	-0.697627 	0.348889 	0.877856 	0.0112745 	-3.1264 	90.147 	116.574 	-0.57373 	272.826 	360.996 	284.898 	539.731 	
62.7514 	-0.00388555 	-0.695584 	0.343094 	0.895308 	0.0114557 	-3.12634 	90.1467 	116.574 	-0.57373 	273.922 	360.996 	284.897 	539.731 	
62.8541 	-0.00383486 	-0.693441 	0.337336 	0.912761 	0.011638 	-3.12628 	90.1457 	116.574 	-0.57373 	274.908 	360.996 	284.896 	539.731 	
62.9571 	-0.00378496 	-0.691198 	0.331616 	0.930214 	0.0118213 	-3.12622 	90.1457 	116.574 	-0.57373 	275.918 	360.996 	284.895 	539.731 	
63.0599 	-0.00373585 	-0.688855 	0.325937 	0.947667 	0.0120055 	-3.12617 	90.1454 	116.574 	-0.57373 	277.001 	360.996 	284.895 	539.731 	
63.1638 	-0.00368755 	-0.686414 	0.320299 	0.965119 	0.0121905 	-3.12612 	90.1451 	116.574 	-0.57373 	278.014 	360.996 	284.892 	539.731 	
63.2679 	-0.00364007 	-0.683874 	0.314704 	0.982572 	0.0123764 	-3.12608 	90.1451 	116.574 	-0.57373 	279.002 	360.996 	284.891 	539.731 	
63.3699 	-0.00354766 	-0.678504 	0.303652 	1.01748 	0.0127503 	-3.126 	90.145 	116.574 	-0.57373 	280.095 	360.996 	284.889 	539.731 	
63.4722 	-0.00350274 	-0.675675 	0.298198 	1.03493 	0.0129383 	-3.12597 	90.145 	116.574 	-0.57373 	281.091 	360.996 	284.887 	539.731 	
63.5753 	-0.00345871 	-0.672751 	0.292794 	1.05238 	0.0131268 	-3.12593 	90.1449 	116.574 	-0.57373 	282.088 	360.996 	284.885 	539.731 	
63.6782 	-0.00341557 	-0.669734 	0.287442 	1.06984 	0.0133158 	-3.12591 	90.1449 	116.574 	-0.57373 	283.078 	360.996 	284.884 	539.731 	
63.7815 	-0.00337334 	-0.666623 	0.282144 	1.08729 	0.0135053 	-3.12588 	90.145 	116.574 	-0.57373 	284.173 	360.996 	284.882 	539.731 	
63.8894 	-0.00333203 	-0.663421 	0.2769 	1.10474 	0.0136953 	-3.12586 	90.145 	116.574 	-0.57373 	285.166 	360.996 	284.881 	539.731 	
63.9925 	-0.00329166 	-0.660127 	0.271714 	1.1222 	0.0138855 	-3.12584 	90.145 	116.574 	-0.57373 	286.268 	360.996 	284.879 	539.731 	
64.0955 	-0.00325222 	-0.656743 	0.266585 	1.13965 	0.0140761 	-3.12583 	90.145 	116.574 	-0.57373 	287.257 	360.996 	284.876 	539.731 	
64.1985 	-0.00321375 	-0.653271 	0.261517 	1.1571 	0.0142668 	-3.12581 	90.145 	116.575 	-0.57373 	288.255 	360.996 	284.873 	539.731 	
64.3017 	-0.00317625 	-0.64971 	0.25651 	1.17455 	0.0144578 	-3.12581 	90.145 	116.575 	-0.57373 	289.353 	360.996 	284.864 	539.731 	
64.4046 	-0.00313972 	-0.646063 	0.251565 	1.19201 	0.0146489 	-3.1258 	90.145 	116.575 	-0.57373 	290.348 	360.996 	284.856 	539.731 	
64.5077 	-0.00310419 	-0.64233 	0.246685 	1.20946 	0.01484 	-3.1258 	90.145 	116.575 	-0.57373 	291.351 	360.996 	284.851 	539.731 	
64.6107 	-0.00306966 	-0.638512 	0.241871 	1.22691 	0.0150311 	-3.1258 	90.145 	116.575 	-0.57373 	292.439 	360.996 	284.849 	539.731 	
64.7138 	-0.00303615 	-0.634611 	0.237125 	1.24437 	0.0152222 	-3.12581 	90.145 	116.575 	-0.57373 	293.439 	360.996 	284.845 	539.731 	
64.8166 	-0.00300366 	-0.630628 	0.232447 	1.26182 	0.0154132 	-3.12581 	90.145 	116.575 	-0.57373 	294.438 	360.996 	284.844 	539.731 	
64.9198 	-0.0029722 	-0.626563 	0.227839 	1.27927 	0.0156039 	-3.12583 	90.145 	116.575 	-0.57373 	295.43 	360.996 	284.843 	539.731 	
65.0229 	-0.00294178 	-0.622419 	0.223303 	1.29673 	0.0157945 	-3.12584 	90.145 	116.575 	-0.57373 	296.525 	360.996 	284.842 	539.731 	
65.1262 	-0.00291242 	-0.618196 	0.21884 	1.31418 	0.0159848 	-3.12586 	90.145 	116.576 	-0.57373 	297.525 	360.996 	284.842 	539.731 	
65.2293 	-0.00288411 	-0.613896 	0.214452 	1.33164 	0.0161747 	-3.12588 	90.145 	116.576 	-0.57373 	298.515 	360.996 	284.841 	539.731 	
65.3321 	-0.00285688 	-0.60952 	0.210139 	1.34909 	0.0163642 	-3.12591 	90.145 	116.576 	-0.57373 	299.614 	360.996 	284.841 	539.731 	
65.4351 	-0.00283072 	-0.60507 	0.205903 	1.36654 	0.0165532 	-3.12594 	90.145 	116.576 	-0.57373 	300.603 	360.996 	284.841 	539.731 	
65.5383 	-0.00280565 	-0.600546 	0.201745 	1.384 	0.0167417 	-3.12597 	90.145 	116.576 	-0.57373 	301.601 	360.996 	284.84 	539.731 	
65.6413 	-0.00278168 	-0.59595 	0.197667 	1.40145 	0.0169296 	-3.126 	90.145 	116.577 	-0.57373 	302.706 	360.996 	284.84 	539.731 	
65.7443 	-0.00275881 	-0.591284 	0.19367 	1.41891 	0.0171169 	-3.12604 	90.145 	116.577 	-0.573828 	303.694 	360.996 	284.84 	539.731 	
65.8508 	-0.00273704 	-0.586549 	0.189755 	1.43636 	0.0173035 	-3.12608 	90.145 	116.578 	-0.573828 	304.802 	360.996 	284.84 	539.731 	
65.9543 	-0.00271639 	-0.581746 	0.185923 	1.45381 	0.0174894 	-3.12613 	90.145 	116.58 	-0.573828 	305.788 	360.996 	284.839 	539.731 	
66.0581 	-0.00269685 	-0.576877 	0.182176 	1.47127 	0.0176744 	-3.12617 	90.1451 	116.581 	-0.57373 	306.785 	360.996 	284.839 	539.731 	
66.1633 	-0.00266118 	-0.566946 	0.174938 	1.50618 	0.0180419 	-3.12628 	90.1452 	116.583 	-0.57373 	307.881 	360.996 	284.839 	539.731 	
66.267 	-0.00264504 	-0.561888 	0.171451 	1.52363 	0.0182242 	-3.12634 	90.1452 	116.586 	-0.573828 	308.88 	360.996 	284.839 	539.731 	
66.369 	-0.00263005 	-0.556769 	0.168052 	1.54108 	0.0184054 	-3.1264 	90.1451 	116.589 	-0.573828 	309.872 	360.996 	284.839 	539.731 	
66.4723 	-0.00261621 	-0.551592 	0.164743 	1.55854 	0.0185856 	-3.12646 	90.1448 	116.599 	-0.573828 	310.97 	360.996 	284.839 	539.731 	
66.5752 	-0.00260351 	-0.546358 	0.161525 	1.57599 	0.0187646 	-3.12653 	90.1442 	116.606 	-0.57373 	311.971 	360.996 	284.839 	539.731 	
66.6784 	-0.00259197 	-0.541069 	0.158399 	1.59345 	0.0189424 	-3.1266 	90.1435 	116.608 	-0.57373 	312.967 	360.996 	284.839 	539.731 	
66.7818 	-0.00258159 	-0.535725 	0.155366 	1.6109 	0.019119 	-3.12667 	90.1397 	116.612 	-0.573828 	314.052 	360.996 	284.839 	539.731 	
66.8895 	-0.00257237 	-0.53033 	0.152426 	1.62836 	0.0192943 	-3.12675 	90.1367 	116.615 	-0.573828 	315.053 	360.996 	284.839 	539.731 	
66.9928 	-0.00256432 	-0.524884 	0.149581 	1.64581 	0.0194682 	-3.12683 	90.1355 	116.616 	-0.573828 	316.154 	360.996 	284.839 	539.731 	
67.0162 	-0.00256432 	-0.524884 	0.149581 	1.64581 	0.0194682 	-3.12683 	90.1355 	116.618 	-0.573828 	316.362 	360.996 	284.839 	539.731 	
67.1195 	-0.00256222 	-0.522363 	0.146793 	1.65559 	0.0195295 	-3.12336 	90.1354 	116.445 	-0.573828 	316.618 	360.996 	284.839 	539.651 	
67.2228 	-0.00256667 	-0.525558 	0.14039 	1.65559 	0.0193578 	-3.11103 	90.135 	115.551 	-0.57373 	315.836 	360.996 	284.839 	539.309 	
67.3259 	-0.0025722 	-0.528641 	0.133932 	1.65558 	0.0191844 	-3.10954 	90.1331 	114.579 	-0.573828 	314.895 	360.996 	284.839 	539.25 	
67.4288 	-0.0025788 	-0.53161 	0.127422 	1.65558 	0.0190092 	-3.10944 	90.1312 	113.594 	-0.573828 	313.9 	360.996 	284.839 	539.242 	
67.5319 	-0.00258648 	-0.534465 	0.12086 	1.65558 	0.0188323 	-3.10934 	90.1263 	112.491 	-0.573828 	312.9 	360.996 	284.839 	539.24 	
67.6347 	-0.00259524 	-0.537206 	0.11425 	1.65558 	0.0186538 	-3.10925 	90.109 	111.478 	-0.573828 	311.807 	360.996 	284.839 	539.238 	
67.7378 	-0.00260506 	-0.53983 	0.107593 	1.65557 	0.0184737 	-3.10916 	90.1056 	110.471 	-0.573828 	310.797 	360.996 	284.839 	539.237 	
67.8411 	-0.00261595 	-0.542338 	0.100892 	1.65557 	0.018292 	-3.10907 	90.1036 	109.474 	-0.573828 	309.806 	360.996 	284.839 	539.237 	
67.9445 	-0.0026279 	-0.544729 	0.0941471 	1.65557 	0.0181089 	-3.10899 	90.1029 	108.37 	-0.573828 	308.703 	360.996 	284.839 	539.237 	
68.0513 	-0.00264091 	-0.547002 	0.0873618 	1.65557 	0.0179243 	-3.10891 	90.1026 	107.366 	-0.573828 	307.699 	360.996 	284.839 	539.236 	
68.1539 	-0.00265498 	-0.549155 	0.0805381 	1.65557 	0.0177384 	-3.10883 	90.1019 	106.267 	-0.573828 	306.6 	360.996 	284.839 	539.236 	
68.257 	-0.00267009 	-0.55119 	0.0736777 	1.65557 	0.0175512 	-3.10876 	90.1015 	105.259 	-0.573828 	305.599 	360.996 	284.839 	539.236 	
68.3597 	-0.00268626 	-0.553104 	0.066783 	1.65556 	0.0173627 	-3.10869 	90.1012 	104.262 	-0.573828 	304.613 	360.996 	284.839 	539.236 	
68.4629 	-0.00270347 	-0.554898 	0.0598558 	1.65556 	0.0171731 	-3.10862 	90.1011 	103.158 	-0.573828 	303.505 	360.996 	284.839 	539.236 	
68.5661 	-0.00274098 	-0.558121 	0.0459129 	1.65556 	0.0167904 	-3.1085 	90.0998 	102.155 	-0.573828 	302.5 	360.996 	284.839 	539.236 	
68.6698 	-0.00276129 	-0.55955 	0.0389013 	1.65556 	0.0165975 	-3.10844 	90.0972 	101.145 	-0.573828 	301.507 	360.996 	284.839 	539.235 	
68.7728 	-0.0027826 	-0.560856 	0.0318659 	1.65556 	0.0164036 	-3.10839 	90.0964 	100.047 	-0.573828 	300.404 	360.996 	284.839 	539.235 	
68.8761 	-0.00280493 	-0.562039 	0.0248087 	1.65556 	0.0162089 	-3.10834 	90.0962 	99.0437 	-0.57373 	299.4 	360.996 	284.839 	539.235 	
68.9792 	-0.00282827 	-0.563099 	0.017732 	1.65556 	0.0160133 	-3.10829 	90.0962 	98.0423 	-0.573828 	298.398 	360.996 	284.839 	539.235 	
69.0822 	-0.00285261 	-0.564035 	0.0106379 	1.65556 	0.0158169 	-3.10825 	90.0963 	96.9382 	-0.573828 	297.4 	360.996 	284.839 	539.235 	
69.1895 	-0.00287793 	-0.564848 	0.00352855 	1.65555 	0.0156198 	-3.10821 	90.0962 	95.9343 	-0.573828 	296.306 	360.996 	284.839 	539.235 	
69.2923 	-0.00290424 	-0.565535 	-0.00359393 	1.65555 	0.015422 	-3.10818 	90.0962 	94.8339 	-0.573828 	295.309 	360.996 	284.839 	539.235 	
69.3953 	-0.00293153 	-0.566099 	-0.0107274 	1.65555 	0.0152237 	-3.10814 	90.0962 	93.8382 	-0.573828 	294.201 	360.996 	284.839 	539.235 	
69.4984 	-0.00295978 	-0.566538 	-0.0178695 	1.65555 	0.0150247 	-3.10811 	90.0962 	92.8395 	-0.573828 	293.204 	360.996 	284.839 	539.235 	
69.6017 	-0.00298899 	-0.566852 	-0.0250182 	1.65555 	0.0148254 	-3.10809 	90.0963 	91.8316 	-0.573828 	292.206 	360.996 	284.839 	539.235 	
69.7045 	-0.00301915 	-0.567042 	-0.0321713 	1.65555 	0.0146256 	-3.10806 	90.0976 	90.7365 	-0.573828 	291.114 	360.996 	284.839 	539.235 	
69.8075 	-0.00305025 	-0.567106 	-0.0393267 	1.65555 	0.0144254 	-3.10805 	90.0975 	89.7467 	-0.573828 	290.109 	360.996 	284.839 	539.235 	
69.9106 	-0.00308229 	-0.567046 	-0.046482 	1.65555 	0.0142249 	-3.10803 	90.0973 	88.7386 	-0.573828 	289.104 	360.996 	284.839 	539.235 	
70.0137 	-0.00311524 	-0.566861 	-0.0536353 	1.65555 	0.0140242 	-3.10802 	90.0972 	87.6321 	-0.573828 	288.002 	360.996 	284.839 	539.235 	
70.117 	-0.0031491 	-0.566551 	-0.0607841 	1.65555 	0.0138233 	-3.10801 	90.0973 	86.6433 	-0.573828 	287.001 	360.996 	284.839 	539.235 	
70.2188 	-0.00318387 	-0.566116 	-0.0679266 	1.65555 	0.0136223 	-3.10801 	90.0978 	85.6353 	-0.57373 	286.005 	360.996 	284.839 	539.235 	
70.3209 	-0.00321592 	-0.565618 	-0.0743474 	1.65555 	0.0134414 	-3.108 	90.0978 	84.6338 	-0.573828 	285.001 	360.996 	284.839 	539.235 	
70.4238 	-0.00325606 	-0.564873 	-0.0821832 	1.65555 	0.0132203 	-3.10801 	90.0976 	83.5411 	-0.573828 	283.904 	360.996 	284.839 	539.235 	
70.5268 	-0.00329346 	-0.564065 	-0.0892931 	1.65555 	0.0130193 	-3.10801 	90.0975 	82.5388 	-0.573828 	282.906 	360.996 	284.839 	539.235 	
70.6298 	-0.00333172 	-0.563133 	-0.0963877 	1.65555 	0.0128184 	-3.10802 	90.0975 	81.5444 	-0.573828 	281.906 	360.996 	284.839 	539.235 	
70.7328 	-0.00337083 	-0.562077 	-0.103465 	1.65555 	0.0126178 	-3.10803 	90.0973 	80.4361 	-0.573828 	280.901 	360.996 	284.839 	539.235 	
70.836 	-0.00341077 	-0.560898 	-0.110523 	1.65555 	0.0124174 	-3.10805 	90.0973 	79.4432 	-0.573828 	279.802 	360.996 	284.839 	539.235 	
70.9391 	-0.00345153 	-0.559596 	-0.117559 	1.65555 	0.0122173 	-3.10807 	90.0973 	78.4439 	-0.573828 	278.802 	360.996 	284.839 	539.235 	
71.0419 	-0.00349309 	-0.558172 	-0.124571 	1.65555 	0.0120176 	-3.10809 	90.0973 	77.4481 	-0.573828 	277.8 	360.996 	284.839 	539.235 	
71.1457 	-0.00353546 	-0.556625 	-0.131558 	1.65555 	0.0118183 	-3.10812 	90.0973 	76.3476 	-0.573828 	276.707 	360.996 	284.839 	539.235 	
71.2515 	-0.0035786 	-0.554956 	-0.138516 	1.65555 	0.0116195 	-3.10815 	90.0973 	75.3647 	-0.573828 	275.702 	360.996 	284.839 	539.235 	
71.3544 	-0.00362252 	-0.553167 	-0.145444 	1.65555 	0.0114213 	-3.10818 	90.0973 	74.2589 	-0.573828 	274.601 	360.996 	284.839 	539.234 	
71.457 	-0.0036672 	-0.551256 	-0.15234 	1.65555 	0.0112237 	-3.10822 	90.0973 	73.2636 	-0.573828 	273.596 	360.996 	284.839 	539.234 	
71.5601 	-0.00371261 	-0.549226 	-0.159202 	1.65555 	0.0110268 	-3.10826 	90.0973 	72.2634 	-0.573828 	272.602 	360.996 	284.839 	539.234 	
71.6639 	-0.00380562 	-0.544807 	-0.172813 	1.65555 	0.0106352 	-3.10835 	90.0973 	71.1721 	-0.573828 	271.508 	360.996 	284.839 	539.234 	
71.7669 	-0.00385318 	-0.54242 	-0.179559 	1.65555 	0.0104406 	-3.1084 	90.0973 	70.1715 	-0.573828 	270.504 	360.996 	284.839 	539.234 	
71.8688 	-0.00389306 	-0.539146 	-0.186646 	1.658 	0.0102744 	-3.10845 	90.0973 	69.1763 	-0.573828 	269.553 	360.996 	284.839 	539.234 	
71.9712 	-0.00389485 	-0.532218 	-0.195403 	1.67161 	0.0102337 	-3.10844 	90.0973 	68.1875 	-0.573828 	269.021 	360.996 	284.839 	539.234 	
72.0739 	-0.00388327 	-0.523919 	-0.20462 	1.68906 	0.0102363 	-3.10842 	90.0973 	67.0865 	-0.573828 	268.909 	360.996 	284.839 	539.234 	
72.1762 	-0.00387146 	-0.51546 	-0.21369 	1.70652 	0.0102394 	-3.10839 	90.0973 	66.0923 	-0.573828 	268.888 	360.996 	284.839 	539.234 	
72.2794 	-0.00385942 	-0.506844 	-0.222612 	1.72397 	0.0102429 	-3.10837 	90.0974 	65.0979 	-0.573828 	268.878 	360.996 	284.839 	539.234 	
72.3828 	-0.00384718 	-0.498074 	-0.231381 	1.74142 	0.0102469 	-3.10834 	90.0975 	64.1064 	-0.573828 	268.875 	360.996 	284.839 	539.234 	
