RISC-NYUAD/HeavyPayloadDrone/projects/kinova-ros/devel/lib/ne_kinova_demo/VulcanTrajectory/Vulcan1_Vicon_y19m11d13h16min37.csv
time (NSec) 	Kinova Tip Position (t_x) 	t_y 	t_z 	Kinova Tip Angle (theta_x) 	Kinova Tip Angle (theta_y) 	Kinova Tip Angle (theta_z) 	Kinova Joint Angle (j1) 	(j2) 	(j3) 	(j4) 	Kinova Joint Angle (j5) 	(j6) 	(j7)
100.011 	0.221533 	-0.221917 	0.447988 	1.74276 	1.11193 	0.207636 	283.184 	160.757 	360 	31.8955 	265.429 	257.344 	288.017 	
171.941 	-0.0109376 	-0.519514 	0.147086 	1.66267 	0.00684572 	3.13619 	90.1602 	116.744 	1.11416 	317.411 	360.792 	285.014 	539.808 	
172.813 	-0.00258574 	-0.519591 	0.146958 	1.66237 	0.0195882 	-3.12696 	90.1602 	116.744 	-0.560645 	317.411 	360.792 	285.014 	539.808 	
172.823 	-0.00258574 	-0.519591 	0.146958 	1.66237 	0.0195882 	-3.12696 	90.1602 	116.744 	-0.560645 	317.411 	360.792 	285.014 	539.808 	
172.833 	-0.00258574 	-0.519591 	0.146958 	1.66237 	0.0195882 	-3.12696 	90.1602 	116.744 	-0.561133 	317.411 	360.792 	285.014 	539.808 	
172.843 	-0.00258574 	-0.519591 	0.146958 	1.66237 	0.0195882 	-3.12696 	90.1602 	116.744 	-0.561133 	317.411 	360.792 	285.014 	539.808 	
172.853 	-0.00258574 	-0.519591 	0.146958 	1.66237 	0.0195882 	-3.12696 	90.1602 	116.744 	-0.561133 	317.411 	360.792 	285.014 	539.808 	
172.863 	-0.00258574 	-0.519591 	0.146958 	1.66237 	0.0195882 	-3.12696 	90.1602 	116.744 	-0.561133 	317.411 	360.792 	285.014 	539.808 	
172.873 	-0.00258574 	-0.519591 	0.146958 	1.66237 	0.0195882 	-3.12696 	90.1602 	116.744 	-0.561133 	317.411 	360.792 	285.014 	539.808 	
172.883 	-0.00258574 	-0.519591 	0.146958 	1.66237 	0.0195882 	-3.12696 	90.1602 	116.744 	-0.561133 	317.411 	360.792 	285.014 	539.808 	
172.893 	-0.00258574 	-0.519591 	0.146958 	1.66237 	0.0195882 	-3.12696 	90.1602 	116.744 	-0.561133 	317.411 	360.792 	285.014 	539.808 	
172.903 	-0.00258574 	-0.519591 	0.146958 	1.66237 	0.0195882 	-3.12696 	90.1602 	116.744 	-0.561133 	317.411 	360.792 	285.014 	539.808 	
172.913 	-0.00258574 	-0.519591 	0.146958 	1.66237 	0.0195882 	-3.12696 	90.1602 	116.744 	-0.56123 	317.411 	360.792 	285.014 	539.808 	
172.923 	-0.00258574 	-0.519591 	0.146958 	1.66237 	0.0195882 	-3.12696 	90.1602 	116.744 	-0.56123 	317.411 	360.792 	285.014 	539.808 	
172.933 	-0.00258574 	-0.519591 	0.146958 	1.66237 	0.0195882 	-3.12696 	90.1602 	116.744 	-0.56123 	317.411 	360.792 	285.014 	539.808 	
172.943 	-0.00258574 	-0.519591 	0.146958 	1.66237 	0.0195882 	-3.12696 	90.1602 	116.744 	-0.56123 	317.411 	360.792 	285.014 	539.808 	
172.953 	-0.00258574 	-0.519591 	0.146958 	1.66237 	0.0195882 	-3.12696 	90.1602 	116.744 	-0.56123 	317.411 	360.792 	285.014 	539.808 	
172.963 	-0.00258574 	-0.519591 	0.146958 	1.66237 	0.0195882 	-3.12696 	90.1602 	116.744 	-0.56123 	317.411 	360.792 	285.014 	539.808 	
172.973 	-0.00258574 	-0.519591 	0.146958 	1.66237 	0.0195882 	-3.12696 	90.1602 	116.744 	-0.56123 	317.411 	360.792 	285.014 	539.808 	
172.983 	-0.00258574 	-0.519591 	0.146958 	1.66237 	0.0195882 	-3.12696 	90.1602 	116.744 	-0.56123 	317.411 	360.792 	285.014 	539.808 	
172.993 	-0.00258574 	-0.519591 	0.146958 	1.66237 	0.0195882 	-3.12696 	90.1602 	116.744 	-0.56123 	317.411 	360.792 	285.014 	539.808 	
173.003 	-0.00258574 	-0.519591 	0.146958 	1.66237 	0.0195882 	-3.12696 	90.1602 	116.744 	-0.56123 	317.411 	360.792 	285.014 	539.808 	
173.013 	-0.00258574 	-0.519591 	0.146958 	1.66237 	0.0195882 	-3.12696 	90.1602 	116.744 	-0.561523 	317.411 	360.792 	285.014 	539.808 	
173.023 	-0.00258574 	-0.519591 	0.146958 	1.66237 	0.0195882 	-3.12696 	90.1602 	116.744 	-0.561523 	317.411 	360.792 	285.014 	539.808 	
173.033 	-0.00258574 	-0.519591 	0.146958 	1.66237 	0.0195882 	-3.12696 	90.1602 	116.744 	-0.561523 	317.411 	360.792 	285.014 	539.808 	
173.043 	-0.00258574 	-0.519591 	0.146958 	1.66237 	0.0195882 	-3.12696 	90.1602 	116.744 	-0.561523 	317.411 	360.792 	285.014 	539.808 	
173.053 	-0.00258574 	-0.519591 	0.146958 	1.66237 	0.0195882 	-3.12696 	90.1602 	116.744 	-0.561523 	317.411 	360.792 	285.014 	539.808 	
173.063 	-0.00258574 	-0.519591 	0.146958 	1.66237 	0.0195882 	-3.12696 	90.1602 	116.744 	-0.561523 	317.411 	360.792 	285.014 	539.808 	
173.073 	-0.00258574 	-0.519591 	0.146958 	1.66237 	0.0195882 	-3.12696 	90.1602 	116.744 	-0.561523 	317.411 	360.792 	285.014 	539.808 	
173.083 	-0.00258574 	-0.519591 	0.146958 	1.66237 	0.0195882 	-3.12696 	90.1602 	116.744 	-0.561523 	317.411 	360.792 	285.014 	539.808 	
173.093 	-0.00258574 	-0.519591 	0.146958 	1.66237 	0.0195882 	-3.12696 	90.1602 	116.744 	-0.561523 	317.411 	360.792 	285.014 	539.808 	
173.103 	-0.00258574 	-0.519591 	0.146958 	1.66237 	0.0195882 	-3.12696 	90.1602 	116.744 	-0.561523 	317.411 	360.792 	285.014 	539.808 	
173.113 	-0.00258574 	-0.519591 	0.146958 	1.66237 	0.0195882 	-3.12696 	90.1602 	116.744 	-0.561719 	317.411 	360.792 	285.014 	539.808 	
173.123 	-0.00258574 	-0.519591 	0.146958 	1.66237 	0.0195882 	-3.12696 	90.1602 	116.744 	-0.561719 	317.411 	360.792 	285.014 	539.808 	
173.133 	-0.00258574 	-0.519591 	0.146958 	1.66237 	0.0195882 	-3.12696 	90.1602 	116.744 	-0.561719 	317.411 	360.792 	285.014 	539.808 	
173.143 	-0.00258574 	-0.519591 	0.146958 	1.66237 	0.0195882 	-3.12696 	90.1602 	116.744 	-0.561719 	317.411 	360.792 	285.014 	539.808 	
173.153 	-0.00258574 	-0.519591 	0.146958 	1.66237 	0.0195882 	-3.12696 	90.1602 	116.744 	-0.561719 	317.411 	360.792 	285.014 	539.808 	
173.163 	-0.00258574 	-0.519591 	0.146958 	1.66237 	0.0195882 	-3.12696 	90.1602 	116.744 	-0.561719 	317.411 	360.792 	285.014 	539.808 	
173.173 	-0.00258574 	-0.519591 	0.146958 	1.66237 	0.0195882 	-3.12696 	90.1602 	116.744 	-0.561719 	317.411 	360.792 	285.014 	539.808 	
173.183 	-0.00258574 	-0.519591 	0.146958 	1.66237 	0.0195882 	-3.12696 	90.1602 	116.744 	-0.561719 	317.411 	360.792 	285.014 	539.808 	
173.193 	-0.00258574 	-0.519591 	0.146958 	1.66237 	0.0195882 	-3.12696 	90.1602 	116.744 	-0.561719 	317.411 	360.792 	285.014 	539.808 	
173.203 	-0.00258574 	-0.519591 	0.146958 	1.66237 	0.0195882 	-3.12696 	90.1602 	116.744 	-0.561719 	317.411 	360.792 	285.014 	539.808 	
173.213 	-0.00258574 	-0.519591 	0.146958 	1.66237 	0.0195882 	-3.12696 	90.1602 	116.744 	-0.561816 	317.411 	360.792 	285.014 	539.808 	
173.223 	-0.00258574 	-0.519591 	0.146958 	1.66237 	0.0195882 	-3.12696 	90.1602 	116.744 	-0.561816 	317.411 	360.792 	285.014 	539.808 	
173.233 	-0.00258574 	-0.519591 	0.146958 	1.66237 	0.0195882 	-3.12696 	90.1602 	116.744 	-0.561816 	317.411 	360.792 	285.014 	539.808 	
173.243 	-0.00258574 	-0.519591 	0.146958 	1.66237 	0.0195882 	-3.12696 	90.1602 	116.744 	-0.561816 	317.411 	360.792 	285.014 	539.808 	
173.253 	-0.00258574 	-0.519591 	0.146958 	1.66237 	0.0195882 	-3.12696 	90.1602 	116.744 	-0.561816 	317.411 	360.792 	285.014 	539.808 	
173.263 	-0.00258574 	-0.519591 	0.146958 	1.66237 	0.0195882 	-3.12696 	90.1602 	116.744 	-0.561816 	317.411 	360.792 	285.014 	539.808 	
173.273 	-0.00258574 	-0.519591 	0.146958 	1.66237 	0.0195882 	-3.12696 	90.1602 	116.744 	-0.561816 	317.411 	360.792 	285.014 	539.808 	
173.283 	-0.00258574 	-0.519591 	0.146958 	1.66237 	0.0195882 	-3.12696 	90.1602 	116.744 	-0.561816 	317.411 	360.792 	285.014 	539.808 	
173.293 	-0.00258574 	-0.519591 	0.146958 	1.66237 	0.0195882 	-3.12696 	90.1602 	116.744 	-0.561816 	317.411 	360.792 	285.014 	539.808 	
173.303 	-0.00258574 	-0.519591 	0.146958 	1.66237 	0.0195882 	-3.12696 	90.1602 	116.744 	-0.561816 	317.411 	360.792 	285.014 	539.808 	
173.313 	-0.00258574 	-0.519591 	0.146958 	1.66237 	0.0195882 	-3.12696 	90.1602 	116.744 	-0.561816 	317.411 	360.792 	285.014 	539.808 	
173.323 	-0.00258574 	-0.519591 	0.146958 	1.66237 	0.0195882 	-3.12696 	90.1602 	116.744 	-0.561816 	317.411 	360.792 	285.014 	539.808 	
173.333 	-0.00258574 	-0.519591 	0.146958 	1.66237 	0.0195882 	-3.12696 	90.1602 	116.744 	-0.561816 	317.411 	360.792 	285.014 	539.808 	
173.343 	-0.00258574 	-0.519591 	0.146958 	1.66237 	0.0195882 	-3.12696 	90.1602 	116.744 	-0.561816 	317.411 	360.792 	285.014 	539.808 	
173.353 	-0.00258574 	-0.519591 	0.146958 	1.66237 	0.0195882 	-3.12696 	90.1602 	116.744 	-0.561816 	317.411 	360.792 	285.014 	539.808 	
173.363 	-0.00258574 	-0.519591 	0.146958 	1.66237 	0.0195882 	-3.12696 	90.1602 	116.744 	-0.561816 	317.411 	360.792 	285.014 	539.808 	
173.373 	-0.00258574 	-0.519591 	0.146958 	1.66237 	0.0195882 	-3.12696 	90.1602 	116.744 	-0.561816 	317.411 	360.792 	285.014 	539.808 	
173.383 	-0.00258574 	-0.519591 	0.146958 	1.66237 	0.0195882 	-3.12696 	90.1602 	116.744 	-0.561816 	317.411 	360.792 	285.014 	539.808 	
173.393 	-0.00258574 	-0.519591 	0.146958 	1.66237 	0.0195882 	-3.12696 	90.1602 	116.744 	-0.561816 	317.411 	360.792 	285.014 	539.808 	
173.403 	-0.00258574 	-0.519591 	0.146958 	1.66237 	0.0195882 	-3.12696 	90.1602 	116.744 	-0.561914 	317.411 	360.792 	285.014 	539.808 	
173.413 	-0.00258574 	-0.519591 	0.146958 	1.66237 	0.0195882 	-3.12696 	90.1602 	116.744 	-0.561914 	317.411 	360.792 	285.014 	539.808 	
173.423 	-0.00258574 	-0.519591 	0.146958 	1.66237 	0.0195882 	-3.12696 	90.1602 	116.744 	-0.561914 	317.411 	360.792 	285.014 	539.808 	
173.433 	-0.00258574 	-0.519591 	0.146958 	1.66237 	0.0195882 	-3.12696 	90.1602 	116.744 	-0.561914 	317.411 	360.792 	285.014 	539.808 	
173.443 	-0.00258574 	-0.519591 	0.146958 	1.66237 	0.0195882 	-3.12696 	90.1602 	116.744 	-0.561914 	317.411 	360.792 	285.014 	539.808 	
173.453 	-0.00258574 	-0.519591 	0.146958 	1.66237 	0.0195882 	-3.12696 	90.1602 	116.744 	-0.561914 	317.411 	360.792 	285.014 	539.808 	
173.463 	-0.00258574 	-0.519591 	0.146958 	1.66237 	0.0195882 	-3.12696 	90.1602 	116.744 	-0.561914 	317.411 	360.792 	285.014 	539.808 	
173.473 	-0.00258574 	-0.519591 	0.146958 	1.66237 	0.0195882 	-3.12696 	90.1602 	116.744 	-0.561914 	317.411 	360.792 	285.014 	539.808 	
173.483 	-0.00258574 	-0.519591 	0.146958 	1.66237 	0.0195882 	-3.12696 	90.1602 	116.744 	-0.561914 	317.411 	360.792 	285.014 	539.808 	
173.493 	-0.00258574 	-0.519591 	0.146958 	1.66237 	0.0195882 	-3.12696 	90.1602 	116.744 	-0.561914 	317.411 	360.792 	285.014 	539.808 	
173.503 	-0.00258574 	-0.519591 	0.146958 	1.66237 	0.0195882 	-3.12696 	90.1602 	116.744 	-0.561914 	317.411 	360.792 	285.014 	539.808 	
173.513 	-0.00258574 	-0.519591 	0.146958 	1.66237 	0.0195882 	-3.12696 	90.1602 	116.744 	-0.561914 	317.411 	360.792 	285.014 	539.808 	
173.523 	-0.00258574 	-0.519591 	0.146958 	1.66237 	0.0195882 	-3.12696 	90.1602 	116.744 	-0.561914 	317.411 	360.792 	285.014 	539.808 	
173.533 	-0.00258574 	-0.519591 	0.146958 	1.66237 	0.0195882 	-3.12696 	90.1602 	116.744 	-0.561914 	317.411 	360.792 	285.014 	539.808 	
173.543 	-0.00258574 	-0.519591 	0.146958 	1.66237 	0.0195882 	-3.12696 	90.1602 	116.744 	-0.561914 	317.411 	360.792 	285.014 	539.808 	
173.553 	-0.00258574 	-0.519591 	0.146958 	1.66237 	0.0195882 	-3.12696 	90.1602 	116.744 	-0.561914 	317.411 	360.792 	285.014 	539.808 	
173.563 	-0.00258574 	-0.519591 	0.146958 	1.66237 	0.0195882 	-3.12696 	90.1602 	116.744 	-0.561914 	317.411 	360.792 	285.014 	539.808 	
173.573 	-0.00258574 	-0.519591 	0.146958 	1.66237 	0.0195882 	-3.12696 	90.1602 	116.744 	-0.561914 	317.411 	360.792 	285.014 	539.808 	
173.583 	-0.00258574 	-0.519591 	0.146958 	1.66237 	0.0195882 	-3.12696 	90.1602 	116.744 	-0.561914 	317.411 	360.792 	285.014 	539.808 	
173.593 	-0.00258574 	-0.519591 	0.146958 	1.66237 	0.0195882 	-3.12696 	90.1602 	116.744 	-0.561914 	317.411 	360.792 	285.014 	539.808 	
173.603 	-0.00258574 	-0.519591 	0.146958 	1.66237 	0.0195882 	-3.12696 	90.1602 	116.744 	-0.561914 	317.411 	360.792 	285.014 	539.808 	
173.613 	-0.00258574 	-0.519591 	0.146958 	1.66237 	0.0195882 	-3.12696 	90.1602 	116.744 	-0.561914 	317.411 	360.792 	285.014 	539.808 	
173.623 	-0.00258574 	-0.519591 	0.146958 	1.66237 	0.0195882 	-3.12696 	90.1602 	116.744 	-0.561914 	317.411 	360.792 	285.014 	539.808 	
173.633 	-0.00258574 	-0.519591 	0.146958 	1.66237 	0.0195882 	-3.12696 	90.1602 	116.744 	-0.561914 	317.411 	360.792 	285.014 	539.808 	
173.643 	-0.00258574 	-0.519591 	0.146958 	1.66237 	0.0195882 	-3.12696 	90.1602 	116.744 	-0.561914 	317.411 	360.792 	285.014 	539.808 	
173.653 	-0.00258574 	-0.519591 	0.146958 	1.66237 	0.0195882 	-3.12696 	90.1602 	116.744 	-0.561914 	317.411 	360.792 	285.014 	539.808 	
173.663 	-0.00258574 	-0.519591 	0.146958 	1.66237 	0.0195882 	-3.12696 	90.1602 	116.744 	-0.561914 	317.411 	360.792 	285.014 	539.808 	
173.673 	-0.00258574 	-0.519591 	0.146958 	1.66237 	0.0195882 	-3.12696 	90.1602 	116.744 	-0.561914 	317.411 	360.792 	285.014 	539.808 	
173.683 	-0.00258574 	-0.519591 	0.146958 	1.66237 	0.0195882 	-3.12696 	90.1602 	116.744 	-0.561914 	317.411 	360.792 	285.014 	539.808 	
173.693 	-0.00258574 	-0.519591 	0.146958 	1.66237 	0.0195882 	-3.12696 	90.1602 	116.744 	-0.561914 	317.411 	360.792 	285.014 	539.808 	
173.703 	-0.00258574 	-0.519591 	0.146958 	1.66237 	0.0195882 	-3.12696 	90.1602 	116.744 	-0.561914 	317.411 	360.792 	285.014 	539.808 	
173.713 	-0.00258574 	-0.519591 	0.146958 	1.66237 	0.0195882 	-3.12696 	90.1602 	116.744 	-0.562012 	317.411 	360.792 	285.014 	539.808 	
173.723 	-0.00258574 	-0.519591 	0.146958 	1.66237 	0.0195882 	-3.12696 	90.1602 	116.744 	-0.562012 	317.411 	360.792 	285.014 	539.808 	
173.733 	-0.00258574 	-0.519591 	0.146958 	1.66237 	0.0195882 	-3.12696 	90.1602 	116.744 	-0.562012 	317.411 	360.792 	285.014 	539.808 	
173.743 	-0.00258574 	-0.519591 	0.146958 	1.66237 	0.0195882 	-3.12696 	90.1602 	116.744 	-0.562012 	317.411 	360.792 	285.014 	539.808 	
173.753 	-0.00258574 	-0.519591 	0.146958 	1.66237 	0.0195882 	-3.12696 	90.1602 	116.744 	-0.562012 	317.411 	360.792 	285.014 	539.808 	
173.763 	-0.00258574 	-0.519591 	0.146958 	1.66237 	0.0195882 	-3.12696 	90.1602 	116.744 	-0.562012 	317.411 	360.792 	285.014 	539.808 	
173.773 	-0.00258574 	-0.519591 	0.146958 	1.66237 	0.0195882 	-3.12696 	90.1602 	116.744 	-0.562012 	317.411 	360.792 	285.014 	539.808 	
173.783 	-0.00258574 	-0.519591 	0.146958 	1.66237 	0.0195882 	-3.12696 	90.1602 	116.744 	-0.562012 	317.411 	360.792 	285.014 	539.808 	
173.793 	-0.00258574 	-0.519591 	0.146958 	1.66237 	0.0195882 	-3.12696 	90.1602 	116.744 	-0.562012 	317.411 	360.792 	285.014 	539.808 	
173.803 	-0.00258574 	-0.519591 	0.146958 	1.66237 	0.0195882 	-3.12696 	90.1602 	116.744 	-0.562012 	317.411 	360.792 	285.014 	539.808 	
173.813 	-0.00258574 	-0.519591 	0.146958 	1.66237 	0.0195882 	-3.12696 	90.1602 	116.744 	-0.562012 	317.411 	360.792 	285.014 	539.808 	
173.823 	-0.00258574 	-0.519591 	0.146958 	1.66237 	0.0195882 	-3.12696 	90.1602 	116.744 	-0.562012 	317.411 	360.792 	285.014 	539.808 	
173.833 	-0.00258574 	-0.519591 	0.146958 	1.66237 	0.0195882 	-3.12696 	90.1602 	116.744 	-0.562012 	317.411 	360.792 	285.014 	539.808 	
173.843 	-0.00258574 	-0.519591 	0.146958 	1.66237 	0.0195882 	-3.12696 	90.1602 	116.744 	-0.562012 	317.411 	360.792 	285.014 	539.808 	
173.853 	-0.00258574 	-0.519591 	0.146958 	1.66237 	0.0195882 	-3.12696 	90.1602 	116.744 	-0.562012 	317.411 	360.792 	285.014 	539.808 	
173.863 	-0.00258574 	-0.519591 	0.146958 	1.66237 	0.0195882 	-3.12696 	90.1602 	116.744 	-0.562012 	317.411 	360.792 	285.014 	539.808 	
173.873 	-0.00258574 	-0.519591 	0.146958 	1.66237 	0.0195882 	-3.12696 	90.1602 	116.744 	-0.562012 	317.411 	360.792 	285.014 	539.808 	
173.883 	-0.00258574 	-0.519591 	0.146958 	1.66237 	0.0195882 	-3.12696 	90.1602 	116.744 	-0.562012 	317.411 	360.792 	285.014 	539.808 	
173.893 	-0.00258574 	-0.519591 	0.146958 	1.66237 	0.0195882 	-3.12696 	90.1602 	116.744 	-0.562012 	317.411 	360.792 	285.014 	539.808 	
173.903 	-0.00258574 	-0.519591 	0.146958 	1.66237 	0.0195882 	-3.12696 	90.1602 	116.744 	-0.562012 	317.411 	360.792 	285.014 	539.808 	
173.913 	-0.00258574 	-0.519591 	0.146958 	1.66237 	0.0195882 	-3.12696 	90.1602 	116.744 	-0.562109 	317.411 	360.792 	285.014 	539.808 	
173.923 	-0.00258574 	-0.519591 	0.146958 	1.66237 	0.0195882 	-3.12696 	90.1602 	116.744 	-0.562109 	317.411 	360.792 	285.014 	539.808 	
173.933 	-0.00258574 	-0.519591 	0.146958 	1.66237 	0.0195882 	-3.12696 	90.1602 	116.744 	-0.562109 	317.411 	360.792 	285.014 	539.808 	
173.943 	-0.00258574 	-0.519591 	0.146958 	1.66237 	0.0195882 	-3.12696 	90.1602 	116.744 	-0.562109 	317.411 	360.792 	285.014 	539.808 	
173.953 	-0.00258574 	-0.519591 	0.146958 	1.66237 	0.0195882 	-3.12696 	90.1602 	116.744 	-0.562109 	317.411 	360.792 	285.014 	539.808 	
173.963 	-0.00258574 	-0.519591 	0.146958 	1.66237 	0.0195882 	-3.12696 	90.1602 	116.744 	-0.562109 	317.411 	360.792 	285.014 	539.808 	
173.973 	-0.00258574 	-0.519591 	0.146958 	1.66237 	0.0195882 	-3.12696 	90.1602 	116.744 	-0.562109 	317.411 	360.792 	285.014 	539.808 	
173.983 	-0.00258574 	-0.519591 	0.146958 	1.66237 	0.0195882 	-3.12696 	90.1602 	116.744 	-0.562109 	317.411 	360.792 	285.014 	539.808 	
173.993 	-0.00258574 	-0.519591 	0.146958 	1.66237 	0.0195882 	-3.12696 	90.1602 	116.744 	-0.562109 	317.411 	360.792 	285.014 	539.808 	
174.003 	-0.00258574 	-0.519591 	0.146958 	1.66237 	0.0195882 	-3.12696 	90.1602 	116.744 	-0.562109 	317.411 	360.792 	285.014 	539.808 	
174.013 	-0.00258574 	-0.519591 	0.146958 	1.66237 	0.0195882 	-3.12696 	90.1602 	116.744 	-0.562109 	317.411 	360.792 	285.014 	539.808 	
174.023 	-0.00258574 	-0.519591 	0.146958 	1.66237 	0.0195882 	-3.12696 	90.1602 	116.744 	-0.562109 	317.411 	360.792 	285.014 	539.808 	
174.033 	-0.00258574 	-0.519591 	0.146958 	1.66237 	0.0195882 	-3.12696 	90.1602 	116.744 	-0.562109 	317.411 	360.792 	285.014 	539.808 	
174.043 	-0.00258574 	-0.519591 	0.146958 	1.66237 	0.0195882 	-3.12696 	90.1602 	116.744 	-0.562109 	317.411 	360.792 	285.014 	539.808 	
174.053 	-0.00258574 	-0.519591 	0.146958 	1.66237 	0.0195882 	-3.12696 	90.1602 	116.744 	-0.562109 	317.411 	360.792 	285.014 	539.808 	
174.063 	-0.00258574 	-0.519591 	0.146958 	1.66237 	0.0195882 	-3.12696 	90.1602 	116.744 	-0.562109 	317.411 	360.792 	285.014 	539.808 	
174.073 	-0.00258574 	-0.519591 	0.146958 	1.66237 	0.0195882 	-3.12696 	90.1602 	116.744 	-0.562109 	317.411 	360.792 	285.014 	539.808 	
174.083 	-0.00258574 	-0.519591 	0.146958 	1.66237 	0.0195882 	-3.12696 	90.1602 	116.744 	-0.562109 	317.411 	360.792 	285.014 	539.808 	
174.093 	-0.00258574 	-0.519591 	0.146958 	1.66237 	0.0195882 	-3.12696 	90.1602 	116.744 	-0.562109 	317.411 	360.792 	285.014 	539.808 	
174.103 	-0.00258574 	-0.519591 	0.146958 	1.66237 	0.0195882 	-3.12696 	90.1602 	116.744 	-0.562109 	317.411 	360.792 	285.014 	539.808 	
174.113 	-0.00258574 	-0.519591 	0.146958 	1.66237 	0.0195882 	-3.12696 	90.1602 	116.744 	-0.562109 	317.411 	360.792 	285.014 	539.808 	
174.123 	-0.00258574 	-0.519591 	0.146958 	1.66237 	0.0195882 	-3.12696 	90.1602 	116.744 	-0.562109 	317.411 	360.792 	285.014 	539.808 	
174.133 	-0.00258574 	-0.519591 	0.146958 	1.66237 	0.0195882 	-3.12696 	90.1602 	116.744 	-0.562109 	317.411 	360.792 	285.014 	539.808 	
174.143 	-0.00258574 	-0.519591 	0.146958 	1.66237 	0.0195882 	-3.12696 	90.1602 	116.744 	-0.562109 	317.411 	360.792 	285.014 	539.808 	
174.153 	-0.00258574 	-0.519591 	0.146958 	1.66237 	0.0195882 	-3.12696 	90.1602 	116.744 	-0.562109 	317.411 	360.792 	285.014 	539.808 	
174.163 	-0.00258574 	-0.519591 	0.146958 	1.66237 	0.0195882 	-3.12696 	90.1602 	116.744 	-0.562109 	317.411 	360.792 	285.014 	539.808 	
174.173 	-0.00258574 	-0.519591 	0.146958 	1.66237 	0.0195882 	-3.12696 	90.1602 	116.744 	-0.562109 	317.411 	360.792 	285.014 	539.808 	
174.183 	-0.00258574 	-0.519591 	0.146958 	1.66237 	0.0195882 	-3.12696 	90.1602 	116.744 	-0.562109 	317.411 	360.792 	285.014 	539.808 	
174.193 	-0.00258574 	-0.519591 	0.146958 	1.66237 	0.0195882 	-3.12696 	90.1602 	116.744 	-0.562109 	317.411 	360.792 	285.014 	539.808 	
174.203 	-0.00258574 	-0.519591 	0.146958 	1.66237 	0.0195882 	-3.12696 	90.1602 	116.744 	-0.562109 	317.411 	360.792 	285.014 	539.808 	
174.213 	-0.00258574 	-0.519591 	0.146958 	1.66237 	0.0195882 	-3.12696 	90.1602 	116.744 	-0.562109 	317.411 	360.792 	285.014 	539.808 	
174.223 	-0.00258574 	-0.519591 	0.146958 	1.66237 	0.0195882 	-3.12696 	90.1602 	116.744 	-0.562109 	317.411 	360.792 	285.014 	539.808 	
174.233 	-0.00258574 	-0.519591 	0.146958 	1.66237 	0.0195882 	-3.12696 	90.1602 	116.744 	-0.562109 	317.411 	360.792 	285.014 	539.808 	
174.243 	-0.00258574 	-0.519591 	0.146958 	1.66237 	0.0195882 	-3.12696 	90.1602 	116.744 	-0.562109 	317.411 	360.792 	285.014 	539.808 	
174.253 	-0.00258574 	-0.519591 	0.146958 	1.66237 	0.0195882 	-3.12696 	90.1602 	116.744 	-0.562109 	317.411 	360.792 	285.014 	539.808 	
174.263 	-0.00258574 	-0.519591 	0.146958 	1.66237 	0.0195882 	-3.12696 	90.1602 	116.744 	-0.562109 	317.411 	360.792 	285.014 	539.808 	
174.273 	-0.00258574 	-0.519591 	0.146958 	1.66237 	0.0195882 	-3.12696 	90.1602 	116.744 	-0.562109 	317.411 	360.792 	285.014 	539.808 	
174.283 	-0.00258574 	-0.519591 	0.146958 	1.66237 	0.0195882 	-3.12696 	90.1602 	116.744 	-0.562109 	317.411 	360.792 	285.014 	539.808 	
174.293 	-0.00258574 	-0.519591 	0.146958 	1.66237 	0.0195882 	-3.12696 	90.1602 	116.744 	-0.562109 	317.411 	360.792 	285.014 	539.808 	
174.303 	-0.00258574 	-0.519591 	0.146958 	1.66237 	0.0195882 	-3.12696 	90.1602 	116.744 	-0.562207 	317.411 	360.792 	285.014 	539.808 	
174.313 	-0.00258574 	-0.519591 	0.146958 	1.66237 	0.0195882 	-3.12696 	90.1602 	116.744 	-0.562207 	317.411 	360.792 	285.014 	539.808 	
174.323 	-0.00258574 	-0.519591 	0.146958 	1.66237 	0.0195882 	-3.12696 	90.1602 	116.744 	-0.562207 	317.411 	360.792 	285.014 	539.808 	
174.333 	-0.00258574 	-0.519591 	0.146958 	1.66237 	0.0195882 	-3.12696 	90.1602 	116.744 	-0.562207 	317.411 	360.792 	285.014 	539.808 	
174.343 	-0.00258574 	-0.519591 	0.146958 	1.66237 	0.0195882 	-3.12696 	90.1602 	116.744 	-0.562207 	317.411 	360.792 	285.014 	539.808 	
174.353 	-0.00258574 	-0.519591 	0.146958 	1.66237 	0.0195882 	-3.12696 	90.1602 	116.744 	-0.562207 	317.411 	360.792 	285.014 	539.808 	
174.363 	-0.00258574 	-0.519591 	0.146958 	1.66237 	0.0195882 	-3.12696 	90.1602 	116.744 	-0.562207 	317.411 	360.792 	285.014 	539.808 	
174.373 	-0.00258574 	-0.519591 	0.146958 	1.66237 	0.0195882 	-3.12696 	90.1602 	116.744 	-0.562207 	317.411 	360.792 	285.014 	539.808 	
174.383 	-0.00258574 	-0.519591 	0.146958 	1.66237 	0.0195882 	-3.12696 	90.1602 	116.744 	-0.562207 	317.411 	360.792 	285.014 	539.808 	
174.393 	-0.00258574 	-0.519591 	0.146958 	1.66237 	0.0195882 	-3.12696 	90.1602 	116.744 	-0.562207 	317.411 	360.792 	285.014 	539.808 	
174.403 	-0.00258574 	-0.519591 	0.146958 	1.66237 	0.0195882 	-3.12696 	90.1602 	116.744 	-0.562207 	317.411 	360.792 	285.014 	539.808 	
174.413 	-0.00258574 	-0.519591 	0.146958 	1.66237 	0.0195882 	-3.12696 	90.1602 	116.744 	-0.562207 	317.411 	360.792 	285.014 	539.808 	
174.423 	-0.00258574 	-0.519591 	0.146958 	1.66237 	0.0195882 	-3.12696 	90.1602 	116.744 	-0.562207 	317.411 	360.792 	285.014 	539.808 	
174.433 	-0.00258574 	-0.519591 	0.146958 	1.66237 	0.0195882 	-3.12696 	90.1602 	116.744 	-0.562207 	317.411 	360.792 	285.014 	539.808 	
174.443 	-0.00258574 	-0.519591 	0.146958 	1.66237 	0.0195882 	-3.12696 	90.1602 	116.744 	-0.562207 	317.411 	360.792 	285.014 	539.808 	
174.453 	-0.00258574 	-0.519591 	0.146958 	1.66237 	0.0195882 	-3.12696 	90.1602 	116.744 	-0.562207 	317.411 	360.792 	285.014 	539.808 	
174.463 	-0.00258574 	-0.519591 	0.146958 	1.66237 	0.0195882 	-3.12696 	90.1602 	116.744 	-0.562207 	317.411 	360.792 	285.014 	539.808 	
174.473 	-0.00258574 	-0.519591 	0.146958 	1.66237 	0.0195882 	-3.12696 	90.1602 	116.744 	-0.562207 	317.411 	360.792 	285.014 	539.808 	
174.483 	-0.00258574 	-0.519591 	0.146958 	1.66237 	0.0195882 	-3.12696 	90.1602 	116.744 	-0.562207 	317.411 	360.792 	285.014 	539.808 	
174.493 	-0.00258574 	-0.519591 	0.146958 	1.66237 	0.0195882 	-3.12696 	90.1602 	116.744 	-0.562207 	317.411 	360.792 	285.014 	539.808 	
174.503 	-0.00258574 	-0.519591 	0.146958 	1.66237 	0.0195882 	-3.12696 	90.1602 	116.744 	-0.562207 	317.411 	360.792 	285.014 	539.808 	
174.513 	-0.00258574 	-0.519591 	0.146958 	1.66237 	0.0195882 	-3.12696 	90.1602 	116.744 	-0.562207 	317.411 	360.792 	285.014 	539.808 	
174.523 	-0.00258574 	-0.519591 	0.146958 	1.66237 	0.0195882 	-3.12696 	90.1602 	116.744 	-0.562207 	317.411 	360.792 	285.014 	539.808 	
174.533 	-0.00258574 	-0.519591 	0.146958 	1.66237 	0.0195882 	-3.12696 	90.1602 	116.744 	-0.562207 	317.411 	360.792 	285.014 	539.808 	
174.543 	-0.00258574 	-0.519591 	0.146958 	1.66237 	0.0195882 	-3.12696 	90.1602 	116.744 	-0.562207 	317.411 	360.792 	285.014 	539.808 	
174.553 	-0.00258574 	-0.519591 	0.146958 	1.66237 	0.0195882 	-3.12696 	90.1602 	116.744 	-0.562207 	317.411 	360.792 	285.014 	539.808 	
174.563 	-0.00258574 	-0.519591 	0.146958 	1.66237 	0.0195882 	-3.12696 	90.1602 	116.744 	-0.562207 	317.411 	360.792 	285.014 	539.808 	
174.573 	-0.00258574 	-0.519591 	0.146958 	1.66237 	0.0195882 	-3.12696 	90.1602 	116.744 	-0.562207 	317.411 	360.792 	285.014 	539.808 	
174.583 	-0.00258574 	-0.519591 	0.146958 	1.66237 	0.0195882 	-3.12696 	90.1602 	116.744 	-0.562207 	317.411 	360.792 	285.014 	539.808 	
174.593 	-0.00258574 	-0.519591 	0.146958 	1.66237 	0.0195882 	-3.12696 	90.1602 	116.744 	-0.562207 	317.411 	360.792 	285.014 	539.808 	
174.603 	-0.00258574 	-0.519591 	0.146958 	1.66237 	0.0195882 	-3.12696 	90.1602 	116.744 	-0.562207 	317.411 	360.792 	285.014 	539.808 	
174.613 	-0.00258574 	-0.519591 	0.146958 	1.66237 	0.0195882 	-3.12696 	90.1602 	116.744 	-0.562305 	317.411 	360.792 	285.014 	539.808 	
174.623 	-0.00258574 	-0.519591 	0.146958 	1.66237 	0.0195882 	-3.12696 	90.1602 	116.744 	-0.562305 	317.411 	360.792 	285.014 	539.808 	
174.633 	-0.00258574 	-0.519591 	0.146958 	1.66237 	0.0195882 	-3.12696 	90.1602 	116.744 	-0.562305 	317.411 	360.792 	285.014 	539.808 	
174.643 	-0.00258574 	-0.519591 	0.146958 	1.66237 	0.0195882 	-3.12696 	90.1602 	116.744 	-0.562305 	317.411 	360.792 	285.014 	539.808 	
174.653 	-0.00258574 	-0.519591 	0.146958 	1.66237 	0.0195882 	-3.12696 	90.1602 	116.744 	-0.562305 	317.411 	360.792 	285.014 	539.808 	
174.663 	-0.00258574 	-0.519591 	0.146958 	1.66237 	0.0195882 	-3.12696 	90.1602 	116.744 	-0.562305 	317.411 	360.792 	285.014 	539.808 	
174.673 	-0.00258574 	-0.519591 	0.146958 	1.66237 	0.0195882 	-3.12696 	90.1602 	116.744 	-0.562305 	317.411 	360.792 	285.014 	539.808 	
174.683 	-0.00258574 	-0.519591 	0.146958 	1.66237 	0.0195882 	-3.12696 	90.1602 	116.744 	-0.562305 	317.411 	360.792 	285.014 	539.808 	
174.693 	-0.00258574 	-0.519591 	0.146958 	1.66237 	0.0195882 	-3.12696 	90.1602 	116.744 	-0.562305 	317.411 	360.792 	285.014 	539.808 	
174.703 	-0.00258574 	-0.519591 	0.146958 	1.66237 	0.0195882 	-3.12696 	90.1602 	116.744 	-0.562305 	317.411 	360.792 	285.014 	539.808 	
174.713 	-0.00258574 	-0.519591 	0.146958 	1.66237 	0.0195882 	-3.12696 	90.1602 	116.744 	-0.562305 	317.411 	360.792 	285.014 	539.808 	
174.723 	-0.00258574 	-0.519591 	0.146958 	1.66237 	0.0195882 	-3.12696 	90.1602 	116.744 	-0.562305 	317.411 	360.792 	285.014 	539.808 	
174.733 	-0.00258574 	-0.519591 	0.146958 	1.66237 	0.0195882 	-3.12696 	90.1602 	116.744 	-0.562305 	317.411 	360.792 	285.014 	539.808 	
174.743 	-0.00258574 	-0.519591 	0.146958 	1.66237 	0.0195882 	-3.12696 	90.1602 	116.744 	-0.562305 	317.411 	360.792 	285.014 	539.808 	
174.753 	-0.00258574 	-0.519591 	0.146958 	1.66237 	0.0195882 	-3.12696 	90.1602 	116.744 	-0.562305 	317.411 	360.792 	285.014 	539.808 	
174.763 	-0.00258574 	-0.519591 	0.146958 	1.66237 	0.0195882 	-3.12696 	90.1602 	116.744 	-0.562305 	317.411 	360.792 	285.014 	539.808 	
174.773 	-0.00258574 	-0.519591 	0.146958 	1.66237 	0.0195882 	-3.12696 	90.1602 	116.744 	-0.562305 	317.411 	360.792 	285.014 	539.808 	
174.783 	-0.00258574 	-0.519591 	0.146958 	1.66237 	0.0195882 	-3.12696 	90.1602 	116.744 	-0.562305 	317.411 	360.792 	285.014 	539.808 	
174.793 	-0.00258574 	-0.519591 	0.146958 	1.66237 	0.0195882 	-3.12696 	90.1602 	116.744 	-0.562305 	317.411 	360.792 	285.014 	539.808 	
174.803 	-0.00258574 	-0.519591 	0.146958 	1.66237 	0.0195882 	-3.12696 	90.1602 	116.744 	-0.562305 	317.411 	360.792 	285.014 	539.808 	
174.813 	-0.00258574 	-0.519591 	0.146958 	1.66237 	0.0195882 	-3.12696 	90.1602 	116.744 	-0.562305 	317.411 	360.792 	285.014 	539.808 	
174.823 	-0.00258574 	-0.519591 	0.146958 	1.66237 	0.0195882 	-3.12696 	90.1602 	116.744 	-0.562305 	317.411 	360.792 	285.014 	539.808 	
174.833 	-0.00258574 	-0.519591 	0.146958 	1.66237 	0.0195882 	-3.12696 	90.1602 	116.744 	-0.562305 	317.411 	360.792 	285.014 	539.808 	
174.843 	-0.00258574 	-0.519591 	0.146958 	1.66237 	0.0195882 	-3.12696 	90.1602 	116.744 	-0.562305 	317.411 	360.792 	285.014 	539.808 	
174.853 	-0.00258574 	-0.519591 	0.146958 	1.66237 	0.0195882 	-3.12696 	90.1602 	116.744 	-0.562305 	317.411 	360.792 	285.014 	539.808 	
174.863 	-0.00258574 	-0.519591 	0.146958 	1.66237 	0.0195882 	-3.12696 	90.1602 	116.744 	-0.562305 	317.411 	360.792 	285.014 	539.808 	
174.873 	-0.00258574 	-0.519591 	0.146958 	1.66237 	0.0195882 	-3.12696 	90.1602 	116.744 	-0.562305 	317.411 	360.792 	285.014 	539.808 	
174.883 	-0.00258574 	-0.519591 	0.146958 	1.66237 	0.0195882 	-3.12696 	90.1602 	116.744 	-0.562305 	317.411 	360.792 	285.014 	539.808 	
174.893 	-0.00258574 	-0.519591 	0.146958 	1.66237 	0.0195882 	-3.12696 	90.1602 	116.744 	-0.562305 	317.411 	360.792 	285.014 	539.808 	
174.903 	-0.00258574 	-0.519591 	0.146958 	1.66237 	0.0195882 	-3.12696 	90.1602 	116.744 	-0.562305 	317.411 	360.792 	285.014 	539.808 	
174.913 	-0.00258574 	-0.519591 	0.146958 	1.66237 	0.0195882 	-3.12696 	90.1602 	116.744 	-0.562305 	317.411 	360.792 	285.014 	539.808 	
174.923 	-0.00258574 	-0.519591 	0.146958 	1.66237 	0.0195882 	-3.12696 	90.1602 	116.744 	-0.562305 	317.411 	360.792 	285.014 	539.808 	
174.933 	-0.00258574 	-0.519591 	0.146958 	1.66237 	0.0195882 	-3.12696 	90.1602 	116.744 	-0.562305 	317.411 	360.792 	285.014 	539.808 	
174.943 	-0.00258574 	-0.519591 	0.146958 	1.66237 	0.0195882 	-3.12696 	90.1602 	116.744 	-0.562305 	317.411 	360.792 	285.014 	539.808 	
174.953 	-0.00258574 	-0.519591 	0.146958 	1.66237 	0.0195882 	-3.12696 	90.1602 	116.744 	-0.562305 	317.411 	360.792 	285.014 	539.808 	
174.963 	-0.00258574 	-0.519591 	0.146958 	1.66237 	0.0195882 	-3.12696 	90.1602 	116.744 	-0.562305 	317.411 	360.792 	285.014 	539.808 	
174.973 	-0.00258574 	-0.519591 	0.146958 	1.66237 	0.0195882 	-3.12696 	90.1602 	116.744 	-0.562305 	317.411 	360.792 	285.014 	539.808 	
174.983 	-0.00258574 	-0.519591 	0.146958 	1.66237 	0.0195882 	-3.12696 	90.1602 	116.744 	-0.562305 	317.411 	360.792 	285.014 	539.808 	
174.993 	-0.00258574 	-0.519591 	0.146958 	1.66237 	0.0195882 	-3.12696 	90.1602 	116.744 	-0.562305 	317.411 	360.792 	285.014 	539.808 	
175.003 	-0.00258574 	-0.519591 	0.146958 	1.66237 	0.0195882 	-3.12696 	90.1602 	116.744 	-0.562305 	317.411 	360.792 	285.014 	539.808 	
175.013 	-0.00258574 	-0.519591 	0.146958 	1.66237 	0.0195882 	-3.12696 	90.1602 	116.744 	-0.562402 	317.411 	360.792 	285.014 	539.808 	
175.023 	-0.00258574 	-0.519591 	0.146958 	1.66237 	0.0195882 	-3.12696 	90.1602 	116.744 	-0.562402 	317.411 	360.792 	285.014 	539.808 	
175.033 	-0.00258574 	-0.519591 	0.146958 	1.66237 	0.0195882 	-3.12696 	90.1602 	116.744 	-0.562402 	317.411 	360.792 	285.014 	539.808 	
175.043 	-0.00258574 	-0.519591 	0.146958 	1.66237 	0.0195882 	-3.12696 	90.1602 	116.744 	-0.562402 	317.411 	360.792 	285.014 	539.808 	
175.053 	-0.00258574 	-0.519591 	0.146958 	1.66237 	0.0195882 	-3.12696 	90.1602 	116.744 	-0.562402 	317.411 	360.792 	285.014 	539.808 	
175.063 	-0.00258574 	-0.519591 	0.146958 	1.66237 	0.0195882 	-3.12696 	90.1602 	116.744 	-0.562402 	317.411 	360.792 	285.014 	539.808 	
175.073 	-0.00258574 	-0.519591 	0.146958 	1.66237 	0.0195882 	-3.12696 	90.1602 	116.744 	-0.562402 	317.411 	360.792 	285.014 	539.808 	
175.083 	-0.00258574 	-0.519591 	0.146958 	1.66237 	0.0195882 	-3.12696 	90.1602 	116.744 	-0.562402 	317.411 	360.792 	285.014 	539.808 	
175.093 	-0.00258574 	-0.519591 	0.146958 	1.66237 	0.0195882 	-3.12696 	90.1602 	116.744 	-0.562402 	317.411 	360.792 	285.014 	539.808 	
175.103 	-0.00258574 	-0.519591 	0.146958 	1.66237 	0.0195882 	-3.12696 	90.1602 	116.744 	-0.562402 	317.411 	360.792 	285.014 	539.808 	
175.113 	-0.00258574 	-0.519591 	0.146958 	1.66237 	0.0195882 	-3.12696 	90.1602 	116.744 	-0.562402 	317.411 	360.792 	285.014 	539.808 	
175.123 	-0.00258574 	-0.519591 	0.146958 	1.66237 	0.0195882 	-3.12696 	90.1602 	116.744 	-0.562402 	317.411 	360.792 	285.014 	539.808 	
175.133 	-0.00258574 	-0.519591 	0.146958 	1.66237 	0.0195882 	-3.12696 	90.1602 	116.744 	-0.562402 	317.411 	360.792 	285.014 	539.808 	
175.143 	-0.00258574 	-0.519591 	0.146958 	1.66237 	0.0195882 	-3.12696 	90.1602 	116.744 	-0.562402 	317.411 	360.792 	285.014 	539.808 	
175.153 	-0.00258574 	-0.519591 	0.146958 	1.66237 	0.0195882 	-3.12696 	90.1602 	116.744 	-0.562402 	317.411 	360.792 	285.014 	539.808 	
175.163 	-0.00258574 	-0.519591 	0.146958 	1.66237 	0.0195882 	-3.12696 	90.1602 	116.744 	-0.562402 	317.411 	360.792 	285.014 	539.808 	
175.173 	-0.00258574 	-0.519591 	0.146958 	1.66237 	0.0195882 	-3.12696 	90.1602 	116.744 	-0.562402 	317.411 	360.792 	285.014 	539.808 	
175.183 	-0.00258574 	-0.519591 	0.146958 	1.66237 	0.0195882 	-3.12696 	90.1602 	116.744 	-0.562402 	317.411 	360.792 	285.014 	539.808 	
175.193 	-0.00258574 	-0.519591 	0.146958 	1.66237 	0.0195882 	-3.12696 	90.1602 	116.744 	-0.562402 	317.411 	360.792 	285.014 	539.808 	
175.203 	-0.00258574 	-0.519591 	0.146958 	1.66237 	0.0195882 	-3.12696 	90.1602 	116.744 	-0.562402 	317.411 	360.792 	285.014 	539.808 	
175.213 	-0.00258574 	-0.519591 	0.146958 	1.66237 	0.0195882 	-3.12696 	90.1602 	116.744 	-0.562402 	317.411 	360.792 	285.014 	539.808 	
175.223 	-0.00258574 	-0.519591 	0.146958 	1.66237 	0.0195882 	-3.12696 	90.1602 	116.744 	-0.562402 	317.411 	360.792 	285.014 	539.808 	
175.233 	-0.00258574 	-0.519591 	0.146958 	1.66237 	0.0195882 	-3.12696 	90.1602 	116.744 	-0.562402 	317.411 	360.792 	285.014 	539.808 	
175.243 	-0.00258574 	-0.519591 	0.146958 	1.66237 	0.0195882 	-3.12696 	90.1602 	116.744 	-0.562402 	317.411 	360.792 	285.014 	539.808 	
175.253 	-0.00258574 	-0.519591 	0.146958 	1.66237 	0.0195882 	-3.12696 	90.1602 	116.744 	-0.562402 	317.411 	360.792 	285.014 	539.808 	
175.263 	-0.00258574 	-0.519591 	0.146958 	1.66237 	0.0195882 	-3.12696 	90.1602 	116.744 	-0.562402 	317.411 	360.792 	285.014 	539.808 	
175.273 	-0.00258574 	-0.519591 	0.146958 	1.66237 	0.0195882 	-3.12696 	90.1602 	116.744 	-0.562402 	317.411 	360.792 	285.014 	539.808 	
175.283 	-0.00258574 	-0.519591 	0.146958 	1.66237 	0.0195882 	-3.12696 	90.1602 	116.744 	-0.562402 	317.411 	360.792 	285.014 	539.808 	
175.293 	-0.00258574 	-0.519591 	0.146958 	1.66237 	0.0195882 	-3.12696 	90.1602 	116.744 	-0.562402 	317.411 	360.792 	285.014 	539.808 	
175.303 	-0.00258574 	-0.519591 	0.146958 	1.66237 	0.0195882 	-3.12696 	90.1602 	116.744 	-0.562402 	317.411 	360.792 	285.014 	539.808 	
175.313 	-0.00258574 	-0.519591 	0.146958 	1.66237 	0.0195882 	-3.12696 	90.1602 	116.744 	-0.562402 	317.411 	360.792 	285.014 	539.808 	
175.323 	-0.00258574 	-0.519591 	0.146958 	1.66237 	0.0195882 	-3.12696 	90.1602 	116.744 	-0.562402 	317.411 	360.792 	285.014 	539.808 	
175.333 	-0.00258574 	-0.519591 	0.146958 	1.66237 	0.0195882 	-3.12696 	90.1602 	116.744 	-0.562402 	317.411 	360.792 	285.014 	539.808 	
175.343 	-0.00258574 	-0.519591 	0.146958 	1.66237 	0.0195882 	-3.12696 	90.1602 	116.744 	-0.562402 	317.411 	360.792 	285.014 	539.808 	
175.353 	-0.00258574 	-0.519591 	0.146958 	1.66237 	0.0195882 	-3.12696 	90.1602 	116.744 	-0.562402 	317.411 	360.792 	285.014 	539.808 	
175.363 	-0.00258574 	-0.519591 	0.146958 	1.66237 	0.0195882 	-3.12696 	90.1602 	116.744 	-0.562402 	317.411 	360.792 	285.014 	539.808 	
175.373 	-0.00258574 	-0.519591 	0.146958 	1.66237 	0.0195882 	-3.12696 	90.1602 	116.744 	-0.562402 	317.411 	360.792 	285.014 	539.808 	
175.383 	-0.00258574 	-0.519591 	0.146958 	1.66237 	0.0195882 	-3.12696 	90.1602 	116.744 	-0.562402 	317.411 	360.792 	285.014 	539.808 	
175.393 	-0.00258574 	-0.519591 	0.146958 	1.66237 	0.0195882 	-3.12696 	90.1602 	116.744 	-0.562402 	317.411 	360.792 	285.014 	539.808 	
175.403 	-0.00258574 	-0.519591 	0.146958 	1.66237 	0.0195882 	-3.12696 	90.1602 	116.744 	-0.562402 	317.411 	360.792 	285.014 	539.808 	
175.413 	-0.00258574 	-0.519591 	0.146958 	1.66237 	0.0195882 	-3.12696 	90.1602 	116.744 	-0.562402 	317.411 	360.792 	285.014 	539.808 	
175.423 	-0.00258574 	-0.519591 	0.146958 	1.66237 	0.0195882 	-3.12696 	90.1602 	116.744 	-0.562402 	317.411 	360.792 	285.014 	539.808 	
175.433 	-0.00258574 	-0.519591 	0.146958 	1.66237 	0.0195882 	-3.12696 	90.1602 	116.744 	-0.562402 	317.411 	360.792 	285.014 	539.808 	
175.443 	-0.00258574 	-0.519591 	0.146958 	1.66237 	0.0195882 	-3.12696 	90.1602 	116.744 	-0.562402 	317.411 	360.792 	285.014 	539.808 	
175.453 	-0.00258574 	-0.519591 	0.146958 	1.66237 	0.0195882 	-3.12696 	90.1602 	116.744 	-0.562402 	317.411 	360.792 	285.014 	539.808 	
175.463 	-0.00258574 	-0.519591 	0.146958 	1.66237 	0.0195882 	-3.12696 	90.1602 	116.744 	-0.562402 	317.411 	360.792 	285.014 	539.808 	
175.473 	-0.00258574 	-0.519591 	0.146958 	1.66237 	0.0195882 	-3.12696 	90.1602 	116.744 	-0.562402 	317.411 	360.792 	285.014 	539.808 	
175.483 	-0.00258574 	-0.519591 	0.146958 	1.66237 	0.0195882 	-3.12696 	90.1602 	116.744 	-0.562402 	317.411 	360.792 	285.014 	539.808 	
175.493 	-0.00258574 	-0.519591 	0.146958 	1.66237 	0.0195882 	-3.12696 	90.1602 	116.744 	-0.562402 	317.411 	360.792 	285.014 	539.808 	
175.503 	-0.00258574 	-0.519591 	0.146958 	1.66237 	0.0195882 	-3.12696 	90.1602 	116.744 	-0.562402 	317.411 	360.792 	285.014 	539.808 	
175.513 	-0.00258574 	-0.519591 	0.146958 	1.66237 	0.0195882 	-3.12696 	90.1602 	116.744 	-0.5625 	317.411 	360.792 	285.014 	539.808 	
175.523 	-0.00258574 	-0.519591 	0.146958 	1.66237 	0.0195882 	-3.12696 	90.1602 	116.744 	-0.5625 	317.411 	360.792 	285.014 	539.808 	
175.533 	-0.00258574 	-0.519591 	0.146958 	1.66237 	0.0195882 	-3.12696 	90.1602 	116.744 	-0.5625 	317.411 	360.792 	285.014 	539.808 	
175.543 	-0.00258574 	-0.519591 	0.146958 	1.66237 	0.0195882 	-3.12696 	90.1602 	116.744 	-0.5625 	317.411 	360.792 	285.014 	539.808 	
175.553 	-0.00258574 	-0.519591 	0.146958 	1.66237 	0.0195882 	-3.12696 	90.1602 	116.744 	-0.5625 	317.411 	360.792 	285.014 	539.808 	
175.563 	-0.00258574 	-0.519591 	0.146958 	1.66237 	0.0195882 	-3.12696 	90.1602 	116.744 	-0.5625 	317.411 	360.792 	285.014 	539.808 	
175.573 	-0.00258574 	-0.519591 	0.146958 	1.66237 	0.0195882 	-3.12696 	90.1602 	116.744 	-0.5625 	317.411 	360.792 	285.014 	539.808 	
175.583 	-0.00258574 	-0.519591 	0.146958 	1.66237 	0.0195882 	-3.12696 	90.1602 	116.744 	-0.5625 	317.411 	360.792 	285.014 	539.808 	
175.593 	-0.00258574 	-0.519591 	0.146958 	1.66237 	0.0195882 	-3.12696 	90.1602 	116.744 	-0.5625 	317.411 	360.792 	285.014 	539.808 	
175.603 	-0.00258574 	-0.519591 	0.146958 	1.66237 	0.0195882 	-3.12696 	90.1602 	116.744 	-0.5625 	317.411 	360.792 	285.014 	539.808 	
175.613 	-0.00258574 	-0.519591 	0.146958 	1.66237 	0.0195882 	-3.12696 	90.1602 	116.744 	-0.5625 	317.411 	360.792 	285.014 	539.808 	
175.623 	-0.00258574 	-0.519591 	0.146958 	1.66237 	0.0195882 	-3.12696 	90.1602 	116.744 	-0.5625 	317.411 	360.792 	285.014 	539.808 	
175.633 	-0.00258574 	-0.519591 	0.146958 	1.66237 	0.0195882 	-3.12696 	90.1602 	116.744 	-0.5625 	317.411 	360.792 	285.014 	539.808 	
175.643 	-0.00258574 	-0.519591 	0.146958 	1.66237 	0.0195882 	-3.12696 	90.1602 	116.744 	-0.5625 	317.411 	360.792 	285.014 	539.808 	
175.653 	-0.00258574 	-0.519591 	0.146958 	1.66237 	0.0195882 	-3.12696 	90.1602 	116.744 	-0.5625 	317.411 	360.792 	285.014 	539.808 	
175.663 	-0.00258574 	-0.519591 	0.146958 	1.66237 	0.0195882 	-3.12696 	90.1602 	116.744 	-0.5625 	317.411 	360.792 	285.014 	539.808 	
175.673 	-0.00258574 	-0.519591 	0.146958 	1.66237 	0.0195882 	-3.12696 	90.1602 	116.744 	-0.5625 	317.411 	360.792 	285.014 	539.808 	
175.683 	-0.00258574 	-0.519591 	0.146958 	1.66237 	0.0195882 	-3.12696 	90.1602 	116.744 	-0.5625 	317.411 	360.792 	285.014 	539.808 	
175.693 	-0.00258574 	-0.519591 	0.146958 	1.66237 	0.0195882 	-3.12696 	90.1602 	116.744 	-0.5625 	317.411 	360.792 	285.014 	539.808 	
175.703 	-0.00258574 	-0.519591 	0.146958 	1.66237 	0.0195882 	-3.12696 	90.1602 	116.744 	-0.5625 	317.411 	360.792 	285.014 	539.808 	
175.713 	-0.00258574 	-0.519591 	0.146958 	1.66237 	0.0195882 	-3.12696 	90.1602 	116.744 	-0.5625 	317.411 	360.792 	285.014 	539.808 	
175.723 	-0.00258574 	-0.519591 	0.146958 	1.66237 	0.0195882 	-3.12696 	90.1602 	116.744 	-0.5625 	317.411 	360.792 	285.014 	539.808 	
175.733 	-0.00258574 	-0.519591 	0.146958 	1.66237 	0.0195882 	-3.12696 	90.1602 	116.744 	-0.5625 	317.411 	360.792 	285.014 	539.808 	
175.743 	-0.00258574 	-0.519591 	0.146958 	1.66237 	0.0195882 	-3.12696 	90.1602 	116.744 	-0.5625 	317.411 	360.792 	285.014 	539.808 	
175.753 	-0.00258574 	-0.519591 	0.146958 	1.66237 	0.0195882 	-3.12696 	90.1602 	116.744 	-0.5625 	317.411 	360.792 	285.014 	539.808 	
175.763 	-0.00258574 	-0.519591 	0.146958 	1.66237 	0.0195882 	-3.12696 	90.1602 	116.744 	-0.5625 	317.411 	360.792 	285.014 	539.808 	
175.773 	-0.00258574 	-0.519591 	0.146958 	1.66237 	0.0195882 	-3.12696 	90.1602 	116.744 	-0.5625 	317.411 	360.792 	285.014 	539.808 	
175.783 	-0.00258574 	-0.519591 	0.146958 	1.66237 	0.0195882 	-3.12696 	90.1602 	116.744 	-0.5625 	317.411 	360.792 	285.014 	539.808 	
175.793 	-0.00258574 	-0.519591 	0.146958 	1.66237 	0.0195882 	-3.12696 	90.1602 	116.744 	-0.5625 	317.411 	360.792 	285.014 	539.808 	
175.803 	-0.00258574 	-0.519591 	0.146958 	1.66237 	0.0195882 	-3.12696 	90.1602 	116.744 	-0.5625 	317.411 	360.792 	285.014 	539.808 	
175.813 	-0.00258574 	-0.519591 	0.146958 	1.66237 	0.0195882 	-3.12696 	90.1602 	116.744 	-0.5625 	317.411 	360.792 	285.014 	539.808 	
175.823 	-0.00258574 	-0.519591 	0.146958 	1.66237 	0.0195882 	-3.12696 	90.1602 	116.744 	-0.5625 	317.411 	360.792 	285.014 	539.808 	
175.833 	-0.00258574 	-0.519591 	0.146958 	1.66237 	0.0195882 	-3.12696 	90.1602 	116.744 	-0.5625 	317.411 	360.792 	285.014 	539.808 	
175.843 	-0.00258574 	-0.519591 	0.146958 	1.66237 	0.0195882 	-3.12696 	90.1602 	116.744 	-0.5625 	317.411 	360.792 	285.014 	539.808 	
175.853 	-0.00258574 	-0.519591 	0.146958 	1.66237 	0.0195882 	-3.12696 	90.1602 	116.744 	-0.5625 	317.411 	360.792 	285.014 	539.808 	
175.863 	-0.00258574 	-0.519591 	0.146958 	1.66237 	0.0195882 	-3.12696 	90.1602 	116.744 	-0.5625 	317.411 	360.792 	285.014 	539.808 	
175.873 	-0.00258574 	-0.519591 	0.146958 	1.66237 	0.0195882 	-3.12696 	90.1602 	116.744 	-0.5625 	317.411 	360.792 	285.014 	539.808 	
175.883 	-0.00258574 	-0.519591 	0.146958 	1.66237 	0.0195882 	-3.12696 	90.1602 	116.744 	-0.5625 	317.411 	360.792 	285.014 	539.808 	
175.893 	-0.00258574 	-0.519591 	0.146958 	1.66237 	0.0195882 	-3.12696 	90.1602 	116.744 	-0.5625 	317.411 	360.792 	285.014 	539.808 	
175.903 	-0.00258574 	-0.519591 	0.146958 	1.66237 	0.0195882 	-3.12696 	90.1602 	116.744 	-0.5625 	317.411 	360.792 	285.014 	539.808 	
175.913 	-0.00258574 	-0.519591 	0.146958 	1.66237 	0.0195882 	-3.12696 	90.1602 	116.744 	-0.5625 	317.411 	360.792 	285.014 	539.808 	
175.923 	-0.00258574 	-0.519591 	0.146958 	1.66237 	0.0195882 	-3.12696 	90.1602 	116.744 	-0.5625 	317.411 	360.792 	285.014 	539.808 	
175.933 	-0.00258574 	-0.519591 	0.146958 	1.66237 	0.0195882 	-3.12696 	90.1602 	116.744 	-0.5625 	317.411 	360.792 	285.014 	539.808 	
175.943 	-0.00258574 	-0.519591 	0.146958 	1.66237 	0.0195882 	-3.12696 	90.1602 	116.744 	-0.5625 	317.411 	360.792 	285.014 	539.808 	
175.953 	-0.00258574 	-0.519591 	0.146958 	1.66237 	0.0195882 	-3.12696 	90.1602 	116.744 	-0.5625 	317.411 	360.792 	285.014 	539.808 	
175.963 	-0.00258574 	-0.519591 	0.146958 	1.66237 	0.0195882 	-3.12696 	90.1602 	116.744 	-0.5625 	317.411 	360.792 	285.014 	539.808 	
175.973 	-0.00258574 	-0.519591 	0.146958 	1.66237 	0.0195882 	-3.12696 	90.1602 	116.744 	-0.5625 	317.411 	360.792 	285.014 	539.808 	
175.983 	-0.00258574 	-0.519591 	0.146958 	1.66237 	0.0195882 	-3.12696 	90.1602 	116.744 	-0.5625 	317.411 	360.792 	285.014 	539.808 	
175.993 	-0.00258574 	-0.519591 	0.146958 	1.66237 	0.0195882 	-3.12696 	90.1602 	116.744 	-0.5625 	317.411 	360.792 	285.014 	539.808 	
176.003 	-0.00258574 	-0.519591 	0.146958 	1.66237 	0.0195882 	-3.12696 	90.1602 	116.744 	-0.5625 	317.411 	360.792 	285.014 	539.808 	
176.013 	-0.00258574 	-0.519591 	0.146958 	1.66237 	0.0195882 	-3.12696 	90.1602 	116.744 	-0.5625 	317.411 	360.792 	285.014 	539.808 	
176.023 	-0.00258574 	-0.519591 	0.146958 	1.66237 	0.0195882 	-3.12696 	90.1602 	116.744 	-0.5625 	317.411 	360.792 	285.014 	539.808 	
176.033 	-0.00258574 	-0.519591 	0.146958 	1.66237 	0.0195882 	-3.12696 	90.1602 	116.744 	-0.5625 	317.411 	360.792 	285.014 	539.808 	
176.043 	-0.00258574 	-0.519591 	0.146958 	1.66237 	0.0195882 	-3.12696 	90.1602 	116.744 	-0.5625 	317.411 	360.792 	285.014 	539.808 	
176.053 	-0.00258574 	-0.519591 	0.146958 	1.66237 	0.0195882 	-3.12696 	90.1602 	116.744 	-0.5625 	317.411 	360.792 	285.014 	539.808 	
176.063 	-0.00258574 	-0.519591 	0.146958 	1.66237 	0.0195882 	-3.12696 	90.1602 	116.744 	-0.5625 	317.411 	360.792 	285.014 	539.808 	
176.073 	-0.00258574 	-0.519591 	0.146958 	1.66237 	0.0195882 	-3.12696 	90.1602 	116.744 	-0.5625 	317.411 	360.792 	285.014 	539.808 	
176.083 	-0.00258574 	-0.519591 	0.146958 	1.66237 	0.0195882 	-3.12696 	90.1602 	116.744 	-0.5625 	317.411 	360.792 	285.014 	539.808 	
176.093 	-0.00258574 	-0.519591 	0.146958 	1.66237 	0.0195882 	-3.12696 	90.1602 	116.744 	-0.5625 	317.411 	360.792 	285.014 	539.808 	
176.103 	-0.00258574 	-0.519591 	0.146958 	1.66237 	0.0195882 	-3.12696 	90.1602 	116.744 	-0.5625 	317.411 	360.792 	285.014 	539.808 	
176.113 	-0.00258574 	-0.519591 	0.146958 	1.66237 	0.0195882 	-3.12696 	90.1602 	116.744 	-0.5625 	317.411 	360.792 	285.014 	539.808 	
176.123 	-0.00258574 	-0.519591 	0.146958 	1.66237 	0.0195882 	-3.12696 	90.1602 	116.744 	-0.5625 	317.411 	360.792 	285.014 	539.808 	
176.133 	-0.00258574 	-0.519591 	0.146958 	1.66237 	0.0195882 	-3.12696 	90.1602 	116.744 	-0.5625 	317.411 	360.792 	285.014 	539.808 	
176.143 	-0.00258574 	-0.519591 	0.146958 	1.66237 	0.0195882 	-3.12696 	90.1602 	116.744 	-0.5625 	317.411 	360.792 	285.014 	539.808 	
176.153 	-0.00258574 	-0.519591 	0.146958 	1.66237 	0.0195882 	-3.12696 	90.1602 	116.744 	-0.5625 	317.411 	360.792 	285.014 	539.808 	
176.163 	-0.00258574 	-0.519591 	0.146958 	1.66237 	0.0195882 	-3.12696 	90.1602 	116.744 	-0.5625 	317.411 	360.792 	285.014 	539.808 	
176.173 	-0.00258574 	-0.519591 	0.146958 	1.66237 	0.0195882 	-3.12696 	90.1602 	116.744 	-0.5625 	317.411 	360.792 	285.014 	539.808 	
176.183 	-0.00258574 	-0.519591 	0.146958 	1.66237 	0.0195882 	-3.12696 	90.1602 	116.744 	-0.5625 	317.411 	360.792 	285.014 	539.808 	
176.193 	-0.00258574 	-0.519591 	0.146958 	1.66237 	0.0195882 	-3.12696 	90.1602 	116.744 	-0.5625 	317.411 	360.792 	285.014 	539.808 	
176.203 	-0.00258574 	-0.519591 	0.146958 	1.66237 	0.0195882 	-3.12696 	90.1602 	116.744 	-0.5625 	317.411 	360.792 	285.014 	539.808 	
176.213 	-0.00258574 	-0.519591 	0.146958 	1.66237 	0.0195882 	-3.12696 	90.1602 	116.744 	-0.562598 	317.411 	360.792 	285.014 	539.808 	
176.223 	-0.00258574 	-0.519591 	0.146958 	1.66237 	0.0195882 	-3.12696 	90.1602 	116.744 	-0.562598 	317.411 	360.792 	285.014 	539.808 	
176.233 	-0.00258574 	-0.519591 	0.146958 	1.66237 	0.0195882 	-3.12696 	90.1602 	116.744 	-0.562598 	317.411 	360.792 	285.014 	539.808 	
176.243 	-0.00258574 	-0.519591 	0.146958 	1.66237 	0.0195882 	-3.12696 	90.1602 	116.744 	-0.562598 	317.411 	360.792 	285.014 	539.808 	
176.253 	-0.00258574 	-0.519591 	0.146958 	1.66237 	0.0195882 	-3.12696 	90.1602 	116.744 	-0.562598 	317.411 	360.792 	285.014 	539.808 	
176.263 	-0.00258574 	-0.519591 	0.146958 	1.66237 	0.0195882 	-3.12696 	90.1602 	116.744 	-0.562598 	317.411 	360.792 	285.014 	539.808 	
176.273 	-0.00258574 	-0.519591 	0.146958 	1.66237 	0.0195882 	-3.12696 	90.1602 	116.744 	-0.562598 	317.411 	360.792 	285.014 	539.808 	
176.283 	-0.00258574 	-0.519591 	0.146958 	1.66237 	0.0195882 	-3.12696 	90.1602 	116.744 	-0.562598 	317.411 	360.792 	285.014 	539.808 	
176.293 	-0.00258574 	-0.519591 	0.146958 	1.66237 	0.0195882 	-3.12696 	90.1602 	116.744 	-0.562598 	317.411 	360.792 	285.014 	539.808 	
176.303 	-0.00258574 	-0.519591 	0.146958 	1.66237 	0.0195882 	-3.12696 	90.1602 	116.744 	-0.562598 	317.411 	360.792 	285.014 	539.808 	
176.313 	-0.00258574 	-0.519591 	0.146958 	1.66237 	0.0195882 	-3.12696 	90.1602 	116.744 	-0.562598 	317.411 	360.792 	285.014 	539.808 	
176.323 	-0.00258574 	-0.519591 	0.146958 	1.66237 	0.0195882 	-3.12696 	90.1602 	116.744 	-0.562598 	317.411 	360.792 	285.014 	539.808 	
176.333 	-0.00258574 	-0.519591 	0.146958 	1.66237 	0.0195882 	-3.12696 	90.1602 	116.744 	-0.562598 	317.411 	360.792 	285.014 	539.808 	
176.343 	-0.00258574 	-0.519591 	0.146958 	1.66237 	0.0195882 	-3.12696 	90.1602 	116.744 	-0.562598 	317.411 	360.792 	285.014 	539.808 	
176.353 	-0.00258574 	-0.519591 	0.146958 	1.66237 	0.0195882 	-3.12696 	90.1602 	116.744 	-0.562598 	317.411 	360.792 	285.014 	539.808 	
176.363 	-0.00258574 	-0.519591 	0.146958 	1.66237 	0.0195882 	-3.12696 	90.1602 	116.744 	-0.562598 	317.411 	360.792 	285.014 	539.808 	
176.373 	-0.00258574 	-0.519591 	0.146958 	1.66237 	0.0195882 	-3.12696 	90.1602 	116.744 	-0.562598 	317.411 	360.792 	285.014 	539.808 	
176.383 	-0.00258574 	-0.519591 	0.146958 	1.66237 	0.0195882 	-3.12696 	90.1602 	116.744 	-0.562598 	317.411 	360.792 	285.014 	539.808 	
176.393 	-0.00258574 	-0.519591 	0.146958 	1.66237 	0.0195882 	-3.12696 	90.1602 	116.744 	-0.562598 	317.411 	360.792 	285.014 	539.808 	
176.403 	-0.00258574 	-0.519591 	0.146958 	1.66237 	0.0195882 	-3.12696 	90.1602 	116.744 	-0.562598 	317.411 	360.792 	285.014 	539.808 	
176.413 	-0.00258574 	-0.519591 	0.146958 	1.66237 	0.0195882 	-3.12696 	90.1602 	116.744 	-0.562598 	317.411 	360.792 	285.014 	539.808 	
176.423 	-0.00258574 	-0.519591 	0.146958 	1.66237 	0.0195882 	-3.12696 	90.1602 	116.744 	-0.562598 	317.411 	360.792 	285.014 	539.808 	
176.433 	-0.00258574 	-0.519591 	0.146958 	1.66237 	0.0195882 	-3.12696 	90.1602 	116.744 	-0.562598 	317.411 	360.792 	285.014 	539.808 	
176.443 	-0.00258574 	-0.519591 	0.146958 	1.66237 	0.0195882 	-3.12696 	90.1602 	116.744 	-0.562598 	317.411 	360.792 	285.014 	539.808 	
176.453 	-0.00258574 	-0.519591 	0.146958 	1.66237 	0.0195882 	-3.12696 	90.1602 	116.744 	-0.562598 	317.411 	360.792 	285.014 	539.808 	
176.463 	-0.00258574 	-0.519591 	0.146958 	1.66237 	0.0195882 	-3.12696 	90.1602 	116.744 	-0.562598 	317.411 	360.792 	285.014 	539.808 	
176.473 	-0.00258574 	-0.519591 	0.146958 	1.66237 	0.0195882 	-3.12696 	90.1602 	116.744 	-0.562598 	317.411 	360.792 	285.014 	539.808 	
176.483 	-0.00258574 	-0.519591 	0.146958 	1.66237 	0.0195882 	-3.12696 	90.1602 	116.744 	-0.562598 	317.411 	360.792 	285.014 	539.808 	
176.493 	-0.00258574 	-0.519591 	0.146958 	1.66237 	0.0195882 	-3.12696 	90.1602 	116.744 	-0.562598 	317.411 	360.792 	285.014 	539.808 	
176.503 	-0.00258574 	-0.519591 	0.146958 	1.66237 	0.0195882 	-3.12696 	90.1602 	116.744 	-0.562598 	317.411 	360.792 	285.014 	539.808 	
176.513 	-0.00258574 	-0.519591 	0.146958 	1.66237 	0.0195882 	-3.12696 	90.1602 	116.744 	-0.562598 	317.411 	360.792 	285.014 	539.808 	
176.523 	-0.00258574 	-0.519591 	0.146958 	1.66237 	0.0195882 	-3.12696 	90.1602 	116.744 	-0.562598 	317.411 	360.792 	285.014 	539.808 	
176.533 	-0.00258574 	-0.519591 	0.146958 	1.66237 	0.0195882 	-3.12696 	90.1602 	116.744 	-0.562598 	317.411 	360.792 	285.014 	539.808 	
176.543 	-0.00258574 	-0.519591 	0.146958 	1.66237 	0.0195882 	-3.12696 	90.1602 	116.744 	-0.562598 	317.411 	360.792 	285.014 	539.808 	
176.553 	-0.00258574 	-0.519591 	0.146958 	1.66237 	0.0195882 	-3.12696 	90.1602 	116.744 	-0.562598 	317.411 	360.792 	285.014 	539.808 	
176.563 	-0.00258574 	-0.519591 	0.146958 	1.66237 	0.0195882 	-3.12696 	90.1602 	116.744 	-0.562598 	317.411 	360.792 	285.014 	539.808 	
176.573 	-0.00258574 	-0.519591 	0.146958 	1.66237 	0.0195882 	-3.12696 	90.1602 	116.744 	-0.562598 	317.411 	360.792 	285.014 	539.808 	
176.583 	-0.00258574 	-0.519591 	0.146958 	1.66237 	0.0195882 	-3.12696 	90.1602 	116.744 	-0.562598 	317.411 	360.792 	285.014 	539.808 	
176.593 	-0.00258574 	-0.519591 	0.146958 	1.66237 	0.0195882 	-3.12696 	90.1602 	116.744 	-0.562598 	317.411 	360.792 	285.014 	539.808 	
176.603 	-0.00258574 	-0.519591 	0.146958 	1.66237 	0.0195882 	-3.12696 	90.1602 	116.744 	-0.562598 	317.411 	360.792 	285.014 	539.808 	
176.613 	-0.00258574 	-0.519591 	0.146958 	1.66237 	0.0195882 	-3.12696 	90.1602 	116.744 	-0.562598 	317.411 	360.792 	285.014 	539.808 	
176.623 	-0.00258574 	-0.519591 	0.146958 	1.66237 	0.0195882 	-3.12696 	90.1602 	116.744 	-0.562598 	317.411 	360.792 	285.014 	539.808 	
176.633 	-0.00258574 	-0.519591 	0.146958 	1.66237 	0.0195882 	-3.12696 	90.1602 	116.744 	-0.562598 	317.411 	360.792 	285.014 	539.808 	
176.643 	-0.00258574 	-0.519591 	0.146958 	1.66237 	0.0195882 	-3.12696 	90.1602 	116.744 	-0.562598 	317.411 	360.792 	285.014 	539.808 	
176.653 	-0.00258574 	-0.519591 	0.146958 	1.66237 	0.0195882 	-3.12696 	90.1602 	116.744 	-0.562598 	317.411 	360.792 	285.014 	539.808 	
176.663 	-0.00258574 	-0.519591 	0.146958 	1.66237 	0.0195882 	-3.12696 	90.1602 	116.744 	-0.562598 	317.411 	360.792 	285.014 	539.808 	
176.673 	-0.00258574 	-0.519591 	0.146958 	1.66237 	0.0195882 	-3.12696 	90.1602 	116.744 	-0.562598 	317.411 	360.792 	285.014 	539.808 	
176.683 	-0.00258574 	-0.519591 	0.146958 	1.66237 	0.0195882 	-3.12696 	90.1602 	116.744 	-0.562598 	317.411 	360.792 	285.014 	539.808 	
176.693 	-0.00258574 	-0.519591 	0.146958 	1.66237 	0.0195882 	-3.12696 	90.1602 	116.744 	-0.562598 	317.411 	360.792 	285.014 	539.808 	
176.703 	-0.00258574 	-0.519591 	0.146958 	1.66237 	0.0195882 	-3.12696 	90.1602 	116.744 	-0.562598 	317.411 	360.792 	285.014 	539.808 	
176.713 	-0.00258574 	-0.519591 	0.146958 	1.66237 	0.0195882 	-3.12696 	90.1602 	116.744 	-0.562598 	317.411 	360.792 	285.014 	539.808 	
176.723 	-0.00258574 	-0.519591 	0.146958 	1.66237 	0.0195882 	-3.12696 	90.1602 	116.744 	-0.562598 	317.411 	360.792 	285.014 	539.808 	
176.733 	-0.00258574 	-0.519591 	0.146958 	1.66237 	0.0195882 	-3.12696 	90.1602 	116.744 	-0.562598 	317.411 	360.792 	285.014 	539.808 	
176.743 	-0.00258574 	-0.519591 	0.146958 	1.66237 	0.0195882 	-3.12696 	90.1602 	116.744 	-0.562598 	317.411 	360.792 	285.014 	539.808 	
176.753 	-0.00258574 	-0.519591 	0.146958 	1.66237 	0.0195882 	-3.12696 	90.1602 	116.744 	-0.562598 	317.411 	360.792 	285.014 	539.808 	
176.763 	-0.00258574 	-0.519591 	0.146958 	1.66237 	0.0195882 	-3.12696 	90.1602 	116.744 	-0.562598 	317.411 	360.792 	285.014 	539.808 	
176.773 	-0.00258574 	-0.519591 	0.146958 	1.66237 	0.0195882 	-3.12696 	90.1602 	116.744 	-0.562598 	317.411 	360.792 	285.014 	539.808 	
176.783 	-0.00258574 	-0.519591 	0.146958 	1.66237 	0.0195882 	-3.12696 	90.1602 	116.744 	-0.562598 	317.411 	360.792 	285.014 	539.808 	
176.793 	-0.00258574 	-0.519591 	0.146958 	1.66237 	0.0195882 	-3.12696 	90.1602 	116.744 	-0.562598 	317.411 	360.792 	285.014 	539.808 	
176.803 	-0.00258574 	-0.519591 	0.146958 	1.66237 	0.0195882 	-3.12696 	90.1602 	116.744 	-0.562598 	317.411 	360.792 	285.014 	539.808 	
176.813 	-0.00258574 	-0.519591 	0.146958 	1.66237 	0.0195882 	-3.12696 	90.1602 	116.744 	-0.562598 	317.411 	360.792 	285.014 	539.808 	
176.823 	-0.00258574 	-0.519591 	0.146958 	1.66237 	0.0195882 	-3.12696 	90.1602 	116.744 	-0.562598 	317.411 	360.792 	285.014 	539.808 	
176.833 	-0.00258574 	-0.519591 	0.146958 	1.66237 	0.0195882 	-3.12696 	90.1602 	116.744 	-0.562598 	317.411 	360.792 	285.014 	539.808 	
176.843 	-0.00258574 	-0.519591 	0.146958 	1.66237 	0.0195882 	-3.12696 	90.1602 	116.744 	-0.562598 	317.411 	360.792 	285.014 	539.808 	
176.853 	-0.00258574 	-0.519591 	0.146958 	1.66237 	0.0195882 	-3.12696 	90.1602 	116.744 	-0.562598 	317.411 	360.792 	285.014 	539.808 	
176.863 	-0.00258574 	-0.519591 	0.146958 	1.66237 	0.0195882 	-3.12696 	90.1602 	116.744 	-0.562598 	317.411 	360.792 	285.014 	539.808 	
176.873 	-0.00258574 	-0.519591 	0.146958 	1.66237 	0.0195882 	-3.12696 	90.1602 	116.744 	-0.562598 	317.411 	360.792 	285.014 	539.808 	
176.883 	-0.00258574 	-0.519591 	0.146958 	1.66237 	0.0195882 	-3.12696 	90.1602 	116.744 	-0.562598 	317.411 	360.792 	285.014 	539.808 	
176.893 	-0.00258574 	-0.519591 	0.146958 	1.66237 	0.0195882 	-3.12696 	90.1602 	116.744 	-0.562598 	317.411 	360.792 	285.014 	539.808 	
176.903 	-0.00258574 	-0.519591 	0.146958 	1.66237 	0.0195882 	-3.12696 	90.1602 	116.744 	-0.562598 	317.411 	360.792 	285.014 	539.808 	
176.913 	-0.00258574 	-0.519591 	0.146958 	1.66237 	0.0195882 	-3.12696 	90.1602 	116.744 	-0.562598 	317.411 	360.792 	285.014 	539.808 	
176.923 	-0.00258574 	-0.519591 	0.146958 	1.66237 	0.0195882 	-3.12696 	90.1602 	116.744 	-0.562598 	317.411 	360.792 	285.014 	539.808 	
176.933 	-0.00258574 	-0.519591 	0.146958 	1.66237 	0.0195882 	-3.12696 	90.1602 	116.744 	-0.562598 	317.411 	360.792 	285.014 	539.808 	
176.943 	-0.00258574 	-0.519591 	0.146958 	1.66237 	0.0195882 	-3.12696 	90.1602 	116.744 	-0.562598 	317.411 	360.792 	285.014 	539.808 	
176.953 	-0.00258574 	-0.519591 	0.146958 	1.66237 	0.0195882 	-3.12696 	90.1602 	116.744 	-0.562598 	317.411 	360.792 	285.014 	539.808 	
176.963 	-0.00258574 	-0.519591 	0.146958 	1.66237 	0.0195882 	-3.12696 	90.1602 	116.744 	-0.562598 	317.411 	360.792 	285.014 	539.808 	
176.973 	-0.00258574 	-0.519591 	0.146958 	1.66237 	0.0195882 	-3.12696 	90.1602 	116.744 	-0.562598 	317.411 	360.792 	285.014 	539.808 	
176.983 	-0.00258574 	-0.519591 	0.146958 	1.66237 	0.0195882 	-3.12696 	90.1602 	116.744 	-0.562598 	317.411 	360.792 	285.014 	539.808 	
176.993 	-0.00258574 	-0.519591 	0.146958 	1.66237 	0.0195882 	-3.12696 	90.1602 	116.744 	-0.562598 	317.411 	360.792 	285.014 	539.808 	
177.003 	-0.00258574 	-0.519591 	0.146958 	1.66237 	0.0195882 	-3.12696 	90.1602 	116.744 	-0.562598 	317.411 	360.792 	285.014 	539.808 	
177.013 	-0.00258574 	-0.519591 	0.146958 	1.66237 	0.0195882 	-3.12696 	90.1602 	116.744 	-0.562598 	317.411 	360.792 	285.014 	539.808 	
177.023 	-0.00258574 	-0.519591 	0.146958 	1.66237 	0.0195882 	-3.12696 	90.1602 	116.744 	-0.562598 	317.411 	360.792 	285.014 	539.808 	
177.033 	-0.00258574 	-0.519591 	0.146958 	1.66237 	0.0195882 	-3.12696 	90.1602 	116.744 	-0.562598 	317.411 	360.792 	285.014 	539.808 	
177.043 	-0.00258574 	-0.519591 	0.146958 	1.66237 	0.0195882 	-3.12696 	90.1602 	116.744 	-0.562598 	317.411 	360.792 	285.014 	539.808 	
177.053 	-0.00258574 	-0.519591 	0.146958 	1.66237 	0.0195882 	-3.12696 	90.1602 	116.744 	-0.562598 	317.411 	360.792 	285.014 	539.808 	
177.063 	-0.00258574 	-0.519591 	0.146958 	1.66237 	0.0195882 	-3.12696 	90.1602 	116.744 	-0.562598 	317.411 	360.792 	285.014 	539.808 	
177.073 	-0.00258574 	-0.519591 	0.146958 	1.66237 	0.0195882 	-3.12696 	90.1602 	116.744 	-0.562598 	317.411 	360.792 	285.014 	539.808 	
177.083 	-0.00258574 	-0.519591 	0.146958 	1.66237 	0.0195882 	-3.12696 	90.1602 	116.744 	-0.562598 	317.411 	360.792 	285.014 	539.808 	
177.093 	-0.00258574 	-0.519591 	0.146958 	1.66237 	0.0195882 	-3.12696 	90.1602 	116.744 	-0.562598 	317.411 	360.792 	285.014 	539.808 	
177.103 	-0.00258574 	-0.519591 	0.146958 	1.66237 	0.0195882 	-3.12696 	90.1602 	116.744 	-0.562598 	317.411 	360.792 	285.014 	539.808 	
177.113 	-0.00258574 	-0.519591 	0.146958 	1.66237 	0.0195882 	-3.12696 	90.1602 	116.744 	-0.562695 	317.411 	360.792 	285.014 	539.808 	
177.123 	-0.00258574 	-0.519591 	0.146958 	1.66237 	0.0195882 	-3.12696 	90.1602 	116.744 	-0.562695 	317.411 	360.792 	285.014 	539.808 	
177.133 	-0.00258574 	-0.519591 	0.146958 	1.66237 	0.0195882 	-3.12696 	90.1602 	116.744 	-0.562695 	317.411 	360.792 	285.014 	539.808 	
177.143 	-0.00258574 	-0.519591 	0.146958 	1.66237 	0.0195882 	-3.12696 	90.1602 	116.744 	-0.562695 	317.411 	360.792 	285.014 	539.808 	
177.153 	-0.00258574 	-0.519591 	0.146958 	1.66237 	0.0195882 	-3.12696 	90.1602 	116.744 	-0.562695 	317.411 	360.792 	285.014 	539.808 	
177.163 	-0.00258574 	-0.519591 	0.146958 	1.66237 	0.0195882 	-3.12696 	90.1602 	116.744 	-0.562695 	317.411 	360.792 	285.014 	539.808 	
177.173 	-0.00258574 	-0.519591 	0.146958 	1.66237 	0.0195882 	-3.12696 	90.1602 	116.744 	-0.562695 	317.411 	360.792 	285.014 	539.808 	
177.183 	-0.00258574 	-0.519591 	0.146958 	1.66237 	0.0195882 	-3.12696 	90.1602 	116.744 	-0.562695 	317.411 	360.792 	285.014 	539.808 	
177.193 	-0.00258574 	-0.519591 	0.146958 	1.66237 	0.0195882 	-3.12696 	90.1602 	116.744 	-0.562695 	317.411 	360.792 	285.014 	539.808 	
177.203 	-0.00258574 	-0.519591 	0.146958 	1.66237 	0.0195882 	-3.12696 	90.1602 	116.744 	-0.562695 	317.411 	360.792 	285.014 	539.808 	
177.213 	-0.00258574 	-0.519591 	0.146958 	1.66237 	0.0195882 	-3.12696 	90.1602 	116.744 	-0.562695 	317.411 	360.792 	285.014 	539.808 	
177.223 	-0.00258574 	-0.519591 	0.146958 	1.66237 	0.0195882 	-3.12696 	90.1602 	116.744 	-0.562695 	317.411 	360.792 	285.014 	539.808 	
177.233 	-0.00258574 	-0.519591 	0.146958 	1.66237 	0.0195882 	-3.12696 	90.1602 	116.744 	-0.562695 	317.411 	360.792 	285.014 	539.808 	
177.243 	-0.00258574 	-0.519591 	0.146958 	1.66237 	0.0195882 	-3.12696 	90.1602 	116.744 	-0.562695 	317.411 	360.792 	285.014 	539.808 	
177.253 	-0.00258574 	-0.519591 	0.146958 	1.66237 	0.0195882 	-3.12696 	90.1602 	116.744 	-0.562695 	317.411 	360.792 	285.014 	539.808 	
177.263 	-0.00258574 	-0.519591 	0.146958 	1.66237 	0.0195882 	-3.12696 	90.1602 	116.744 	-0.562695 	317.411 	360.792 	285.014 	539.808 	
177.273 	-0.00258574 	-0.519591 	0.146958 	1.66237 	0.0195882 	-3.12696 	90.1602 	116.744 	-0.562695 	317.411 	360.792 	285.014 	539.808 	
177.283 	-0.00258574 	-0.519591 	0.146958 	1.66237 	0.0195882 	-3.12696 	90.1602 	116.744 	-0.562695 	317.411 	360.792 	285.014 	539.808 	
177.293 	-0.00258574 	-0.519591 	0.146958 	1.66237 	0.0195882 	-3.12696 	90.1602 	116.744 	-0.562695 	317.411 	360.792 	285.014 	539.808 	
177.303 	-0.00258574 	-0.519591 	0.146958 	1.66237 	0.0195882 	-3.12696 	90.1602 	116.744 	-0.562695 	317.411 	360.792 	285.014 	539.808 	
177.313 	-0.00258574 	-0.519591 	0.146958 	1.66237 	0.0195882 	-3.12696 	90.1602 	116.744 	-0.562695 	317.411 	360.792 	285.014 	539.808 	
177.323 	-0.00258574 	-0.519591 	0.146958 	1.66237 	0.0195882 	-3.12696 	90.1602 	116.744 	-0.562695 	317.411 	360.792 	285.014 	539.808 	
177.333 	-0.00258574 	-0.519591 	0.146958 	1.66237 	0.0195882 	-3.12696 	90.1602 	116.744 	-0.562695 	317.411 	360.792 	285.014 	539.808 	
177.343 	-0.00258574 	-0.519591 	0.146958 	1.66237 	0.0195882 	-3.12696 	90.1602 	116.744 	-0.562695 	317.411 	360.792 	285.014 	539.808 	
177.353 	-0.00258574 	-0.519591 	0.146958 	1.66237 	0.0195882 	-3.12696 	90.1602 	116.744 	-0.562695 	317.411 	360.792 	285.014 	539.808 	
177.363 	-0.00258574 	-0.519591 	0.146958 	1.66237 	0.0195882 	-3.12696 	90.1602 	116.744 	-0.562695 	317.411 	360.792 	285.014 	539.808 	
177.373 	-0.00258574 	-0.519591 	0.146958 	1.66237 	0.0195882 	-3.12696 	90.1602 	116.744 	-0.562695 	317.411 	360.792 	285.014 	539.808 	
177.383 	-0.00258574 	-0.519591 	0.146958 	1.66237 	0.0195882 	-3.12696 	90.1602 	116.744 	-0.562695 	317.411 	360.792 	285.014 	539.808 	
177.393 	-0.00258574 	-0.519591 	0.146958 	1.66237 	0.0195882 	-3.12696 	90.1602 	116.744 	-0.562695 	317.411 	360.792 	285.014 	539.808 	
177.403 	-0.00258574 	-0.519591 	0.146958 	1.66237 	0.0195882 	-3.12696 	90.1602 	116.744 	-0.562695 	317.411 	360.792 	285.014 	539.808 	
177.413 	-0.00258574 	-0.519591 	0.146958 	1.66237 	0.0195882 	-3.12696 	90.1602 	116.744 	-0.562695 	317.411 	360.792 	285.014 	539.808 	
177.423 	-0.00258574 	-0.519591 	0.146958 	1.66237 	0.0195882 	-3.12696 	90.1602 	116.744 	-0.562695 	317.411 	360.792 	285.014 	539.808 	
177.433 	-0.00258574 	-0.519591 	0.146958 	1.66237 	0.0195882 	-3.12696 	90.1602 	116.744 	-0.562695 	317.411 	360.792 	285.014 	539.808 	
177.443 	-0.00258574 	-0.519591 	0.146958 	1.66237 	0.0195882 	-3.12696 	90.1602 	116.744 	-0.562695 	317.411 	360.792 	285.014 	539.808 	
177.453 	-0.00258574 	-0.519591 	0.146958 	1.66237 	0.0195882 	-3.12696 	90.1602 	116.744 	-0.562695 	317.411 	360.792 	285.014 	539.808 	
177.463 	-0.00258574 	-0.519591 	0.146958 	1.66237 	0.0195882 	-3.12696 	90.1602 	116.744 	-0.562695 	317.411 	360.792 	285.014 	539.808 	
177.473 	-0.00258574 	-0.519591 	0.146958 	1.66237 	0.0195882 	-3.12696 	90.1602 	116.744 	-0.562695 	317.411 	360.792 	285.014 	539.808 	
177.483 	-0.00258574 	-0.519591 	0.146958 	1.66237 	0.0195882 	-3.12696 	90.1602 	116.744 	-0.562695 	317.411 	360.792 	285.014 	539.808 	
177.493 	-0.00258574 	-0.519591 	0.146958 	1.66237 	0.0195882 	-3.12696 	90.1602 	116.744 	-0.562695 	317.411 	360.792 	285.014 	539.808 	
177.503 	-0.00258574 	-0.519591 	0.146958 	1.66237 	0.0195882 	-3.12696 	90.1602 	116.744 	-0.562695 	317.411 	360.792 	285.014 	539.808 	
177.513 	-0.00258574 	-0.519591 	0.146958 	1.66237 	0.0195882 	-3.12696 	90.1602 	116.744 	-0.562695 	317.411 	360.792 	285.014 	539.808 	
177.523 	-0.00258574 	-0.519591 	0.146958 	1.66237 	0.0195882 	-3.12696 	90.1602 	116.744 	-0.562695 	317.411 	360.792 	285.014 	539.808 	
177.533 	-0.00258574 	-0.519591 	0.146958 	1.66237 	0.0195882 	-3.12696 	90.1602 	116.744 	-0.562695 	317.411 	360.792 	285.014 	539.808 	
177.543 	-0.00258574 	-0.519591 	0.146958 	1.66237 	0.0195882 	-3.12696 	90.1602 	116.744 	-0.562695 	317.411 	360.792 	285.014 	539.808 	
177.553 	-0.00258574 	-0.519591 	0.146958 	1.66237 	0.0195882 	-3.12696 	90.1602 	116.744 	-0.562695 	317.411 	360.792 	285.014 	539.808 	
177.563 	-0.00258574 	-0.519591 	0.146958 	1.66237 	0.0195882 	-3.12696 	90.1602 	116.744 	-0.562695 	317.411 	360.792 	285.014 	539.808 	
177.573 	-0.00258574 	-0.519591 	0.146958 	1.66237 	0.0195882 	-3.12696 	90.1602 	116.744 	-0.562695 	317.411 	360.792 	285.014 	539.808 	
177.583 	-0.00258574 	-0.519591 	0.146958 	1.66237 	0.0195882 	-3.12696 	90.1602 	116.744 	-0.562695 	317.411 	360.792 	285.014 	539.808 	
177.593 	-0.00258574 	-0.519591 	0.146958 	1.66237 	0.0195882 	-3.12696 	90.1602 	116.744 	-0.562695 	317.411 	360.792 	285.014 	539.808 	
177.603 	-0.00258574 	-0.519591 	0.146958 	1.66237 	0.0195882 	-3.12696 	90.1602 	116.744 	-0.562695 	317.411 	360.792 	285.014 	539.808 	
177.613 	-0.00258574 	-0.519591 	0.146958 	1.66237 	0.0195882 	-3.12696 	90.1602 	116.744 	-0.562695 	317.411 	360.792 	285.014 	539.808 	
177.623 	-0.00258574 	-0.519591 	0.146958 	1.66237 	0.0195882 	-3.12696 	90.1602 	116.744 	-0.562695 	317.411 	360.792 	285.014 	539.808 	
177.633 	-0.00258574 	-0.519591 	0.146958 	1.66237 	0.0195882 	-3.12696 	90.1602 	116.744 	-0.562695 	317.411 	360.792 	285.014 	539.808 	
177.643 	-0.00258574 	-0.519591 	0.146958 	1.66237 	0.0195882 	-3.12696 	90.1602 	116.744 	-0.562695 	317.411 	360.792 	285.014 	539.808 	
177.653 	-0.00258574 	-0.519591 	0.146958 	1.66237 	0.0195882 	-3.12696 	90.1602 	116.744 	-0.562695 	317.411 	360.792 	285.014 	539.808 	
177.663 	-0.00258574 	-0.519591 	0.146958 	1.66237 	0.0195882 	-3.12696 	90.1602 	116.744 	-0.562695 	317.411 	360.792 	285.014 	539.808 	
177.673 	-0.00258574 	-0.519591 	0.146958 	1.66237 	0.0195882 	-3.12696 	90.1602 	116.744 	-0.562695 	317.411 	360.792 	285.014 	539.808 	
177.683 	-0.00258574 	-0.519591 	0.146958 	1.66237 	0.0195882 	-3.12696 	90.1602 	116.744 	-0.562695 	317.411 	360.792 	285.014 	539.808 	
177.693 	-0.00258574 	-0.519591 	0.146958 	1.66237 	0.0195882 	-3.12696 	90.1602 	116.744 	-0.562695 	317.411 	360.792 	285.014 	539.808 	
177.703 	-0.00258574 	-0.519591 	0.146958 	1.66237 	0.0195882 	-3.12696 	90.1602 	116.744 	-0.562695 	317.411 	360.792 	285.014 	539.808 	
177.713 	-0.00258574 	-0.519591 	0.146958 	1.66237 	0.0195882 	-3.12696 	90.1602 	116.744 	-0.562695 	317.411 	360.792 	285.014 	539.808 	
177.723 	-0.00258574 	-0.519591 	0.146958 	1.66237 	0.0195882 	-3.12696 	90.1602 	116.744 	-0.562695 	317.411 	360.792 	285.014 	539.808 	
177.733 	-0.00258574 	-0.519591 	0.146958 	1.66237 	0.0195882 	-3.12696 	90.1602 	116.744 	-0.562695 	317.411 	360.792 	285.014 	539.808 	
177.743 	-0.00258574 	-0.519591 	0.146958 	1.66237 	0.0195882 	-3.12696 	90.1602 	116.744 	-0.562695 	317.411 	360.792 	285.014 	539.808 	
177.753 	-0.00258574 	-0.519591 	0.146958 	1.66237 	0.0195882 	-3.12696 	90.1602 	116.744 	-0.562695 	317.411 	360.792 	285.014 	539.808 	
177.763 	-0.00258574 	-0.519591 	0.146958 	1.66237 	0.0195882 	-3.12696 	90.1602 	116.744 	-0.562695 	317.411 	360.792 	285.014 	539.808 	
177.773 	-0.00258574 	-0.519591 	0.146958 	1.66237 	0.0195882 	-3.12696 	90.1602 	116.744 	-0.562695 	317.411 	360.792 	285.014 	539.808 	
177.783 	-0.00258574 	-0.519591 	0.146958 	1.66237 	0.0195882 	-3.12696 	90.1602 	116.744 	-0.562695 	317.411 	360.792 	285.014 	539.808 	
177.793 	-0.00258574 	-0.519591 	0.146958 	1.66237 	0.0195882 	-3.12696 	90.1602 	116.744 	-0.562695 	317.411 	360.792 	285.014 	539.808 	
177.803 	-0.00258574 	-0.519591 	0.146958 	1.66237 	0.0195882 	-3.12696 	90.1602 	116.744 	-0.562695 	317.411 	360.792 	285.014 	539.808 	
177.813 	-0.00258574 	-0.519591 	0.146958 	1.66237 	0.0195882 	-3.12696 	90.1602 	116.744 	-0.562695 	317.411 	360.792 	285.014 	539.808 	
177.823 	-0.00258574 	-0.519591 	0.146958 	1.66237 	0.0195882 	-3.12696 	90.1602 	116.744 	-0.562695 	317.411 	360.792 	285.014 	539.808 	
177.833 	-0.00258574 	-0.519591 	0.146958 	1.66237 	0.0195882 	-3.12696 	90.1602 	116.744 	-0.562695 	317.411 	360.792 	285.014 	539.808 	
177.843 	-0.00258574 	-0.519591 	0.146958 	1.66237 	0.0195882 	-3.12696 	90.1602 	116.744 	-0.562695 	317.411 	360.792 	285.014 	539.808 	
177.853 	-0.00258574 	-0.519591 	0.146958 	1.66237 	0.0195882 	-3.12696 	90.1602 	116.744 	-0.562695 	317.411 	360.792 	285.014 	539.808 	
177.863 	-0.00258574 	-0.519591 	0.146958 	1.66237 	0.0195882 	-3.12696 	90.1602 	116.744 	-0.562695 	317.411 	360.792 	285.014 	539.808 	
177.873 	-0.00258574 	-0.519591 	0.146958 	1.66237 	0.0195882 	-3.12696 	90.1602 	116.744 	-0.562695 	317.411 	360.792 	285.014 	539.808 	
177.883 	-0.00258574 	-0.519591 	0.146958 	1.66237 	0.0195882 	-3.12696 	90.1602 	116.744 	-0.562695 	317.411 	360.792 	285.014 	539.808 	
177.893 	-0.00258574 	-0.519591 	0.146958 	1.66237 	0.0195882 	-3.12696 	90.1602 	116.744 	-0.562695 	317.411 	360.792 	285.014 	539.808 	
177.903 	-0.00258574 	-0.519591 	0.146958 	1.66237 	0.0195882 	-3.12696 	90.1602 	116.744 	-0.562695 	317.411 	360.792 	285.014 	539.808 	
177.913 	-0.00258574 	-0.519591 	0.146958 	1.66237 	0.0195882 	-3.12696 	90.1602 	116.744 	-0.562695 	317.411 	360.792 	285.014 	539.808 	
177.923 	-0.00258574 	-0.519591 	0.146958 	1.66237 	0.0195882 	-3.12696 	90.1602 	116.744 	-0.562695 	317.411 	360.792 	285.014 	539.808 	
177.933 	-0.00258574 	-0.519591 	0.146958 	1.66237 	0.0195882 	-3.12696 	90.1602 	116.744 	-0.562695 	317.411 	360.792 	285.014 	539.808 	
177.943 	-0.00258574 	-0.519591 	0.146958 	1.66237 	0.0195882 	-3.12696 	90.1602 	116.744 	-0.562695 	317.411 	360.792 	285.014 	539.808 	
177.953 	-0.00258574 	-0.519591 	0.146958 	1.66237 	0.0195882 	-3.12696 	90.1602 	116.744 	-0.562695 	317.411 	360.792 	285.014 	539.808 	
177.963 	-0.00258574 	-0.519591 	0.146958 	1.66237 	0.0195882 	-3.12696 	90.1602 	116.744 	-0.562695 	317.411 	360.792 	285.014 	539.808 	
177.973 	-0.00258574 	-0.519591 	0.146958 	1.66237 	0.0195882 	-3.12696 	90.1602 	116.744 	-0.562695 	317.411 	360.792 	285.014 	539.808 	
177.983 	-0.00258574 	-0.519591 	0.146958 	1.66237 	0.0195882 	-3.12696 	90.1602 	116.744 	-0.562695 	317.411 	360.792 	285.014 	539.808 	
177.993 	-0.00258574 	-0.519591 	0.146958 	1.66237 	0.0195882 	-3.12696 	90.1602 	116.744 	-0.562695 	317.411 	360.792 	285.014 	539.808 	
178.003 	-0.00258574 	-0.519591 	0.146958 	1.66237 	0.0195882 	-3.12696 	90.1602 	116.744 	-0.562695 	317.411 	360.792 	285.014 	539.808 	
178.013 	-0.00258574 	-0.519591 	0.146958 	1.66237 	0.0195882 	-3.12696 	90.1602 	116.744 	-0.562695 	317.411 	360.792 	285.014 	539.808 	
178.023 	-0.00258574 	-0.519591 	0.146958 	1.66237 	0.0195882 	-3.12696 	90.1602 	116.744 	-0.562695 	317.411 	360.792 	285.014 	539.808 	
178.033 	-0.00258574 	-0.519591 	0.146958 	1.66237 	0.0195882 	-3.12696 	90.1602 	116.744 	-0.562695 	317.411 	360.792 	285.014 	539.808 	
178.043 	-0.00258574 	-0.519591 	0.146958 	1.66237 	0.0195882 	-3.12696 	90.1602 	116.744 	-0.562695 	317.411 	360.792 	285.014 	539.808 	
178.053 	-0.00258574 	-0.519591 	0.146958 	1.66237 	0.0195882 	-3.12696 	90.1602 	116.744 	-0.562695 	317.411 	360.792 	285.014 	539.808 	
178.063 	-0.00258574 	-0.519591 	0.146958 	1.66237 	0.0195882 	-3.12696 	90.1602 	116.744 	-0.562695 	317.411 	360.792 	285.014 	539.808 	
178.073 	-0.00258574 	-0.519591 	0.146958 	1.66237 	0.0195882 	-3.12696 	90.1602 	116.744 	-0.562695 	317.411 	360.792 	285.014 	539.808 	
178.083 	-0.00258574 	-0.519591 	0.146958 	1.66237 	0.0195882 	-3.12696 	90.1602 	116.744 	-0.562695 	317.411 	360.792 	285.014 	539.808 	
178.093 	-0.00258574 	-0.519591 	0.146958 	1.66237 	0.0195882 	-3.12696 	90.1602 	116.744 	-0.562695 	317.411 	360.792 	285.014 	539.808 	
178.103 	-0.00258574 	-0.519591 	0.146958 	1.66237 	0.0195882 	-3.12696 	90.1602 	116.744 	-0.562695 	317.411 	360.792 	285.014 	539.808 	
178.113 	-0.00258574 	-0.519591 	0.146958 	1.66237 	0.0195882 	-3.12696 	90.1602 	116.744 	-0.562695 	317.411 	360.792 	285.014 	539.808 	
178.123 	-0.00258574 	-0.519591 	0.146958 	1.66237 	0.0195882 	-3.12696 	90.1602 	116.744 	-0.562695 	317.411 	360.792 	285.014 	539.808 	
178.133 	-0.00258574 	-0.519591 	0.146958 	1.66237 	0.0195882 	-3.12696 	90.1602 	116.744 	-0.562695 	317.411 	360.792 	285.014 	539.808 	
178.143 	-0.00258574 	-0.519591 	0.146958 	1.66237 	0.0195882 	-3.12696 	90.1602 	116.744 	-0.562695 	317.411 	360.792 	285.014 	539.808 	
178.153 	-0.00258574 	-0.519591 	0.146958 	1.66237 	0.0195882 	-3.12696 	90.1602 	116.744 	-0.562695 	317.411 	360.792 	285.014 	539.808 	
178.163 	-0.00258574 	-0.519591 	0.146958 	1.66237 	0.0195882 	-3.12696 	90.1602 	116.744 	-0.562695 	317.411 	360.792 	285.014 	539.808 	
178.173 	-0.00258574 	-0.519591 	0.146958 	1.66237 	0.0195882 	-3.12696 	90.1602 	116.744 	-0.562695 	317.411 	360.792 	285.014 	539.808 	
178.183 	-0.00258574 	-0.519591 	0.146958 	1.66237 	0.0195882 	-3.12696 	90.1602 	116.744 	-0.562695 	317.411 	360.792 	285.014 	539.808 	
178.193 	-0.00258574 	-0.519591 	0.146958 	1.66237 	0.0195882 	-3.12696 	90.1602 	116.744 	-0.562695 	317.411 	360.792 	285.014 	539.808 	
178.203 	-0.00258574 	-0.519591 	0.146958 	1.66237 	0.0195882 	-3.12696 	90.1602 	116.744 	-0.562695 	317.411 	360.792 	285.014 	539.808 	
178.213 	-0.00258574 	-0.519591 	0.146958 	1.66237 	0.0195882 	-3.12696 	90.1602 	116.744 	-0.562695 	317.411 	360.792 	285.014 	539.808 	
178.223 	-0.00258574 	-0.519591 	0.146958 	1.66237 	0.0195882 	-3.12696 	90.1602 	116.744 	-0.562695 	317.411 	360.792 	285.014 	539.808 	
178.233 	-0.00258574 	-0.519591 	0.146958 	1.66237 	0.0195882 	-3.12696 	90.1602 	116.744 	-0.562695 	317.411 	360.792 	285.014 	539.808 	
178.243 	-0.00258574 	-0.519591 	0.146958 	1.66237 	0.0195882 	-3.12696 	90.1602 	116.744 	-0.562695 	317.411 	360.792 	285.014 	539.808 	
178.253 	-0.00258574 	-0.519591 	0.146958 	1.66237 	0.0195882 	-3.12696 	90.1602 	116.744 	-0.562695 	317.411 	360.792 	285.014 	539.808 	
178.263 	-0.00258574 	-0.519591 	0.146958 	1.66237 	0.0195882 	-3.12696 	90.1602 	116.744 	-0.562695 	317.411 	360.792 	285.014 	539.808 	
178.273 	-0.00258574 	-0.519591 	0.146958 	1.66237 	0.0195882 	-3.12696 	90.1602 	116.744 	-0.562695 	317.411 	360.792 	285.014 	539.808 	
178.283 	-0.00258574 	-0.519591 	0.146958 	1.66237 	0.0195882 	-3.12696 	90.1602 	116.744 	-0.562695 	317.411 	360.792 	285.014 	539.808 	
178.293 	-0.00258574 	-0.519591 	0.146958 	1.66237 	0.0195882 	-3.12696 	90.1602 	116.744 	-0.562695 	317.411 	360.792 	285.014 	539.808 	
178.303 	-0.00258574 	-0.519591 	0.146958 	1.66237 	0.0195882 	-3.12696 	90.1602 	116.744 	-0.562695 	317.411 	360.792 	285.014 	539.808 	
178.313 	-0.00258574 	-0.519591 	0.146958 	1.66237 	0.0195882 	-3.12696 	90.1602 	116.744 	-0.562695 	317.411 	360.792 	285.014 	539.808 	
178.323 	-0.00258574 	-0.519591 	0.146958 	1.66237 	0.0195882 	-3.12696 	90.1602 	116.744 	-0.562695 	317.411 	360.792 	285.014 	539.808 	
178.333 	-0.00258574 	-0.519591 	0.146958 	1.66237 	0.0195882 	-3.12696 	90.1602 	116.744 	-0.562695 	317.411 	360.792 	285.014 	539.808 	
178.343 	-0.00258574 	-0.519591 	0.146958 	1.66237 	0.0195882 	-3.12696 	90.1602 	116.744 	-0.562695 	317.411 	360.792 	285.014 	539.808 	
178.353 	-0.00258574 	-0.519591 	0.146958 	1.66237 	0.0195882 	-3.12696 	90.1602 	116.744 	-0.562695 	317.411 	360.792 	285.014 	539.808 	
178.363 	-0.00258574 	-0.519591 	0.146958 	1.66237 	0.0195882 	-3.12696 	90.1602 	116.744 	-0.562695 	317.411 	360.792 	285.014 	539.808 	
178.373 	-0.00258574 	-0.519591 	0.146958 	1.66237 	0.0195882 	-3.12696 	90.1602 	116.744 	-0.562695 	317.411 	360.792 	285.014 	539.808 	
178.383 	-0.00258574 	-0.519591 	0.146958 	1.66237 	0.0195882 	-3.12696 	90.1602 	116.744 	-0.562695 	317.411 	360.792 	285.014 	539.808 	
178.393 	-0.00258574 	-0.519591 	0.146958 	1.66237 	0.0195882 	-3.12696 	90.1602 	116.744 	-0.562695 	317.411 	360.792 	285.014 	539.808 	
178.403 	-0.00258574 	-0.519591 	0.146958 	1.66237 	0.0195882 	-3.12696 	90.1602 	116.744 	-0.562695 	317.411 	360.792 	285.014 	539.808 	
178.413 	-0.00258574 	-0.519591 	0.146958 	1.66237 	0.0195882 	-3.12696 	90.1602 	116.744 	-0.562695 	317.411 	360.792 	285.014 	539.808 	
178.423 	-0.00258574 	-0.519591 	0.146958 	1.66237 	0.0195882 	-3.12696 	90.1602 	116.744 	-0.562695 	317.411 	360.792 	285.014 	539.808 	
178.433 	-0.00258574 	-0.519591 	0.146958 	1.66237 	0.0195882 	-3.12696 	90.1602 	116.744 	-0.562695 	317.411 	360.792 	285.014 	539.808 	
178.443 	-0.00258574 	-0.519591 	0.146958 	1.66237 	0.0195882 	-3.12696 	90.1602 	116.744 	-0.562695 	317.411 	360.792 	285.014 	539.808 	
178.453 	-0.00258574 	-0.519591 	0.146958 	1.66237 	0.0195882 	-3.12696 	90.1602 	116.744 	-0.562695 	317.411 	360.792 	285.014 	539.808 	
178.463 	-0.00258574 	-0.519591 	0.146958 	1.66237 	0.0195882 	-3.12696 	90.1602 	116.744 	-0.562695 	317.411 	360.792 	285.014 	539.808 	
178.473 	-0.00258574 	-0.519591 	0.146958 	1.66237 	0.0195882 	-3.12696 	90.1602 	116.744 	-0.562695 	317.411 	360.792 	285.014 	539.808 	
178.483 	-0.00258574 	-0.519591 	0.146958 	1.66237 	0.0195882 	-3.12696 	90.1602 	116.744 	-0.562695 	317.411 	360.792 	285.014 	539.808 	
178.493 	-0.00258574 	-0.519591 	0.146958 	1.66237 	0.0195882 	-3.12696 	90.1602 	116.744 	-0.562695 	317.411 	360.792 	285.014 	539.808 	
178.503 	-0.00258574 	-0.519591 	0.146958 	1.66237 	0.0195882 	-3.12696 	90.1602 	116.744 	-0.562695 	317.411 	360.792 	285.014 	539.808 	
178.513 	-0.00258574 	-0.519591 	0.146958 	1.66237 	0.0195882 	-3.12696 	90.1602 	116.744 	-0.562695 	317.411 	360.792 	285.014 	539.808 	
178.523 	-0.00258574 	-0.519591 	0.146958 	1.66237 	0.0195882 	-3.12696 	90.1602 	116.744 	-0.562695 	317.411 	360.792 	285.014 	539.808 	
178.533 	-0.00258574 	-0.519591 	0.146958 	1.66237 	0.0195882 	-3.12696 	90.1602 	116.744 	-0.562695 	317.411 	360.792 	285.014 	539.808 	
178.543 	-0.00258574 	-0.519591 	0.146958 	1.66237 	0.0195882 	-3.12696 	90.1602 	116.744 	-0.562695 	317.411 	360.792 	285.014 	539.808 	
178.553 	-0.00258574 	-0.519591 	0.146958 	1.66237 	0.0195882 	-3.12696 	90.1602 	116.744 	-0.562695 	317.411 	360.792 	285.014 	539.808 	
178.563 	-0.00258574 	-0.519591 	0.146958 	1.66237 	0.0195882 	-3.12696 	90.1602 	116.744 	-0.562695 	317.411 	360.792 	285.014 	539.808 	
178.573 	-0.00258574 	-0.519591 	0.146958 	1.66237 	0.0195882 	-3.12696 	90.1602 	116.744 	-0.562695 	317.411 	360.792 	285.014 	539.808 	
178.583 	-0.00258574 	-0.519591 	0.146958 	1.66237 	0.0195882 	-3.12696 	90.1602 	116.744 	-0.562695 	317.411 	360.792 	285.014 	539.808 	
178.593 	-0.00258574 	-0.519591 	0.146958 	1.66237 	0.0195882 	-3.12696 	90.1602 	116.744 	-0.562695 	317.411 	360.792 	285.014 	539.808 	
178.603 	-0.00258574 	-0.519591 	0.146958 	1.66237 	0.0195882 	-3.12696 	90.1602 	116.744 	-0.562695 	317.411 	360.792 	285.014 	539.808 	
178.613 	-0.00258574 	-0.519591 	0.146958 	1.66237 	0.0195882 	-3.12696 	90.1602 	116.744 	-0.562695 	317.411 	360.792 	285.014 	539.808 	
178.623 	-0.00258574 	-0.519591 	0.146958 	1.66237 	0.0195882 	-3.12696 	90.1602 	116.744 	-0.562695 	317.411 	360.792 	285.014 	539.808 	
178.633 	-0.00258574 	-0.519591 	0.146958 	1.66237 	0.0195882 	-3.12696 	90.1602 	116.744 	-0.562695 	317.411 	360.792 	285.014 	539.808 	
178.643 	-0.00258574 	-0.519591 	0.146958 	1.66237 	0.0195882 	-3.12696 	90.1602 	116.744 	-0.562695 	317.411 	360.792 	285.014 	539.808 	
178.653 	-0.00258574 	-0.519591 	0.146958 	1.66237 	0.0195882 	-3.12696 	90.1602 	116.744 	-0.562695 	317.411 	360.792 	285.014 	539.808 	
178.663 	-0.00258574 	-0.519591 	0.146958 	1.66237 	0.0195882 	-3.12696 	90.1602 	116.744 	-0.562695 	317.411 	360.792 	285.014 	539.808 	
178.673 	-0.00258574 	-0.519591 	0.146958 	1.66237 	0.0195882 	-3.12696 	90.1602 	116.744 	-0.562695 	317.411 	360.792 	285.014 	539.808 	
178.683 	-0.00258574 	-0.519591 	0.146958 	1.66237 	0.0195882 	-3.12696 	90.1602 	116.744 	-0.562695 	317.411 	360.792 	285.014 	539.808 	
178.693 	-0.00258574 	-0.519591 	0.146958 	1.66237 	0.0195882 	-3.12696 	90.1602 	116.744 	-0.562695 	317.411 	360.792 	285.014 	539.808 	
178.703 	-0.00258574 	-0.519591 	0.146958 	1.66237 	0.0195882 	-3.12696 	90.1602 	116.744 	-0.562695 	317.411 	360.792 	285.014 	539.808 	
178.713 	-0.00258574 	-0.519591 	0.146958 	1.66237 	0.0195882 	-3.12696 	90.1602 	116.744 	-0.562695 	317.411 	360.792 	285.014 	539.808 	
178.723 	-0.00258574 	-0.519591 	0.146958 	1.66237 	0.0195882 	-3.12696 	90.1602 	116.744 	-0.562695 	317.411 	360.792 	285.014 	539.808 	
178.733 	-0.00258574 	-0.519591 	0.146958 	1.66237 	0.0195882 	-3.12696 	90.1602 	116.744 	-0.562695 	317.411 	360.792 	285.014 	539.808 	
178.743 	-0.00258574 	-0.519591 	0.146958 	1.66237 	0.0195882 	-3.12696 	90.1602 	116.744 	-0.562695 	317.411 	360.792 	285.014 	539.808 	
178.753 	-0.00258574 	-0.519591 	0.146958 	1.66237 	0.0195882 	-3.12696 	90.1602 	116.744 	-0.562695 	317.411 	360.792 	285.014 	539.808 	
178.763 	-0.00258574 	-0.519591 	0.146958 	1.66237 	0.0195882 	-3.12696 	90.1602 	116.744 	-0.562695 	317.411 	360.792 	285.014 	539.808 	
178.773 	-0.00258574 	-0.519591 	0.146958 	1.66237 	0.0195882 	-3.12696 	90.1602 	116.744 	-0.562695 	317.411 	360.792 	285.014 	539.808 	
178.783 	-0.00258574 	-0.519591 	0.146958 	1.66237 	0.0195882 	-3.12696 	90.1602 	116.744 	-0.562695 	317.411 	360.792 	285.014 	539.808 	
178.793 	-0.00258574 	-0.519591 	0.146958 	1.66237 	0.0195882 	-3.12696 	90.1602 	116.744 	-0.562695 	317.411 	360.792 	285.014 	539.808 	
178.803 	-0.00258574 	-0.519591 	0.146958 	1.66237 	0.0195882 	-3.12696 	90.1602 	116.744 	-0.562695 	317.411 	360.792 	285.014 	539.808 	
178.813 	-0.00258574 	-0.519591 	0.146958 	1.66237 	0.0195882 	-3.12696 	90.1602 	116.744 	-0.562695 	317.411 	360.792 	285.014 	539.808 	
178.823 	-0.00258574 	-0.519591 	0.146958 	1.66237 	0.0195882 	-3.12696 	90.1602 	116.744 	-0.562695 	317.411 	360.792 	285.014 	539.808 	
178.833 	-0.00258574 	-0.519591 	0.146958 	1.66237 	0.0195882 	-3.12696 	90.1602 	116.744 	-0.562695 	317.411 	360.792 	285.014 	539.808 	
178.843 	-0.00258574 	-0.519591 	0.146958 	1.66237 	0.0195882 	-3.12696 	90.1602 	116.744 	-0.562695 	317.411 	360.792 	285.014 	539.808 	
178.853 	-0.00258574 	-0.519591 	0.146958 	1.66237 	0.0195882 	-3.12696 	90.1602 	116.744 	-0.562695 	317.411 	360.792 	285.014 	539.808 	
178.863 	-0.00258574 	-0.519591 	0.146958 	1.66237 	0.0195882 	-3.12696 	90.1602 	116.744 	-0.562695 	317.411 	360.792 	285.014 	539.808 	
178.873 	-0.00258574 	-0.519591 	0.146958 	1.66237 	0.0195882 	-3.12696 	90.1602 	116.744 	-0.562695 	317.411 	360.792 	285.014 	539.808 	
178.883 	-0.00258574 	-0.519591 	0.146958 	1.66237 	0.0195882 	-3.12696 	90.1602 	116.744 	-0.562695 	317.411 	360.792 	285.014 	539.808 	
178.893 	-0.00258574 	-0.519591 	0.146958 	1.66237 	0.0195882 	-3.12696 	90.1602 	116.744 	-0.562695 	317.411 	360.792 	285.014 	539.808 	
178.903 	-0.00258574 	-0.519591 	0.146958 	1.66237 	0.0195882 	-3.12696 	90.1602 	116.744 	-0.562695 	317.411 	360.792 	285.014 	539.808 	
178.913 	-0.00258574 	-0.519591 	0.146958 	1.66237 	0.0195882 	-3.12696 	90.1602 	116.744 	-0.562695 	317.411 	360.792 	285.014 	539.808 	
178.923 	-0.00258574 	-0.519591 	0.146958 	1.66237 	0.0195882 	-3.12696 	90.1602 	116.744 	-0.562695 	317.411 	360.792 	285.014 	539.808 	
178.933 	-0.00258574 	-0.519591 	0.146958 	1.66237 	0.0195882 	-3.12696 	90.1602 	116.744 	-0.562695 	317.411 	360.792 	285.014 	539.808 	
178.943 	-0.00258574 	-0.519591 	0.146958 	1.66237 	0.0195882 	-3.12696 	90.1602 	116.744 	-0.562695 	317.411 	360.792 	285.014 	539.808 	
178.953 	-0.00258574 	-0.519591 	0.146958 	1.66237 	0.0195882 	-3.12696 	90.1602 	116.744 	-0.562695 	317.411 	360.792 	285.014 	539.808 	
178.963 	-0.00258574 	-0.519591 	0.146958 	1.66237 	0.0195882 	-3.12696 	90.1602 	116.744 	-0.562695 	317.411 	360.792 	285.014 	539.808 	
178.973 	-0.00258574 	-0.519591 	0.146958 	1.66237 	0.0195882 	-3.12696 	90.1602 	116.744 	-0.562695 	317.411 	360.792 	285.014 	539.808 	
178.983 	-0.00258574 	-0.519591 	0.146958 	1.66237 	0.0195882 	-3.12696 	90.1602 	116.744 	-0.562695 	317.411 	360.792 	285.014 	539.808 	
178.993 	-0.00258574 	-0.519591 	0.146958 	1.66237 	0.0195882 	-3.12696 	90.1602 	116.744 	-0.562695 	317.411 	360.792 	285.014 	539.808 	
179.003 	-0.00258574 	-0.519591 	0.146958 	1.66237 	0.0195882 	-3.12696 	90.1602 	116.744 	-0.562695 	317.411 	360.792 	285.014 	539.808 	
179.013 	-0.00258574 	-0.519591 	0.146958 	1.66237 	0.0195882 	-3.12696 	90.1602 	116.744 	-0.562695 	317.411 	360.792 	285.014 	539.808 	
179.023 	-0.00258574 	-0.519591 	0.146958 	1.66237 	0.0195882 	-3.12696 	90.1602 	116.744 	-0.562695 	317.411 	360.792 	285.014 	539.808 	
179.033 	-0.00258574 	-0.519591 	0.146958 	1.66237 	0.0195882 	-3.12696 	90.1602 	116.744 	-0.562695 	317.411 	360.792 	285.014 	539.808 	
179.043 	-0.00258574 	-0.519591 	0.146958 	1.66237 	0.0195882 	-3.12696 	90.1602 	116.744 	-0.562695 	317.411 	360.792 	285.014 	539.808 	
179.053 	-0.00258574 	-0.519591 	0.146958 	1.66237 	0.0195882 	-3.12696 	90.1602 	116.744 	-0.562695 	317.411 	360.792 	285.014 	539.808 	
179.063 	-0.00258574 	-0.519591 	0.146958 	1.66237 	0.0195882 	-3.12696 	90.1602 	116.744 	-0.562695 	317.411 	360.792 	285.014 	539.808 	
179.073 	-0.00258574 	-0.519591 	0.146958 	1.66237 	0.0195882 	-3.12696 	90.1602 	116.744 	-0.562695 	317.411 	360.792 	285.014 	539.808 	
179.083 	-0.00258574 	-0.519591 	0.146958 	1.66237 	0.0195882 	-3.12696 	90.1602 	116.744 	-0.562695 	317.411 	360.792 	285.014 	539.808 	
179.093 	-0.00258574 	-0.519591 	0.146958 	1.66237 	0.0195882 	-3.12696 	90.1602 	116.744 	-0.562695 	317.411 	360.792 	285.014 	539.808 	
179.103 	-0.00258574 	-0.519591 	0.146958 	1.66237 	0.0195882 	-3.12696 	90.1602 	116.744 	-0.562695 	317.411 	360.792 	285.014 	539.808 	
179.113 	-0.00258574 	-0.519591 	0.146958 	1.66237 	0.0195882 	-3.12696 	90.1602 	116.744 	-0.562695 	317.411 	360.792 	285.014 	539.808 	
179.123 	-0.00258574 	-0.519591 	0.146958 	1.66237 	0.0195882 	-3.12696 	90.1602 	116.744 	-0.562695 	317.411 	360.792 	285.014 	539.808 	
179.133 	-0.00258574 	-0.519591 	0.146958 	1.66237 	0.0195882 	-3.12696 	90.1602 	116.744 	-0.562695 	317.411 	360.792 	285.014 	539.808 	
179.143 	-0.00258574 	-0.519591 	0.146958 	1.66237 	0.0195882 	-3.12696 	90.1602 	116.744 	-0.562695 	317.411 	360.792 	285.014 	539.808 	
179.153 	-0.00258574 	-0.519591 	0.146958 	1.66237 	0.0195882 	-3.12696 	90.1602 	116.744 	-0.562695 	317.411 	360.792 	285.014 	539.808 	
179.163 	-0.00258574 	-0.519591 	0.146958 	1.66237 	0.0195882 	-3.12696 	90.1602 	116.744 	-0.562695 	317.411 	360.792 	285.014 	539.808 	
179.173 	-0.00258574 	-0.519591 	0.146958 	1.66237 	0.0195882 	-3.12696 	90.1602 	116.744 	-0.562695 	317.411 	360.792 	285.014 	539.808 	
179.183 	-0.00258574 	-0.519591 	0.146958 	1.66237 	0.0195882 	-3.12696 	90.1602 	116.744 	-0.562695 	317.411 	360.792 	285.014 	539.808 	
179.193 	-0.00258574 	-0.519591 	0.146958 	1.66237 	0.0195882 	-3.12696 	90.1602 	116.744 	-0.562695 	317.411 	360.792 	285.014 	539.808 	
179.203 	-0.00258574 	-0.519591 	0.146958 	1.66237 	0.0195882 	-3.12696 	90.1602 	116.744 	-0.562695 	317.411 	360.792 	285.014 	539.808 	
179.213 	-0.00258574 	-0.519591 	0.146958 	1.66237 	0.0195882 	-3.12696 	90.1602 	116.744 	-0.562695 	317.411 	360.792 	285.014 	539.808 	
179.223 	-0.00258574 	-0.519591 	0.146958 	1.66237 	0.0195882 	-3.12696 	90.1602 	116.744 	-0.562695 	317.411 	360.792 	285.014 	539.808 	
179.233 	-0.00258574 	-0.519591 	0.146958 	1.66237 	0.0195882 	-3.12696 	90.1602 	116.744 	-0.562695 	317.411 	360.792 	285.014 	539.808 	
179.243 	-0.00258574 	-0.519591 	0.146958 	1.66237 	0.0195882 	-3.12696 	90.1602 	116.744 	-0.562695 	317.411 	360.792 	285.014 	539.808 	
179.253 	-0.00258574 	-0.519591 	0.146958 	1.66237 	0.0195882 	-3.12696 	90.1602 	116.744 	-0.562695 	317.411 	360.792 	285.014 	539.808 	
179.263 	-0.00258574 	-0.519591 	0.146958 	1.66237 	0.0195882 	-3.12696 	90.1602 	116.744 	-0.562695 	317.411 	360.792 	285.014 	539.808 	
179.273 	-0.00258574 	-0.519591 	0.146958 	1.66237 	0.0195882 	-3.12696 	90.1602 	116.744 	-0.562695 	317.411 	360.792 	285.014 	539.808 	
179.283 	-0.00258574 	-0.519591 	0.146958 	1.66237 	0.0195882 	-3.12696 	90.1602 	116.744 	-0.562695 	317.411 	360.792 	285.014 	539.808 	
179.293 	-0.00258574 	-0.519591 	0.146958 	1.66237 	0.0195882 	-3.12696 	90.1602 	116.744 	-0.562695 	317.411 	360.792 	285.014 	539.808 	
179.303 	-0.00258574 	-0.519591 	0.146958 	1.66237 	0.0195882 	-3.12696 	90.1602 	116.744 	-0.562695 	317.411 	360.792 	285.014 	539.808 	
179.313 	-0.00258574 	-0.519591 	0.146958 	1.66237 	0.0195882 	-3.12696 	90.1602 	116.744 	-0.562695 	317.411 	360.792 	285.014 	539.808 	
179.323 	-0.00258574 	-0.519591 	0.146958 	1.66237 	0.0195882 	-3.12696 	90.1602 	116.744 	-0.562695 	317.411 	360.792 	285.014 	539.808 	
179.333 	-0.00258574 	-0.519591 	0.146958 	1.66237 	0.0195882 	-3.12696 	90.1602 	116.744 	-0.562695 	317.411 	360.792 	285.014 	539.808 	
179.343 	-0.00258574 	-0.519591 	0.146958 	1.66237 	0.0195882 	-3.12696 	90.1602 	116.744 	-0.562695 	317.411 	360.792 	285.014 	539.808 	
179.353 	-0.00258574 	-0.519591 	0.146958 	1.66237 	0.0195882 	-3.12696 	90.1602 	116.744 	-0.562695 	317.411 	360.792 	285.014 	539.808 	
179.363 	-0.00258574 	-0.519591 	0.146958 	1.66237 	0.0195882 	-3.12696 	90.1602 	116.744 	-0.562695 	317.411 	360.792 	285.014 	539.808 	
179.373 	-0.00258574 	-0.519591 	0.146958 	1.66237 	0.0195882 	-3.12696 	90.1602 	116.744 	-0.562695 	317.411 	360.792 	285.014 	539.808 	
179.383 	-0.00258574 	-0.519591 	0.146958 	1.66237 	0.0195882 	-3.12696 	90.1602 	116.744 	-0.562695 	317.411 	360.792 	285.014 	539.808 	
179.393 	-0.00258574 	-0.519591 	0.146958 	1.66237 	0.0195882 	-3.12696 	90.1602 	116.744 	-0.562695 	317.411 	360.792 	285.014 	539.808 	
179.403 	-0.00258574 	-0.519591 	0.146958 	1.66237 	0.0195882 	-3.12696 	90.1602 	116.744 	-0.562695 	317.411 	360.792 	285.014 	539.808 	
179.413 	-0.00258574 	-0.519591 	0.146958 	1.66237 	0.0195882 	-3.12696 	90.1602 	116.744 	-0.562695 	317.411 	360.792 	285.014 	539.808 	
179.423 	-0.00258574 	-0.519591 	0.146958 	1.66237 	0.0195882 	-3.12696 	90.1602 	116.744 	-0.562695 	317.411 	360.792 	285.014 	539.808 	
179.433 	-0.00258574 	-0.519591 	0.146958 	1.66237 	0.0195882 	-3.12696 	90.1602 	116.744 	-0.562695 	317.411 	360.792 	285.014 	539.808 	
179.443 	-0.00258574 	-0.519591 	0.146958 	1.66237 	0.0195882 	-3.12696 	90.1602 	116.744 	-0.562695 	317.411 	360.792 	285.014 	539.808 	
179.453 	-0.00258574 	-0.519591 	0.146958 	1.66237 	0.0195882 	-3.12696 	90.1602 	116.744 	-0.562695 	317.411 	360.792 	285.014 	539.808 	
179.463 	-0.00258574 	-0.519591 	0.146958 	1.66237 	0.0195882 	-3.12696 	90.1602 	116.744 	-0.562695 	317.411 	360.792 	285.014 	539.808 	
179.473 	-0.00258574 	-0.519591 	0.146958 	1.66237 	0.0195882 	-3.12696 	90.1602 	116.744 	-0.562695 	317.411 	360.792 	285.014 	539.808 	
179.483 	-0.00258574 	-0.519591 	0.146958 	1.66237 	0.0195882 	-3.12696 	90.1602 	116.744 	-0.562695 	317.411 	360.792 	285.014 	539.808 	
179.493 	-0.00258574 	-0.519591 	0.146958 	1.66237 	0.0195882 	-3.12696 	90.1602 	116.744 	-0.562695 	317.411 	360.792 	285.014 	539.808 	
179.503 	-0.00258574 	-0.519591 	0.146958 	1.66237 	0.0195882 	-3.12696 	90.1602 	116.744 	-0.562695 	317.411 	360.792 	285.014 	539.808 	
179.513 	-0.00258574 	-0.519591 	0.146958 	1.66237 	0.0195882 	-3.12696 	90.1602 	116.744 	-0.562695 	317.411 	360.792 	285.014 	539.808 	
179.523 	-0.00258574 	-0.519591 	0.146958 	1.66237 	0.0195882 	-3.12696 	90.1602 	116.744 	-0.562695 	317.411 	360.792 	285.014 	539.808 	
179.533 	-0.00258574 	-0.519591 	0.146958 	1.66237 	0.0195882 	-3.12696 	90.1602 	116.744 	-0.562695 	317.411 	360.792 	285.014 	539.808 	
179.543 	-0.00258574 	-0.519591 	0.146958 	1.66237 	0.0195882 	-3.12696 	90.1602 	116.744 	-0.562695 	317.411 	360.792 	285.014 	539.808 	
179.553 	-0.00258574 	-0.519591 	0.146958 	1.66237 	0.0195882 	-3.12696 	90.1602 	116.744 	-0.562695 	317.411 	360.792 	285.014 	539.808 	
179.563 	-0.00258574 	-0.519591 	0.146958 	1.66237 	0.0195882 	-3.12696 	90.1602 	116.744 	-0.562695 	317.411 	360.792 	285.014 	539.808 	
179.573 	-0.00258574 	-0.519591 	0.146958 	1.66237 	0.0195882 	-3.12696 	90.1602 	116.744 	-0.562695 	317.411 	360.792 	285.014 	539.808 	
179.583 	-0.00258574 	-0.519591 	0.146958 	1.66237 	0.0195882 	-3.12696 	90.1602 	116.744 	-0.562695 	317.411 	360.792 	285.014 	539.808 	
179.593 	-0.00258574 	-0.519591 	0.146958 	1.66237 	0.0195882 	-3.12696 	90.1602 	116.744 	-0.562695 	317.411 	360.792 	285.014 	539.808 	
179.603 	-0.00258574 	-0.519591 	0.146958 	1.66237 	0.0195882 	-3.12696 	90.1602 	116.744 	-0.562695 	317.411 	360.792 	285.014 	539.808 	
179.613 	-0.00258574 	-0.519591 	0.146958 	1.66237 	0.0195882 	-3.12696 	90.1602 	116.744 	-0.562695 	317.411 	360.792 	285.014 	539.808 	
179.623 	-0.00258574 	-0.519591 	0.146958 	1.66237 	0.0195882 	-3.12696 	90.1602 	116.744 	-0.562695 	317.411 	360.792 	285.014 	539.808 	
179.633 	-0.00258574 	-0.519591 	0.146958 	1.66237 	0.0195882 	-3.12696 	90.1602 	116.744 	-0.562695 	317.411 	360.792 	285.014 	539.808 	
179.643 	-0.00258574 	-0.519591 	0.146958 	1.66237 	0.0195882 	-3.12696 	90.1602 	116.744 	-0.562695 	317.411 	360.792 	285.014 	539.808 	
179.653 	-0.00258574 	-0.519591 	0.146958 	1.66237 	0.0195882 	-3.12696 	90.1602 	116.744 	-0.562695 	317.411 	360.792 	285.014 	539.808 	
179.663 	-0.00258574 	-0.519591 	0.146958 	1.66237 	0.0195882 	-3.12696 	90.1602 	116.744 	-0.562695 	317.411 	360.792 	285.014 	539.808 	
179.673 	-0.00258574 	-0.519591 	0.146958 	1.66237 	0.0195882 	-3.12696 	90.1602 	116.744 	-0.562695 	317.411 	360.792 	285.014 	539.808 	
179.683 	-0.00258574 	-0.519591 	0.146958 	1.66237 	0.0195882 	-3.12696 	90.1602 	116.744 	-0.562695 	317.411 	360.792 	285.014 	539.808 	
179.693 	-0.00258574 	-0.519591 	0.146958 	1.66237 	0.0195882 	-3.12696 	90.1602 	116.744 	-0.562695 	317.411 	360.792 	285.014 	539.808 	
179.703 	-0.00258574 	-0.519591 	0.146958 	1.66237 	0.0195882 	-3.12696 	90.1602 	116.744 	-0.562695 	317.411 	360.792 	285.014 	539.808 	
179.713 	-0.00258574 	-0.519591 	0.146958 	1.66237 	0.0195882 	-3.12696 	90.1602 	116.744 	-0.562695 	317.411 	360.792 	285.014 	539.808 	
179.723 	-0.00258574 	-0.519591 	0.146958 	1.66237 	0.0195882 	-3.12696 	90.1602 	116.744 	-0.562695 	317.411 	360.792 	285.014 	539.808 	
179.733 	-0.00258574 	-0.519591 	0.146958 	1.66237 	0.0195882 	-3.12696 	90.1602 	116.744 	-0.562695 	317.411 	360.792 	285.014 	539.808 	
179.743 	-0.00258574 	-0.519591 	0.146958 	1.66237 	0.0195882 	-3.12696 	90.1602 	116.744 	-0.562695 	317.411 	360.792 	285.014 	539.808 	
179.753 	-0.00258574 	-0.519591 	0.146958 	1.66237 	0.0195882 	-3.12696 	90.1602 	116.744 	-0.562695 	317.411 	360.792 	285.014 	539.808 	
179.763 	-0.00258574 	-0.519591 	0.146958 	1.66237 	0.0195882 	-3.12696 	90.1602 	116.744 	-0.562695 	317.411 	360.792 	285.014 	539.808 	
179.773 	-0.00258574 	-0.519591 	0.146958 	1.66237 	0.0195882 	-3.12696 	90.1602 	116.744 	-0.562695 	317.411 	360.792 	285.014 	539.808 	
179.783 	-0.00258574 	-0.519591 	0.146958 	1.66237 	0.0195882 	-3.12696 	90.1602 	116.744 	-0.562695 	317.411 	360.792 	285.014 	539.808 	
179.793 	-0.00258574 	-0.519591 	0.146958 	1.66237 	0.0195882 	-3.12696 	90.1602 	116.744 	-0.562695 	317.411 	360.792 	285.014 	539.808 	
179.803 	-0.00258574 	-0.519591 	0.146958 	1.66237 	0.0195882 	-3.12696 	90.1602 	116.744 	-0.562695 	317.411 	360.792 	285.014 	539.808 	
179.813 	-0.00258574 	-0.519591 	0.146958 	1.66237 	0.0195882 	-3.12696 	90.1602 	116.744 	-0.562695 	317.411 	360.792 	285.014 	539.808 	
179.823 	-0.00258574 	-0.519591 	0.146958 	1.66237 	0.0195882 	-3.12696 	90.1602 	116.744 	-0.562695 	317.411 	360.792 	285.014 	539.808 	
179.833 	-0.00258574 	-0.519591 	0.146958 	1.66237 	0.0195882 	-3.12696 	90.1602 	116.744 	-0.562695 	317.411 	360.792 	285.014 	539.808 	
179.843 	-0.00258574 	-0.519591 	0.146958 	1.66237 	0.0195882 	-3.12696 	90.1602 	116.744 	-0.562695 	317.411 	360.792 	285.014 	539.808 	
179.853 	-0.00258574 	-0.519591 	0.146958 	1.66237 	0.0195882 	-3.12696 	90.1602 	116.744 	-0.562695 	317.411 	360.792 	285.014 	539.808 	
179.863 	-0.00258574 	-0.519591 	0.146958 	1.66237 	0.0195882 	-3.12696 	90.1602 	116.744 	-0.562695 	317.411 	360.792 	285.014 	539.808 	
179.873 	-0.00258574 	-0.519591 	0.146958 	1.66237 	0.0195882 	-3.12696 	90.1602 	116.744 	-0.562695 	317.411 	360.792 	285.014 	539.808 	
179.883 	-0.00258574 	-0.519591 	0.146958 	1.66237 	0.0195882 	-3.12696 	90.1602 	116.744 	-0.562695 	317.411 	360.792 	285.014 	539.808 	
179.893 	-0.00258574 	-0.519591 	0.146958 	1.66237 	0.0195882 	-3.12696 	90.1602 	116.744 	-0.562695 	317.411 	360.792 	285.014 	539.808 	
179.903 	-0.00258574 	-0.519591 	0.146958 	1.66237 	0.0195882 	-3.12696 	90.1602 	116.744 	-0.562695 	317.411 	360.792 	285.014 	539.808 	
179.913 	-0.00258574 	-0.519591 	0.146958 	1.66237 	0.0195882 	-3.12696 	90.1602 	116.744 	-0.562695 	317.411 	360.792 	285.014 	539.808 	
179.923 	-0.00258574 	-0.519591 	0.146958 	1.66237 	0.0195882 	-3.12696 	90.1602 	116.744 	-0.562695 	317.411 	360.792 	285.014 	539.808 	
179.933 	-0.00258574 	-0.519591 	0.146958 	1.66237 	0.0195882 	-3.12696 	90.1602 	116.744 	-0.562695 	317.411 	360.792 	285.014 	539.808 	
179.943 	-0.00258574 	-0.519591 	0.146958 	1.66237 	0.0195882 	-3.12696 	90.1602 	116.744 	-0.562695 	317.411 	360.792 	285.014 	539.808 	
179.953 	-0.00258574 	-0.519591 	0.146958 	1.66237 	0.0195882 	-3.12696 	90.1602 	116.744 	-0.562695 	317.411 	360.792 	285.014 	539.808 	
179.963 	-0.00258574 	-0.519591 	0.146958 	1.66237 	0.0195882 	-3.12696 	90.1602 	116.744 	-0.562695 	317.411 	360.792 	285.014 	539.808 	
179.973 	-0.00258574 	-0.519591 	0.146958 	1.66237 	0.0195882 	-3.12696 	90.1602 	116.744 	-0.562695 	317.411 	360.792 	285.014 	539.808 	
