RISC-NYUAD/HeavyPayloadDrone/projects/kinova-ros/devel/lib/ne_kinova_demo/VulcanTrajectory/Vulcan1_Vicon_y19m11d13h19min0.csv
time (NSec) 	Kinova Tip Position (t_x) 	t_y 	t_z 	Kinova Tip Angle (theta_x) 	Kinova Tip Angle (theta_y) 	Kinova Tip Angle (theta_z) 	Kinova Joint Angle (j1) 	(j2) 	(j3) 	(j4) 	Kinova Joint Angle (j5) 	(j6) 	(j7)
1.02841 	-0.00382918 	-0.485859 	-0.243195 	1.7655 	0.0102566 	-3.10797 	90.1566 	62.3621 	-0.591113 	268.845 	360.634 	284.641 	539.159 	
1.04918 	-0.00382918 	-0.485859 	-0.243195 	1.7655 	0.0102566 	-3.10797 	90.1566 	62.3622 	-0.591113 	268.845 	360.634 	284.641 	539.16 	
1.15678 	-0.00381938 	-0.486727 	-0.241694 	1.76516 	0.0102973 	-3.11197 	90.1566 	62.4583 	-0.591113 	268.971 	360.634 	284.641 	539.184 	
1.25972 	-0.00379571 	-0.488345 	-0.238502 	1.76516 	0.010394 	-3.12067 	90.1566 	62.8175 	-0.591113 	269.381 	360.634 	284.641 	539.539 	
1.36266 	-0.00377222 	-0.489935 	-0.235296 	1.76516 	0.010491 	-3.12535 	90.1566 	63.3415 	-0.591113 	269.858 	360.634 	284.641 	539.741 	
1.46568 	-0.00374891 	-0.491497 	-0.232076 	1.76515 	0.0105882 	-3.12533 	90.1566 	63.8502 	-0.591113 	270.41 	360.634 	284.641 	539.779 	
1.56865 	-0.00372577 	-0.493032 	-0.228843 	1.76515 	0.0106856 	-3.1253 	90.1566 	64.3322 	-0.591113 	270.914 	360.634 	284.641 	539.787 	
1.67179 	-0.00370281 	-0.494538 	-0.225596 	1.76515 	0.0107832 	-3.12528 	90.1566 	64.8479 	-0.591113 	271.412 	360.634 	284.641 	539.789 	
1.77448 	-0.00368002 	-0.496015 	-0.222336 	1.76514 	0.010881 	-3.12526 	90.1566 	65.3678 	-0.591113 	271.96 	360.634 	284.641 	539.79 	
1.87804 	-0.00365742 	-0.497464 	-0.219064 	1.76514 	0.0109791 	-3.12523 	90.1566 	65.8951 	-0.591113 	272.459 	360.634 	284.641 	539.792 	
1.98095 	-0.003635 	-0.498885 	-0.215779 	1.76514 	0.0110773 	-3.12521 	90.1566 	66.3685 	-0.591113 	272.959 	360.634 	284.641 	539.792 	
2.08388 	-0.00361277 	-0.500277 	-0.212482 	1.76513 	0.0111757 	-3.12519 	90.1566 	66.9425 	-0.591113 	273.509 	360.634 	284.641 	539.793 	
2.18671 	-0.00359072 	-0.50164 	-0.209172 	1.76513 	0.0112743 	-3.12517 	90.1566 	67.4138 	-0.591113 	274.01 	360.634 	284.641 	539.793 	
2.29009 	-0.00356886 	-0.502974 	-0.205851 	1.76513 	0.011373 	-3.12515 	90.1566 	67.9287 	-0.591113 	274.508 	360.634 	284.641 	539.793 	
2.39695 	-0.00354718 	-0.504279 	-0.202519 	1.76512 	0.0114719 	-3.12514 	90.1566 	68.4667 	-0.591113 	275.062 	360.634 	284.641 	539.793 	
2.5005 	-0.00352356 	-0.505681 	-0.19884 	1.76512 	0.0115808 	-3.12512 	90.1566 	68.9741 	-0.591113 	275.561 	360.634 	284.641 	539.794 	
2.60354 	-0.00350442 	-0.506801 	-0.19582 	1.76512 	0.0116701 	-3.1251 	90.1566 	69.5174 	-0.591113 	276.111 	360.634 	284.641 	539.794 	
2.71006 	-0.00346242 	-0.509206 	-0.189079 	1.76511 	0.0118689 	-3.12507 	90.1566 	70.0068 	-0.591113 	276.608 	360.634 	284.641 	539.794 	
2.81336 	-0.00344172 	-0.510365 	-0.185693 	1.76511 	0.0119685 	-3.12506 	90.1566 	70.5705 	-0.591113 	277.155 	360.634 	284.641 	539.794 	
2.91663 	-0.00342122 	-0.511494 	-0.182297 	1.7651 	0.0120682 	-3.12505 	90.1566 	71.0503 	-0.591113 	277.662 	360.634 	284.641 	539.794 	
3.01947 	-0.00340091 	-0.512593 	-0.178891 	1.7651 	0.012168 	-3.12504 	90.1566 	71.573 	-0.591113 	278.158 	360.634 	284.641 	539.794 	
3.12252 	-0.00338082 	-0.513662 	-0.175475 	1.7651 	0.0122679 	-3.12503 	90.1566 	72.0932 	-0.591113 	278.663 	360.634 	284.641 	539.794 	
3.22566 	-0.00336092 	-0.514702 	-0.172051 	1.76509 	0.0123679 	-3.12502 	90.1566 	72.6168 	-0.591113 	279.21 	360.634 	284.641 	539.794 	
3.3286 	-0.00334123 	-0.515711 	-0.168618 	1.76509 	0.012468 	-3.12501 	90.1566 	73.0901 	-0.591113 	279.707 	360.634 	284.641 	539.794 	
3.4316 	-0.00332174 	-0.516691 	-0.165175 	1.76509 	0.0125681 	-3.125 	90.1566 	73.6112 	-0.591113 	280.21 	360.634 	284.641 	539.795 	
3.53462 	-0.00330247 	-0.51764 	-0.161725 	1.76508 	0.0126683 	-3.12499 	90.1566 	74.1402 	-0.591113 	280.76 	360.634 	284.641 	539.795 	
3.63759 	-0.0032834 	-0.51856 	-0.158266 	1.76508 	0.0127686 	-3.12498 	90.1566 	74.651 	-0.591113 	281.258 	360.634 	284.641 	539.795 	
3.74073 	-0.00326454 	-0.519449 	-0.154799 	1.76508 	0.012869 	-3.12498 	90.1566 	75.1489 	-0.591113 	281.759 	360.634 	284.641 	539.795 	
3.84386 	-0.0032459 	-0.520308 	-0.151325 	1.76507 	0.0129693 	-3.12497 	90.1566 	75.6983 	-0.591113 	282.311 	360.634 	284.641 	539.795 	
3.9467 	-0.00322747 	-0.521136 	-0.147844 	1.76507 	0.0130698 	-3.12497 	90.1566 	76.2016 	-0.591113 	282.809 	360.634 	284.641 	539.795 	
4.05003 	-0.00320926 	-0.521934 	-0.144355 	1.76507 	0.0131702 	-3.12497 	90.1566 	76.6828 	-0.591113 	283.308 	360.634 	284.641 	539.795 	
4.15656 	-0.00319126 	-0.522702 	-0.14086 	1.76506 	0.0132707 	-3.12496 	90.1566 	77.2523 	-0.591113 	283.857 	360.634 	284.641 	539.795 	
4.25934 	-0.00317348 	-0.523439 	-0.137358 	1.76506 	0.0133712 	-3.12496 	90.1566 	77.7314 	-0.591113 	284.36 	360.634 	284.641 	539.795 	
4.36266 	-0.00315592 	-0.524145 	-0.133849 	1.76506 	0.0134717 	-3.12496 	90.1566 	78.3015 	-0.591113 	284.854 	360.634 	284.641 	539.795 	
4.46546 	-0.00313858 	-0.524821 	-0.130335 	1.76505 	0.0135722 	-3.12496 	90.1566 	78.7748 	-0.591113 	285.411 	360.634 	284.641 	539.795 	
4.56884 	-0.00312147 	-0.525467 	-0.126815 	1.76505 	0.0136726 	-3.12496 	90.1566 	79.2973 	-0.591113 	285.906 	360.634 	284.641 	539.795 	
4.67173 	-0.00310457 	-0.526081 	-0.123289 	1.76505 	0.0137731 	-3.12497 	90.1566 	79.7772 	-0.591113 	286.406 	360.634 	284.641 	539.795 	
4.77466 	-0.0030879 	-0.526664 	-0.119758 	1.76504 	0.0138736 	-3.12497 	90.1566 	80.3403 	-0.591113 	286.955 	360.634 	284.641 	539.795 	
4.87773 	-0.00307146 	-0.527217 	-0.116223 	1.76504 	0.013974 	-3.12497 	90.1566 	80.8291 	-0.591113 	287.458 	360.634 	284.641 	539.795 	
4.98109 	-0.00305525 	-0.527739 	-0.112682 	1.76504 	0.0140744 	-3.12498 	90.1566 	81.3304 	-0.591113 	287.952 	360.634 	284.641 	539.795 	
5.08329 	-0.00303926 	-0.52823 	-0.109138 	1.76503 	0.0141747 	-3.12498 	90.1566 	81.8812 	-0.591113 	288.51 	360.634 	284.641 	539.795 	
5.18685 	-0.0030235 	-0.52869 	-0.105589 	1.76503 	0.014275 	-3.12499 	90.1566 	82.3814 	-0.591113 	289.008 	360.634 	284.641 	539.795 	
5.28987 	-0.00300797 	-0.529119 	-0.102036 	1.76503 	0.0143752 	-3.125 	90.1566 	82.8893 	-0.591113 	289.509 	360.634 	284.641 	539.795 	
5.39704 	-0.00299268 	-0.529517 	-0.0984793 	1.76502 	0.0144753 	-3.12501 	90.1566 	83.4223 	-0.591113 	290.053 	360.634 	284.641 	539.796 	
5.49973 	-0.00297762 	-0.529884 	-0.0949195 	1.76502 	0.0145754 	-3.12502 	90.1566 	83.9368 	-0.591113 	290.554 	360.634 	284.641 	539.796 	
5.60255 	-0.00296279 	-0.53022 	-0.0913567 	1.76502 	0.0146754 	-3.12503 	90.1566 	84.4707 	-0.591113 	291.059 	360.634 	284.641 	539.796 	
5.70541 	-0.0029482 	-0.530525 	-0.0877911 	1.76501 	0.0147753 	-3.12504 	90.1566 	84.9931 	-0.591113 	291.606 	360.634 	284.641 	539.796 	
5.8096 	-0.00293242 	-0.530824 	-0.083866 	1.76501 	0.0148851 	-3.12505 	90.1566 	85.4648 	-0.591113 	292.109 	360.634 	284.641 	539.796 	
5.91231 	-0.00290585 	-0.531253 	-0.0770802 	1.76501 	0.0150744 	-3.12507 	90.1566 	86.035 	-0.591113 	292.603 	360.634 	284.641 	539.796 	
6.0155 	-0.00289221 	-0.531433 	-0.0735062 	1.765 	0.0151738 	-3.12509 	90.1566 	86.5155 	-0.591113 	293.157 	360.634 	284.641 	539.796 	
6.11874 	-0.00287881 	-0.531582 	-0.0699307 	1.765 	0.0152731 	-3.1251 	90.1566 	87.0358 	-0.591113 	293.659 	360.634 	284.641 	539.796 	
6.22164 	-0.00286565 	-0.531699 	-0.0663541 	1.765 	0.0153723 	-3.12512 	90.1566 	87.5222 	-0.591113 	294.156 	360.634 	284.641 	539.796 	
6.32483 	-0.00285274 	-0.531786 	-0.0627766 	1.76499 	0.0154714 	-3.12514 	90.1566 	88.0749 	-0.591113 	294.704 	360.634 	284.641 	539.796 	
6.42756 	-0.00284007 	-0.531841 	-0.0591985 	1.76499 	0.0155703 	-3.12516 	90.1566 	88.5771 	-0.591113 	295.205 	360.634 	284.641 	539.796 	
6.53034 	-0.00282764 	-0.531865 	-0.05562 	1.76499 	0.015669 	-3.12517 	90.1566 	89.0736 	-0.591113 	295.706 	360.634 	284.641 	539.796 	
6.63359 	-0.00281546 	-0.531858 	-0.0520415 	1.76498 	0.0157675 	-3.12519 	90.1566 	89.6329 	-0.591113 	296.254 	360.634 	284.641 	539.796 	
6.73667 	-0.00280353 	-0.53182 	-0.0484632 	1.76498 	0.0158659 	-3.12521 	90.1566 	90.1164 	-0.591113 	296.754 	360.634 	284.641 	539.796 	
6.83991 	-0.00279184 	-0.53175 	-0.0448854 	1.76498 	0.0159641 	-3.12524 	90.1566 	90.6331 	-0.591113 	297.257 	360.634 	284.641 	539.796 	
6.94272 	-0.00278041 	-0.53165 	-0.0413083 	1.76498 	0.0160621 	-3.12526 	90.1566 	91.1683 	-0.591113 	297.758 	360.634 	284.641 	539.796 	
7.04587 	-0.00276922 	-0.531518 	-0.0377322 	1.76497 	0.01616 	-3.12528 	90.1566 	91.6866 	-0.591113 	298.302 	360.634 	284.641 	539.796 	
7.14911 	-0.00275828 	-0.531354 	-0.0341575 	1.76497 	0.0162576 	-3.12531 	90.1566 	92.1665 	-0.591113 	298.803 	360.634 	284.641 	539.796 	
7.25666 	-0.0027476 	-0.53116 	-0.0305843 	1.76497 	0.016355 	-3.12533 	90.1566 	92.7307 	-0.591113 	299.356 	360.634 	284.641 	539.796 	
7.35972 	-0.00273716 	-0.530934 	-0.0270129 	1.76496 	0.0164522 	-3.12536 	90.1566 	93.2194 	-0.591113 	299.855 	360.634 	284.641 	539.796 	
7.46322 	-0.00272698 	-0.530678 	-0.0234437 	1.76496 	0.0165491 	-3.12538 	90.1566 	93.7831 	-0.591113 	300.353 	360.634 	284.641 	539.796 	
7.56576 	-0.00271705 	-0.53039 	-0.0198769 	1.76496 	0.0166458 	-3.12541 	90.1566 	94.2752 	-0.591113 	300.905 	360.634 	284.641 	539.796 	
7.66879 	-0.00270738 	-0.530071 	-0.0163128 	1.76496 	0.0167423 	-3.12544 	90.1566 	94.7777 	-0.591113 	301.401 	360.634 	284.641 	539.796 	
7.77185 	-0.00269796 	-0.529721 	-0.0127515 	1.76495 	0.0168385 	-3.12547 	90.1566 	95.2796 	-0.591113 	301.902 	360.634 	284.641 	539.796 	
7.87456 	-0.0026888 	-0.52934 	-0.00919341 	1.76495 	0.0169345 	-3.1255 	90.1566 	95.828 	-0.591113 	302.453 	360.634 	284.641 	539.796 	
7.97789 	-0.00267989 	-0.528927 	-0.00563882 	1.76495 	0.0170302 	-3.12553 	90.1566 	96.338 	-0.591113 	302.957 	360.634 	284.641 	539.796 	
8.08062 	-0.00267124 	-0.528484 	-0.00208787 	1.76494 	0.0171256 	-3.12556 	90.1566 	96.8239 	-0.591113 	303.453 	360.634 	284.641 	539.796 	
8.18387 	-0.00266285 	-0.52801 	0.00145887 	1.76494 	0.0172208 	-3.12559 	90.1566 	97.3835 	-0.591113 	304.005 	360.634 	284.641 	539.796 	
8.28692 	-0.00265471 	-0.527505 	0.00500145 	1.76494 	0.0173157 	-3.12562 	90.1566 	97.8777 	-0.591113 	304.504 	360.634 	284.641 	539.796 	
8.38996 	-0.00264684 	-0.526969 	0.00853948 	1.76494 	0.0174102 	-3.12566 	90.1566 	98.3905 	-0.591113 	305.001 	360.634 	284.641 	539.796 	
8.49807 	-0.00263847 	-0.526344 	0.0124256 	1.76493 	0.0175139 	-3.1257 	90.1566 	98.9238 	-0.591113 	305.552 	360.634 	284.641 	539.796 	
8.60078 	-0.00263114 	-0.525743 	0.0159532 	1.76493 	0.0176079 	-3.12573 	90.1566 	99.4385 	-0.591113 	306.052 	360.634 	284.641 	539.796 	
8.70471 	-0.00262477 	-0.525176 	0.0191234 	1.76493 	0.0176922 	-3.12576 	90.1566 	99.9803 	-0.591113 	306.603 	360.634 	284.641 	539.796 	
8.80851 	-0.00261794 	-0.524517 	0.0226404 	1.76493 	0.0177855 	-3.1258 	90.1566 	100.492 	-0.591113 	307.099 	360.634 	284.641 	539.796 	
8.91261 	-0.00260505 	-0.523107 	0.0296567 	1.76492 	0.0179712 	-3.12588 	90.1566 	101.033 	-0.591113 	307.607 	360.634 	284.641 	539.796 	
9.01534 	-0.002599 	-0.522356 	0.0331553 	1.76492 	0.0180635 	-3.12592 	90.1566 	101.538 	-0.591113 	308.15 	360.634 	284.641 	539.796 	
9.11879 	-0.00259322 	-0.521575 	0.0366473 	1.76492 	0.0181555 	-3.12596 	90.1566 	102.039 	-0.591113 	308.652 	360.634 	284.641 	539.796 	
9.22165 	-0.0025877 	-0.520763 	0.0401321 	1.76491 	0.0182471 	-3.126 	90.1566 	102.54 	-0.591113 	309.153 	360.634 	284.641 	539.796 	
9.32469 	-0.00258244 	-0.51992 	0.0436098 	1.76491 	0.0183384 	-3.12604 	90.1566 	103.093 	-0.591113 	309.703 	360.634 	284.641 	539.796 	
9.42783 	-0.00257745 	-0.519048 	0.0470801 	1.76491 	0.0184292 	-3.12609 	90.1566 	103.587 	-0.591113 	310.2 	360.634 	284.641 	539.796 	
9.53073 	-0.00257272 	-0.518145 	0.0505426 	1.76491 	0.0185198 	-3.12613 	90.1566 	104.1 	-0.591113 	310.701 	360.634 	284.641 	539.796 	
9.63374 	-0.00256826 	-0.517212 	0.053997 	1.7649 	0.0186099 	-3.12617 	90.1566 	104.639 	-0.591113 	311.252 	360.634 	284.641 	539.796 	
9.73668 	-0.00256406 	-0.516249 	0.0574432 	1.7649 	0.0186996 	-3.12622 	90.1566 	105.154 	-0.591113 	311.749 	360.634 	284.641 	539.796 	
9.83978 	-0.00256013 	-0.515256 	0.0608808 	1.7649 	0.018789 	-3.12626 	90.1566 	105.64 	-0.591113 	312.256 	360.634 	284.641 	539.796 	
9.94305 	-0.00255647 	-0.514233 	0.0643097 	1.7649 	0.0188779 	-3.12631 	90.1566 	106.202 	-0.591113 	312.748 	360.634 	284.641 	539.796 	
10.0455 	-0.00255307 	-0.51318 	0.0677294 	1.7649 	0.0189664 	-3.12636 	90.1566 	106.697 	-0.591113 	313.301 	360.634 	284.641 	539.796 	
10.1485 	-0.00254994 	-0.512097 	0.0711398 	1.76489 	0.0190545 	-3.12641 	90.1566 	107.206 	-0.591113 	313.803 	360.634 	284.641 	539.796 	
10.2568 	-0.00254707 	-0.510984 	0.0745407 	1.76489 	0.0191422 	-3.12646 	90.1566 	107.755 	-0.591113 	314.352 	360.634 	284.641 	539.796 	
10.3598 	-0.00254447 	-0.509842 	0.0779316 	1.76489 	0.0192294 	-3.12651 	90.1566 	108.254 	-0.591113 	314.849 	360.634 	284.641 	539.796 	
10.4628 	-0.00254214 	-0.50867 	0.0813125 	1.76489 	0.0193162 	-3.12656 	90.1566 	108.808 	-0.591113 	315.351 	360.634 	284.641 	539.796 	
10.5659 	-0.00254008 	-0.507469 	0.084683 	1.76488 	0.0194026 	-3.12661 	90.1566 	109.312 	-0.591113 	315.899 	360.634 	284.641 	539.796 	
10.6688 	-0.00253828 	-0.506239 	0.0880429 	1.76488 	0.0194885 	-3.12666 	90.1566 	109.814 	-0.591113 	316.399 	360.634 	284.641 	539.796 	
10.7719 	-0.00253676 	-0.504979 	0.0913919 	1.76488 	0.019574 	-3.12671 	90.1566 	110.307 	-0.591113 	316.9 	360.634 	284.641 	539.796 	
10.8747 	-0.00253568 	-0.503852 	0.0947897 	1.76439 	0.019654 	-3.12677 	90.1566 	110.87 	-0.591113 	317.273 	360.634 	284.641 	539.796 	
10.9778 	-0.00253786 	-0.50541 	0.0991937 	1.75566 	0.0196518 	-3.12678 	90.1566 	111.364 	-0.591113 	317.316 	360.634 	284.641 	539.796 	
11.081 	-0.00253998 	-0.506929 	0.103611 	1.74693 	0.0196496 	-3.12679 	90.1566 	111.876 	-0.591113 	317.318 	360.634 	284.641 	539.796 	
11.1839 	-0.00254205 	-0.50841 	0.108042 	1.73821 	0.0196475 	-3.1268 	90.1566 	112.41 	-0.591113 	317.319 	360.634 	284.641 	539.796 	
11.2867 	-0.00254406 	-0.509852 	0.112485 	1.72948 	0.0196455 	-3.12681 	90.1566 	112.915 	-0.591113 	317.32 	360.634 	284.641 	539.796 	
11.3902 	-0.00254602 	-0.511256 	0.116941 	1.72075 	0.0196436 	-3.12683 	90.1566 	113.411 	-0.591113 	317.321 	360.634 	284.641 	539.796 	
11.4969 	-0.00254793 	-0.51262 	0.121409 	1.71202 	0.0196419 	-3.12684 	90.1566 	113.969 	-0.591113 	317.323 	360.634 	284.641 	539.796 	
11.5996 	-0.00254978 	-0.513945 	0.125888 	1.7033 	0.0196402 	-3.12685 	90.1566 	114.465 	-0.591113 	317.324 	360.634 	284.641 	539.796 	
11.7026 	-0.00255157 	-0.515231 	0.130379 	1.69457 	0.0196386 	-3.12686 	90.1566 	115.014 	-0.591113 	317.324 	360.634 	284.641 	539.796 	
11.8087 	-0.00255331 	-0.516478 	0.134881 	1.68584 	0.0196372 	-3.12687 	90.1566 	115.516 	-0.591113 	317.325 	360.634 	284.641 	539.796 	
11.8296 	-0.002555 	-0.517685 	0.139394 	1.67712 	0.0196358 	-3.12689 	90.1566 	115.612 	-0.591113 	317.325 	360.634 	284.641 	539.796 	
11.9327 	-0.00255847 	-0.520428 	0.144205 	1.66403 	0.0195814 	-3.12687 	90.1566 	116.114 	-0.591113 	317.239 	360.634 	284.641 	539.796 	
12.036 	-0.00256329 	-0.524121 	0.149404 	1.64797 	0.0194942 	-3.12684 	90.1566 	116.535 	-0.591113 	316.818 	360.634 	284.641 	539.796 	
12.1388 	-0.00256708 	-0.526852 	0.150808 	1.63925 	0.0194075 	-3.1268 	90.1566 	116.603 	-0.591113 	316.337 	360.634 	284.641 	539.796 	
12.2419 	-0.00257117 	-0.529571 	0.152237 	1.63052 	0.0193205 	-3.12676 	90.1566 	116.604 	-0.591113 	315.839 	360.634 	284.641 	539.796 	
12.3449 	-0.00257554 	-0.532277 	0.153688 	1.6218 	0.0192332 	-3.12672 	90.1566 	116.605 	-0.591113 	315.292 	360.634 	284.641 	539.796 	
12.4482 	-0.00258021 	-0.534971 	0.155164 	1.61307 	0.0191455 	-3.12668 	90.1566 	116.605 	-0.591113 	314.794 	360.634 	284.641 	539.796 	
12.557 	-0.00258516 	-0.537652 	0.156662 	1.60435 	0.0190575 	-3.12665 	90.1566 	116.605 	-0.591113 	314.296 	360.634 	284.641 	539.796 	
12.6596 	-0.00259041 	-0.540319 	0.158184 	1.59562 	0.0189692 	-3.12661 	90.1566 	116.605 	-0.591113 	313.748 	360.634 	284.641 	539.796 	
12.7627 	-0.00259594 	-0.542973 	0.15973 	1.5869 	0.0188805 	-3.12657 	90.1566 	116.605 	-0.591113 	313.249 	360.634 	284.641 	539.796 	
12.8657 	-0.00260176 	-0.545614 	0.161298 	1.57817 	0.0187916 	-3.12654 	90.1566 	116.605 	-0.591113 	312.703 	360.634 	284.641 	539.796 	
12.969 	-0.00260788 	-0.54824 	0.162889 	1.56945 	0.0187024 	-3.1265 	90.1566 	116.605 	-0.591113 	312.208 	360.634 	284.641 	539.796 	
13.0719 	-0.00261428 	-0.550853 	0.164504 	1.56073 	0.0186128 	-3.12647 	90.1566 	116.605 	-0.591113 	311.705 	360.634 	284.641 	539.796 	
13.1749 	-0.00262096 	-0.553452 	0.166141 	1.552 	0.018523 	-3.12644 	90.1566 	116.605 	-0.591113 	311.156 	360.634 	284.641 	539.796 	
13.2779 	-0.00262794 	-0.556036 	0.1678 	1.54328 	0.0184329 	-3.12641 	90.1566 	116.605 	-0.591113 	310.655 	360.634 	284.641 	539.796 	
13.3811 	-0.0026352 	-0.558605 	0.169482 	1.53455 	0.0183425 	-3.12638 	90.1566 	116.605 	-0.591113 	310.165 	360.634 	284.641 	539.796 	
13.4839 	-0.00264275 	-0.56116 	0.171187 	1.52583 	0.0182519 	-3.12635 	90.1566 	116.605 	-0.591113 	309.611 	360.634 	284.641 	539.796 	
13.587 	-0.00265059 	-0.5637 	0.172913 	1.5171 	0.018161 	-3.12632 	90.1566 	116.605 	-0.591113 	309.116 	360.634 	284.641 	539.796 	
13.69 	-0.00265871 	-0.566225 	0.174662 	1.50838 	0.0180698 	-3.12629 	90.1566 	116.605 	-0.591113 	308.615 	360.634 	284.641 	539.796 	
13.7971 	-0.00266797 	-0.568984 	0.176611 	1.49878 	0.0179692 	-3.12626 	90.1566 	116.605 	-0.591113 	308.069 	360.634 	284.641 	539.796 	
13.8997 	-0.0026758 	-0.571228 	0.178225 	1.49093 	0.0178868 	-3.12623 	90.1566 	116.605 	-0.591113 	307.569 	360.634 	284.641 	539.796 	
14.0028 	-0.00268477 	-0.573706 	0.180039 	1.4822 	0.0177949 	-3.12621 	90.1566 	116.605 	-0.591113 	307.075 	360.634 	284.641 	539.796 	
14.1086 	-0.00269402 	-0.576168 	0.181875 	1.47348 	0.0177028 	-3.12618 	90.1566 	116.605 	-0.591113 	306.524 	360.634 	284.641 	539.796 	
14.2114 	-0.00270356 	-0.578614 	0.183732 	1.46476 	0.0176105 	-3.12616 	90.1566 	116.605 	-0.591113 	306.027 	360.634 	284.641 	539.796 	
14.3156 	-0.00272347 	-0.583457 	0.18751 	1.44731 	0.0174252 	-3.12611 	90.1566 	116.605 	-0.591113 	305.484 	360.634 	284.641 	539.796 	
14.4188 	-0.00273384 	-0.585854 	0.18943 	1.43858 	0.0173323 	-3.12609 	90.1566 	116.605 	-0.591113 	304.981 	360.634 	284.641 	539.796 	
14.5214 	-0.0027445 	-0.588234 	0.191372 	1.42986 	0.0172391 	-3.12607 	90.1566 	116.605 	-0.591113 	304.482 	360.634 	284.641 	539.796 	
14.6248 	-0.00275543 	-0.590596 	0.193334 	1.42113 	0.0171458 	-3.12605 	90.1566 	116.605 	-0.591113 	303.936 	360.634 	284.641 	539.796 	
14.7279 	-0.00276664 	-0.592942 	0.195316 	1.41241 	0.0170524 	-3.12603 	90.1566 	116.605 	-0.591113 	303.438 	360.634 	284.641 	539.796 	
14.8309 	-0.00277813 	-0.59527 	0.197319 	1.40369 	0.0169587 	-3.12601 	90.1566 	116.605 	-0.591113 	302.938 	360.634 	284.641 	539.796 	
14.9338 	-0.00278989 	-0.597581 	0.199342 	1.39496 	0.0168649 	-3.12599 	90.1566 	116.605 	-0.591113 	302.392 	360.634 	284.641 	539.796 	
15.0366 	-0.00280192 	-0.599874 	0.201386 	1.38624 	0.016771 	-3.12597 	90.1566 	116.605 	-0.591113 	301.891 	360.634 	284.641 	539.796 	
15.1401 	-0.00281423 	-0.602148 	0.203449 	1.37751 	0.0166768 	-3.12596 	90.1566 	116.605 	-0.591113 	301.396 	360.634 	284.641 	539.796 	
15.2427 	-0.00282681 	-0.604405 	0.205532 	1.36879 	0.0165826 	-3.12594 	90.1566 	116.605 	-0.591113 	300.901 	360.634 	284.641 	539.796 	
15.346 	-0.00283966 	-0.606644 	0.207634 	1.36006 	0.0164882 	-3.12593 	90.1566 	116.605 	-0.591113 	300.347 	360.634 	284.641 	539.796 	
15.449 	-0.00285279 	-0.608864 	0.209756 	1.35134 	0.0163937 	-3.12591 	90.1566 	116.605 	-0.591113 	299.851 	360.634 	284.641 	539.796 	
15.5559 	-0.00286618 	-0.611066 	0.211898 	1.34262 	0.0162991 	-3.1259 	90.1566 	116.605 	-0.591113 	299.302 	360.634 	284.641 	539.796 	
15.6588 	-0.00287984 	-0.613248 	0.214058 	1.33389 	0.0162043 	-3.12589 	90.1566 	116.605 	-0.591113 	298.808 	360.634 	284.641 	539.796 	
15.7619 	-0.00289377 	-0.615412 	0.216237 	1.32517 	0.0161095 	-3.12587 	90.1566 	116.605 	-0.591113 	298.307 	360.634 	284.641 	539.796 	
15.8647 	-0.00290797 	-0.617557 	0.218436 	1.31644 	0.0160146 	-3.12586 	90.1566 	116.605 	-0.591113 	297.758 	360.634 	284.641 	539.796 	
15.9679 	-0.00292243 	-0.619682 	0.220652 	1.30772 	0.0159195 	-3.12585 	90.1566 	116.605 	-0.591113 	297.263 	360.634 	284.641 	539.796 	
16.071 	-0.00293716 	-0.621789 	0.222888 	1.299 	0.0158244 	-3.12584 	90.1566 	116.605 	-0.591113 	296.764 	360.634 	284.641 	539.796 	
16.1741 	-0.00295214 	-0.623875 	0.225141 	1.29027 	0.0157292 	-3.12584 	90.1566 	116.605 	-0.591113 	296.218 	360.634 	284.641 	539.796 	
16.2768 	-0.00296739 	-0.625942 	0.227413 	1.28155 	0.015634 	-3.12583 	90.1566 	116.605 	-0.591113 	295.716 	360.634 	284.641 	539.796 	
16.3802 	-0.00298291 	-0.627989 	0.229703 	1.27282 	0.0155387 	-3.12582 	90.1566 	116.605 	-0.591113 	295.218 	360.634 	284.641 	539.797 	
16.483 	-0.00299868 	-0.630015 	0.23201 	1.2641 	0.0154433 	-3.12582 	90.1566 	116.605 	-0.591113 	294.723 	360.634 	284.641 	539.797 	
16.5862 	-0.00301471 	-0.632022 	0.234335 	1.25537 	0.0153479 	-3.12581 	90.1566 	116.605 	-0.591113 	294.176 	360.634 	284.641 	539.797 	
16.6893 	-0.003031 	-0.634008 	0.236677 	1.24665 	0.0152525 	-3.12581 	90.1566 	116.605 	-0.591113 	293.677 	360.634 	284.641 	539.797 	
16.7966 	-0.00304754 	-0.635974 	0.239037 	1.23793 	0.015157 	-3.12581 	90.1566 	116.605 	-0.591113 	293.127 	360.634 	284.641 	539.797 	
16.8999 	-0.00306434 	-0.637919 	0.241414 	1.2292 	0.0150615 	-3.1258 	90.1566 	116.605 	-0.591113 	292.626 	360.634 	284.641 	539.797 	
17.0031 	-0.00308139 	-0.639843 	0.243807 	1.22048 	0.0149659 	-3.1258 	90.1566 	116.605 	-0.591113 	292.133 	360.634 	284.641 	539.797 	
17.1088 	-0.0030987 	-0.641747 	0.246217 	1.21175 	0.0148704 	-3.1258 	90.1566 	116.605 	-0.591113 	291.586 	360.634 	284.641 	539.797 	
17.2115 	-0.00313406 	-0.64549 	0.251087 	1.19431 	0.0146793 	-3.1258 	90.1566 	116.605 	-0.591113 	291.082 	360.634 	284.641 	539.797 	
17.3143 	-0.00315211 	-0.647329 	0.253546 	1.18558 	0.0145838 	-3.1258 	90.1566 	116.605 	-0.591113 	290.533 	360.634 	284.641 	539.797 	
17.4163 	-0.00317041 	-0.649147 	0.256022 	1.17686 	0.0144883 	-3.12581 	90.1566 	116.605 	-0.591113 	290.038 	360.634 	284.641 	539.797 	
17.5196 	-0.00318895 	-0.650944 	0.258513 	1.16813 	0.0143928 	-3.12581 	90.1566 	116.605 	-0.591113 	289.541 	360.634 	284.641 	539.797 	
17.6228 	-0.00320774 	-0.652718 	0.261019 	1.15941 	0.0142974 	-3.12581 	90.1566 	116.605 	-0.591113 	289.04 	360.634 	284.641 	539.797 	
17.7258 	-0.00322677 	-0.654471 	0.263541 	1.15069 	0.014202 	-3.12582 	90.1566 	116.605 	-0.591113 	288.495 	360.634 	284.641 	539.797 	
17.8289 	-0.00324605 	-0.656202 	0.266078 	1.14196 	0.0141067 	-3.12582 	90.1566 	116.605 	-0.591113 	287.996 	360.634 	284.641 	539.797 	
17.9319 	-0.00326556 	-0.65791 	0.26863 	1.13324 	0.0140114 	-3.12583 	90.1566 	116.605 	-0.591113 	287.5 	360.634 	284.641 	539.797 	
18.0351 	-0.00328531 	-0.659596 	0.271197 	1.12451 	0.0139161 	-3.12584 	90.1566 	116.605 	-0.591113 	286.95 	360.634 	284.641 	539.797 	
18.1379 	-0.0033053 	-0.66126 	0.273779 	1.11579 	0.013821 	-3.12585 	90.1566 	116.605 	-0.591113 	286.453 	360.634 	284.641 	539.797 	
18.2399 	-0.00332552 	-0.662901 	0.276375 	1.10707 	0.0137259 	-3.12586 	90.1566 	116.605 	-0.591113 	285.953 	360.634 	284.641 	539.797 	
18.3427 	-0.00334598 	-0.664519 	0.278985 	1.09834 	0.0136309 	-3.12587 	90.1566 	116.605 	-0.591113 	285.454 	360.634 	284.641 	539.797 	
18.4458 	-0.00336667 	-0.666114 	0.281609 	1.08962 	0.013536 	-3.12588 	90.1566 	116.605 	-0.591113 	284.909 	360.634 	284.641 	539.797 	
18.5494 	-0.00338759 	-0.667687 	0.284247 	1.0809 	0.0134412 	-3.12589 	90.1566 	116.605 	-0.591113 	284.408 	360.634 	284.641 	539.797 	
18.6569 	-0.00340874 	-0.669236 	0.286898 	1.07217 	0.0133465 	-3.1259 	90.1566 	116.605 	-0.591113 	283.86 	360.634 	284.641 	539.797 	
18.7597 	-0.00343011 	-0.670762 	0.289563 	1.06345 	0.0132519 	-3.12592 	90.1566 	116.605 	-0.591113 	283.359 	360.634 	284.641 	539.797 	
18.8628 	-0.00345171 	-0.672265 	0.292242 	1.05472 	0.0131574 	-3.12593 	90.1567 	116.605 	-0.591113 	282.869 	360.634 	284.641 	539.797 	
18.9658 	-0.00347354 	-0.673745 	0.294933 	1.046 	0.0130631 	-3.12595 	90.1567 	116.605 	-0.591113 	282.318 	360.634 	284.641 	539.797 	
19.0688 	-0.00349559 	-0.675201 	0.297637 	1.03728 	0.0129689 	-3.12596 	90.1567 	116.605 	-0.591113 	281.82 	360.634 	284.641 	539.797 	
19.1719 	-0.00351785 	-0.676633 	0.300354 	1.02855 	0.0128748 	-3.12598 	90.1567 	116.605 	-0.591113 	281.32 	360.634 	284.641 	539.797 	
19.2747 	-0.00354034 	-0.678042 	0.303083 	1.01983 	0.0127809 	-3.126 	90.1568 	116.605 	-0.591113 	280.772 	360.634 	284.641 	539.797 	
19.3779 	-0.00356305 	-0.679426 	0.305824 	1.01111 	0.0126872 	-3.12601 	90.1568 	116.605 	-0.591113 	280.276 	360.634 	284.641 	539.797 	
19.481 	-0.00358597 	-0.680787 	0.308577 	1.00238 	0.0125936 	-3.12603 	90.1568 	116.605 	-0.591113 	279.776 	360.634 	284.641 	539.797 	
19.5839 	-0.0036091 	-0.682124 	0.311342 	0.993658 	0.0125002 	-3.12605 	90.1568 	116.605 	-0.591113 	279.227 	360.634 	284.641 	539.797 	
19.6868 	-0.00363245 	-0.683436 	0.314119 	0.984934 	0.0124069 	-3.12607 	90.1568 	116.605 	-0.591113 	278.727 	360.634 	284.641 	539.797 	
19.7899 	-0.003656 	-0.684724 	0.316906 	0.97621 	0.0123139 	-3.1261 	90.1568 	116.605 	-0.591113 	278.236 	360.634 	284.641 	539.797 	
19.8966 	-0.00367977 	-0.685988 	0.319705 	0.967487 	0.012221 	-3.12612 	90.1568 	116.605 	-0.591113 	277.686 	360.634 	284.641 	539.797 	
20.0006 	-0.00370374 	-0.687228 	0.322515 	0.958763 	0.0121283 	-3.12614 	90.1568 	116.605 	-0.591113 	277.189 	360.634 	284.641 	539.797 	
20.1046 	-0.00372792 	-0.688442 	0.325336 	0.950039 	0.0120359 	-3.12617 	90.1568 	116.605 	-0.591113 	276.635 	360.634 	284.641 	539.797 	
20.2102 	-0.00377688 	-0.690798 	0.331008 	0.932592 	0.0118516 	-3.12622 	90.1568 	116.605 	-0.591113 	276.142 	360.634 	284.641 	539.797 	
20.3143 	-0.00380166 	-0.691939 	0.33386 	0.923868 	0.0117598 	-3.12624 	90.1568 	116.604 	-0.591113 	275.591 	360.634 	284.641 	539.797 	
20.4178 	-0.00382664 	-0.693054 	0.336721 	0.915145 	0.0116682 	-3.12627 	90.1568 	116.604 	-0.591113 	275.095 	360.634 	284.641 	539.797 	
20.5209 	-0.00385181 	-0.694145 	0.339592 	0.906421 	0.0115769 	-3.1263 	90.1568 	116.604 	-0.591113 	274.597 	360.634 	284.641 	539.797 	
20.6238 	-0.00387717 	-0.69521 	0.342472 	0.897697 	0.0114858 	-3.12633 	90.1568 	116.604 	-0.591113 	274.051 	360.634 	284.641 	539.797 	
20.7267 	-0.00390273 	-0.696251 	0.345362 	0.888974 	0.011395 	-3.12636 	90.1568 	116.604 	-0.591113 	273.552 	360.634 	284.641 	539.797 	
20.8298 	-0.00392848 	-0.697266 	0.34826 	0.88025 	0.0113045 	-3.12639 	90.1568 	116.604 	-0.591113 	273.048 	360.634 	284.641 	539.797 	
20.9329 	-0.00395442 	-0.698256 	0.351167 	0.871526 	0.0112142 	-3.12642 	90.1568 	116.604 	-0.591113 	272.549 	360.634 	284.641 	539.797 	
21.0359 	-0.00398054 	-0.69922 	0.354083 	0.862803 	0.0111242 	-3.12645 	90.1568 	116.604 	-0.591113 	272.003 	360.634 	284.641 	539.797 	
21.1387 	-0.00400684 	-0.700159 	0.357007 	0.854079 	0.0110344 	-3.12648 	90.1568 	116.604 	-0.591113 	271.508 	360.634 	284.641 	539.797 	
21.2417 	-0.00403333 	-0.701072 	0.359939 	0.845355 	0.010945 	-3.12652 	90.1568 	116.604 	-0.591113 	271.008 	360.634 	284.641 	539.797 	
21.3448 	-0.00406 	-0.70196 	0.362879 	0.836632 	0.0108558 	-3.12655 	90.1568 	116.604 	-0.591113 	270.458 	360.634 	284.641 	539.797 	
21.448 	-0.00408684 	-0.702822 	0.365827 	0.827908 	0.010767 	-3.12659 	90.1568 	116.604 	-0.591113 	269.958 	360.634 	284.641 	539.797 	
21.5559 	-0.00411386 	-0.703659 	0.368782 	0.819185 	0.0106785 	-3.12662 	90.1568 	116.604 	-0.591113 	269.412 	360.634 	284.641 	539.797 	
21.6587 	-0.00414106 	-0.704469 	0.371744 	0.810461 	0.0105903 	-3.12666 	90.1568 	116.604 	-0.591113 	268.912 	360.634 	284.641 	539.797 	
21.762 	-0.00416842 	-0.705254 	0.374713 	0.801738 	0.0105024 	-3.1267 	90.1568 	116.604 	-0.591113 	268.419 	360.634 	284.641 	539.797 	
21.8648 	-0.00419596 	-0.706012 	0.377689 	0.793014 	0.0104148 	-3.12673 	90.1568 	116.604 	-0.591113 	267.867 	360.634 	284.641 	539.797 	
21.968 	-0.00422366 	-0.706745 	0.380671 	0.78429 	0.0103276 	-3.12677 	90.1568 	116.604 	-0.591113 	267.367 	360.634 	284.641 	539.797 	
22.0709 	-0.00425153 	-0.707452 	0.38366 	0.775567 	0.0102407 	-3.12681 	90.1568 	116.604 	-0.591113 	266.876 	360.634 	284.641 	539.797 	
22.1744 	-0.00427956 	-0.708132 	0.386655 	0.766843 	0.0101542 	-3.12685 	90.1568 	116.604 	-0.591113 	266.32 	360.634 	284.641 	539.797 	
22.2769 	-0.00430775 	-0.708787 	0.389655 	0.75812 	0.010068 	-3.12689 	90.1568 	116.604 	-0.591113 	265.826 	360.634 	284.641 	539.797 	
22.3795 	-0.0043361 	-0.709415 	0.392661 	0.749396 	0.00998218 	-3.12694 	90.1568 	116.604 	-0.591113 	265.321 	360.634 	284.641 	539.797 	
22.4831 	-0.00436461 	-0.710017 	0.395673 	0.740672 	0.00989673 	-3.12698 	90.1568 	116.604 	-0.591113 	264.828 	360.634 	284.641 	539.797 	
22.586 	-0.00439327 	-0.710593 	0.398689 	0.731949 	0.00981167 	-3.12702 	90.1568 	116.604 	-0.591113 	264.275 	360.634 	284.642 	539.797 	
22.689 	-0.00442209 	-0.711142 	0.401711 	0.723225 	0.00972699 	-3.12707 	90.1568 	116.604 	-0.591113 	263.779 	360.634 	284.642 	539.797 	
22.797 	-0.00445105 	-0.711665 	0.404737 	0.714501 	0.00964269 	-3.12711 	90.1568 	116.604 	-0.591113 	263.228 	360.634 	284.642 	539.797 	
22.8998 	-0.00448017 	-0.712161 	0.407768 	0.705778 	0.00955879 	-3.12716 	90.1568 	116.604 	-0.591113 	262.781 	360.634 	284.642 	539.797 	
23.0028 	-0.00450943 	-0.712631 	0.410803 	0.697054 	0.00947529 	-3.1272 	90.1568 	116.604 	-0.591113 	262.285 	360.634 	284.642 	539.797 	
23.1087 	-0.00456837 	-0.713492 	0.416884 	0.679607 	0.00930953 	-3.1273 	90.1568 	116.604 	-0.591113 	261.69 	360.634 	284.642 	539.797 	
23.2138 	-0.00459805 	-0.713882 	0.41993 	0.670884 	0.00922727 	-3.12735 	90.1568 	116.604 	-0.591113 	261.138 	360.634 	284.642 	539.797 	
23.3167 	-0.00462787 	-0.714246 	0.422979 	0.662161 	0.00914545 	-3.1274 	90.1568 	116.604 	-0.591113 	260.634 	360.634 	284.642 	539.797 	
23.4198 	-0.00465783 	-0.714584 	0.426032 	0.653437 	0.00906406 	-3.12745 	90.1568 	116.604 	-0.591113 	260.15 	360.634 	284.642 	539.797 	
23.5227 	-0.00468791 	-0.714894 	0.429087 	0.644713 	0.0089831 	-3.1275 	90.1568 	116.604 	-0.591113 	259.644 	360.634 	284.642 	539.797 	
23.6258 	-0.00471813 	-0.715178 	0.432145 	0.63599 	0.00890259 	-3.12755 	90.1568 	116.604 	-0.591113 	259.098 	360.634 	284.642 	539.797 	
23.7288 	-0.00474847 	-0.715435 	0.435205 	0.627266 	0.00882254 	-3.1276 	90.1568 	116.604 	-0.591113 	258.592 	360.634 	284.642 	539.797 	
23.8321 	-0.00477894 	-0.715666 	0.438268 	0.618542 	0.00874294 	-3.12765 	90.1568 	116.604 	-0.591113 	258.101 	360.634 	284.643 	539.797 	
23.9349 	-0.00480953 	-0.71587 	0.441332 	0.609819 	0.0086638 	-3.12771 	90.1568 	116.604 	-0.591113 	257.548 	360.634 	284.643 	539.797 	
24.0379 	-0.00484025 	-0.716047 	0.444398 	0.601095 	0.00858514 	-3.12776 	90.1568 	116.604 	-0.591113 	257.049 	360.634 	284.643 	539.797 	
24.1409 	-0.00487108 	-0.716197 	0.447465 	0.592372 	0.00850695 	-3.12782 	90.1568 	116.604 	-0.591113 	256.551 	360.634 	284.643 	539.797 	
24.2439 	-0.00490203 	-0.716321 	0.450534 	0.583647 	0.00842922 	-3.12787 	90.1568 	116.604 	-0.591113 	256 	360.634 	284.643 	539.797 	
24.3469 	-0.0049331 	-0.716417 	0.453605 	0.574921 	0.00835198 	-3.12793 	90.1568 	116.604 	-0.591113 	255.509 	360.634 	284.643 	539.797 	
24.4501 	-0.00496429 	-0.716487 	0.456676 	0.566194 	0.00827523 	-3.12799 	90.1568 	116.604 	-0.591113 	255.003 	360.634 	284.643 	539.797 	
24.5561 	-0.00499558 	-0.716531 	0.459748 	0.557468 	0.00819898 	-3.12804 	90.1568 	116.604 	-0.591113 	254.453 	360.634 	284.643 	539.797 	
24.6591 	-0.00502697 	-0.716547 	0.46282 	0.548742 	0.00812324 	-3.1281 	90.1568 	116.604 	-0.591113 	253.95 	360.634 	284.643 	539.797 	
24.762 	-0.00505847 	-0.716537 	0.465892 	0.540016 	0.00804801 	-3.12816 	90.1568 	116.604 	-0.591113 	253.468 	360.634 	284.643 	539.797 	
24.8649 	-0.00509008 	-0.716499 	0.468963 	0.53129 	0.00797329 	-3.12822 	90.1568 	116.604 	-0.591113 	252.906 	360.634 	284.643 	539.797 	
24.9681 	-0.00512178 	-0.716435 	0.472035 	0.522563 	0.0078991 	-3.12828 	90.1568 	116.604 	-0.591113 	252.411 	360.634 	284.643 	539.797 	
25.0709 	-0.00515358 	-0.716344 	0.475105 	0.513837 	0.00782543 	-3.12834 	90.1568 	116.604 	-0.591113 	251.904 	360.634 	284.644 	539.797 	
25.174 	-0.00518548 	-0.716227 	0.478175 	0.505111 	0.00775231 	-3.1284 	90.1568 	116.604 	-0.591113 	251.37 	360.634 	284.644 	539.797 	
25.277 	-0.00521746 	-0.716082 	0.481243 	0.496385 	0.00767972 	-3.12846 	90.1568 	116.604 	-0.591113 	250.864 	360.634 	284.644 	539.797 	
25.3802 	-0.00524954 	-0.715911 	0.484311 	0.487658 	0.00760767 	-3.12853 	90.1568 	116.604 	-0.591113 	250.363 	360.634 	284.644 	539.797 	
25.483 	-0.0052817 	-0.715713 	0.487376 	0.478932 	0.00753617 	-3.12859 	90.1568 	116.604 	-0.591113 	249.866 	360.634 	284.644 	539.797 	
25.5862 	-0.00531395 	-0.715488 	0.49044 	0.470206 	0.00746524 	-3.12865 	90.1568 	116.604 	-0.591113 	249.313 	360.634 	284.644 	539.797 	
25.6892 	-0.00534628 	-0.715237 	0.493502 	0.46148 	0.00739486 	-3.12872 	90.1568 	116.604 	-0.591113 	248.818 	360.634 	284.644 	539.797 	
25.7971 	-0.00537869 	-0.714959 	0.496561 	0.452754 	0.00732505 	-3.12878 	90.1568 	116.604 	-0.591113 	248.268 	360.634 	284.644 	539.797 	
25.8999 	-0.00541118 	-0.714654 	0.499618 	0.444028 	0.00725581 	-3.12885 	90.1568 	116.604 	-0.591113 	247.767 	360.634 	284.644 	539.797 	
26.0028 	-0.00544374 	-0.714322 	0.502672 	0.435302 	0.00718715 	-3.12892 	90.1568 	116.604 	-0.591113 	247.262 	360.634 	284.644 	539.797 	
26.1086 	-0.00547638 	-0.713964 	0.505723 	0.426575 	0.00711907 	-3.12898 	90.1568 	116.604 	-0.591113 	246.726 	360.634 	284.644 	539.797 	
26.2125 	-0.00550908 	-0.713579 	0.50877 	0.417849 	0.00705158 	-3.12905 	90.1568 	116.604 	-0.591113 	246.222 	360.634 	284.644 	539.797 	
26.3154 	-0.00557469 	-0.71273 	0.514855 	0.400397 	0.00691839 	-3.12919 	90.1568 	116.604 	-0.591113 	245.674 	360.634 	284.644 	539.797 	
26.4176 	-0.00560759 	-0.712266 	0.517892 	0.391671 	0.00685269 	-3.12926 	90.1568 	116.604 	-0.591113 	245.165 	360.634 	284.644 	539.797 	
26.5209 	-0.00564055 	-0.711775 	0.520924 	0.382945 	0.0067876 	-3.12933 	90.1568 	116.604 	-0.591113 	244.679 	360.634 	284.645 	539.797 	
26.624 	-0.00567357 	-0.711257 	0.523952 	0.374219 	0.00672313 	-3.1294 	90.1568 	116.604 	-0.591113 	244.126 	360.634 	284.645 	539.797 	
26.7268 	-0.00570665 	-0.710714 	0.526976 	0.365492 	0.00665927 	-3.12947 	90.1568 	116.604 	-0.591113 	243.629 	360.634 	284.645 	539.797 	
26.83 	-0.00573977 	-0.710143 	0.529994 	0.356766 	0.00659604 	-3.12954 	90.1568 	116.604 	-0.591113 	243.124 	360.634 	284.645 	539.797 	
26.9328 	-0.00577295 	-0.709547 	0.533008 	0.34804 	0.00653343 	-3.12961 	90.1568 	116.604 	-0.591113 	242.622 	360.634 	284.645 	539.797 	
27.0358 	-0.00580617 	-0.708924 	0.536016 	0.339314 	0.00647146 	-3.12969 	90.1568 	116.603 	-0.591113 	242.082 	360.634 	284.645 	539.797 	
27.1389 	-0.00583943 	-0.708275 	0.539019 	0.330588 	0.00641012 	-3.12976 	90.1568 	116.603 	-0.591113 	241.576 	360.634 	284.645 	539.797 	
27.2418 	-0.00587275 	-0.7076 	0.542016 	0.321861 	0.00634942 	-3.12983 	90.1568 	116.603 	-0.591113 	241.08 	360.634 	284.645 	539.797 	
27.3448 	-0.0059061 	-0.706899 	0.545006 	0.313135 	0.00628938 	-3.12991 	90.1568 	116.603 	-0.591113 	240.523 	360.634 	284.645 	539.797 	
27.4483 	-0.00593948 	-0.706172 	0.547991 	0.304409 	0.00622998 	-3.12998 	90.1568 	116.603 	-0.591113 	240.038 	360.634 	284.645 	539.797 	
27.5555 	-0.0059729 	-0.705418 	0.550969 	0.295683 	0.00617124 	-3.13006 	90.1568 	116.603 	-0.591113 	239.479 	360.634 	284.645 	539.797 	
27.6589 	-0.00600636 	-0.704639 	0.553941 	0.286956 	0.00611315 	-3.13013 	90.1568 	116.603 	-0.591113 	238.984 	360.634 	284.645 	539.797 	
27.7619 	-0.00603984 	-0.703834 	0.556905 	0.27823 	0.00605574 	-3.13021 	90.1568 	116.603 	-0.591113 	238.475 	360.634 	284.645 	539.797 	
27.8647 	-0.00607335 	-0.703003 	0.559862 	0.269504 	0.00599899 	-3.13029 	90.1568 	116.603 	-0.591113 	237.937 	360.634 	284.645 	539.797 	
27.9681 	-0.00610689 	-0.702146 	0.562812 	0.260778 	0.00594291 	-3.13036 	90.1568 	116.603 	-0.591113 	237.435 	360.634 	284.645 	539.797 	
28.071 	-0.00614044 	-0.701263 	0.565755 	0.252052 	0.00588751 	-3.13044 	90.1568 	116.603 	-0.591113 	236.937 	360.634 	284.646 	539.797 	
28.1742 	-0.00617402 	-0.700355 	0.568689 	0.243325 	0.00583279 	-3.13052 	90.1568 	116.603 	-0.591113 	236.38 	360.634 	284.646 	539.797 	
28.2769 	-0.00620761 	-0.699421 	0.571616 	0.234599 	0.00577876 	-3.1306 	90.1568 	116.603 	-0.591113 	235.88 	360.634 	284.646 	539.797 	
28.3802 	-0.00624122 	-0.698462 	0.574534 	0.225873 	0.00572542 	-3.13068 	90.1568 	116.603 	-0.591113 	235.39 	360.634 	284.646 	539.797 	
28.4833 	-0.00627484 	-0.697477 	0.577444 	0.217147 	0.00567278 	-3.13076 	90.1568 	116.603 	-0.591113 	234.885 	360.634 	284.646 	539.797 	
28.5859 	-0.00630847 	-0.696467 	0.580345 	0.208421 	0.00562083 	-3.13084 	90.1568 	116.603 	-0.591113 	234.337 	360.634 	284.646 	539.797 	
28.6893 	-0.0063421 	-0.695431 	0.583238 	0.199694 	0.00556958 	-3.13092 	90.1568 	116.603 	-0.591113 	233.828 	360.634 	284.646 	539.797 	
28.799 	-0.00637574 	-0.694371 	0.58612 	0.190968 	0.00551904 	-3.131 	90.1568 	116.603 	-0.591113 	233.293 	360.634 	284.646 	539.797 	
28.9017 	-0.00640938 	-0.693285 	0.588994 	0.182242 	0.00546921 	-3.13108 	90.1568 	116.603 	-0.591113 	232.788 	360.634 	284.646 	539.797 	
29.0049 	-0.00644302 	-0.692174 	0.591858 	0.173516 	0.00542009 	-3.13116 	90.1568 	116.603 	-0.591113 	232.241 	360.634 	284.646 	539.797 	
29.1088 	-0.00651029 	-0.689878 	0.597557 	0.156063 	0.00532401 	-3.13133 	90.1568 	116.603 	-0.591113 	231.73 	360.634 	284.646 	539.797 	
29.2126 	-0.00654391 	-0.688693 	0.600391 	0.147337 	0.00527705 	-3.13141 	90.1568 	116.603 	-0.591113 	231.238 	360.634 	284.646 	539.797 	
29.3158 	-0.00657752 	-0.687483 	0.603214 	0.138611 	0.00523082 	-3.1315 	90.1568 	116.603 	-0.591113 	230.688 	360.634 	284.646 	539.797 	
29.4185 	-0.00661112 	-0.686248 	0.606027 	0.129885 	0.00518533 	-3.13158 	90.1568 	116.603 	-0.591113 	230.192 	360.634 	284.646 	539.797 	
29.5219 	-0.0066447 	-0.684989 	0.608829 	0.121159 	0.00514057 	-3.13166 	90.1568 	116.603 	-0.591113 	229.683 	360.634 	284.647 	539.797 	
29.6249 	-0.00667826 	-0.683705 	0.61162 	0.112432 	0.00509654 	-3.13175 	90.1568 	116.603 	-0.591113 	229.134 	360.634 	284.647 	539.797 	
29.728 	-0.00671179 	-0.682398 	0.6144 	0.103706 	0.00505326 	-3.13183 	90.1568 	116.603 	-0.591113 	228.641 	360.634 	284.647 	539.797 	
29.8309 	-0.00674531 	-0.681066 	0.617168 	0.0949799 	0.00501073 	-3.13192 	90.1568 	116.603 	-0.591113 	228.138 	360.634 	284.647 	539.797 	
29.934 	-0.0067788 	-0.679709 	0.619924 	0.0862538 	0.00496894 	-3.13201 	90.1568 	116.603 	-0.591113 	227.589 	360.634 	284.647 	539.797 	
30.0368 	-0.00681225 	-0.678329 	0.622669 	0.0775275 	0.0049279 	-3.13209 	90.1568 	116.603 	-0.591113 	227.082 	360.634 	284.647 	539.797 	
30.14 	-0.00684568 	-0.676925 	0.625401 	0.0688014 	0.00488762 	-3.13218 	90.1568 	116.603 	-0.591113 	226.597 	360.634 	284.647 	539.797 	
30.2427 	-0.00687907 	-0.675497 	0.628121 	0.060075 	0.0048481 	-3.13227 	90.1568 	116.603 	-0.591113 	226.087 	360.634 	284.647 	539.797 	
30.3459 	-0.00691243 	-0.674046 	0.630828 	0.0513489 	0.00480934 	-3.13235 	90.1568 	116.603 	-0.591113 	225.545 	360.634 	284.647 	539.797 	
30.4487 	-0.00694575 	-0.672571 	0.633523 	0.0426225 	0.00477134 	-3.13244 	90.1568 	116.603 	-0.591113 	225.034 	360.634 	284.647 	539.797 	
30.5559 	-0.00697902 	-0.671072 	0.636205 	0.0338964 	0.00473411 	-3.13253 	90.1568 	116.603 	-0.591113 	224.491 	360.634 	284.648 	539.797 	
30.659 	-0.00701225 	-0.66955 	0.638873 	0.0251702 	0.00469764 	-3.13262 	90.1568 	116.603 	-0.591113 	223.989 	360.634 	284.648 	539.797 	
30.762 	-0.00704543 	-0.668005 	0.641528 	0.0164439 	0.00466195 	-3.13271 	90.1568 	116.603 	-0.591113 	223.492 	360.634 	284.648 	539.797 	
30.865 	-0.00707857 	-0.666437 	0.64417 	0.00771767 	0.00462704 	-3.1328 	90.1568 	116.603 	-0.591113 	222.937 	360.634 	284.648 	539.797 	
30.9681 	-0.00711165 	-0.664845 	0.646797 	-0.00100868 	0.0045929 	-3.13288 	90.1568 	116.603 	-0.591113 	222.436 	360.634 	284.648 	539.797 	
31.071 	-0.00714468 	-0.663231 	0.649411 	-0.00973481 	0.00455954 	-3.13297 	90.1568 	116.603 	-0.591113 	221.942 	360.634 	284.648 	539.797 	
31.1743 	-0.00717765 	-0.661594 	0.65201 	-0.0184612 	0.00452697 	-3.13306 	90.1568 	116.603 	-0.591113 	221.388 	360.634 	284.648 	539.797 	
31.2769 	-0.00721056 	-0.659935 	0.654596 	-0.0271874 	0.00449518 	-3.13315 	90.1568 	116.603 	-0.591113 	220.895 	360.634 	284.649 	539.797 	
31.3803 	-0.00724341 	-0.658253 	0.657166 	-0.0359138 	0.00446417 	-3.13324 	90.1568 	116.603 	-0.591113 	220.385 	360.634 	284.649 	539.797 	
31.483 	-0.00727619 	-0.656548 	0.659722 	-0.0446399 	0.00443396 	-3.13334 	90.1568 	116.603 	-0.591113 	219.892 	360.634 	284.65 	539.797 	
31.5861 	-0.0073089 	-0.654822 	0.662263 	-0.0533661 	0.00440454 	-3.13343 	90.1568 	116.603 	-0.591113 	219.338 	360.634 	284.737 	539.797 	
31.6899 	-0.00734155 	-0.653073 	0.664788 	-0.0620924 	0.00437592 	-3.13352 	90.1568 	116.603 	-0.591113 	218.839 	360.634 	284.775 	539.797 	
31.7972 	-0.00737413 	-0.651302 	0.667298 	-0.0708186 	0.00434809 	-3.13361 	90.1568 	116.603 	-0.591113 	218.281 	360.634 	284.793 	539.797 	
31.9003 	-0.00740663 	-0.64951 	0.669793 	-0.0795449 	0.00432106 	-3.1337 	90.1568 	116.603 	-0.591113 	217.79 	360.634 	284.797 	539.797 	
32.004 	-0.00743905 	-0.647695 	0.672272 	-0.0882711 	0.00429483 	-3.13379 	90.1568 	116.603 	-0.591113 	217.239 	360.634 	284.799 	539.797 	
32.1088 	-0.00747139 	-0.64586 	0.674735 	-0.0969975 	0.0042694 	-3.13388 	90.1568 	116.603 	-0.591113 	216.743 	360.634 	284.801 	539.797 	
32.2127 	-0.00750366 	-0.644002 	0.677182 	-0.105724 	0.00424478 	-3.13398 	90.1568 	116.603 	-0.591113 	216.236 	360.634 	284.803 	539.797 	
32.3158 	-0.00756792 	-0.640224 	0.682027 	-0.123176 	0.00419796 	-3.13416 	90.1568 	116.603 	-0.591113 	215.684 	360.634 	284.804 	539.797 	
32.418 	-0.00759993 	-0.638303 	0.684424 	-0.131902 	0.00417577 	-3.13426 	90.1568 	116.603 	-0.591113 	215.19 	360.634 	284.805 	539.797 	
32.5206 	-0.00763184 	-0.636362 	0.686805 	-0.140629 	0.00415438 	-3.13435 	90.1568 	116.603 	-0.591113 	214.691 	360.634 	284.805 	539.797 	
32.6241 	-0.00766365 	-0.6344 	0.689169 	-0.149355 	0.00413381 	-3.13444 	90.1568 	116.603 	-0.591113 	214.138 	360.634 	284.806 	539.797 	
32.727 	-0.00769537 	-0.632417 	0.691515 	-0.158081 	0.00411406 	-3.13454 	90.1568 	116.603 	-0.591113 	213.629 	360.634 	284.807 	539.797 	
32.8299 	-0.00772699 	-0.630414 	0.693844 	-0.166808 	0.00409512 	-3.13463 	90.1568 	116.603 	-0.591113 	213.143 	360.634 	284.807 	539.797 	
32.9328 	-0.00775851 	-0.62839 	0.696155 	-0.175534 	0.004077 	-3.13472 	90.1568 	116.603 	-0.591113 	212.634 	360.634 	284.808 	539.797 	
33.0361 	-0.00778992 	-0.626347 	0.698449 	-0.18426 	0.0040597 	-3.13482 	90.1568 	116.603 	-0.591113 	212.088 	360.634 	284.808 	539.797 	
33.1389 	-0.00782123 	-0.624283 	0.700725 	-0.192986 	0.00404322 	-3.13491 	90.1568 	116.603 	-0.591113 	211.58 	360.634 	284.809 	539.797 	
33.2421 	-0.00785243 	-0.6222 	0.702982 	-0.201713 	0.00402756 	-3.135 	90.1568 	116.603 	-0.591113 	211.087 	360.634 	284.809 	539.797 	
33.3448 	-0.00788352 	-0.620097 	0.705222 	-0.210439 	0.00401272 	-3.1351 	90.1568 	116.603 	-0.591113 	210.532 	360.634 	284.809 	539.797 	
33.4483 	-0.00791449 	-0.617975 	0.707443 	-0.219165 	0.00399871 	-3.13519 	90.1568 	116.603 	-0.591113 	210.035 	360.634 	284.81 	539.797 	
33.556 	-0.00794535 	-0.615833 	0.709645 	-0.227891 	0.00398553 	-3.13529 	90.1568 	116.603 	-0.591113 	209.481 	360.634 	284.81 	539.797 	
33.659 	-0.00797609 	-0.613672 	0.711829 	-0.236618 	0.00397317 	-3.13538 	90.1568 	116.603 	-0.591113 	208.976 	360.634 	284.811 	539.797 	
33.762 	-0.00800672 	-0.611492 	0.713993 	-0.245344 	0.00396164 	-3.13548 	90.1568 	116.603 	-0.591113 	208.486 	360.634 	284.811 	539.797 	
33.8649 	-0.00803721 	-0.609294 	0.716139 	-0.25407 	0.00395094 	-3.13557 	90.1568 	116.603 	-0.591113 	207.934 	360.634 	284.811 	539.797 	
33.9682 	-0.00806759 	-0.607077 	0.718265 	-0.262797 	0.00394106 	-3.13567 	90.1568 	116.603 	-0.591113 	207.435 	360.634 	284.812 	539.797 	
34.071 	-0.00809783 	-0.604841 	0.720372 	-0.271523 	0.00393202 	-3.13576 	90.1568 	116.603 	-0.591113 	206.925 	360.634 	284.812 	539.797 	
34.1745 	-0.00812795 	-0.602587 	0.722459 	-0.280249 	0.00392381 	-3.13586 	90.1568 	116.603 	-0.591113 	206.38 	360.634 	284.812 	539.797 	
34.2771 	-0.00815793 	-0.600315 	0.724526 	-0.288975 	0.00391642 	-3.13595 	90.1568 	116.603 	-0.591113 	205.88 	360.634 	284.813 	539.797 	
34.3801 	-0.00818778 	-0.598025 	0.726574 	-0.297702 	0.00390987 	-3.13605 	90.1568 	116.603 	-0.591113 	205.382 	360.634 	284.814 	539.797 	
34.4833 	-0.0082175 	-0.595717 	0.728602 	-0.306428 	0.00390415 	-3.13614 	90.1568 	116.603 	-0.591113 	204.874 	360.634 	284.815 	539.797 	
34.5861 	-0.00824707 	-0.593391 	0.730609 	-0.315154 	0.00389927 	-3.13624 	90.1568 	116.603 	-0.591113 	204.324 	360.634 	284.851 	539.797 	
34.7143 	-0.0083058 	-0.588688 	0.734562 	-0.332607 	0.003892 	-3.13643 	90.1568 	116.603 	-0.591113 	203.675 	360.634 	284.862 	539.797 	
34.8162 	-0.00833494 	-0.586311 	0.736508 	-0.341333 	0.00388961 	-3.13653 	90.1568 	116.603 	-0.591113 	203.179 	360.634 	284.864 	539.797 	
34.9186 	-0.00836394 	-0.583917 	0.738433 	-0.350059 	0.00388806 	-3.13662 	90.1568 	116.603 	-0.591113 	202.669 	360.634 	284.865 	539.797 	
35.022 	-0.00839279 	-0.581506 	0.740337 	-0.358786 	0.00388734 	-3.13672 	90.1568 	116.603 	-0.591113 	202.17 	360.634 	284.866 	539.797 	
35.1247 	-0.00842148 	-0.579079 	0.742219 	-0.367512 	0.00388746 	-3.13681 	90.1568 	116.603 	-0.591113 	201.626 	360.634 	284.867 	539.797 	
35.2279 	-0.00845002 	-0.576635 	0.744081 	-0.376238 	0.0038884 	-3.13691 	90.1568 	116.603 	-0.591113 	201.126 	360.634 	284.867 	539.797 	
35.331 	-0.00847841 	-0.574175 	0.745921 	-0.384965 	0.00389019 	-3.137 	90.1568 	116.603 	-0.591113 	200.622 	360.634 	284.867 	539.797 	
35.4339 	-0.00850663 	-0.571699 	0.74774 	-0.393691 	0.00389281 	-3.1371 	90.1568 	116.603 	-0.591113 	200.112 	360.634 	284.868 	539.797 	
35.5369 	-0.0085347 	-0.569208 	0.749537 	-0.402417 	0.00389625 	-3.1372 	90.1568 	116.603 	-0.591113 	199.571 	360.634 	284.868 	539.797 	
35.6402 	-0.0085626 	-0.566701 	0.751312 	-0.411143 	0.00390054 	-3.13729 	90.1568 	116.603 	-0.591113 	199.066 	360.634 	284.868 	539.797 	
35.743 	-0.00859034 	-0.564178 	0.753065 	-0.41987 	0.00390566 	-3.13739 	90.1568 	116.603 	-0.591113 	198.569 	360.634 	284.868 	539.797 	
35.8462 	-0.0086179 	-0.56164 	0.754796 	-0.428596 	0.00391161 	-3.13748 	90.1568 	116.603 	-0.591113 	198.01 	360.634 	284.869 	539.797 	
35.9491 	-0.00864531 	-0.559087 	0.756505 	-0.437322 	0.00391839 	-3.13758 	90.1568 	116.603 	-0.591113 	197.513 	360.634 	284.869 	539.797 	
36.0561 	-0.00867253 	-0.55652 	0.758192 	-0.446048 	0.003926 	-3.13767 	90.1568 	116.603 	-0.591113 	196.968 	360.634 	284.869 	539.797 	
36.1589 	-0.00869959 	-0.553937 	0.759856 	-0.454775 	0.00393444 	-3.13777 	90.1568 	116.603 	-0.591113 	196.465 	360.634 	284.869 	539.797 	
36.2622 	-0.00872647 	-0.551341 	0.761497 	-0.463501 	0.00394372 	-3.13786 	90.1568 	116.603 	-0.591113 	195.956 	360.634 	284.87 	539.797 	
36.365 	-0.00875317 	-0.54873 	0.763116 	-0.472228 	0.00395382 	-3.13796 	90.1568 	116.603 	-0.591113 	195.414 	360.634 	284.87 	539.797 	
36.4683 	-0.0087797 	-0.546105 	0.764712 	-0.480954 	0.00396475 	-3.13805 	90.1569 	116.603 	-0.591113 	194.912 	360.634 	284.87 	539.797 	
36.571 	-0.00880604 	-0.543466 	0.766285 	-0.48968 	0.00397652 	-3.13815 	90.1569 	116.603 	-0.591113 	194.413 	360.634 	284.87 	539.797 	
36.6744 	-0.00883219 	-0.540814 	0.767835 	-0.498406 	0.0039891 	-3.13824 	90.1568 	116.603 	-0.591113 	193.908 	360.634 	284.87 	539.797 	
36.777 	-0.00885817 	-0.538148 	0.769361 	-0.507132 	0.00400252 	-3.13834 	90.1569 	116.603 	-0.591113 	193.351 	360.634 	284.87 	539.797 	
36.8802 	-0.00888395 	-0.535469 	0.770865 	-0.515859 	0.00401676 	-3.13843 	90.1568 	116.603 	-0.591113 	192.86 	360.634 	284.871 	539.797 	
36.9839 	-0.00890955 	-0.532777 	0.772345 	-0.524585 	0.00403182 	-3.13853 	90.1569 	116.603 	-0.591113 	192.356 	360.634 	284.871 	539.797 	
37.0871 	-0.00893495 	-0.530072 	0.773801 	-0.533311 	0.0040477 	-3.13862 	90.1569 	116.603 	-0.591113 	191.801 	360.634 	284.871 	539.797 	
37.1902 	-0.00896016 	-0.527355 	0.775234 	-0.542038 	0.00406441 	-3.13871 	90.1569 	116.603 	-0.591113 	191.297 	360.634 	284.871 	539.797 	
37.297 	-0.00898517 	-0.524625 	0.776643 	-0.550764 	0.00408194 	-3.13881 	90.1569 	116.603 	-0.591113 	190.749 	360.634 	284.871 	539.797 	
37.4 	-0.00900999 	-0.521883 	0.778028 	-0.55949 	0.00410029 	-3.1389 	90.1569 	116.603 	-0.591113 	190.248 	360.634 	284.871 	539.797 	
37.5037 	-0.00903461 	-0.519129 	0.779389 	-0.568216 	0.00411945 	-3.139 	90.1569 	116.603 	-0.591113 	189.747 	360.634 	284.871 	539.797 	
37.61 	-0.00905903 	-0.516363 	0.780726 	-0.576943 	0.00413944 	-3.13909 	90.1568 	116.603 	-0.591113 	189.195 	360.634 	284.871 	539.797 	
37.7128 	-0.00910725 	-0.510797 	0.783327 	-0.594395 	0.00418184 	-3.13928 	90.1569 	116.603 	-0.591113 	188.695 	360.634 	284.872 	539.797 	
37.8156 	-0.00913105 	-0.507997 	0.784591 	-0.603121 	0.00420426 	-3.13937 	90.1569 	116.603 	-0.591113 	188.14 	360.634 	284.872 	539.797 	
37.9177 	-0.00915465 	-0.505186 	0.785831 	-0.611848 	0.00422749 	-3.13946 	90.1569 	116.603 	-0.591113 	187.647 	360.634 	284.872 	539.797 	
38.0209 	-0.00917803 	-0.502364 	0.787046 	-0.620574 	0.00425153 	-3.13955 	90.1569 	116.603 	-0.591113 	187.139 	360.634 	284.872 	539.797 	
38.1242 	-0.00920121 	-0.499532 	0.788236 	-0.6293 	0.00427637 	-3.13965 	90.1569 	116.603 	-0.591113 	186.637 	360.634 	284.872 	539.797 	
38.2271 	-0.00922417 	-0.49669 	0.789402 	-0.638027 	0.00430202 	-3.13974 	90.1569 	116.603 	-0.591113 	186.088 	360.634 	284.872 	539.797 	
38.33 	-0.00924691 	-0.493838 	0.790542 	-0.646753 	0.00432848 	-3.13983 	90.1569 	116.603 	-0.591113 	185.588 	360.634 	284.872 	539.797 	
38.4329 	-0.00926944 	-0.490975 	0.791658 	-0.655479 	0.00435573 	-3.13992 	90.1569 	116.603 	-0.591113 	185.087 	360.634 	284.872 	539.797 	
38.5363 	-0.00929174 	-0.488104 	0.792749 	-0.664205 	0.00438378 	-3.14001 	90.1569 	116.603 	-0.591113 	184.533 	360.634 	284.872 	539.797 	
38.6389 	-0.00931383 	-0.485222 	0.793815 	-0.672932 	0.00441262 	-3.1401 	90.1569 	116.603 	-0.591113 	184.035 	360.634 	284.873 	539.797 	
38.7416 	-0.00933569 	-0.482332 	0.794855 	-0.681658 	0.00444226 	-3.14019 	90.1569 	116.603 	-0.591113 	183.536 	360.634 	284.873 	539.797 	
38.8449 	-0.00935734 	-0.479432 	0.795871 	-0.690384 	0.00447269 	-3.14028 	90.1569 	116.603 	-0.591113 	182.983 	360.634 	284.873 	539.797 	
38.9485 	-0.00937875 	-0.476524 	0.796861 	-0.69911 	0.00450391 	-3.14038 	90.1569 	116.603 	-0.591113 	182.479 	360.634 	284.873 	539.797 	
39.0559 	-0.00939994 	-0.473608 	0.797825 	-0.707837 	0.00453592 	-3.14047 	90.1569 	116.603 	-0.591113 	181.927 	360.634 	284.873 	539.797 	
39.1592 	-0.0094209 	-0.470682 	0.798764 	-0.716563 	0.00456872 	-3.14055 	90.1569 	116.603 	-0.591113 	181.429 	360.634 	284.873 	539.797 	
39.2622 	-0.00944162 	-0.467749 	0.799677 	-0.725289 	0.00460229 	-3.14064 	90.1569 	116.603 	-0.591113 	180.93 	360.634 	284.873 	539.797 	
39.3649 	-0.00946212 	-0.464808 	0.800565 	-0.734015 	0.00463664 	-3.14073 	90.1569 	116.603 	-0.591113 	180.377 	360.634 	284.873 	539.797 	
39.4682 	-0.00948238 	-0.46186 	0.801427 	-0.742742 	0.00467177 	-3.14082 	90.1569 	116.603 	-0.591113 	179.871 	360.634 	284.874 	539.797 	
39.5711 	-0.00950241 	-0.458904 	0.802264 	-0.751468 	0.00470768 	-3.14091 	90.1569 	116.603 	-0.591113 	179.372 	360.634 	284.874 	539.797 	
39.6745 	-0.0095222 	-0.455941 	0.803074 	-0.760194 	0.00474435 	-3.141 	90.1569 	116.603 	-0.591113 	178.873 	360.634 	284.874 	539.797 	
39.777 	-0.00954176 	-0.45297 	0.803859 	-0.76892 	0.0047818 	-3.14109 	90.1569 	116.603 	-0.591113 	178.317 	360.634 	284.874 	539.797 	
39.8804 	-0.00956107 	-0.449993 	0.804618 	-0.777646 	0.00482001 	-3.14117 	90.1569 	116.603 	-0.591113 	177.813 	360.634 	284.874 	539.797 	
39.9832 	-0.00958014 	-0.44701 	0.80535 	-0.786373 	0.00485898 	-3.14126 	90.1569 	116.603 	-0.591113 	177.315 	360.634 	284.874 	539.797 	
40.0861 	-0.00959897 	-0.44402 	0.806057 	-0.795099 	0.00489872 	-3.14135 	90.1569 	116.603 	-0.591113 	176.768 	360.634 	284.874 	539.797 	
40.1891 	-0.00961756 	-0.441025 	0.806737 	-0.803825 	0.00493921 	-3.14144 	90.1569 	116.603 	-0.591113 	176.265 	360.634 	284.874 	539.797 	
40.2972 	-0.0096359 	-0.438023 	0.807392 	-0.812552 	0.00498045 	-3.14152 	90.1569 	116.603 	-0.591113 	175.707 	360.634 	284.875 	539.797 	
40.4001 	-0.00965399 	-0.435016 	0.80802 	-0.821278 	0.00502245 	3.14158 	90.1569 	116.603 	-0.591113 	175.207 	360.634 	284.875 	539.797 	
40.5033 	-0.00967184 	-0.432003 	0.808622 	-0.830004 	0.00506519 	3.14149 	90.1569 	116.603 	-0.591113 	174.71 	360.634 	284.875 	539.797 	
40.6077 	-0.00968943 	-0.428986 	0.809197 	-0.83873 	0.00510868 	3.14141 	90.1569 	116.603 	-0.591113 	174.159 	360.634 	284.875 	539.797 	
40.7108 	-0.00970678 	-0.425963 	0.809746 	-0.847456 	0.00515291 	3.14132 	90.1569 	116.603 	-0.591113 	173.651 	360.634 	284.875 	539.797 	
40.8147 	-0.00974071 	-0.419904 	0.810766 	-0.864909 	0.00524357 	3.14115 	90.1569 	116.603 	-0.591113 	173.104 	360.634 	284.875 	539.797 	
40.9165 	-0.00975729 	-0.416868 	0.811235 	-0.873635 	0.00529 	3.14107 	90.1569 	116.603 	-0.591113 	172.602 	360.634 	284.876 	539.797 	
41.0191 	-0.00977362 	-0.413828 	0.811679 	-0.882361 	0.00533716 	3.14099 	90.1569 	116.603 	-0.591113 	172.102 	360.634 	284.876 	539.797 	
41.1217 	-0.00978969 	-0.410785 	0.812096 	-0.891088 	0.00538504 	3.1409 	90.1569 	116.603 	-0.591113 	171.599 	360.634 	284.876 	539.797 	
41.2251 	-0.0098055 	-0.407737 	0.812486 	-0.899814 	0.00543364 	3.14082 	90.1569 	116.603 	-0.591113 	171.045 	360.634 	284.876 	539.797 	
41.328 	-0.00982106 	-0.404687 	0.812849 	-0.90854 	0.00548295 	3.14074 	90.1569 	116.603 	-0.591113 	170.543 	360.634 	284.877 	539.797 	
41.4309 	-0.00983635 	-0.401633 	0.813186 	-0.917266 	0.00553298 	3.14066 	90.1569 	116.603 	-0.591113 	170.041 	360.634 	284.877 	539.797 	
41.5338 	-0.00985138 	-0.398577 	0.813497 	-0.925992 	0.00558372 	3.14058 	90.1569 	116.603 	-0.591113 	169.539 	360.634 	284.877 	539.797 	
41.6369 	-0.00986614 	-0.395518 	0.81378 	-0.934719 	0.00563516 	3.1405 	90.1569 	116.603 	-0.591113 	168.986 	360.634 	284.877 	539.797 	
41.7402 	-0.00988065 	-0.392457 	0.814037 	-0.943445 	0.00568731 	3.14042 	90.1569 	116.603 	-0.591113 	168.489 	360.634 	284.877 	539.797 	
41.8429 	-0.00989488 	-0.389393 	0.814268 	-0.952171 	0.00574015 	3.14034 	90.1569 	116.603 	-0.591113 	167.986 	360.634 	284.878 	539.797 	
41.946 	-0.00990885 	-0.386328 	0.814471 	-0.960897 	0.00579368 	3.14026 	90.1569 	116.603 	-0.591113 	167.436 	360.634 	284.878 	539.797 	
42.0491 	-0.00992255 	-0.383261 	0.814648 	-0.969623 	0.0058479 	3.14018 	90.1569 	116.603 	-0.591113 	166.929 	360.634 	284.879 	539.797 	
42.156 	-0.00993599 	-0.380193 	0.814798 	-0.978349 	0.00590281 	3.1401 	90.1569 	116.603 	-0.591113 	166.377 	360.634 	284.88 	539.797 	
42.2589 	-0.00994915 	-0.377123 	0.814921 	-0.987076 	0.00595839 	3.14002 	90.1569 	116.603 	-0.591113 	165.877 	360.634 	284.953 	539.797 	
42.3621 	-0.00996205 	-0.374052 	0.815017 	-0.995802 	0.00601466 	3.13995 	90.1569 	116.603 	-0.591113 	165.376 	360.634 	284.99 	539.797 	
42.4649 	-0.00997467 	-0.370981 	0.815087 	-1.00453 	0.00607159 	3.13987 	90.1569 	116.603 	-0.591113 	164.822 	360.634 	285.002 	539.797 	
42.5684 	-0.00998702 	-0.367909 	0.81513 	-1.01325 	0.00612919 	3.13979 	90.1569 	116.603 	-0.591113 	164.322 	360.634 	285.004 	539.797 	
42.6711 	-0.00999909 	-0.364837 	0.815145 	-1.02198 	0.00618746 	3.13972 	90.1569 	116.603 	-0.591113 	163.824 	360.634 	285.005 	539.797 	
42.7744 	-0.0100109 	-0.361765 	0.815135 	-1.03071 	0.00624638 	3.13964 	90.1569 	116.603 	-0.591113 	163.319 	360.634 	285.005 	539.797 	
42.8772 	-0.0100224 	-0.358693 	0.815097 	-1.03943 	0.00630596 	3.13957 	90.1569 	116.603 	-0.591113 	162.77 	360.634 	285.006 	539.797 	
42.9802 	-0.0100337 	-0.355622 	0.815032 	-1.04816 	0.00636619 	3.13949 	90.1569 	116.603 	-0.591113 	162.261 	360.634 	285.006 	539.797 	
43.0835 	-0.0100446 	-0.352551 	0.814941 	-1.05689 	0.00642706 	3.13942 	90.1569 	116.603 	-0.591113 	161.764 	360.634 	285.007 	539.797 	
43.1859 	-0.0100553 	-0.349481 	0.814823 	-1.06561 	0.00648858 	3.13935 	90.1569 	116.604 	-0.591113 	161.214 	360.634 	285.007 	539.797 	
43.2893 	-0.0100658 	-0.346413 	0.814678 	-1.07434 	0.00655073 	3.13927 	90.1569 	116.604 	-0.591211 	160.71 	360.634 	285.008 	539.797 	
43.3971 	-0.0100759 	-0.343345 	0.814507 	-1.08306 	0.00661351 	3.1392 	90.1569 	116.604 	-0.591211 	160.157 	360.634 	285.009 	539.797 	
43.5012 	-0.0100857 	-0.34028 	0.814308 	-1.09179 	0.00667692 	3.13913 	90.1569 	116.604 	-0.591211 	159.653 	360.634 	285.01 	539.797 	
43.606 	-0.0100953 	-0.337216 	0.814083 	-1.10052 	0.00674095 	3.13906 	90.1569 	116.604 	-0.591211 	159.106 	360.634 	285.012 	539.797 	
43.7086 	-0.0101136 	-0.331094 	0.813553 	-1.11797 	0.00687085 	3.13892 	90.1569 	116.604 	-0.591211 	158.602 	360.634 	285.014 	539.797 	
43.8118 	-0.0101223 	-0.328038 	0.813247 	-1.12669 	0.00693671 	3.13885 	90.1569 	116.604 	-0.591211 	158.099 	360.634 	285.025 	539.797 	
43.9146 	-0.0101308 	-0.324983 	0.812916 	-1.13542 	0.00700318 	3.13878 	90.1569 	116.604 	-0.591211 	157.545 	360.634 	285.037 	539.797 	
44.0166 	-0.010139 	-0.321932 	0.812557 	-1.14415 	0.00707024 	3.13871 	90.1569 	116.604 	-0.591211 	157.047 	360.634 	285.047 	539.797 	
44.119 	-0.0101468 	-0.318884 	0.812172 	-1.15287 	0.00713789 	3.13865 	90.1569 	116.604 	-0.591211 	156.546 	360.634 	285.053 	539.797 	
44.2221 	-0.0101544 	-0.31584 	0.81176 	-1.1616 	0.00720613 	3.13858 	90.1569 	116.604 	-0.591211 	156.041 	360.634 	285.057 	539.797 	
44.3249 	-0.0101617 	-0.312799 	0.811322 	-1.17033 	0.00727496 	3.13851 	90.1569 	116.604 	-0.591211 	155.489 	360.634 	285.059 	539.797 	
44.4282 	-0.0101687 	-0.309763 	0.810857 	-1.17905 	0.00734435 	3.13845 	90.1569 	116.604 	-0.591211 	154.99 	360.634 	285.061 	539.797 	
44.5311 	-0.0101755 	-0.30673 	0.810366 	-1.18778 	0.00741432 	3.13838 	90.1569 	116.604 	-0.591211 	154.491 	360.634 	285.061 	539.797 	
44.6338 	-0.0101819 	-0.303702 	0.809848 	-1.1965 	0.00748485 	3.13832 	90.1569 	116.604 	-0.591211 	153.986 	360.634 	285.062 	539.797 	
44.737 	-0.010188 	-0.300678 	0.809304 	-1.20523 	0.00755595 	3.13825 	90.1569 	116.604 	-0.591211 	153.43 	360.634 	285.062 	539.797 	
44.8403 	-0.0101939 	-0.29766 	0.808733 	-1.21396 	0.00762759 	3.13819 	90.1569 	116.604 	-0.591211 	152.931 	360.634 	285.062 	539.797 	
44.9429 	-0.0101995 	-0.294646 	0.808136 	-1.22268 	0.00769979 	3.13813 	90.1569 	116.604 	-0.591211 	152.431 	360.634 	285.063 	539.797 	
45.0461 	-0.0102048 	-0.291638 	0.807513 	-1.23141 	0.00777253 	3.13807 	90.1569 	116.604 	-0.591211 	151.877 	360.634 	285.063 	539.797 	
45.149 	-0.0102098 	-0.288635 	0.806864 	-1.24013 	0.00784581 	3.13801 	90.1569 	116.604 	-0.591211 	151.372 	360.634 	285.063 	539.797 	
45.2562 	-0.0102145 	-0.285638 	0.806188 	-1.24886 	0.00791962 	3.13794 	90.1569 	116.604 	-0.591211 	150.821 	360.634 	285.063 	539.797 	
45.3596 	-0.0102189 	-0.282647 	0.805487 	-1.25759 	0.00799396 	3.13788 	90.1569 	116.604 	-0.591211 	150.32 	360.634 	285.063 	539.797 	
45.4619 	-0.010223 	-0.279663 	0.804759 	-1.26631 	0.00806882 	3.13782 	90.1569 	116.604 	-0.591211 	149.822 	360.634 	285.063 	539.797 	
45.565 	-0.0102268 	-0.276684 	0.804005 	-1.27504 	0.0081442 	3.13777 	90.1569 	116.604 	-0.591211 	149.267 	360.634 	285.063 	539.797 	
45.6684 	-0.0102304 	-0.273713 	0.803226 	-1.28377 	0.00822008 	3.13771 	90.1569 	116.604 	-0.591211 	148.767 	360.634 	285.063 	539.797 	
45.7712 	-0.0102336 	-0.270748 	0.80242 	-1.29249 	0.00829647 	3.13765 	90.1569 	116.604 	-0.591211 	148.264 	360.634 	285.064 	539.797 	
45.8745 	-0.0102366 	-0.267791 	0.801588 	-1.30122 	0.00837335 	3.13759 	90.1569 	116.604 	-0.591211 	147.761 	360.634 	285.064 	539.797 	
45.9771 	-0.0102392 	-0.264841 	0.800731 	-1.30994 	0.00845073 	3.13754 	90.1569 	116.604 	-0.591211 	147.208 	360.634 	285.064 	539.797 	
46.0803 	-0.0102416 	-0.261898 	0.799848 	-1.31867 	0.0085286 	3.13748 	90.1569 	116.604 	-0.591211 	146.707 	360.634 	285.064 	539.797 	
46.1832 	-0.0102437 	-0.258963 	0.79894 	-1.3274 	0.00860695 	3.13743 	90.1569 	116.604 	-0.591211 	146.203 	360.634 	285.064 	539.797 	
46.2862 	-0.0102454 	-0.256037 	0.798005 	-1.33612 	0.00868576 	3.13737 	90.1569 	116.604 	-0.591211 	145.653 	360.634 	285.064 	539.797 	
46.3893 	-0.0102469 	-0.253118 	0.797046 	-1.34485 	0.00876505 	3.13732 	90.1569 	116.604 	-0.591211 	145.155 	360.634 	285.064 	539.797 	
46.4963 	-0.0102481 	-0.250209 	0.796061 	-1.35358 	0.0088448 	3.13727 	90.1569 	116.604 	-0.591211 	144.602 	360.634 	285.064 	539.797 	
46.5989 	-0.010249 	-0.247307 	0.79505 	-1.3623 	0.00892501 	3.13722 	90.1569 	116.604 	-0.591211 	144.096 	360.634 	285.064 	539.797 	
46.7019 	-0.0102496 	-0.244415 	0.794015 	-1.37103 	0.00900567 	3.13716 	90.1569 	116.604 	-0.591211 	143.594 	360.634 	285.064 	539.797 	
46.8082 	-0.0102499 	-0.241532 	0.792954 	-1.37975 	0.00908677 	3.13711 	90.1569 	116.604 	-0.591211 	143.046 	360.634 	285.064 	539.797 	
46.9128 	-0.0102497 	-0.235794 	0.790756 	-1.39721 	0.00925029 	3.13701 	90.1569 	116.604 	-0.591211 	142.544 	360.634 	285.064 	539.797 	
47.0157 	-0.0102491 	-0.23294 	0.78962 	-1.40593 	0.00933268 	3.13697 	90.1569 	116.604 	-0.591211 	141.987 	360.634 	285.064 	539.797 	
47.1191 	-0.0102483 	-0.230095 	0.78846 	-1.41466 	0.0094155 	3.13692 	90.1569 	116.604 	-0.591211 	141.488 	360.634 	285.064 	539.797 	
47.222 	-0.0102471 	-0.227261 	0.787274 	-1.42339 	0.00949873 	3.13687 	90.1569 	116.604 	-0.591211 	140.988 	360.634 	285.064 	539.797 	
47.325 	-0.0102457 	-0.224438 	0.786064 	-1.43211 	0.00958237 	3.13683 	90.1569 	116.604 	-0.591211 	140.434 	360.634 	285.064 	539.797 	
47.428 	-0.0102439 	-0.221625 	0.784829 	-1.44084 	0.0096664 	3.13678 	90.1569 	116.604 	-0.591211 	139.931 	360.634 	285.064 	539.797 	
47.5312 	-0.0102419 	-0.218823 	0.783569 	-1.44956 	0.00975083 	3.13674 	90.1569 	116.604 	-0.591211 	139.429 	360.634 	285.064 	539.797 	
47.6342 	-0.0102396 	-0.216032 	0.782285 	-1.45829 	0.00983565 	3.13669 	90.1569 	116.604 	-0.591211 	138.93 	360.634 	285.064 	539.797 	
47.737 	-0.0102369 	-0.213252 	0.780977 	-1.46702 	0.00992085 	3.13665 	90.1569 	116.604 	-0.591211 	138.374 	360.634 	285.065 	539.797 	
47.8403 	-0.010234 	-0.210484 	0.779645 	-1.47574 	0.0100064 	3.13661 	90.1569 	116.604 	-0.591211 	137.875 	360.634 	285.065 	539.797 	
47.9431 	-0.0102308 	-0.207727 	0.778288 	-1.48447 	0.0100924 	3.13656 	90.1569 	116.604 	-0.591211 	137.373 	360.634 	285.065 	539.797 	
48.0457 	-0.0102273 	-0.204983 	0.776908 	-1.49319 	0.0101787 	3.13652 	90.1569 	116.604 	-0.591211 	136.823 	360.634 	285.065 	539.797 	
48.1491 	-0.0102235 	-0.202251 	0.775503 	-1.50192 	0.0102653 	3.13648 	90.1569 	116.604 	-0.591211 	136.316 	360.634 	285.065 	539.797 	
48.2562 	-0.0102195 	-0.199531 	0.774075 	-1.51065 	0.0103523 	3.13644 	90.1569 	116.604 	-0.591211 	135.762 	360.634 	285.065 	539.797 	
48.3592 	-0.0102151 	-0.196823 	0.772623 	-1.51937 	0.0104397 	3.1364 	90.1569 	116.604 	-0.591211 	135.263 	360.634 	285.065 	539.797 	
48.4623 	-0.0102104 	-0.194129 	0.771148 	-1.5281 	0.0105274 	3.13637 	90.1569 	116.604 	-0.591211 	134.76 	360.634 	285.065 	539.797 	
48.5651 	-0.0102055 	-0.191447 	0.769649 	-1.53683 	0.0106154 	3.13633 	90.1569 	116.604 	-0.591211 	134.211 	360.634 	285.065 	539.797 	
48.6682 	-0.0102002 	-0.188778 	0.768127 	-1.54555 	0.0107037 	3.13629 	90.1569 	116.604 	-0.591211 	133.709 	360.634 	285.065 	539.797 	
48.7714 	-0.0101947 	-0.186123 	0.766581 	-1.55428 	0.0107924 	3.13626 	90.1569 	116.605 	-0.591211 	133.206 	360.634 	285.065 	539.797 	
48.8743 	-0.0101889 	-0.183482 	0.765013 	-1.563 	0.0108813 	3.13622 	90.1569 	116.605 	-0.591211 	132.702 	360.634 	285.065 	539.797 	
48.9772 	-0.0101828 	-0.180854 	0.763421 	-1.57173 	0.0109706 	3.13619 	90.1569 	116.605 	-0.591211 	132.155 	360.634 	285.065 	539.797 	
49.0806 	-0.0101764 	-0.17824 	0.761807 	-1.58046 	0.0110601 	3.13615 	90.1569 	116.605 	-0.591211 	131.647 	360.634 	285.065 	539.797 	
49.1833 	-0.0101697 	-0.175641 	0.76017 	-1.58918 	0.01115 	3.13612 	90.1569 	116.605 	-0.591211 	131.149 	360.634 	285.065 	539.797 	
49.2861 	-0.0101627 	-0.173056 	0.75851 	-1.59791 	0.0112401 	3.13609 	90.1569 	116.605 	-0.591211 	130.597 	360.634 	285.065 	539.797 	
49.3895 	-0.0101554 	-0.170485 	0.756828 	-1.60664 	0.0113305 	3.13606 	90.1569 	116.605 	-0.591211 	130.094 	360.634 	285.065 	539.797 	
49.4924 	-0.0101479 	-0.16793 	0.755123 	-1.61536 	0.0114211 	3.13603 	90.1569 	116.605 	-0.591211 	129.593 	360.634 	285.065 	539.797 	
49.5972 	-0.0101401 	-0.165389 	0.753396 	-1.62409 	0.0115121 	3.136 	90.1569 	116.605 	-0.591211 	129.041 	360.634 	285.065 	539.797 	
49.7003 	-0.0101319 	-0.162863 	0.751647 	-1.63282 	0.0116032 	3.13597 	90.1569 	116.605 	-0.591211 	128.534 	360.634 	285.065 	539.797 	
49.8052 	-0.0101235 	-0.160353 	0.749876 	-1.64154 	0.0116946 	3.13594 	90.1569 	116.605 	-0.591211 	127.985 	360.634 	285.065 	539.797 	
49.909 	-0.0101059 	-0.155379 	0.746269 	-1.65899 	0.0118782 	3.13589 	90.1569 	116.606 	-0.591211 	127.491 	360.634 	285.065 	539.797 	
50.012 	-0.0100966 	-0.152916 	0.744433 	-1.66772 	0.0119703 	3.13586 	90.1569 	116.606 	-0.591211 	126.98 	360.634 	285.065 	539.797 	
50.1151 	-0.0100871 	-0.150469 	0.742575 	-1.67645 	0.0120627 	3.13584 	90.1569 	116.606 	-0.591211 	126.431 	360.634 	285.065 	539.797 	
50.218 	-0.0100773 	-0.148038 	0.740696 	-1.68517 	0.0121552 	3.13582 	90.1569 	116.606 	-0.591211 	125.923 	360.634 	285.065 	539.797 	
50.3212 	-0.0100672 	-0.145624 	0.738796 	-1.6939 	0.012248 	3.13579 	90.1569 	116.606 	-0.591211 	125.427 	360.634 	285.065 	539.797 	
50.4246 	-0.0100568 	-0.143227 	0.736875 	-1.70263 	0.0123409 	3.13577 	90.1569 	116.606 	-0.591211 	124.921 	360.634 	285.065 	539.797 	
50.5271 	-0.0100462 	-0.140846 	0.734934 	-1.71135 	0.012434 	3.13575 	90.1569 	116.606 	-0.591211 	124.377 	360.634 	285.065 	539.797 	
50.6302 	-0.0100352 	-0.138483 	0.732971 	-1.72008 	0.0125274 	3.13573 	90.1569 	116.607 	-0.591211 	123.866 	360.634 	285.065 	539.797 	
50.7331 	-0.010024 	-0.136136 	0.730988 	-1.72881 	0.0126209 	3.13571 	90.1569 	116.608 	-0.591211 	123.368 	360.634 	285.065 	539.797 	
50.8362 	-0.0100125 	-0.133807 	0.728985 	-1.73753 	0.0127145 	3.13569 	90.1569 	116.618 	-0.591211 	122.816 	360.634 	285.065 	539.797 	
50.9393 	-0.0100008 	-0.131496 	0.726961 	-1.74626 	0.0128084 	3.13567 	90.1569 	116.625 	-0.591211 	122.311 	360.634 	285.065 	539.797 	
51.0422 	-0.00998872 	-0.129202 	0.724917 	-1.75498 	0.0129024 	3.13565 	90.1569 	116.638 	-0.591211 	121.807 	360.634 	285.065 	539.797 	
51.1451 	-0.00997641 	-0.126927 	0.722854 	-1.76371 	0.0129965 	3.13564 	90.1569 	116.646 	-0.591211 	121.26 	360.634 	285.065 	539.797 	
51.2486 	-0.00996383 	-0.124669 	0.72077 	-1.77244 	0.0130908 	3.13562 	90.1569 	116.647 	-0.591211 	120.763 	360.634 	285.065 	539.797 	
51.3565 	-0.00995097 	-0.12243 	0.718667 	-1.78116 	0.0131852 	3.13561 	90.1569 	116.649 	-0.591211 	120.203 	360.634 	285.065 	539.797 	
51.4592 	-0.00993785 	-0.120209 	0.716545 	-1.78989 	0.0132797 	3.13559 	90.1569 	116.65 	-0.591211 	119.702 	360.634 	285.065 	539.797 	
51.5623 	-0.00992445 	-0.118006 	0.714403 	-1.79862 	0.0133743 	3.13558 	90.1569 	116.651 	-0.591211 	119.2 	360.634 	285.065 	539.797 	
51.6652 	-0.00991078 	-0.115823 	0.712242 	-1.80734 	0.0134691 	3.13557 	90.1569 	116.653 	-0.591211 	118.652 	360.634 	285.065 	539.797 	
51.7679 	-0.00989685 	-0.113658 	0.710062 	-1.81607 	0.013564 	3.13556 	90.1569 	116.653 	-0.591211 	118.144 	360.634 	285.065 	539.797 	
51.8712 	-0.00988265 	-0.111513 	0.707863 	-1.8248 	0.0136589 	3.13555 	90.1569 	116.655 	-0.591211 	117.645 	360.634 	285.065 	539.797 	
51.9744 	-0.00986819 	-0.109387 	0.705646 	-1.83352 	0.013754 	3.13554 	90.1569 	116.658 	-0.591211 	117.137 	360.634 	285.065 	539.797 	
52.0774 	-0.00985346 	-0.10728 	0.70341 	-1.84225 	0.0138491 	3.13553 	90.1569 	116.66 	-0.591211 	116.59 	360.634 	285.065 	539.797 	
52.1803 	-0.00983847 	-0.105193 	0.701155 	-1.85098 	0.0139443 	3.13552 	90.1569 	116.661 	-0.591211 	116.087 	360.634 	285.065 	539.797 	
52.2833 	-0.00982321 	-0.103125 	0.698883 	-1.8597 	0.0140396 	3.13551 	90.1569 	116.661 	-0.591211 	115.579 	360.634 	285.065 	539.797 	
52.3864 	-0.00980769 	-0.101078 	0.696593 	-1.86843 	0.014135 	3.1355 	90.1569 	116.662 	-0.591211 	115.027 	360.634 	285.065 	539.797 	
52.4289 	-0.00979192 	-0.0990501 	0.694285 	-1.87716 	0.0142303 	3.1355 	90.1569 	116.662 	-0.591211 	114.829 	360.634 	285.065 	539.797 	
58.6575 	-0.00975378 	-0.0944798 	0.688723 	-1.89745 	0.0144563 	3.13549 	90.1567 	116.663 	-0.591211 	113.498 	360.634 	285.065 	539.797 	
58.6825 	-0.00975378 	-0.0944798 	0.688723 	-1.89745 	0.0144563 	3.13549 	90.1567 	116.663 	-0.591211 	113.498 	360.634 	285.065 	539.797 	
58.785 	-0.00975648 	-0.0948418 	0.689089 	-1.89594 	0.0144411 	3.13549 	90.1567 	116.663 	-0.591211 	113.635 	360.634 	285.065 	539.797 	
58.888 	-0.00977283 	-0.0968255 	0.691435 	-1.88721 	0.0143456 	3.13549 	90.1567 	116.663 	-0.591211 	114.042 	360.634 	285.065 	539.797 	
58.996 	-0.00978892 	-0.0988297 	0.693763 	-1.87848 	0.0142501 	3.1355 	90.1567 	116.663 	-0.591211 	114.583 	360.634 	285.065 	539.797 	
59.0988 	-0.00980475 	-0.100854 	0.696074 	-1.86976 	0.0141547 	3.1355 	90.1567 	116.663 	-0.591211 	115.083 	360.634 	285.065 	539.797 	
59.2027 	-0.00982032 	-0.102899 	0.698367 	-1.86103 	0.0140594 	3.13551 	90.1567 	116.663 	-0.591211 	115.584 	360.634 	285.065 	539.797 	
59.3076 	-0.00983563 	-0.104963 	0.700642 	-1.8523 	0.0139641 	3.13552 	90.1567 	116.663 	-0.591211 	116.136 	360.634 	285.065 	539.797 	
59.4139 	-0.00986546 	-0.109151 	0.705138 	-1.83485 	0.0137737 	3.13553 	90.1567 	116.663 	-0.591211 	116.642 	360.634 	285.065 	539.797 	
59.5168 	-0.00987999 	-0.111274 	0.707358 	-1.82613 	0.0136786 	3.13554 	90.1567 	116.663 	-0.591211 	117.188 	360.634 	285.065 	539.797 	
59.6199 	-0.00989424 	-0.113417 	0.70956 	-1.8174 	0.0135836 	3.13555 	90.1567 	116.663 	-0.591211 	117.695 	360.634 	285.065 	539.797 	
59.7231 	-0.00990823 	-0.115579 	0.711743 	-1.80867 	0.0134887 	3.13556 	90.1567 	116.663 	-0.591211 	118.193 	360.634 	285.065 	539.797 	
59.8259 	-0.00992195 	-0.117759 	0.713907 	-1.79995 	0.0133939 	3.13558 	90.1567 	116.663 	-0.591211 	118.747 	360.634 	285.065 	539.797 	
59.9291 	-0.0099354 	-0.119959 	0.716051 	-1.79122 	0.0132992 	3.13559 	90.1567 	116.663 	-0.591211 	119.248 	360.634 	285.065 	539.797 	
60.0319 	-0.00994859 	-0.122177 	0.718177 	-1.78249 	0.0132047 	3.1356 	90.1567 	116.663 	-0.591211 	119.753 	360.634 	285.065 	539.797 	
60.1351 	-0.0099615 	-0.124413 	0.720283 	-1.77377 	0.0131102 	3.13562 	90.1567 	116.663 	-0.591211 	120.305 	360.634 	285.065 	539.797 	
60.2381 	-0.00997414 	-0.126668 	0.722369 	-1.76504 	0.0130159 	3.13563 	90.1567 	116.663 	-0.591211 	120.806 	360.634 	285.065 	539.797 	
60.3405 	-0.00998651 	-0.128941 	0.724436 	-1.75631 	0.0129218 	3.13565 	90.1567 	116.663 	-0.591211 	121.305 	360.634 	285.065 	539.797 	
60.4428 	-0.0099986 	-0.131232 	0.726483 	-1.74759 	0.0128278 	3.13567 	90.1567 	116.663 	-0.591211 	121.81 	360.634 	285.065 	539.797 	
60.5451 	-0.0100104 	-0.133541 	0.72851 	-1.73886 	0.0127339 	3.13569 	90.1567 	116.663 	-0.591211 	122.36 	360.634 	285.065 	539.797 	
60.6482 	-0.010022 	-0.135867 	0.730516 	-1.73013 	0.0126402 	3.1357 	90.1567 	116.663 	-0.591211 	122.859 	360.634 	285.065 	539.797 	
60.7561 	-0.0100332 	-0.138211 	0.732502 	-1.72141 	0.0125466 	3.13572 	90.1567 	116.663 	-0.591211 	123.417 	360.634 	285.065 	539.797 	
60.8591 	-0.0100442 	-0.140572 	0.734468 	-1.71268 	0.0124533 	3.13574 	90.1567 	116.663 	-0.591211 	123.913 	360.634 	285.065 	539.797 	
60.9622 	-0.0100549 	-0.14295 	0.736413 	-1.70395 	0.0123601 	3.13577 	90.1567 	116.663 	-0.591211 	124.415 	360.634 	285.065 	539.797 	
61.0652 	-0.0100654 	-0.145345 	0.738337 	-1.69523 	0.0122671 	3.13579 	90.1567 	116.663 	-0.591211 	124.971 	360.634 	285.065 	539.797 	
61.1682 	-0.0100755 	-0.147756 	0.74024 	-1.6865 	0.0121743 	3.13581 	90.1567 	116.663 	-0.591211 	125.473 	360.634 	285.065 	539.797 	
61.2712 	-0.0100854 	-0.150184 	0.742122 	-1.67778 	0.0120817 	3.13583 	90.1567 	116.663 	-0.591211 	125.975 	360.634 	285.065 	539.797 	
61.3742 	-0.010095 	-0.152629 	0.743983 	-1.66905 	0.0119893 	3.13586 	90.1567 	116.663 	-0.591211 	126.478 	360.634 	285.065 	539.797 	
61.4774 	-0.0101043 	-0.155089 	0.745822 	-1.66032 	0.0118971 	3.13588 	90.1567 	116.663 	-0.591211 	127.029 	360.634 	285.065 	539.797 	
61.5805 	-0.0101133 	-0.157566 	0.74764 	-1.6516 	0.0118052 	3.13591 	90.1567 	116.663 	-0.591211 	127.531 	360.634 	285.065 	539.797 	
61.6834 	-0.0101221 	-0.160058 	0.749436 	-1.64287 	0.0117135 	3.13594 	90.1567 	116.663 	-0.591211 	128.034 	360.634 	285.065 	539.797 	
61.7864 	-0.0101306 	-0.162566 	0.75121 	-1.63414 	0.011622 	3.13596 	90.1567 	116.663 	-0.591211 	128.582 	360.634 	285.065 	539.797 	
61.8896 	-0.0101387 	-0.16509 	0.752963 	-1.62542 	0.0115308 	3.13599 	90.1567 	116.663 	-0.591211 	129.088 	360.634 	285.065 	539.797 	
61.9974 	-0.0101466 	-0.167628 	0.754693 	-1.61669 	0.0114398 	3.13602 	90.1567 	116.663 	-0.591211 	129.638 	360.634 	285.065 	539.797 	
62.1003 	-0.0101542 	-0.170182 	0.756401 	-1.60797 	0.0113491 	3.13605 	90.1567 	116.663 	-0.591211 	130.142 	360.634 	285.065 	539.797 	
62.2048 	-0.0101616 	-0.17275 	0.758087 	-1.59924 	0.0112586 	3.13608 	90.1567 	116.663 	-0.591211 	130.691 	360.634 	285.065 	539.797 	
62.3094 	-0.0101753 	-0.17793 	0.761391 	-1.58179 	0.0110785 	3.13615 	90.1567 	116.663 	-0.591211 	131.196 	360.634 	285.065 	539.797 	
62.4121 	-0.0101818 	-0.180542 	0.763009 	-1.57306 	0.0109889 	3.13618 	90.1567 	116.663 	-0.591211 	131.697 	360.634 	285.065 	539.797 	
62.515 	-0.010188 	-0.183167 	0.764604 	-1.56433 	0.0108996 	3.13621 	90.1567 	116.663 	-0.591211 	132.251 	360.634 	285.065 	539.797 	
62.618 	-0.0101938 	-0.185807 	0.766176 	-1.55561 	0.0108106 	3.13625 	90.1567 	116.663 	-0.591211 	132.746 	360.634 	285.065 	539.797 	
62.7208 	-0.0101994 	-0.18846 	0.767725 	-1.54688 	0.0107219 	3.13628 	90.1567 	116.663 	-0.591211 	133.253 	360.634 	285.065 	539.797 	
62.8243 	-0.0102047 	-0.191126 	0.76925 	-1.53815 	0.0106334 	3.13632 	90.1567 	116.663 	-0.591211 	133.749 	360.634 	285.065 	539.797 	
62.9272 	-0.0102098 	-0.193806 	0.770753 	-1.52943 	0.0105454 	3.13636 	90.1567 	116.663 	-0.591211 	134.309 	360.634 	285.065 	539.797 	
63.0301 	-0.0102145 	-0.196499 	0.772232 	-1.5207 	0.0104576 	3.1364 	90.1567 	116.663 	-0.591211 	134.807 	360.634 	285.065 	539.797 	
63.1331 	-0.0102189 	-0.199204 	0.773687 	-1.51198 	0.0103702 	3.13643 	90.1567 	116.663 	-0.591211 	135.315 	360.634 	285.065 	539.797 	
63.2362 	-0.0102231 	-0.201922 	0.775119 	-1.50325 	0.0102831 	3.13647 	90.1567 	116.663 	-0.591211 	135.863 	360.634 	285.065 	539.797 	
63.3392 	-0.0102269 	-0.204653 	0.776527 	-1.49452 	0.0101964 	3.13651 	90.1567 	116.663 	-0.591211 	136.364 	360.634 	285.065 	539.797 	
63.4424 	-0.0102305 	-0.207395 	0.777911 	-1.4858 	0.01011 	3.13655 	90.1567 	116.663 	-0.591211 	136.865 	360.634 	285.065 	539.797 	
63.5452 	-0.0102337 	-0.21015 	0.779271 	-1.47707 	0.010024 	3.1366 	90.1567 	116.663 	-0.591211 	137.416 	360.634 	285.065 	539.797 	
63.6483 	-0.0102367 	-0.212916 	0.780607 	-1.46834 	0.00993831 	3.13664 	90.1567 	116.663 	-0.591211 	137.92 	360.634 	285.065 	539.797 	
63.7564 	-0.0102394 	-0.215694 	0.781919 	-1.45962 	0.00985303 	3.13668 	90.1567 	116.663 	-0.591211 	138.47 	360.634 	285.065 	539.797 	
63.8594 	-0.0102418 	-0.218483 	0.783207 	-1.45089 	0.00976813 	3.13673 	90.1567 	116.663 	-0.591211 	138.981 	360.634 	285.065 	539.797 	
63.9619 	-0.0102439 	-0.221284 	0.78447 	-1.44217 	0.00968361 	3.13677 	90.1567 	116.663 	-0.591211 	139.476 	360.634 	285.065 	539.797 	
64.0654 	-0.0102457 	-0.224095 	0.785709 	-1.43344 	0.00959949 	3.13682 	90.1567 	116.663 	-0.591211 	140.031 	360.634 	285.065 	539.797 	
64.1682 	-0.0102472 	-0.226917 	0.786923 	-1.42471 	0.00951576 	3.13686 	90.1567 	116.662 	-0.591211 	140.529 	360.634 	285.065 	539.797 	
64.2714 	-0.0102484 	-0.22975 	0.788112 	-1.41599 	0.00943244 	3.13691 	90.1567 	116.662 	-0.591211 	141.035 	360.634 	285.065 	539.797 	
64.3744 	-0.0102493 	-0.232592 	0.789277 	-1.40726 	0.00934954 	3.13696 	90.1567 	116.662 	-0.591211 	141.529 	360.634 	285.065 	539.797 	
64.4774 	-0.0102499 	-0.235445 	0.790417 	-1.39854 	0.00926704 	3.137 	90.1567 	116.662 	-0.591211 	142.086 	360.634 	285.065 	539.797 	
64.5805 	-0.0102503 	-0.238308 	0.791532 	-1.38981 	0.00918498 	3.13705 	90.1567 	116.662 	-0.591211 	142.588 	360.634 	285.065 	539.797 	
64.6834 	-0.0102503 	-0.24118 	0.792622 	-1.38108 	0.00910334 	3.1371 	90.1567 	116.662 	-0.591211 	143.091 	360.634 	285.065 	539.797 	
64.7864 	-0.0102501 	-0.244062 	0.793686 	-1.37236 	0.00902215 	3.13715 	90.1567 	116.662 	-0.591211 	143.645 	360.634 	285.065 	539.797 	
64.8895 	-0.0102495 	-0.246953 	0.794726 	-1.36363 	0.00894139 	3.1372 	90.1567 	116.662 	-0.591211 	144.144 	360.634 	285.065 	539.797 	
64.9983 	-0.0102487 	-0.249853 	0.79574 	-1.3549 	0.00886108 	3.13726 	90.1567 	116.662 	-0.591211 	144.696 	360.634 	285.065 	539.797 	
65.1014 	-0.0102475 	-0.252761 	0.796729 	-1.34618 	0.00878123 	3.13731 	90.1567 	116.662 	-0.591211 	145.2 	360.634 	285.065 	539.797 	
65.204 	-0.0102461 	-0.255678 	0.797693 	-1.33745 	0.00870184 	3.13736 	90.1567 	116.662 	-0.591211 	145.705 	360.634 	285.065 	539.797 	
65.3082 	-0.0102444 	-0.258604 	0.798631 	-1.32873 	0.00862292 	3.13742 	90.1567 	116.662 	-0.591211 	146.253 	360.634 	285.065 	539.797 	
65.4125 	-0.0102401 	-0.264479 	0.80043 	-1.31127 	0.0084665 	3.13753 	90.1567 	116.662 	-0.591211 	146.758 	360.634 	285.065 	539.797 	
65.5151 	-0.0102375 	-0.267428 	0.801291 	-1.30255 	0.00838902 	3.13758 	90.1567 	116.662 	-0.591211 	147.303 	360.634 	285.065 	539.797 	
65.6183 	-0.0102346 	-0.270384 	0.802127 	-1.29382 	0.00831203 	3.13764 	90.1567 	116.662 	-0.591211 	147.811 	360.634 	285.065 	539.797 	
65.7213 	-0.0102314 	-0.273347 	0.802936 	-1.28509 	0.00823553 	3.1377 	90.1567 	116.662 	-0.591211 	148.309 	360.634 	285.065 	539.797 	
65.8244 	-0.0102279 	-0.276318 	0.80372 	-1.27637 	0.00815953 	3.13775 	90.1567 	116.662 	-0.591211 	148.814 	360.634 	285.065 	539.797 	
65.9271 	-0.0102241 	-0.279295 	0.804478 	-1.26764 	0.00808405 	3.13781 	90.1567 	116.662 	-0.591211 	149.364 	360.634 	285.065 	539.797 	
66.0304 	-0.0102201 	-0.282279 	0.805209 	-1.25892 	0.00800908 	3.13787 	90.1567 	116.662 	-0.591211 	149.875 	360.634 	285.065 	539.797 	
66.1335 	-0.0102157 	-0.285269 	0.805915 	-1.25019 	0.00793463 	3.13793 	90.1567 	116.662 	-0.591211 	150.367 	360.634 	285.065 	539.797 	
66.2364 	-0.0102111 	-0.288265 	0.806594 	-1.24146 	0.0078607 	3.13799 	90.1567 	116.662 	-0.591211 	150.923 	360.634 	285.065 	539.797 	
66.3393 	-0.0102062 	-0.291267 	0.807248 	-1.23274 	0.00778731 	3.13805 	90.1567 	116.662 	-0.591211 	151.426 	360.634 	285.065 	539.797 	
66.4429 	-0.0102009 	-0.294274 	0.807875 	-1.22401 	0.00771445 	3.13811 	90.1567 	116.662 	-0.591211 	151.93 	360.634 	285.065 	539.797 	
66.5465 	-0.0101954 	-0.297287 	0.808476 	-1.21529 	0.00764214 	3.13818 	90.1567 	116.662 	-0.591211 	152.485 	360.634 	285.065 	539.797 	
66.6496 	-0.0101896 	-0.300305 	0.80905 	-1.20656 	0.00757037 	3.13824 	90.1567 	116.662 	-0.591211 	152.979 	360.634 	285.065 	539.797 	
66.7564 	-0.0101835 	-0.303328 	0.809598 	-1.19783 	0.00749916 	3.1383 	90.1567 	116.662 	-0.591211 	153.538 	360.634 	285.065 	539.797 	
66.8594 	-0.0101771 	-0.306355 	0.81012 	-1.18911 	0.00742851 	3.13837 	90.1567 	116.662 	-0.591211 	154.039 	360.634 	285.065 	539.797 	
66.9627 	-0.0101705 	-0.309387 	0.810615 	-1.18038 	0.00735842 	3.13843 	90.1567 	116.662 	-0.591211 	154.543 	360.634 	285.065 	539.797 	
67.0653 	-0.0101635 	-0.312423 	0.811084 	-1.17165 	0.0072889 	3.1385 	90.1567 	116.662 	-0.591211 	155.087 	360.634 	285.065 	539.797 	
67.1685 	-0.0101563 	-0.315463 	0.811527 	-1.16293 	0.00721995 	3.13857 	90.1567 	116.662 	-0.591211 	155.6 	360.634 	285.065 	539.797 	
67.2715 	-0.0101487 	-0.318507 	0.811942 	-1.1542 	0.00715159 	3.13863 	90.1567 	116.662 	-0.591211 	156.096 	360.634 	285.065 	539.797 	
67.3745 	-0.0101409 	-0.321555 	0.812332 	-1.14548 	0.00708381 	3.1387 	90.1567 	116.662 	-0.591211 	156.606 	360.634 	285.065 	539.797 	
67.4775 	-0.0101328 	-0.324605 	0.812694 	-1.13675 	0.00701662 	3.13877 	90.1567 	116.662 	-0.591211 	157.152 	360.634 	285.065 	539.797 	
67.5808 	-0.0101244 	-0.327659 	0.81303 	-1.12802 	0.00695002 	3.13884 	90.1567 	116.662 	-0.591211 	157.658 	360.634 	285.065 	539.797 	
67.6834 	-0.0101158 	-0.330715 	0.81334 	-1.1193 	0.00688403 	3.13891 	90.1567 	116.662 	-0.591211 	158.155 	360.634 	285.065 	539.797 	
67.7865 	-0.0101068 	-0.333774 	0.813622 	-1.11057 	0.00681864 	3.13897 	90.1567 	116.662 	-0.591211 	158.717 	360.634 	285.065 	539.797 	
67.8899 	-0.0100976 	-0.336836 	0.813878 	-1.10185 	0.00675387 	3.13905 	90.1567 	116.662 	-0.591211 	159.215 	360.634 	285.065 	539.797 	
67.9964 	-0.0100881 	-0.339899 	0.814107 	-1.09312 	0.00668971 	3.13912 	90.1567 	116.661 	-0.591211 	159.762 	360.634 	285.065 	539.797 	
68.0992 	-0.0100783 	-0.342965 	0.81431 	-1.08439 	0.00662617 	3.13919 	90.1567 	116.661 	-0.591211 	160.273 	360.634 	285.065 	539.797 	
68.2023 	-0.0100682 	-0.346032 	0.814486 	-1.07567 	0.00656325 	3.13926 	90.1567 	116.661 	-0.591211 	160.768 	360.634 	285.065 	539.797 	
68.3084 	-0.0100578 	-0.3491 	0.814634 	-1.06694 	0.00650097 	3.13933 	90.1567 	116.661 	-0.591211 	161.328 	360.634 	285.065 	539.797 	
68.411 	-0.0100472 	-0.35217 	0.814757 	-1.05821 	0.00643932 	3.1394 	90.1567 	116.661 	-0.591211 	161.822 	360.634 	285.065 	539.797 	
68.5143 	-0.0100363 	-0.355241 	0.814852 	-1.04949 	0.00637831 	3.13948 	90.1567 	116.661 	-0.591211 	162.33 	360.634 	285.065 	539.797 	
68.6171 	-0.0100136 	-0.361384 	0.814962 	-1.03204 	0.00625822 	3.13963 	90.1567 	116.661 	-0.591211 	162.88 	360.634 	285.065 	539.797 	
68.7203 	-0.0100019 	-0.364456 	0.814977 	-1.02331 	0.00619916 	3.1397 	90.1567 	116.661 	-0.591211 	163.387 	360.634 	285.065 	539.797 	
68.8233 	-0.00998986 	-0.367528 	0.814965 	-1.01458 	0.00614075 	3.13978 	90.1567 	116.661 	-0.591211 	163.876 	360.634 	285.065 	539.797 	
68.9265 	-0.00997757 	-0.3706 	0.814927 	-1.00586 	0.00608301 	3.13985 	90.1567 	116.661 	-0.591211 	164.44 	360.634 	285.065 	539.797 	
69.0296 	-0.009965 	-0.373671 	0.814861 	-0.997131 	0.00602593 	3.13993 	90.1567 	116.661 	-0.591211 	164.934 	360.634 	285.065 	539.797 	
69.1323 	-0.00995217 	-0.376742 	0.814769 	-0.988404 	0.00596953 	3.14001 	90.1567 	116.661 	-0.591211 	165.446 	360.634 	285.065 	539.797 	
69.2354 	-0.00993906 	-0.379812 	0.81465 	-0.979678 	0.0059138 	3.14009 	90.1567 	116.661 	-0.591211 	165.994 	360.634 	285.065 	539.797 	
69.3385 	-0.00992568 	-0.38288 	0.814504 	-0.970952 	0.00585875 	3.14016 	90.1567 	116.661 	-0.591211 	166.494 	360.634 	285.065 	539.797 	
69.4414 	-0.00991203 	-0.385948 	0.814331 	-0.962226 	0.00580438 	3.14024 	90.1567 	116.661 	-0.591211 	166.995 	360.634 	285.065 	539.797 	
69.5445 	-0.00989812 	-0.389013 	0.814132 	-0.9535 	0.0057507 	3.14032 	90.1567 	116.661 	-0.591211 	167.496 	360.634 	285.065 	539.797 	
69.6473 	-0.00988393 	-0.392077 	0.813906 	-0.944774 	0.00569771 	3.1404 	90.1567 	116.661 	-0.591211 	168.049 	360.634 	285.065 	539.797 	
69.7509 	-0.00986949 	-0.395139 	0.813653 	-0.936047 	0.00564542 	3.14048 	90.1567 	116.661 	-0.591211 	168.546 	360.634 	285.065 	539.797 	
69.8563 	-0.00985477 	-0.398198 	0.813373 	-0.927321 	0.00559383 	3.14056 	90.1567 	116.661 	-0.591211 	169.102 	360.634 	285.065 	539.797 	
69.9594 	-0.0098398 	-0.401255 	0.813067 	-0.918595 	0.00554294 	3.14064 	90.1567 	116.661 	-0.591211 	169.602 	360.634 	285.065 	539.797 	
70.0624 	-0.00982456 	-0.404309 	0.812734 	-0.909869 	0.00549276 	3.14072 	90.1567 	116.661 	-0.591211 	170.115 	360.634 	285.065 	539.797 	
70.1655 	-0.00980906 	-0.40736 	0.812375 	-0.901143 	0.0054433 	3.14081 	90.1567 	116.661 	-0.591211 	170.602 	360.634 	285.065 	539.797 	
70.2683 	-0.0097933 	-0.410407 	0.811988 	-0.892417 	0.00539455 	3.14089 	90.1567 	116.661 	-0.591211 	171.163 	360.634 	285.065 	539.797 	
70.3715 	-0.00977728 	-0.413452 	0.811576 	-0.88369 	0.00534651 	3.14097 	90.1567 	116.661 	-0.591211 	171.657 	360.634 	285.065 	539.797 	
70.475 	-0.00976101 	-0.416492 	0.811136 	-0.874964 	0.0052992 	3.14105 	90.1567 	116.661 	-0.591211 	172.169 	360.634 	285.065 	539.797 	
70.5775 	-0.00974448 	-0.419529 	0.81067 	-0.866238 	0.00525262 	3.14114 	90.1567 	116.661 	-0.591211 	172.713 	360.634 	285.065 	539.797 	
70.6805 	-0.00972769 	-0.422561 	0.810178 	-0.857512 	0.00520677 	3.14122 	90.1567 	116.661 	-0.591211 	173.213 	360.634 	285.065 	539.797 	
70.7837 	-0.00971065 	-0.425589 	0.809659 	-0.848785 	0.00516164 	3.1413 	90.1567 	116.661 	-0.591211 	173.717 	360.634 	285.065 	539.797 	
70.8864 	-0.00969335 	-0.428612 	0.809114 	-0.840059 	0.00511726 	3.14139 	90.1567 	116.661 	-0.591211 	174.271 	360.634 	285.065 	539.797 	
70.9897 	-0.00967581 	-0.431631 	0.808543 	-0.831333 	0.00507362 	3.14147 	90.1567 	116.661 	-0.591211 	174.772 	360.634 	285.065 	539.797 	
71.0967 	-0.00965802 	-0.434644 	0.807945 	-0.822607 	0.00503072 	3.14156 	90.1567 	116.661 	-0.591211 	175.32 	360.634 	285.065 	539.797 	
71.1992 	-0.00963997 	-0.437652 	0.807321 	-0.81388 	0.00498857 	-3.14154 	90.1567 	116.661 	-0.591211 	175.823 	360.634 	285.065 	539.797 	
71.3021 	-0.00962168 	-0.440655 	0.80667 	-0.805154 	0.00494716 	-3.14145 	90.1567 	116.661 	-0.591211 	176.323 	360.634 	285.065 	539.797 	
71.407 	-0.00958437 	-0.446642 	0.805291 	-0.787702 	0.00486662 	-3.14128 	90.1567 	116.661 	-0.591211 	176.881 	360.634 	285.065 	539.797 	
71.5105 	-0.00956534 	-0.449626 	0.804563 	-0.778975 	0.00482748 	-3.14119 	90.1567 	116.661 	-0.591211 	177.376 	360.634 	285.065 	539.797 	
71.613 	-0.00954608 	-0.452604 	0.803808 	-0.770249 	0.00478911 	-3.14111 	90.1567 	116.661 	-0.591211 	177.881 	360.634 	285.065 	539.797 	
71.7165 	-0.00952657 	-0.455575 	0.803027 	-0.761523 	0.00475151 	-3.14102 	90.1567 	116.661 	-0.591211 	178.423 	360.634 	285.065 	539.797 	
71.8194 	-0.00950683 	-0.458539 	0.802221 	-0.752797 	0.00471467 	-3.14093 	90.1567 	116.661 	-0.591211 	178.937 	360.634 	285.065 	539.797 	
71.9224 	-0.00948685 	-0.461497 	0.801388 	-0.744071 	0.0046786 	-3.14084 	90.1567 	116.66 	-0.591211 	179.43 	360.634 	285.065 	539.797 	
72.0254 	-0.00946664 	-0.464446 	0.80053 	-0.735344 	0.00464331 	-3.14075 	90.1567 	116.66 	-0.591211 	179.934 	360.634 	285.065 	539.797 	
72.1284 	-0.00944619 	-0.467389 	0.799646 	-0.726618 	0.00460879 	-3.14066 	90.1566 	116.66 	-0.591211 	180.486 	360.634 	285.065 	539.797 	
72.2316 	-0.00942551 	-0.470323 	0.798736 	-0.717892 	0.00457505 	-3.14057 	90.1567 	116.66 	-0.591211 	180.982 	360.634 	285.065 	539.797 	
72.3343 	-0.00940459 	-0.473249 	0.797801 	-0.709165 	0.0045421 	-3.14048 	90.1566 	116.66 	-0.591211 	181.486 	360.634 	285.065 	539.797 	
72.4375 	-0.00938345 	-0.476167 	0.796841 	-0.700439 	0.00450992 	-3.14039 	90.1566 	116.66 	-0.591211 	182.037 	360.634 	285.065 	539.797 	
72.5405 	-0.00936208 	-0.479077 	0.795855 	-0.691713 	0.00447854 	-3.1403 	90.1567 	116.66 	-0.591211 	182.54 	360.634 	285.065 	539.797 	
72.6436 	-0.00934049 	-0.481977 	0.794843 	-0.682987 	0.00444794 	-3.14021 	90.1566 	116.66 	-0.591211 	183.038 	360.634 	285.065 	539.797 	
72.7463 	-0.00931867 	-0.484869 	0.793807 	-0.67426 	0.00441813 	-3.14012 	90.1566 	116.66 	-0.591211 	183.596 	360.634 	285.065 	539.797 	
72.8496 	-0.00929663 	-0.487752 	0.792745 	-0.665534 	0.00438912 	-3.14003 	90.1567 	116.66 	-0.591211 	184.086 	360.634 	285.065 	539.797 	
72.9564 	-0.00927436 	-0.490625 	0.791658 	-0.656808 	0.00436091 	-3.13994 	90.1566 	116.66 	-0.591211 	184.644 	360.634 	285.065 	539.797 	
73.0594 	-0.00925188 	-0.493489 	0.790546 	-0.648082 	0.00433349 	-3.13985 	90.1567 	116.66 	-0.591211 	185.14 	360.634 	285.065 	539.797 	
73.1622 	-0.00922918 	-0.496343 	0.789409 	-0.639356 	0.00430687 	-3.13976 	90.1566 	116.66 	-0.591211 	185.65 	360.634 	285.065 	539.797 	
73.2656 	-0.00920627 	-0.499187 	0.788247 	-0.630629 	0.00428105 	-3.13966 	90.1566 	116.66 	-0.591211 	186.146 	360.634 	285.065 	539.797 	
73.3686 	-0.00918313 	-0.50202 	0.78706 	-0.621903 	0.00425604 	-3.13957 	90.1566 	116.66 	-0.591211 	186.7 	360.634 	285.065 	539.797 	
73.4714 	-0.00915979 	-0.504843 	0.785849 	-0.613177 	0.00423183 	-3.13948 	90.1566 	116.66 	-0.591211 	187.199 	360.634 	285.065 	539.797 	
73.5741 	-0.00913624 	-0.507656 	0.784613 	-0.60445 	0.00420843 	-3.13939 	90.1567 	116.66 	-0.591211 	187.7 	360.634 	285.065 	539.797 	
73.6769 	-0.00911248 	-0.510457 	0.783353 	-0.595724 	0.00418584 	-3.13929 	90.1565 	116.66 	-0.591211 	188.25 	360.634 	285.065 	539.797 	
73.779 	-0.00908851 	-0.513248 	0.782068 	-0.586998 	0.00416406 	-3.1392 	90.1567 	116.66 	-0.591211 	188.751 	360.634 	285.065 	539.797 	
73.8807 	-0.00906434 	-0.516027 	0.780759 	-0.578272 	0.00414309 	-3.13911 	90.1565 	116.66 	-0.591211 	189.251 	360.634 	285.065 	539.797 	
73.9827 	-0.00903996 	-0.518795 	0.779425 	-0.569545 	0.00412294 	-3.13901 	90.1566 	116.66 	-0.591211 	189.75 	360.634 	285.065 	539.797 	
74.0849 	-0.00901538 	-0.52155 	0.778068 	-0.560819 	0.00410361 	-3.13892 	90.1566 	116.66 	-0.591211 	190.258 	360.634 	285.065 	539.797 	
74.1869 	-0.00899061 	-0.524294 	0.776687 	-0.552093 	0.00408509 	-3.13883 	90.1566 	116.66 	-0.591211 	190.8 	360.634 	285.065 	539.797 	
74.295 	-0.00896563 	-0.527026 	0.775281 	-0.543367 	0.00406739 	-3.13873 	90.1566 	116.66 	-0.591211 	191.308 	360.634 	285.065 	539.797 	
74.3975 	-0.00894046 	-0.529746 	0.773852 	-0.53464 	0.00405051 	-3.13864 	90.1565 	116.66 	-0.591211 	191.853 	360.634 	285.064 	539.797 	
74.5019 	-0.00891509 	-0.532452 	0.7724 	-0.525914 	0.00403445 	-3.13855 	90.1566 	116.66 	-0.591211 	192.359 	360.634 	285.064 	539.797 	
74.6059 	-0.00886379 	-0.537827 	0.769423 	-0.508461 	0.00400481 	-3.13836 	90.1565 	116.66 	-0.591211 	192.905 	360.634 	285.064 	539.797 	
74.7099 	-0.00883786 	-0.540495 	0.7679 	-0.499735 	0.00399122 	-3.13826 	90.1566 	116.66 	-0.591211 	193.411 	360.634 	285.064 	539.797 	
74.813 	-0.00881173 	-0.54315 	0.766354 	-0.491009 	0.00397846 	-3.13817 	90.1566 	116.66 	-0.591211 	193.909 	360.634 	285.064 	539.797 	
74.9161 	-0.00878543 	-0.545791 	0.764785 	-0.482283 	0.00396653 	-3.13807 	90.1566 	116.66 	-0.591211 	194.462 	360.634 	285.064 	539.797 	
75.0189 	-0.00875894 	-0.548418 	0.763192 	-0.473556 	0.00395542 	-3.13798 	90.1566 	116.66 	-0.591211 	194.963 	360.634 	285.064 	539.797 	
75.1208 	-0.00873228 	-0.551031 	0.761577 	-0.46483 	0.00394515 	-3.13788 	90.1565 	116.66 	-0.591211 	195.461 	360.634 	285.064 	539.797 	
75.223 	-0.00870543 	-0.55363 	0.759939 	-0.456104 	0.0039357 	-3.13779 	90.1566 	116.66 	-0.591211 	195.966 	360.634 	285.064 	539.797 	
75.325 	-0.00867841 	-0.556214 	0.758278 	-0.447378 	0.00392708 	-3.13769 	90.1565 	116.66 	-0.591211 	196.461 	360.634 	285.064 	539.797 	
75.4278 	-0.00865122 	-0.558784 	0.756595 	-0.438651 	0.0039193 	-3.1376 	90.1566 	116.66 	-0.591211 	197.018 	360.634 	285.064 	539.797 	
75.53 	-0.00862385 	-0.561339 	0.75489 	-0.429925 	0.00391234 	-3.1375 	90.1566 	116.66 	-0.591211 	197.517 	360.634 	285.064 	539.797 	
75.6321 	-0.00859631 	-0.563879 	0.753162 	-0.421199 	0.00390622 	-3.13741 	90.1566 	116.66 	-0.591211 	198.017 	360.634 	285.064 	539.797 	
75.7349 	-0.00856861 	-0.566404 	0.751412 	-0.412472 	0.00390093 	-3.13731 	90.1566 	116.659 	-0.591211 	198.515 	360.634 	285.064 	539.797 	
75.8368 	-0.00854074 	-0.568913 	0.74964 	-0.403746 	0.00389647 	-3.13722 	90.1565 	116.659 	-0.591211 	199.069 	360.634 	285.064 	539.797 	
75.9389 	-0.00851271 	-0.571407 	0.747847 	-0.39502 	0.00389285 	-3.13712 	90.1566 	116.659 	-0.591211 	199.564 	360.634 	285.064 	539.797 	
76.0408 	-0.00848451 	-0.573886 	0.746031 	-0.386294 	0.00389006 	-3.13702 	90.1565 	116.659 	-0.591211 	200.07 	360.634 	285.064 	539.797 	
76.1428 	-0.00845616 	-0.576348 	0.744194 	-0.377567 	0.0038881 	-3.13693 	90.1566 	116.659 	-0.591211 	200.572 	360.634 	285.064 	539.797 	
76.2448 	-0.00842765 	-0.578794 	0.742336 	-0.368841 	0.00388698 	-3.13683 	90.1566 	116.659 	-0.591211 	201.071 	360.634 	285.064 	539.797 	
76.3469 	-0.00839899 	-0.581224 	0.740456 	-0.360115 	0.00388669 	-3.13674 	90.1566 	116.659 	-0.591211 	201.624 	360.634 	285.064 	539.797 	
76.449 	-0.00837017 	-0.583637 	0.738556 	-0.351388 	0.00388723 	-3.13664 	90.1566 	116.659 	-0.591211 	202.121 	360.634 	285.064 	539.797 	
76.5558 	-0.0083412 	-0.586034 	0.736634 	-0.342662 	0.00388861 	-3.13655 	90.1566 	116.659 	-0.591211 	202.671 	360.634 	285.064 	539.797 	
76.658 	-0.00831208 	-0.588414 	0.734691 	-0.333936 	0.00389083 	-3.13645 	90.1566 	116.659 	-0.591211 	203.169 	360.634 	285.063 	539.797 	
76.7601 	-0.00828282 	-0.590777 	0.732728 	-0.325209 	0.00389387 	-3.13636 	90.1566 	116.659 	-0.591211 	203.676 	360.634 	285.063 	539.797 	
76.8617 	-0.00825342 	-0.593122 	0.730744 	-0.316483 	0.00389775 	-3.13626 	90.1566 	116.659 	-0.591211 	204.172 	360.634 	285.063 	539.797 	
76.9638 	-0.00822387 	-0.59545 	0.72874 	-0.307757 	0.00390247 	-3.13616 	90.1566 	116.659 	-0.591211 	204.678 	360.634 	285.063 	539.797 	
77.0658 	-0.00819418 	-0.597761 	0.726716 	-0.299031 	0.00390801 	-3.13607 	90.1566 	116.659 	-0.591211 	205.222 	360.634 	285.063 	539.797 	
77.168 	-0.00816436 	-0.600054 	0.724671 	-0.290304 	0.00391439 	-3.13597 	90.1566 	116.659 	-0.591211 	205.727 	360.634 	285.063 	539.797 	
77.2698 	-0.0081344 	-0.602329 	0.722607 	-0.281578 	0.0039216 	-3.13588 	90.1566 	116.659 	-0.591211 	206.227 	360.634 	285.063 	539.797 	
77.3717 	-0.00810431 	-0.604585 	0.720523 	-0.272852 	0.00392964 	-3.13578 	90.1566 	116.659 	-0.591211 	206.728 	360.634 	285.063 	539.797 	
77.4738 	-0.00807409 	-0.606824 	0.718419 	-0.264126 	0.00393852 	-3.13569 	90.1566 	116.659 	-0.591211 	207.229 	360.634 	285.063 	539.797 	
77.5759 	-0.00804374 	-0.609044 	0.716295 	-0.255399 	0.00394822 	-3.13559 	90.1566 	116.659 	-0.591211 	207.773 	360.634 	285.063 	539.797 	
77.678 	-0.00801327 	-0.611245 	0.714153 	-0.246673 	0.00395875 	-3.1355 	90.1566 	116.659 	-0.591211 	208.278 	360.634 	285.063 	539.797 	
77.7798 	-0.00798267 	-0.613428 	0.711991 	-0.237947 	0.00397011 	-3.1354 	90.1566 	116.659 	-0.591211 	208.778 	360.634 	285.063 	539.797 	
77.8819 	-0.00795195 	-0.615592 	0.70981 	-0.22922 	0.0039823 	-3.13531 	90.1566 	116.659 	-0.591211 	209.276 	360.634 	285.063 	539.797 	
77.9838 	-0.00792111 	-0.617736 	0.707611 	-0.220494 	0.00399531 	-3.13521 	90.1566 	116.659 	-0.591211 	209.776 	360.634 	285.063 	539.797 	
78.086 	-0.00789016 	-0.619862 	0.705393 	-0.211768 	0.00400915 	-3.13512 	90.1566 	116.659 	-0.591211 	210.328 	360.634 	285.063 	539.797 	
78.188 	-0.00785909 	-0.621967 	0.703156 	-0.203042 	0.00402382 	-3.13502 	90.1566 	116.659 	-0.591211 	210.83 	360.634 	285.063 	539.797 	
78.2949 	-0.00782791 	-0.624054 	0.700901 	-0.194315 	0.0040393 	-3.13493 	90.1566 	116.659 	-0.591211 	211.33 	360.634 	285.063 	539.797 	
78.3969 	-0.00779663 	-0.62612 	0.698628 	-0.185589 	0.00405561 	-3.13484 	90.1566 	116.659 	-0.591211 	211.876 	360.634 	285.063 	539.797 	
78.4989 	-0.00776523 	-0.628167 	0.696337 	-0.176863 	0.00407275 	-3.13474 	90.1566 	116.659 	-0.591211 	212.379 	360.634 	285.063 	539.797 	
78.602 	-0.00773373 	-0.630193 	0.694029 	-0.168137 	0.0040907 	-3.13465 	90.1566 	116.659 	-0.591211 	212.879 	360.634 	285.062 	539.797 	
78.7049 	-0.00770213 	-0.6322 	0.691702 	-0.15941 	0.00410947 	-3.13455 	90.1566 	116.659 	-0.591211 	213.381 	360.634 	285.062 	539.797 	
78.808 	-0.00767043 	-0.634186 	0.689359 	-0.150684 	0.00412905 	-3.13446 	90.1566 	116.659 	-0.591211 	213.931 	360.634 	285.062 	539.797 	
78.9118 	-0.00760674 	-0.638096 	0.68462 	-0.133231 	0.00417067 	-3.13427 	90.1566 	116.659 	-0.591211 	214.426 	360.634 	285.062 	539.797 	
79.014 	-0.00757476 	-0.640019 	0.682225 	-0.124505 	0.0041927 	-3.13418 	90.1566 	116.659 	-0.591211 	214.93 	360.634 	285.062 	539.797 	
79.116 	-0.00754269 	-0.641922 	0.679813 	-0.115779 	0.00421554 	-3.13409 	90.1566 	116.659 	-0.591211 	215.481 	360.634 	285.062 	539.797 	
79.218 	-0.00751052 	-0.643804 	0.677385 	-0.107053 	0.00423919 	-3.134 	90.1566 	116.659 	-0.591211 	215.982 	360.634 	285.062 	539.797 	
79.3201 	-0.00747828 	-0.645665 	0.674941 	-0.0983263 	0.00426365 	-3.1339 	90.1566 	116.659 	-0.591211 	216.479 	360.634 	285.062 	539.797 	
79.4221 	-0.00744595 	-0.647504 	0.67248 	-0.0896001 	0.0042889 	-3.13381 	90.1566 	116.659 	-0.591211 	216.98 	360.634 	285.062 	539.797 	
79.5243 	-0.00741354 	-0.649321 	0.670004 	-0.080874 	0.00431497 	-3.13372 	90.1566 	116.659 	-0.591211 	217.483 	360.634 	285.062 	539.797 	
79.626 	-0.00738105 	-0.651117 	0.667511 	-0.0721476 	0.00434183 	-3.13363 	90.1566 	116.659 	-0.591211 	218.033 	360.634 	285.062 	539.797 	
79.7289 	-0.00734849 	-0.652891 	0.665003 	-0.0634214 	0.0043695 	-3.13354 	90.1566 	116.659 	-0.591211 	218.533 	360.634 	285.062 	539.797 	
79.8308 	-0.00731586 	-0.654643 	0.66248 	-0.0546949 	0.00439796 	-3.13345 	90.1566 	116.659 	-0.591211 	219.034 	360.634 	285.062 	539.797 	
79.9329 	-0.00728315 	-0.656373 	0.659941 	-0.0459689 	0.00442722 	-3.13335 	90.1566 	116.659 	-0.591211 	219.53 	360.634 	285.062 	539.797 	
80.0348 	-0.00725038 	-0.658081 	0.657388 	-0.0372424 	0.00445727 	-3.13326 	90.1566 	116.659 	-0.591211 	220.034 	360.634 	285.062 	539.797 	
80.137 	-0.00721755 	-0.659767 	0.65482 	-0.0285163 	0.00448811 	-3.13317 	90.1566 	116.659 	-0.591211 	220.585 	360.634 	285.062 	539.797 	
80.24 	-0.00718465 	-0.66143 	0.652237 	-0.0197899 	0.00451973 	-3.13308 	90.1566 	116.659 	-0.591211 	221.085 	360.634 	285.062 	539.797 	
80.3418 	-0.00715169 	-0.66307 	0.649639 	-0.0110638 	0.00455215 	-3.13299 	90.1566 	116.659 	-0.591211 	221.582 	360.634 	285.062 	539.797 	
80.4438 	-0.00711867 	-0.664688 	0.647028 	-0.0023377 	0.00458535 	-3.1329 	90.1566 	116.659 	-0.591211 	222.083 	360.634 	285.062 	539.797 	
80.5458 	-0.0070856 	-0.666282 	0.644402 	0.00638873 	0.00461932 	-3.13281 	90.1566 	116.659 	-0.591211 	222.636 	360.634 	285.062 	539.797 	
80.6479 	-0.00705247 	-0.667854 	0.641763 	0.0151149 	0.00465408 	-3.13272 	90.1566 	116.659 	-0.591211 	223.131 	360.634 	285.062 	539.797 	
80.756 	-0.0070193 	-0.669403 	0.63911 	0.0238412 	0.00468961 	-3.13264 	90.1566 	116.659 	-0.591211 	223.685 	360.634 	285.062 	539.797 	
