RISC-NYUAD/HeavyPayloadDrone/projects/kinova-ros/devel/lib/ne_kinova_demo/VulcanTrajectory/Vulcan1_Vicon_y19m11d13h17min31.csv
time (NSec) 	Kinova Tip Position (t_x) 	t_y 	t_z 	Kinova Tip Angle (theta_x) 	Kinova Tip Angle (theta_y) 	Kinova Tip Angle (theta_z) 	Kinova Joint Angle (j1) 	(j2) 	(j3) 	(j4) 	Kinova Joint Angle (j5) 	(j6) 	(j7)
12.5265 	-0.00385174 	-0.501283 	0.779248 	0.159421 	0.011401 	-3.12706 	90.0114 	154.139 	-0.597168 	268.954 	360.654 	284.868 	539.727 	
12.5366 	-0.00385174 	-0.501283 	0.779248 	0.159421 	0.011401 	-3.12706 	90.0114 	154.139 	-0.597168 	268.954 	360.654 	284.868 	539.727 	
12.5466 	-0.00385174 	-0.501283 	0.779248 	0.159421 	0.011401 	-3.12706 	90.0114 	154.139 	-0.597168 	268.954 	360.654 	284.868 	539.727 	
12.5565 	-0.00385174 	-0.501283 	0.779248 	0.159421 	0.011401 	-3.12706 	90.0114 	154.139 	-0.597168 	268.954 	360.654 	284.868 	539.727 	
12.5667 	-0.00385174 	-0.501283 	0.779248 	0.159421 	0.011401 	-3.12706 	90.0114 	154.139 	-0.597168 	268.954 	360.654 	284.868 	539.727 	
12.5767 	-0.00385174 	-0.501283 	0.779248 	0.159421 	0.011401 	-3.12706 	90.0114 	154.139 	-0.597168 	268.954 	360.654 	284.868 	539.727 	
12.5867 	-0.00385174 	-0.501283 	0.779248 	0.159421 	0.011401 	-3.12706 	90.0114 	154.139 	-0.597168 	268.954 	360.654 	284.868 	539.727 	
12.5967 	-0.00385174 	-0.501283 	0.779248 	0.159421 	0.011401 	-3.12706 	90.0114 	154.139 	-0.597168 	268.954 	360.654 	284.868 	539.727 	
12.6066 	-0.00385174 	-0.501283 	0.779248 	0.159421 	0.011401 	-3.12706 	90.0114 	154.139 	-0.597168 	268.954 	360.654 	284.868 	539.727 	
12.6165 	-0.00385174 	-0.501283 	0.779248 	0.159421 	0.011401 	-3.12706 	90.0114 	154.139 	-0.597168 	268.954 	360.654 	284.868 	539.727 	
12.6266 	-0.00385174 	-0.501283 	0.779248 	0.159421 	0.011401 	-3.12706 	90.0114 	154.139 	-0.597168 	268.954 	360.654 	284.868 	539.727 	
12.6367 	-0.00385174 	-0.501283 	0.779248 	0.159421 	0.011401 	-3.12706 	90.0114 	154.139 	-0.597168 	268.954 	360.654 	284.868 	539.727 	
12.6468 	-0.00385174 	-0.501283 	0.779248 	0.159421 	0.011401 	-3.12706 	90.0114 	154.139 	-0.597168 	268.954 	360.654 	284.868 	539.727 	
12.6566 	-0.00385174 	-0.501283 	0.779248 	0.159421 	0.011401 	-3.12706 	90.0114 	154.139 	-0.597168 	268.954 	360.654 	284.868 	539.727 	
12.6667 	-0.00385174 	-0.501283 	0.779248 	0.159421 	0.011401 	-3.12706 	90.0114 	154.139 	-0.597168 	268.954 	360.654 	284.868 	539.727 	
12.6767 	-0.00385174 	-0.501283 	0.779248 	0.159421 	0.011401 	-3.12706 	90.0114 	154.139 	-0.597168 	268.954 	360.654 	284.868 	539.727 	
12.6866 	-0.00385174 	-0.501283 	0.779248 	0.159421 	0.011401 	-3.12706 	90.0114 	154.139 	-0.597168 	268.954 	360.654 	284.868 	539.727 	
12.6967 	-0.00385174 	-0.501283 	0.779248 	0.159421 	0.011401 	-3.12706 	90.0114 	154.139 	-0.597168 	268.954 	360.654 	284.868 	539.727 	
12.7066 	-0.00385174 	-0.501283 	0.779248 	0.159421 	0.011401 	-3.12706 	90.0114 	154.139 	-0.597168 	268.954 	360.654 	284.868 	539.727 	
12.7166 	-0.00385174 	-0.501283 	0.779248 	0.159421 	0.011401 	-3.12706 	90.0114 	154.139 	-0.597168 	268.954 	360.654 	284.868 	539.727 	
12.7267 	-0.00385174 	-0.501283 	0.779248 	0.159421 	0.011401 	-3.12706 	90.0114 	154.139 	-0.597168 	268.954 	360.654 	284.868 	539.727 	
12.7366 	-0.00385174 	-0.501283 	0.779248 	0.159421 	0.011401 	-3.12706 	90.0114 	154.139 	-0.597168 	268.954 	360.654 	284.868 	539.727 	
12.7465 	-0.00385174 	-0.501283 	0.779248 	0.159421 	0.011401 	-3.12706 	90.0114 	154.139 	-0.597168 	268.954 	360.654 	284.868 	539.727 	
12.7566 	-0.00385174 	-0.501283 	0.779248 	0.159421 	0.011401 	-3.12706 	90.0114 	154.139 	-0.597168 	268.954 	360.654 	284.868 	539.727 	
12.7667 	-0.00385174 	-0.501283 	0.779248 	0.159421 	0.011401 	-3.12706 	90.0114 	154.139 	-0.597168 	268.954 	360.654 	284.868 	539.727 	
12.7767 	-0.00385174 	-0.501283 	0.779248 	0.159421 	0.011401 	-3.12706 	90.0114 	154.139 	-0.597168 	268.954 	360.654 	284.868 	539.727 	
12.7867 	-0.00385174 	-0.501283 	0.779248 	0.159421 	0.011401 	-3.12706 	90.0114 	154.139 	-0.597168 	268.954 	360.654 	284.868 	539.727 	
12.7967 	-0.00385174 	-0.501283 	0.779248 	0.159421 	0.011401 	-3.12706 	90.0114 	154.139 	-0.597168 	268.954 	360.654 	284.868 	539.727 	
12.8066 	-0.00385174 	-0.501283 	0.779248 	0.159421 	0.011401 	-3.12706 	90.0114 	154.139 	-0.597168 	268.954 	360.654 	284.868 	539.727 	
12.8166 	-0.00385174 	-0.501283 	0.779248 	0.159421 	0.011401 	-3.12706 	90.0114 	154.139 	-0.597168 	268.954 	360.654 	284.868 	539.727 	
12.8267 	-0.00385174 	-0.501283 	0.779248 	0.159421 	0.011401 	-3.12706 	90.0114 	154.139 	-0.597168 	268.954 	360.654 	284.868 	539.727 	
12.8367 	-0.00385174 	-0.501283 	0.779248 	0.159421 	0.011401 	-3.12706 	90.0114 	154.139 	-0.597168 	268.954 	360.654 	284.868 	539.727 	
12.8467 	-0.00385174 	-0.501283 	0.779248 	0.159421 	0.011401 	-3.12706 	90.0114 	154.139 	-0.597168 	268.954 	360.654 	284.868 	539.727 	
12.8565 	-0.00385174 	-0.501283 	0.779248 	0.159421 	0.011401 	-3.12706 	90.0114 	154.139 	-0.597168 	268.954 	360.654 	284.868 	539.727 	
12.8665 	-0.00385174 	-0.501283 	0.779248 	0.159421 	0.011401 	-3.12706 	90.0114 	154.139 	-0.597168 	268.954 	360.654 	284.868 	539.727 	
12.8765 	-0.00385174 	-0.501283 	0.779248 	0.159421 	0.011401 	-3.12706 	90.0114 	154.139 	-0.597168 	268.954 	360.654 	284.868 	539.727 	
12.8865 	-0.00385174 	-0.501283 	0.779248 	0.159421 	0.011401 	-3.12706 	90.0114 	154.139 	-0.597168 	268.954 	360.654 	284.868 	539.727 	
12.8965 	-0.00385174 	-0.501283 	0.779248 	0.159421 	0.011401 	-3.12706 	90.0114 	154.139 	-0.597168 	268.954 	360.654 	284.868 	539.727 	
12.9065 	-0.00385174 	-0.501283 	0.779248 	0.159421 	0.011401 	-3.12706 	90.0114 	154.139 	-0.597168 	268.954 	360.654 	284.868 	539.727 	
12.9165 	-0.00385174 	-0.501283 	0.779248 	0.159421 	0.011401 	-3.12706 	90.0114 	154.139 	-0.597168 	268.954 	360.654 	284.868 	539.727 	
12.9265 	-0.00385174 	-0.501283 	0.779248 	0.159421 	0.011401 	-3.12706 	90.0114 	154.139 	-0.597168 	268.954 	360.654 	284.868 	539.727 	
12.9365 	-0.00385174 	-0.501283 	0.779248 	0.159421 	0.011401 	-3.12706 	90.0114 	154.139 	-0.597168 	268.954 	360.654 	284.868 	539.727 	
12.9465 	-0.00385174 	-0.501283 	0.779248 	0.159421 	0.011401 	-3.12706 	90.0114 	154.139 	-0.597168 	268.954 	360.654 	284.868 	539.727 	
12.9565 	-0.00385174 	-0.501283 	0.779248 	0.159421 	0.011401 	-3.12706 	90.0114 	154.139 	-0.597168 	268.954 	360.654 	284.868 	539.727 	
12.9667 	-0.00385174 	-0.501283 	0.779248 	0.159421 	0.011401 	-3.12706 	90.0114 	154.139 	-0.597168 	268.954 	360.654 	284.868 	539.727 	
12.9766 	-0.00385174 	-0.501283 	0.779248 	0.159421 	0.011401 	-3.12706 	90.0114 	154.139 	-0.597168 	268.954 	360.654 	284.868 	539.727 	
12.9867 	-0.00385174 	-0.501283 	0.779248 	0.159421 	0.011401 	-3.12706 	90.0114 	154.139 	-0.597168 	268.954 	360.654 	284.868 	539.727 	
12.9967 	-0.00385174 	-0.501283 	0.779248 	0.159421 	0.011401 	-3.12706 	90.0114 	154.139 	-0.597168 	268.954 	360.654 	284.868 	539.727 	
13.0066 	-0.00385174 	-0.501283 	0.779248 	0.159421 	0.011401 	-3.12706 	90.0114 	154.139 	-0.597168 	268.954 	360.654 	284.868 	539.727 	
13.0166 	-0.00385174 	-0.501283 	0.779248 	0.159421 	0.011401 	-3.12706 	90.0114 	154.139 	-0.597168 	268.954 	360.654 	284.868 	539.727 	
13.0266 	-0.00385174 	-0.501283 	0.779248 	0.159421 	0.011401 	-3.12706 	90.0114 	154.139 	-0.597168 	268.954 	360.654 	284.868 	539.727 	
13.0366 	-0.00385174 	-0.501283 	0.779248 	0.159421 	0.011401 	-3.12706 	90.0114 	154.139 	-0.597168 	268.954 	360.654 	284.868 	539.727 	
13.0466 	-0.00385174 	-0.501283 	0.779248 	0.159421 	0.011401 	-3.12706 	90.0114 	154.139 	-0.597168 	268.954 	360.654 	284.868 	539.727 	
13.0566 	-0.00385174 	-0.501283 	0.779248 	0.159421 	0.011401 	-3.12706 	90.0114 	154.139 	-0.597168 	268.954 	360.654 	284.868 	539.727 	
13.0666 	-0.00385174 	-0.501283 	0.779248 	0.159421 	0.011401 	-3.12706 	90.0114 	154.139 	-0.597168 	268.954 	360.654 	284.868 	539.727 	
13.0766 	-0.00385174 	-0.501283 	0.779248 	0.159421 	0.011401 	-3.12706 	90.0114 	154.139 	-0.597168 	268.954 	360.654 	284.868 	539.727 	
13.0866 	-0.00385174 	-0.501283 	0.779248 	0.159421 	0.011401 	-3.12706 	90.0114 	154.139 	-0.597168 	268.954 	360.654 	284.868 	539.727 	
13.0966 	-0.00385174 	-0.501283 	0.779248 	0.159421 	0.011401 	-3.12706 	90.0114 	154.139 	-0.597168 	268.954 	360.654 	284.868 	539.727 	
13.1066 	-0.00385174 	-0.501283 	0.779248 	0.159421 	0.011401 	-3.12706 	90.0114 	154.139 	-0.597168 	268.954 	360.654 	284.868 	539.727 	
13.1166 	-0.00385174 	-0.501283 	0.779248 	0.159421 	0.011401 	-3.12706 	90.0114 	154.139 	-0.597168 	268.954 	360.654 	284.868 	539.727 	
13.1266 	-0.00385174 	-0.501283 	0.779248 	0.159421 	0.011401 	-3.12706 	90.0114 	154.139 	-0.597168 	268.954 	360.654 	284.868 	539.727 	
13.1366 	-0.00385174 	-0.501283 	0.779248 	0.159421 	0.011401 	-3.12706 	90.0114 	154.139 	-0.597168 	268.954 	360.654 	284.868 	539.727 	
13.1466 	-0.00385174 	-0.501283 	0.779248 	0.159421 	0.011401 	-3.12706 	90.0114 	154.139 	-0.597168 	268.954 	360.654 	284.868 	539.727 	
13.1565 	-0.00385174 	-0.501283 	0.779248 	0.159421 	0.011401 	-3.12706 	90.0114 	154.139 	-0.597168 	268.954 	360.654 	284.868 	539.727 	
13.1667 	-0.00385174 	-0.501283 	0.779248 	0.159421 	0.011401 	-3.12706 	90.0114 	154.139 	-0.597168 	268.954 	360.654 	284.868 	539.727 	
13.1766 	-0.00385174 	-0.501283 	0.779248 	0.159421 	0.011401 	-3.12706 	90.0114 	154.139 	-0.597168 	268.954 	360.654 	284.868 	539.727 	
13.1865 	-0.00385174 	-0.501283 	0.779248 	0.159421 	0.011401 	-3.12706 	90.0114 	154.139 	-0.597168 	268.954 	360.654 	284.868 	539.727 	
13.1967 	-0.00385174 	-0.501283 	0.779248 	0.159421 	0.011401 	-3.12706 	90.0114 	154.139 	-0.597168 	268.954 	360.654 	284.868 	539.727 	
13.2066 	-0.00385174 	-0.501283 	0.779248 	0.159421 	0.011401 	-3.12706 	90.0114 	154.139 	-0.597168 	268.954 	360.654 	284.868 	539.727 	
13.2166 	-0.00385174 	-0.501283 	0.779248 	0.159421 	0.011401 	-3.12706 	90.0114 	154.139 	-0.597168 	268.954 	360.654 	284.868 	539.727 	
13.2265 	-0.00385174 	-0.501283 	0.779248 	0.159421 	0.011401 	-3.12706 	90.0114 	154.139 	-0.597168 	268.954 	360.654 	284.868 	539.727 	
13.2367 	-0.00385174 	-0.501283 	0.779248 	0.159421 	0.011401 	-3.12706 	90.0114 	154.139 	-0.597168 	268.954 	360.654 	284.868 	539.727 	
13.2468 	-0.00385174 	-0.501283 	0.779248 	0.159421 	0.011401 	-3.12706 	90.0114 	154.139 	-0.597168 	268.954 	360.654 	284.868 	539.727 	
13.2566 	-0.00385174 	-0.501283 	0.779248 	0.159421 	0.011401 	-3.12706 	90.0114 	154.139 	-0.597168 	268.954 	360.654 	284.868 	539.727 	
13.2667 	-0.00385174 	-0.501283 	0.779248 	0.159421 	0.011401 	-3.12706 	90.0114 	154.139 	-0.597168 	268.954 	360.654 	284.868 	539.727 	
13.2766 	-0.00385174 	-0.501283 	0.779248 	0.159421 	0.011401 	-3.12706 	90.0114 	154.139 	-0.597168 	268.954 	360.654 	284.868 	539.727 	
13.2867 	-0.00385174 	-0.501283 	0.779248 	0.159421 	0.011401 	-3.12706 	90.0114 	154.139 	-0.597168 	268.954 	360.654 	284.868 	539.727 	
13.2967 	-0.00385174 	-0.501283 	0.779248 	0.159421 	0.011401 	-3.12706 	90.0114 	154.139 	-0.597168 	268.954 	360.654 	284.868 	539.727 	
13.3066 	-0.00385174 	-0.501283 	0.779248 	0.159421 	0.011401 	-3.12706 	90.0114 	154.139 	-0.597168 	268.954 	360.654 	284.868 	539.727 	
13.3165 	-0.00385174 	-0.501283 	0.779248 	0.159421 	0.011401 	-3.12706 	90.0114 	154.139 	-0.597168 	268.954 	360.654 	284.868 	539.727 	
13.3266 	-0.00385174 	-0.501283 	0.779248 	0.159421 	0.011401 	-3.12706 	90.0114 	154.139 	-0.597168 	268.954 	360.654 	284.868 	539.727 	
13.3367 	-0.00385174 	-0.501283 	0.779248 	0.159421 	0.011401 	-3.12706 	90.0114 	154.139 	-0.597168 	268.954 	360.654 	284.868 	539.727 	
13.3466 	-0.00385174 	-0.501283 	0.779248 	0.159421 	0.011401 	-3.12706 	90.0114 	154.139 	-0.597168 	268.954 	360.654 	284.868 	539.727 	
13.3565 	-0.00385174 	-0.501283 	0.779248 	0.159421 	0.011401 	-3.12706 	90.0114 	154.139 	-0.597168 	268.954 	360.654 	284.868 	539.727 	
13.3667 	-0.00385174 	-0.501283 	0.779248 	0.159421 	0.011401 	-3.12706 	90.0114 	154.139 	-0.597168 	268.954 	360.654 	284.868 	539.727 	
13.3766 	-0.00385174 	-0.501283 	0.779248 	0.159421 	0.011401 	-3.12706 	90.0114 	154.139 	-0.597168 	268.954 	360.654 	284.868 	539.727 	
13.3866 	-0.00385174 	-0.501283 	0.779248 	0.159421 	0.011401 	-3.12706 	90.0114 	154.139 	-0.597168 	268.954 	360.654 	284.868 	539.727 	
13.3966 	-0.00385174 	-0.501283 	0.779248 	0.159421 	0.011401 	-3.12706 	90.0114 	154.139 	-0.597168 	268.954 	360.654 	284.868 	539.727 	
13.4066 	-0.00385174 	-0.501283 	0.779248 	0.159421 	0.011401 	-3.12706 	90.0114 	154.139 	-0.597168 	268.954 	360.654 	284.868 	539.727 	
13.4165 	-0.00385174 	-0.501283 	0.779248 	0.159421 	0.011401 	-3.12706 	90.0114 	154.139 	-0.597168 	268.954 	360.654 	284.868 	539.727 	
13.4266 	-0.00385174 	-0.501283 	0.779248 	0.159421 	0.011401 	-3.12706 	90.0114 	154.139 	-0.597168 	268.954 	360.654 	284.868 	539.727 	
13.4366 	-0.00385174 	-0.501283 	0.779248 	0.159421 	0.011401 	-3.12706 	90.0114 	154.139 	-0.597168 	268.954 	360.654 	284.868 	539.727 	
13.4465 	-0.00385174 	-0.501283 	0.779248 	0.159421 	0.011401 	-3.12706 	90.0114 	154.139 	-0.597168 	268.954 	360.654 	284.868 	539.727 	
13.4566 	-0.00385174 	-0.501283 	0.779248 	0.159421 	0.011401 	-3.12706 	90.0114 	154.139 	-0.597168 	268.954 	360.654 	284.868 	539.727 	
13.4666 	-0.00385174 	-0.501283 	0.779248 	0.159421 	0.011401 	-3.12706 	90.0114 	154.139 	-0.597168 	268.954 	360.654 	284.868 	539.727 	
13.4767 	-0.00385174 	-0.501283 	0.779248 	0.159421 	0.011401 	-3.12706 	90.0114 	154.139 	-0.597168 	268.954 	360.654 	284.868 	539.727 	
13.4867 	-0.00385174 	-0.501283 	0.779248 	0.159421 	0.011401 	-3.12706 	90.0114 	154.139 	-0.597168 	268.954 	360.654 	284.868 	539.727 	
13.4967 	-0.00385174 	-0.501283 	0.779248 	0.159421 	0.011401 	-3.12706 	90.0114 	154.139 	-0.597168 	268.954 	360.654 	284.868 	539.727 	
13.5066 	-0.00385174 	-0.501283 	0.779248 	0.159421 	0.011401 	-3.12706 	90.0114 	154.139 	-0.597168 	268.954 	360.654 	284.868 	539.727 	
13.5167 	-0.00385174 	-0.501283 	0.779248 	0.159421 	0.011401 	-3.12706 	90.0114 	154.139 	-0.597168 	268.954 	360.654 	284.868 	539.727 	
13.5266 	-0.00385174 	-0.501283 	0.779248 	0.159421 	0.011401 	-3.12706 	90.0114 	154.139 	-0.597168 	268.954 	360.654 	284.868 	539.727 	
13.5366 	-0.00385174 	-0.501283 	0.779248 	0.159421 	0.011401 	-3.12706 	90.0114 	154.139 	-0.597168 	268.954 	360.654 	284.868 	539.727 	
13.5465 	-0.00385174 	-0.501283 	0.779248 	0.159421 	0.011401 	-3.12706 	90.0114 	154.139 	-0.597168 	268.954 	360.654 	284.868 	539.727 	
13.5565 	-0.00385174 	-0.501283 	0.779248 	0.159421 	0.011401 	-3.12706 	90.0114 	154.139 	-0.597168 	268.954 	360.654 	284.868 	539.727 	
13.5667 	-0.00385174 	-0.501283 	0.779248 	0.159421 	0.011401 	-3.12706 	90.0114 	154.139 	-0.597168 	268.954 	360.654 	284.868 	539.727 	
13.5766 	-0.00385174 	-0.501283 	0.779248 	0.159421 	0.011401 	-3.12706 	90.0114 	154.139 	-0.597168 	268.954 	360.654 	284.868 	539.727 	
13.5867 	-0.00385174 	-0.501283 	0.779248 	0.159421 	0.011401 	-3.12706 	90.0114 	154.139 	-0.597168 	268.954 	360.654 	284.868 	539.727 	
13.5966 	-0.00385174 	-0.501283 	0.779248 	0.159421 	0.011401 	-3.12706 	90.0114 	154.139 	-0.597168 	268.954 	360.654 	284.868 	539.727 	
13.6066 	-0.00385174 	-0.501283 	0.779248 	0.159421 	0.011401 	-3.12706 	90.0114 	154.139 	-0.597168 	268.954 	360.654 	284.868 	539.727 	
13.6166 	-0.00385174 	-0.501283 	0.779248 	0.159421 	0.011401 	-3.12706 	90.0114 	154.139 	-0.597168 	268.954 	360.654 	284.868 	539.727 	
13.6266 	-0.00385174 	-0.501283 	0.779248 	0.159421 	0.011401 	-3.12706 	90.0114 	154.139 	-0.597168 	268.954 	360.654 	284.868 	539.727 	
13.6366 	-0.00385174 	-0.501283 	0.779248 	0.159421 	0.011401 	-3.12706 	90.0114 	154.139 	-0.597168 	268.954 	360.654 	284.868 	539.727 	
13.6467 	-0.00385174 	-0.501283 	0.779248 	0.159421 	0.011401 	-3.12706 	90.0114 	154.139 	-0.597168 	268.954 	360.654 	284.868 	539.727 	
13.6565 	-0.00385174 	-0.501283 	0.779248 	0.159421 	0.011401 	-3.12706 	90.0114 	154.139 	-0.597168 	268.954 	360.654 	284.868 	539.727 	
13.6666 	-0.00385174 	-0.501283 	0.779248 	0.159421 	0.011401 	-3.12706 	90.0114 	154.139 	-0.597168 	268.954 	360.654 	284.868 	539.727 	
13.6767 	-0.00385174 	-0.501283 	0.779248 	0.159421 	0.011401 	-3.12706 	90.0114 	154.139 	-0.597168 	268.954 	360.654 	284.868 	539.727 	
13.6867 	-0.00385174 	-0.501283 	0.779248 	0.159421 	0.011401 	-3.12706 	90.0114 	154.139 	-0.597168 	268.954 	360.654 	284.868 	539.727 	
13.6967 	-0.00385174 	-0.501283 	0.779248 	0.159421 	0.011401 	-3.12706 	90.0114 	154.139 	-0.597168 	268.954 	360.654 	284.868 	539.727 	
13.7066 	-0.00385174 	-0.501283 	0.779248 	0.159421 	0.011401 	-3.12706 	90.0114 	154.139 	-0.597168 	268.954 	360.654 	284.868 	539.727 	
13.7167 	-0.00385174 	-0.501283 	0.779248 	0.159421 	0.011401 	-3.12706 	90.0114 	154.139 	-0.597168 	268.954 	360.654 	284.868 	539.727 	
13.7267 	-0.00385174 	-0.501283 	0.779248 	0.159421 	0.011401 	-3.12706 	90.0114 	154.139 	-0.597168 	268.954 	360.654 	284.868 	539.727 	
13.7367 	-0.00385174 	-0.501283 	0.779248 	0.159421 	0.011401 	-3.12706 	90.0114 	154.139 	-0.597168 	268.954 	360.654 	284.868 	539.727 	
13.7465 	-0.00385174 	-0.501283 	0.779248 	0.159421 	0.011401 	-3.12706 	90.0114 	154.139 	-0.597168 	268.954 	360.654 	284.868 	539.727 	
13.7566 	-0.00385174 	-0.501283 	0.779248 	0.159421 	0.011401 	-3.12706 	90.0114 	154.139 	-0.597168 	268.954 	360.654 	284.868 	539.727 	
13.7668 	-0.00385174 	-0.501283 	0.779248 	0.159421 	0.011401 	-3.12706 	90.0114 	154.139 	-0.597168 	268.954 	360.654 	284.868 	539.727 	
13.7767 	-0.00385174 	-0.501283 	0.779248 	0.159421 	0.011401 	-3.12706 	90.0114 	154.139 	-0.597168 	268.954 	360.654 	284.868 	539.727 	
13.7867 	-0.00385174 	-0.501283 	0.779248 	0.159421 	0.011401 	-3.12706 	90.0114 	154.139 	-0.597168 	268.954 	360.654 	284.868 	539.727 	
13.7966 	-0.00385174 	-0.501283 	0.779248 	0.159421 	0.011401 	-3.12706 	90.0114 	154.139 	-0.597168 	268.954 	360.654 	284.868 	539.727 	
13.8066 	-0.00385174 	-0.501283 	0.779248 	0.159421 	0.011401 	-3.12706 	90.0114 	154.139 	-0.597168 	268.954 	360.654 	284.868 	539.727 	
13.8166 	-0.00385174 	-0.501283 	0.779248 	0.159421 	0.011401 	-3.12706 	90.0114 	154.139 	-0.597168 	268.954 	360.654 	284.868 	539.727 	
13.8266 	-0.00385174 	-0.501283 	0.779248 	0.159421 	0.011401 	-3.12706 	90.0114 	154.139 	-0.597168 	268.954 	360.654 	284.868 	539.727 	
13.8367 	-0.00385174 	-0.501283 	0.779248 	0.159421 	0.011401 	-3.12706 	90.0114 	154.139 	-0.597168 	268.954 	360.654 	284.868 	539.727 	
13.8466 	-0.00385174 	-0.501283 	0.779248 	0.159421 	0.011401 	-3.12706 	90.0114 	154.139 	-0.597168 	268.954 	360.654 	284.868 	539.727 	
13.8566 	-0.00385174 	-0.501283 	0.779248 	0.159421 	0.011401 	-3.12706 	90.0114 	154.139 	-0.597168 	268.954 	360.654 	284.868 	539.727 	
13.8667 	-0.00385174 	-0.501283 	0.779248 	0.159421 	0.011401 	-3.12706 	90.0114 	154.139 	-0.597168 	268.954 	360.654 	284.868 	539.727 	
13.8767 	-0.00385174 	-0.501283 	0.779248 	0.159421 	0.011401 	-3.12706 	90.0114 	154.139 	-0.597168 	268.954 	360.654 	284.868 	539.727 	
13.8867 	-0.00385174 	-0.501283 	0.779248 	0.159421 	0.011401 	-3.12706 	90.0114 	154.139 	-0.597168 	268.954 	360.654 	284.868 	539.727 	
13.8965 	-0.00385174 	-0.501283 	0.779248 	0.159421 	0.011401 	-3.12706 	90.0114 	154.139 	-0.597168 	268.954 	360.654 	284.868 	539.727 	
13.9065 	-0.00385174 	-0.501283 	0.779248 	0.159421 	0.011401 	-3.12706 	90.0114 	154.139 	-0.597168 	268.954 	360.654 	284.868 	539.727 	
13.9165 	-0.00385174 	-0.501283 	0.779248 	0.159421 	0.011401 	-3.12706 	90.0114 	154.139 	-0.597168 	268.954 	360.654 	284.868 	539.727 	
13.9266 	-0.00385174 	-0.501283 	0.779248 	0.159421 	0.011401 	-3.12706 	90.0114 	154.139 	-0.597168 	268.954 	360.654 	284.868 	539.727 	
13.9366 	-0.00385174 	-0.501283 	0.779248 	0.159421 	0.011401 	-3.12706 	90.0114 	154.139 	-0.597168 	268.954 	360.654 	284.868 	539.727 	
13.9466 	-0.00385174 	-0.501283 	0.779248 	0.159421 	0.011401 	-3.12706 	90.0114 	154.139 	-0.597168 	268.954 	360.654 	284.868 	539.727 	
13.9566 	-0.00385174 	-0.501283 	0.779248 	0.159421 	0.011401 	-3.12706 	90.0114 	154.139 	-0.597168 	268.954 	360.654 	284.868 	539.727 	
13.9667 	-0.00385174 	-0.501283 	0.779248 	0.159421 	0.011401 	-3.12706 	90.0114 	154.139 	-0.597168 	268.954 	360.654 	284.868 	539.727 	
13.9766 	-0.00385174 	-0.501283 	0.779248 	0.159421 	0.011401 	-3.12706 	90.0114 	154.139 	-0.597168 	268.954 	360.654 	284.868 	539.727 	
13.9867 	-0.00385174 	-0.501283 	0.779248 	0.159421 	0.011401 	-3.12706 	90.0114 	154.139 	-0.597168 	268.954 	360.654 	284.868 	539.727 	
13.9966 	-0.00385174 	-0.501283 	0.779248 	0.159421 	0.011401 	-3.12706 	90.0114 	154.139 	-0.597168 	268.954 	360.654 	284.868 	539.727 	
14.0066 	-0.00385174 	-0.501283 	0.779248 	0.159421 	0.011401 	-3.12706 	90.0114 	154.139 	-0.597168 	268.954 	360.654 	284.868 	539.727 	
14.0165 	-0.00385174 	-0.501283 	0.779248 	0.159421 	0.011401 	-3.12706 	90.0114 	154.139 	-0.597168 	268.954 	360.654 	284.868 	539.727 	
14.0267 	-0.00385174 	-0.501283 	0.779248 	0.159421 	0.011401 	-3.12706 	90.0114 	154.139 	-0.597168 	268.954 	360.654 	284.868 	539.727 	
14.0366 	-0.00385174 	-0.501283 	0.779248 	0.159421 	0.011401 	-3.12706 	90.0114 	154.139 	-0.597168 	268.954 	360.654 	284.868 	539.727 	
14.0467 	-0.00385174 	-0.501283 	0.779248 	0.159421 	0.011401 	-3.12706 	90.0114 	154.139 	-0.597168 	268.954 	360.654 	284.868 	539.727 	
14.0565 	-0.00385174 	-0.501283 	0.779248 	0.159421 	0.011401 	-3.12706 	90.0114 	154.139 	-0.597168 	268.954 	360.654 	284.868 	539.727 	
14.0667 	-0.00385174 	-0.501283 	0.779248 	0.159421 	0.011401 	-3.12706 	90.0114 	154.139 	-0.597168 	268.954 	360.654 	284.868 	539.727 	
14.0766 	-0.00385174 	-0.501283 	0.779248 	0.159421 	0.011401 	-3.12706 	90.0114 	154.139 	-0.597168 	268.954 	360.654 	284.868 	539.727 	
14.0867 	-0.00385174 	-0.501283 	0.779248 	0.159421 	0.011401 	-3.12706 	90.0114 	154.139 	-0.597168 	268.954 	360.654 	284.868 	539.727 	
14.0967 	-0.00385174 	-0.501283 	0.779248 	0.159421 	0.011401 	-3.12706 	90.0114 	154.139 	-0.597168 	268.954 	360.654 	284.868 	539.727 	
14.1065 	-0.00385174 	-0.501283 	0.779248 	0.159421 	0.011401 	-3.12706 	90.0114 	154.139 	-0.597168 	268.954 	360.654 	284.868 	539.727 	
14.1165 	-0.00385174 	-0.501283 	0.779248 	0.159421 	0.011401 	-3.12706 	90.0114 	154.139 	-0.597168 	268.954 	360.654 	284.868 	539.727 	
14.1266 	-0.00385174 	-0.501283 	0.779248 	0.159421 	0.011401 	-3.12706 	90.0114 	154.139 	-0.597168 	268.954 	360.654 	284.868 	539.727 	
14.1366 	-0.00385174 	-0.501283 	0.779248 	0.159421 	0.011401 	-3.12706 	90.0114 	154.139 	-0.597168 	268.954 	360.654 	284.868 	539.727 	
14.1465 	-0.00385174 	-0.501283 	0.779248 	0.159421 	0.011401 	-3.12706 	90.0114 	154.139 	-0.597168 	268.954 	360.654 	284.868 	539.727 	
14.1565 	-0.00385174 	-0.501283 	0.779248 	0.159421 	0.011401 	-3.12706 	90.0114 	154.139 	-0.597168 	268.954 	360.654 	284.868 	539.727 	
14.1667 	-0.00385174 	-0.501283 	0.779248 	0.159421 	0.011401 	-3.12706 	90.0114 	154.139 	-0.597168 	268.954 	360.654 	284.868 	539.727 	
14.1767 	-0.00385174 	-0.501283 	0.779248 	0.159421 	0.011401 	-3.12706 	90.0114 	154.139 	-0.597168 	268.954 	360.654 	284.868 	539.727 	
14.1867 	-0.00385174 	-0.501283 	0.779248 	0.159421 	0.011401 	-3.12706 	90.0114 	154.139 	-0.597168 	268.954 	360.654 	284.868 	539.727 	
14.1967 	-0.00385174 	-0.501283 	0.779248 	0.159421 	0.011401 	-3.12706 	90.0114 	154.139 	-0.597168 	268.954 	360.654 	284.868 	539.727 	
14.2066 	-0.00385174 	-0.501283 	0.779248 	0.159421 	0.011401 	-3.12706 	90.0114 	154.139 	-0.597168 	268.954 	360.654 	284.868 	539.727 	
14.2166 	-0.00385174 	-0.501283 	0.779248 	0.159421 	0.011401 	-3.12706 	90.0114 	154.139 	-0.597168 	268.954 	360.654 	284.868 	539.727 	
14.2266 	-0.00385174 	-0.501283 	0.779248 	0.159421 	0.011401 	-3.12706 	90.0114 	154.139 	-0.597168 	268.954 	360.654 	284.868 	539.727 	
14.2367 	-0.00385174 	-0.501283 	0.779248 	0.159421 	0.011401 	-3.12706 	90.0114 	154.139 	-0.597168 	268.954 	360.654 	284.868 	539.727 	
14.2467 	-0.00385174 	-0.501283 	0.779248 	0.159421 	0.011401 	-3.12706 	90.0114 	154.139 	-0.597168 	268.954 	360.654 	284.868 	539.727 	
14.2565 	-0.00385174 	-0.501283 	0.779248 	0.159421 	0.011401 	-3.12706 	90.0114 	154.139 	-0.597168 	268.954 	360.654 	284.868 	539.727 	
14.2667 	-0.00385174 	-0.501283 	0.779248 	0.159421 	0.011401 	-3.12706 	90.0114 	154.139 	-0.597168 	268.954 	360.654 	284.868 	539.727 	
14.2766 	-0.00385174 	-0.501283 	0.779248 	0.159421 	0.011401 	-3.12706 	90.0114 	154.139 	-0.597168 	268.954 	360.654 	284.868 	539.727 	
14.2867 	-0.00385174 	-0.501283 	0.779248 	0.159421 	0.011401 	-3.12706 	90.0114 	154.139 	-0.597168 	268.954 	360.654 	284.868 	539.727 	
14.2966 	-0.00385174 	-0.501283 	0.779248 	0.159421 	0.011401 	-3.12706 	90.0114 	154.139 	-0.597168 	268.954 	360.654 	284.868 	539.727 	
14.3066 	-0.00385174 	-0.501283 	0.779248 	0.159421 	0.011401 	-3.12706 	90.0114 	154.139 	-0.597168 	268.954 	360.654 	284.868 	539.727 	
14.3165 	-0.00385174 	-0.501283 	0.779248 	0.159421 	0.011401 	-3.12706 	90.0114 	154.139 	-0.597168 	268.954 	360.654 	284.868 	539.727 	
14.3266 	-0.00385174 	-0.501283 	0.779248 	0.159421 	0.011401 	-3.12706 	90.0114 	154.139 	-0.597168 	268.954 	360.654 	284.868 	539.727 	
14.3366 	-0.00385174 	-0.501283 	0.779248 	0.159421 	0.011401 	-3.12706 	90.0114 	154.139 	-0.597168 	268.954 	360.654 	284.868 	539.727 	
14.3466 	-0.00385174 	-0.501283 	0.779248 	0.159421 	0.011401 	-3.12706 	90.0114 	154.139 	-0.597168 	268.954 	360.654 	284.868 	539.727 	
14.3566 	-0.00385174 	-0.501283 	0.779248 	0.159421 	0.011401 	-3.12706 	90.0114 	154.139 	-0.597168 	268.954 	360.654 	284.868 	539.727 	
14.3667 	-0.00385174 	-0.501283 	0.779248 	0.159421 	0.011401 	-3.12706 	90.0114 	154.139 	-0.597168 	268.954 	360.654 	284.868 	539.727 	
14.3766 	-0.00385174 	-0.501283 	0.779248 	0.159421 	0.011401 	-3.12706 	90.0114 	154.139 	-0.597168 	268.954 	360.654 	284.868 	539.727 	
14.3867 	-0.00385174 	-0.501283 	0.779248 	0.159421 	0.011401 	-3.12706 	90.0114 	154.139 	-0.597168 	268.954 	360.654 	284.868 	539.727 	
14.3967 	-0.00385174 	-0.501283 	0.779248 	0.159421 	0.011401 	-3.12706 	90.0114 	154.139 	-0.597168 	268.954 	360.654 	284.868 	539.727 	
14.4066 	-0.00385174 	-0.501283 	0.779248 	0.159421 	0.011401 	-3.12706 	90.0114 	154.139 	-0.597168 	268.954 	360.654 	284.868 	539.727 	
14.4166 	-0.00385174 	-0.501283 	0.779248 	0.159421 	0.011401 	-3.12706 	90.0114 	154.139 	-0.597168 	268.954 	360.654 	284.868 	539.727 	
14.4267 	-0.00385174 	-0.501283 	0.779248 	0.159421 	0.011401 	-3.12706 	90.0114 	154.139 	-0.597168 	268.954 	360.654 	284.868 	539.727 	
14.4367 	-0.00385174 	-0.501283 	0.779248 	0.159421 	0.011401 	-3.12706 	90.0114 	154.139 	-0.597168 	268.954 	360.654 	284.868 	539.727 	
14.4467 	-0.00385174 	-0.501283 	0.779248 	0.159421 	0.011401 	-3.12706 	90.0114 	154.139 	-0.597168 	268.954 	360.654 	284.868 	539.727 	
14.4565 	-0.00385174 	-0.501283 	0.779248 	0.159421 	0.011401 	-3.12706 	90.0114 	154.139 	-0.597168 	268.954 	360.654 	284.868 	539.727 	
14.4667 	-0.00385174 	-0.501283 	0.779248 	0.159421 	0.011401 	-3.12706 	90.0114 	154.139 	-0.597168 	268.954 	360.654 	284.868 	539.727 	
14.4766 	-0.00385174 	-0.501283 	0.779248 	0.159421 	0.011401 	-3.12706 	90.0114 	154.139 	-0.597168 	268.954 	360.654 	284.868 	539.727 	
14.4867 	-0.00385174 	-0.501283 	0.779248 	0.159421 	0.011401 	-3.12706 	90.0114 	154.139 	-0.597168 	268.954 	360.654 	284.868 	539.727 	
14.4967 	-0.00385174 	-0.501283 	0.779248 	0.159421 	0.011401 	-3.12706 	90.0114 	154.139 	-0.597168 	268.954 	360.654 	284.868 	539.727 	
14.5066 	-0.00385174 	-0.501283 	0.779248 	0.159421 	0.011401 	-3.12706 	90.0114 	154.139 	-0.597168 	268.954 	360.654 	284.868 	539.727 	
14.5166 	-0.00385174 	-0.501283 	0.779248 	0.159421 	0.011401 	-3.12706 	90.0114 	154.139 	-0.597168 	268.954 	360.654 	284.868 	539.727 	
14.5266 	-0.00385174 	-0.501283 	0.779248 	0.159421 	0.011401 	-3.12706 	90.0114 	154.139 	-0.597168 	268.954 	360.654 	284.868 	539.727 	
14.5367 	-0.00385174 	-0.501283 	0.779248 	0.159421 	0.011401 	-3.12706 	90.0114 	154.139 	-0.597168 	268.954 	360.654 	284.868 	539.727 	
14.5467 	-0.00385174 	-0.501283 	0.779248 	0.159421 	0.011401 	-3.12706 	90.0114 	154.139 	-0.597168 	268.954 	360.654 	284.868 	539.727 	
14.5567 	-0.00385174 	-0.501283 	0.779248 	0.159421 	0.011401 	-3.12706 	90.0114 	154.139 	-0.597168 	268.954 	360.654 	284.868 	539.727 	
14.5668 	-0.00385174 	-0.501283 	0.779248 	0.159421 	0.011401 	-3.12706 	90.0114 	154.139 	-0.597168 	268.954 	360.654 	284.868 	539.727 	
14.5766 	-0.00385174 	-0.501283 	0.779248 	0.159421 	0.011401 	-3.12706 	90.0114 	154.139 	-0.597168 	268.954 	360.654 	284.868 	539.727 	
14.5866 	-0.00385174 	-0.501283 	0.779248 	0.159421 	0.011401 	-3.12706 	90.0114 	154.139 	-0.597168 	268.954 	360.654 	284.868 	539.727 	
14.5967 	-0.00385174 	-0.501283 	0.779248 	0.159421 	0.011401 	-3.12706 	90.0114 	154.139 	-0.597168 	268.954 	360.654 	284.868 	539.727 	
14.6066 	-0.00385174 	-0.501283 	0.779248 	0.159421 	0.011401 	-3.12706 	90.0114 	154.139 	-0.597168 	268.954 	360.654 	284.868 	539.727 	
14.6165 	-0.00385174 	-0.501283 	0.779248 	0.159421 	0.011401 	-3.12706 	90.0114 	154.139 	-0.597168 	268.954 	360.654 	284.868 	539.727 	
14.6266 	-0.00385174 	-0.501283 	0.779248 	0.159421 	0.011401 	-3.12706 	90.0114 	154.139 	-0.597168 	268.954 	360.654 	284.868 	539.727 	
14.6367 	-0.00385174 	-0.501283 	0.779248 	0.159421 	0.011401 	-3.12706 	90.0114 	154.139 	-0.597168 	268.954 	360.654 	284.868 	539.727 	
14.6467 	-0.00385174 	-0.501283 	0.779248 	0.159421 	0.011401 	-3.12706 	90.0114 	154.139 	-0.597168 	268.954 	360.654 	284.868 	539.727 	
14.6566 	-0.00385174 	-0.501283 	0.779248 	0.159421 	0.011401 	-3.12706 	90.0114 	154.139 	-0.597168 	268.954 	360.654 	284.868 	539.727 	
14.6668 	-0.00385174 	-0.501283 	0.779248 	0.159421 	0.011401 	-3.12706 	90.0114 	154.139 	-0.597168 	268.954 	360.654 	284.868 	539.727 	
14.6768 	-0.00385174 	-0.501283 	0.779248 	0.159421 	0.011401 	-3.12706 	90.0114 	154.139 	-0.597168 	268.954 	360.654 	284.868 	539.727 	
14.6867 	-0.00385174 	-0.501283 	0.779248 	0.159421 	0.011401 	-3.12706 	90.0114 	154.139 	-0.597168 	268.954 	360.654 	284.868 	539.727 	
14.6967 	-0.00385174 	-0.501283 	0.779248 	0.159421 	0.011401 	-3.12706 	90.0114 	154.139 	-0.597168 	268.954 	360.654 	284.868 	539.727 	
14.7066 	-0.00385174 	-0.501283 	0.779248 	0.159421 	0.011401 	-3.12706 	90.0114 	154.139 	-0.597168 	268.954 	360.654 	284.868 	539.727 	
14.7166 	-0.00385174 	-0.501283 	0.779248 	0.159421 	0.011401 	-3.12706 	90.0114 	154.139 	-0.597168 	268.954 	360.654 	284.868 	539.727 	
14.7266 	-0.00385174 	-0.501283 	0.779248 	0.159421 	0.011401 	-3.12706 	90.0114 	154.139 	-0.597168 	268.954 	360.654 	284.868 	539.727 	
14.7366 	-0.00385174 	-0.501283 	0.779248 	0.159421 	0.011401 	-3.12706 	90.0114 	154.139 	-0.597168 	268.954 	360.654 	284.868 	539.727 	
14.7465 	-0.00385174 	-0.501283 	0.779248 	0.159421 	0.011401 	-3.12706 	90.0114 	154.139 	-0.597168 	268.954 	360.654 	284.868 	539.727 	
14.7566 	-0.00385174 	-0.501283 	0.779248 	0.159421 	0.011401 	-3.12706 	90.0114 	154.139 	-0.597168 	268.954 	360.654 	284.868 	539.727 	
14.7668 	-0.00385174 	-0.501283 	0.779248 	0.159421 	0.011401 	-3.12706 	90.0114 	154.139 	-0.597168 	268.954 	360.654 	284.868 	539.727 	
14.7766 	-0.00385174 	-0.501283 	0.779248 	0.159421 	0.011401 	-3.12706 	90.0114 	154.139 	-0.597168 	268.954 	360.654 	284.868 	539.727 	
14.7867 	-0.00385174 	-0.501283 	0.779248 	0.159421 	0.011401 	-3.12706 	90.0114 	154.139 	-0.597168 	268.954 	360.654 	284.868 	539.727 	
14.7967 	-0.00385174 	-0.501283 	0.779248 	0.159421 	0.011401 	-3.12706 	90.0114 	154.139 	-0.597168 	268.954 	360.654 	284.868 	539.727 	
14.8066 	-0.00385174 	-0.501283 	0.779248 	0.159421 	0.011401 	-3.12706 	90.0114 	154.139 	-0.597168 	268.954 	360.654 	284.868 	539.727 	
14.8166 	-0.00385174 	-0.501283 	0.779248 	0.159421 	0.011401 	-3.12706 	90.0114 	154.139 	-0.597168 	268.954 	360.654 	284.868 	539.727 	
14.8266 	-0.00385174 	-0.501283 	0.779248 	0.159421 	0.011401 	-3.12706 	90.0114 	154.139 	-0.597168 	268.954 	360.654 	284.868 	539.727 	
14.8367 	-0.00385174 	-0.501283 	0.779248 	0.159421 	0.011401 	-3.12706 	90.0114 	154.139 	-0.597168 	268.954 	360.654 	284.868 	539.727 	
14.8467 	-0.00385174 	-0.501283 	0.779248 	0.159421 	0.011401 	-3.12706 	90.0114 	154.139 	-0.597168 	268.954 	360.654 	284.868 	539.727 	
14.8566 	-0.00385174 	-0.501283 	0.779248 	0.159421 	0.011401 	-3.12706 	90.0114 	154.139 	-0.597168 	268.954 	360.654 	284.868 	539.727 	
14.8667 	-0.00385174 	-0.501283 	0.779248 	0.159421 	0.011401 	-3.12706 	90.0114 	154.139 	-0.597168 	268.954 	360.654 	284.868 	539.727 	
14.8767 	-0.00385174 	-0.501283 	0.779248 	0.159421 	0.011401 	-3.12706 	90.0114 	154.139 	-0.597168 	268.954 	360.654 	284.868 	539.727 	
14.8866 	-0.00385174 	-0.501283 	0.779248 	0.159421 	0.011401 	-3.12706 	90.0114 	154.139 	-0.597168 	268.954 	360.654 	284.868 	539.727 	
14.8966 	-0.00385174 	-0.501283 	0.779248 	0.159421 	0.011401 	-3.12706 	90.0114 	154.139 	-0.597168 	268.954 	360.654 	284.868 	539.727 	
14.9066 	-0.00385174 	-0.501283 	0.779248 	0.159421 	0.011401 	-3.12706 	90.0114 	154.139 	-0.597168 	268.954 	360.654 	284.868 	539.727 	
14.9166 	-0.00385174 	-0.501283 	0.779248 	0.159421 	0.011401 	-3.12706 	90.0114 	154.139 	-0.597168 	268.954 	360.654 	284.868 	539.727 	
14.9265 	-0.00385174 	-0.501283 	0.779248 	0.159421 	0.011401 	-3.12706 	90.0114 	154.139 	-0.597168 	268.954 	360.654 	284.868 	539.727 	
14.9365 	-0.00385174 	-0.501283 	0.779248 	0.159421 	0.011401 	-3.12706 	90.0114 	154.139 	-0.597168 	268.954 	360.654 	284.868 	539.727 	
14.9465 	-0.00385174 	-0.501283 	0.779248 	0.159421 	0.011401 	-3.12706 	90.0114 	154.139 	-0.597168 	268.954 	360.654 	284.868 	539.727 	
14.9566 	-0.00385174 	-0.501283 	0.779248 	0.159421 	0.011401 	-3.12706 	90.0114 	154.139 	-0.597168 	268.954 	360.654 	284.868 	539.727 	
14.9667 	-0.00385174 	-0.501283 	0.779248 	0.159421 	0.011401 	-3.12706 	90.0114 	154.139 	-0.597168 	268.954 	360.654 	284.868 	539.727 	
14.9767 	-0.00385174 	-0.501283 	0.779248 	0.159421 	0.011401 	-3.12706 	90.0114 	154.139 	-0.597168 	268.954 	360.654 	284.868 	539.727 	
14.9867 	-0.00385174 	-0.501283 	0.779248 	0.159421 	0.011401 	-3.12706 	90.0114 	154.139 	-0.597168 	268.954 	360.654 	284.868 	539.727 	
14.9967 	-0.00385174 	-0.501283 	0.779248 	0.159421 	0.011401 	-3.12706 	90.0114 	154.139 	-0.597168 	268.954 	360.654 	284.868 	539.727 	
15.0066 	-0.00385174 	-0.501283 	0.779248 	0.159421 	0.011401 	-3.12706 	90.0114 	154.139 	-0.597168 	268.954 	360.654 	284.868 	539.727 	
15.0165 	-0.00385174 	-0.501283 	0.779248 	0.159421 	0.011401 	-3.12706 	90.0114 	154.139 	-0.597168 	268.954 	360.654 	284.868 	539.727 	
15.0266 	-0.00385174 	-0.501283 	0.779248 	0.159421 	0.011401 	-3.12706 	90.0114 	154.139 	-0.597168 	268.954 	360.654 	284.868 	539.727 	
15.0366 	-0.00385174 	-0.501283 	0.779248 	0.159421 	0.011401 	-3.12706 	90.0114 	154.139 	-0.597168 	268.954 	360.654 	284.868 	539.727 	
15.0467 	-0.00385174 	-0.501283 	0.779248 	0.159421 	0.011401 	-3.12706 	90.0114 	154.139 	-0.597168 	268.954 	360.654 	284.868 	539.727 	
15.0566 	-0.00385174 	-0.501283 	0.779248 	0.159421 	0.011401 	-3.12706 	90.0114 	154.139 	-0.597168 	268.954 	360.654 	284.868 	539.727 	
15.0667 	-0.00385174 	-0.501283 	0.779248 	0.159421 	0.011401 	-3.12706 	90.0114 	154.139 	-0.597168 	268.954 	360.654 	284.868 	539.727 	
15.0766 	-0.00385174 	-0.501283 	0.779248 	0.159421 	0.011401 	-3.12706 	90.0114 	154.139 	-0.597168 	268.954 	360.654 	284.868 	539.727 	
15.0866 	-0.00385174 	-0.501283 	0.779248 	0.159421 	0.011401 	-3.12706 	90.0114 	154.139 	-0.597168 	268.954 	360.654 	284.868 	539.727 	
15.0965 	-0.00385174 	-0.501283 	0.779248 	0.159421 	0.011401 	-3.12706 	90.0114 	154.139 	-0.597168 	268.954 	360.654 	284.868 	539.727 	
15.1066 	-0.00385174 	-0.501283 	0.779248 	0.159421 	0.011401 	-3.12706 	90.0114 	154.139 	-0.597168 	268.954 	360.654 	284.868 	539.727 	
15.1166 	-0.00385174 	-0.501283 	0.779248 	0.159421 	0.011401 	-3.12706 	90.0114 	154.139 	-0.597168 	268.954 	360.654 	284.868 	539.727 	
15.1266 	-0.00385174 	-0.501283 	0.779248 	0.159421 	0.011401 	-3.12706 	90.0114 	154.139 	-0.597168 	268.954 	360.654 	284.868 	539.727 	
15.1366 	-0.00385174 	-0.501283 	0.779248 	0.159421 	0.011401 	-3.12706 	90.0114 	154.139 	-0.597168 	268.954 	360.654 	284.868 	539.727 	
15.1466 	-0.00385174 	-0.501283 	0.779248 	0.159421 	0.011401 	-3.12706 	90.0114 	154.139 	-0.597168 	268.954 	360.654 	284.868 	539.727 	
15.1565 	-0.00385174 	-0.501283 	0.779248 	0.159421 	0.011401 	-3.12706 	90.0114 	154.139 	-0.597168 	268.954 	360.654 	284.868 	539.727 	
15.1667 	-0.00385174 	-0.501283 	0.779248 	0.159421 	0.011401 	-3.12706 	90.0114 	154.139 	-0.597168 	268.954 	360.654 	284.868 	539.727 	
15.1767 	-0.00385174 	-0.501283 	0.779248 	0.159421 	0.011401 	-3.12706 	90.0114 	154.139 	-0.597168 	268.954 	360.654 	284.868 	539.727 	
15.1868 	-0.00385174 	-0.501283 	0.779248 	0.159421 	0.011401 	-3.12706 	90.0114 	154.139 	-0.597168 	268.954 	360.654 	284.868 	539.727 	
15.1966 	-0.00385174 	-0.501283 	0.779248 	0.159421 	0.011401 	-3.12706 	90.0114 	154.139 	-0.597168 	268.954 	360.654 	284.868 	539.727 	
15.2065 	-0.00385174 	-0.501283 	0.779248 	0.159421 	0.011401 	-3.12706 	90.0114 	154.139 	-0.597168 	268.954 	360.654 	284.868 	539.727 	
15.2165 	-0.00385174 	-0.501283 	0.779248 	0.159421 	0.011401 	-3.12706 	90.0114 	154.139 	-0.597168 	268.954 	360.654 	284.868 	539.727 	
15.2266 	-0.00385174 	-0.501283 	0.779248 	0.159421 	0.011401 	-3.12706 	90.0114 	154.139 	-0.597168 	268.954 	360.654 	284.868 	539.727 	
15.2366 	-0.00385174 	-0.501283 	0.779248 	0.159421 	0.011401 	-3.12706 	90.0114 	154.139 	-0.597168 	268.954 	360.654 	284.868 	539.727 	
15.2467 	-0.00385174 	-0.501283 	0.779248 	0.159421 	0.011401 	-3.12706 	90.0114 	154.139 	-0.597168 	268.954 	360.654 	284.868 	539.727 	
15.2565 	-0.00385174 	-0.501283 	0.779248 	0.159421 	0.011401 	-3.12706 	90.0114 	154.139 	-0.597168 	268.954 	360.654 	284.868 	539.727 	
15.2667 	-0.00385174 	-0.501283 	0.779248 	0.159421 	0.011401 	-3.12706 	90.0114 	154.139 	-0.597168 	268.954 	360.654 	284.868 	539.727 	
15.2766 	-0.00385174 	-0.501283 	0.779248 	0.159421 	0.011401 	-3.12706 	90.0114 	154.139 	-0.597168 	268.954 	360.654 	284.868 	539.727 	
15.2868 	-0.00385174 	-0.501283 	0.779248 	0.159421 	0.011401 	-3.12706 	90.0114 	154.139 	-0.597168 	268.954 	360.654 	284.868 	539.727 	
15.2967 	-0.00385174 	-0.501283 	0.779248 	0.159421 	0.011401 	-3.12706 	90.0114 	154.139 	-0.597168 	268.954 	360.654 	284.868 	539.727 	
15.3065 	-0.00385174 	-0.501283 	0.779248 	0.159421 	0.011401 	-3.12706 	90.0114 	154.139 	-0.597168 	268.954 	360.654 	284.868 	539.727 	
15.3165 	-0.00385174 	-0.501283 	0.779248 	0.159421 	0.011401 	-3.12706 	90.0114 	154.139 	-0.597168 	268.954 	360.654 	284.868 	539.727 	
15.3267 	-0.00385174 	-0.501283 	0.779248 	0.159421 	0.011401 	-3.12706 	90.0114 	154.139 	-0.597168 	268.954 	360.654 	284.868 	539.727 	
15.3367 	-0.00385174 	-0.501283 	0.779248 	0.159421 	0.011401 	-3.12706 	90.0114 	154.139 	-0.597168 	268.954 	360.654 	284.868 	539.727 	
15.3465 	-0.00385174 	-0.501283 	0.779248 	0.159421 	0.011401 	-3.12706 	90.0114 	154.139 	-0.597168 	268.954 	360.654 	284.868 	539.727 	
15.3565 	-0.00385174 	-0.501283 	0.779248 	0.159421 	0.011401 	-3.12706 	90.0114 	154.139 	-0.597168 	268.954 	360.654 	284.868 	539.727 	
15.3667 	-0.00385174 	-0.501283 	0.779248 	0.159421 	0.011401 	-3.12706 	90.0114 	154.139 	-0.597168 	268.954 	360.654 	284.868 	539.727 	
15.3768 	-0.00385174 	-0.501283 	0.779248 	0.159421 	0.011401 	-3.12706 	90.0114 	154.139 	-0.597168 	268.954 	360.654 	284.868 	539.727 	
15.3867 	-0.00385174 	-0.501283 	0.779248 	0.159421 	0.011401 	-3.12706 	90.0114 	154.139 	-0.597168 	268.954 	360.654 	284.868 	539.727 	
15.3966 	-0.00385174 	-0.501283 	0.779248 	0.159421 	0.011401 	-3.12706 	90.0114 	154.139 	-0.597168 	268.954 	360.654 	284.868 	539.727 	
15.4065 	-0.00385174 	-0.501283 	0.779248 	0.159421 	0.011401 	-3.12706 	90.0114 	154.139 	-0.597168 	268.954 	360.654 	284.868 	539.727 	
15.4165 	-0.00385174 	-0.501283 	0.779248 	0.159421 	0.011401 	-3.12706 	90.0114 	154.139 	-0.597168 	268.954 	360.654 	284.868 	539.727 	
15.4267 	-0.00385174 	-0.501283 	0.779248 	0.159421 	0.011401 	-3.12706 	90.0114 	154.139 	-0.597168 	268.954 	360.654 	284.868 	539.727 	
15.4366 	-0.00385174 	-0.501283 	0.779248 	0.159421 	0.011401 	-3.12706 	90.0114 	154.139 	-0.597168 	268.954 	360.654 	284.868 	539.727 	
15.4466 	-0.00385174 	-0.501283 	0.779248 	0.159421 	0.011401 	-3.12706 	90.0114 	154.139 	-0.597168 	268.954 	360.654 	284.868 	539.727 	
15.4566 	-0.00385174 	-0.501283 	0.779248 	0.159421 	0.011401 	-3.12706 	90.0114 	154.139 	-0.597168 	268.954 	360.654 	284.868 	539.727 	
15.4667 	-0.00385174 	-0.501283 	0.779248 	0.159421 	0.011401 	-3.12706 	90.0114 	154.139 	-0.597168 	268.954 	360.654 	284.868 	539.727 	
15.4766 	-0.00385174 	-0.501283 	0.779248 	0.159421 	0.011401 	-3.12706 	90.0114 	154.139 	-0.597168 	268.954 	360.654 	284.868 	539.727 	
15.4865 	-0.00385174 	-0.501283 	0.779248 	0.159421 	0.011401 	-3.12706 	90.0114 	154.139 	-0.597168 	268.954 	360.654 	284.868 	539.727 	
15.4966 	-0.00385174 	-0.501283 	0.779248 	0.159421 	0.011401 	-3.12706 	90.0114 	154.139 	-0.597168 	268.954 	360.654 	284.868 	539.727 	
15.5066 	-0.00385174 	-0.501283 	0.779248 	0.159421 	0.011401 	-3.12706 	90.0114 	154.139 	-0.597168 	268.954 	360.654 	284.868 	539.727 	
15.5166 	-0.00385174 	-0.501283 	0.779248 	0.159421 	0.011401 	-3.12706 	90.0114 	154.139 	-0.597168 	268.954 	360.654 	284.868 	539.727 	
15.5266 	-0.00385174 	-0.501283 	0.779248 	0.159421 	0.011401 	-3.12706 	90.0114 	154.139 	-0.597168 	268.954 	360.654 	284.868 	539.727 	
15.5366 	-0.00385174 	-0.501283 	0.779248 	0.159421 	0.011401 	-3.12706 	90.0114 	154.139 	-0.597168 	268.954 	360.654 	284.868 	539.727 	
15.5465 	-0.00385174 	-0.501283 	0.779248 	0.159421 	0.011401 	-3.12706 	90.0114 	154.139 	-0.597168 	268.954 	360.654 	284.868 	539.727 	
15.5566 	-0.00385174 	-0.501283 	0.779248 	0.159421 	0.011401 	-3.12706 	90.0114 	154.139 	-0.597168 	268.954 	360.654 	284.868 	539.727 	
15.5667 	-0.00385174 	-0.501283 	0.779248 	0.159421 	0.011401 	-3.12706 	90.0114 	154.139 	-0.597168 	268.954 	360.654 	284.868 	539.727 	
15.5767 	-0.00385174 	-0.501283 	0.779248 	0.159421 	0.011401 	-3.12706 	90.0114 	154.139 	-0.597168 	268.954 	360.654 	284.868 	539.727 	
15.5865 	-0.00385174 	-0.501283 	0.779248 	0.159421 	0.011401 	-3.12706 	90.0114 	154.139 	-0.597168 	268.954 	360.654 	284.868 	539.727 	
15.5966 	-0.00385174 	-0.501283 	0.779248 	0.159421 	0.011401 	-3.12706 	90.0114 	154.139 	-0.597168 	268.954 	360.654 	284.868 	539.727 	
15.6065 	-0.00385174 	-0.501283 	0.779248 	0.159421 	0.011401 	-3.12706 	90.0114 	154.139 	-0.597168 	268.954 	360.654 	284.868 	539.727 	
15.6166 	-0.00385174 	-0.501283 	0.779248 	0.159421 	0.011401 	-3.12706 	90.0114 	154.139 	-0.597168 	268.954 	360.654 	284.868 	539.727 	
15.6266 	-0.00385174 	-0.501283 	0.779248 	0.159421 	0.011401 	-3.12706 	90.0114 	154.139 	-0.597168 	268.954 	360.654 	284.868 	539.727 	
15.6366 	-0.00385174 	-0.501283 	0.779248 	0.159421 	0.011401 	-3.12706 	90.0114 	154.139 	-0.597168 	268.954 	360.654 	284.868 	539.727 	
15.6465 	-0.00385174 	-0.501283 	0.779248 	0.159421 	0.011401 	-3.12706 	90.0114 	154.139 	-0.597168 	268.954 	360.654 	284.868 	539.727 	
15.6566 	-0.00385174 	-0.501283 	0.779248 	0.159421 	0.011401 	-3.12706 	90.0114 	154.139 	-0.597168 	268.954 	360.654 	284.868 	539.727 	
15.6667 	-0.00385174 	-0.501283 	0.779248 	0.159421 	0.011401 	-3.12706 	90.0114 	154.139 	-0.597168 	268.954 	360.654 	284.868 	539.727 	
15.6766 	-0.00385174 	-0.501283 	0.779248 	0.159421 	0.011401 	-3.12706 	90.0114 	154.139 	-0.597168 	268.954 	360.654 	284.868 	539.727 	
15.6867 	-0.00385174 	-0.501283 	0.779248 	0.159421 	0.011401 	-3.12706 	90.0114 	154.139 	-0.597168 	268.954 	360.654 	284.868 	539.727 	
15.6967 	-0.00385174 	-0.501283 	0.779248 	0.159421 	0.011401 	-3.12706 	90.0114 	154.139 	-0.597168 	268.954 	360.654 	284.868 	539.727 	
15.7066 	-0.00385174 	-0.501283 	0.779248 	0.159421 	0.011401 	-3.12706 	90.0114 	154.139 	-0.597168 	268.954 	360.654 	284.868 	539.727 	
15.7166 	-0.00385174 	-0.501283 	0.779248 	0.159421 	0.011401 	-3.12706 	90.0114 	154.139 	-0.597168 	268.954 	360.654 	284.868 	539.727 	
15.7265 	-0.00385174 	-0.501283 	0.779248 	0.159421 	0.011401 	-3.12706 	90.0114 	154.139 	-0.597168 	268.954 	360.654 	284.868 	539.727 	
15.7366 	-0.00385174 	-0.501283 	0.779248 	0.159421 	0.011401 	-3.12706 	90.0114 	154.139 	-0.597168 	268.954 	360.654 	284.868 	539.727 	
15.7465 	-0.00385174 	-0.501283 	0.779248 	0.159421 	0.011401 	-3.12706 	90.0114 	154.139 	-0.597168 	268.954 	360.654 	284.868 	539.727 	
15.7566 	-0.00385174 	-0.501283 	0.779248 	0.159421 	0.011401 	-3.12706 	90.0114 	154.139 	-0.597168 	268.954 	360.654 	284.868 	539.727 	
15.7667 	-0.00385174 	-0.501283 	0.779248 	0.159421 	0.011401 	-3.12706 	90.0114 	154.139 	-0.597168 	268.954 	360.654 	284.868 	539.727 	
15.7767 	-0.00385174 	-0.501283 	0.779248 	0.159421 	0.011401 	-3.12706 	90.0114 	154.139 	-0.597168 	268.954 	360.654 	284.868 	539.727 	
15.7867 	-0.00385174 	-0.501283 	0.779248 	0.159421 	0.011401 	-3.12706 	90.0114 	154.139 	-0.597168 	268.954 	360.654 	284.868 	539.727 	
15.7966 	-0.00385174 	-0.501283 	0.779248 	0.159421 	0.011401 	-3.12706 	90.0114 	154.139 	-0.597168 	268.954 	360.654 	284.868 	539.727 	
15.8066 	-0.00385174 	-0.501283 	0.779248 	0.159421 	0.011401 	-3.12706 	90.0114 	154.139 	-0.597168 	268.954 	360.654 	284.868 	539.727 	
15.8165 	-0.00385174 	-0.501283 	0.779248 	0.159421 	0.011401 	-3.12706 	90.0114 	154.139 	-0.597168 	268.954 	360.654 	284.868 	539.727 	
15.8266 	-0.00385174 	-0.501283 	0.779248 	0.159421 	0.011401 	-3.12706 	90.0114 	154.139 	-0.597168 	268.954 	360.654 	284.868 	539.727 	
15.8366 	-0.00385174 	-0.501283 	0.779248 	0.159421 	0.011401 	-3.12706 	90.0114 	154.139 	-0.597168 	268.954 	360.654 	284.868 	539.727 	
15.8468 	-0.00385174 	-0.501283 	0.779248 	0.159421 	0.011401 	-3.12706 	90.0114 	154.139 	-0.597168 	268.954 	360.654 	284.868 	539.727 	
15.8566 	-0.00385174 	-0.501283 	0.779248 	0.159421 	0.011401 	-3.12706 	90.0114 	154.139 	-0.597168 	268.954 	360.654 	284.868 	539.727 	
15.8667 	-0.00385174 	-0.501283 	0.779248 	0.159421 	0.011401 	-3.12706 	90.0114 	154.139 	-0.597168 	268.954 	360.654 	284.868 	539.727 	
15.8766 	-0.00385174 	-0.501283 	0.779248 	0.159421 	0.011401 	-3.12706 	90.0114 	154.139 	-0.597168 	268.954 	360.654 	284.868 	539.727 	
15.8868 	-0.00385174 	-0.501283 	0.779248 	0.159421 	0.011401 	-3.12706 	90.0114 	154.139 	-0.597168 	268.954 	360.654 	284.868 	539.727 	
15.8966 	-0.00385174 	-0.501283 	0.779248 	0.159421 	0.011401 	-3.12706 	90.0114 	154.139 	-0.597168 	268.954 	360.654 	284.868 	539.727 	
15.9065 	-0.00385174 	-0.501283 	0.779248 	0.159421 	0.011401 	-3.12706 	90.0114 	154.139 	-0.597168 	268.954 	360.654 	284.868 	539.727 	
15.9166 	-0.00385174 	-0.501283 	0.779248 	0.159421 	0.011401 	-3.12706 	90.0114 	154.139 	-0.597168 	268.954 	360.654 	284.868 	539.727 	
15.9266 	-0.00385174 	-0.501283 	0.779248 	0.159421 	0.011401 	-3.12706 	90.0114 	154.139 	-0.597168 	268.954 	360.654 	284.868 	539.727 	
15.9366 	-0.00385174 	-0.501283 	0.779248 	0.159421 	0.011401 	-3.12706 	90.0114 	154.139 	-0.597168 	268.954 	360.654 	284.868 	539.727 	
15.9465 	-0.00385174 	-0.501283 	0.779248 	0.159421 	0.011401 	-3.12706 	90.0114 	154.139 	-0.597168 	268.954 	360.654 	284.868 	539.727 	
15.9566 	-0.00385174 	-0.501283 	0.779248 	0.159421 	0.011401 	-3.12706 	90.0114 	154.139 	-0.597168 	268.954 	360.654 	284.868 	539.727 	
15.9667 	-0.00385174 	-0.501283 	0.779248 	0.159421 	0.011401 	-3.12706 	90.0114 	154.139 	-0.597168 	268.954 	360.654 	284.868 	539.727 	
15.9766 	-0.00385174 	-0.501283 	0.779248 	0.159421 	0.011401 	-3.12706 	90.0114 	154.139 	-0.597168 	268.954 	360.654 	284.868 	539.727 	
15.9868 	-0.00385174 	-0.501283 	0.779248 	0.159421 	0.011401 	-3.12706 	90.0114 	154.139 	-0.597168 	268.954 	360.654 	284.868 	539.727 	
15.9966 	-0.00385174 	-0.501283 	0.779248 	0.159421 	0.011401 	-3.12706 	90.0114 	154.139 	-0.597168 	268.954 	360.654 	284.868 	539.727 	
16.0066 	-0.00385174 	-0.501283 	0.779248 	0.159421 	0.011401 	-3.12706 	90.0114 	154.139 	-0.597168 	268.954 	360.654 	284.868 	539.727 	
16.0165 	-0.00385174 	-0.501283 	0.779248 	0.159421 	0.011401 	-3.12706 	90.0114 	154.139 	-0.597168 	268.954 	360.654 	284.868 	539.727 	
16.0267 	-0.00385174 	-0.501283 	0.779248 	0.159421 	0.011401 	-3.12706 	90.0114 	154.139 	-0.597168 	268.954 	360.654 	284.868 	539.727 	
16.0366 	-0.00385174 	-0.501283 	0.779248 	0.159421 	0.011401 	-3.12706 	90.0114 	154.139 	-0.597168 	268.954 	360.654 	284.868 	539.727 	
16.0468 	-0.00385174 	-0.501283 	0.779248 	0.159421 	0.011401 	-3.12706 	90.0114 	154.139 	-0.597168 	268.954 	360.654 	284.868 	539.727 	
16.0566 	-0.00385174 	-0.501283 	0.779248 	0.159421 	0.011401 	-3.12706 	90.0114 	154.139 	-0.597168 	268.954 	360.654 	284.868 	539.727 	
16.0666 	-0.00385174 	-0.501283 	0.779248 	0.159421 	0.011401 	-3.12706 	90.0114 	154.139 	-0.597168 	268.954 	360.654 	284.868 	539.727 	
16.0766 	-0.00385174 	-0.501283 	0.779248 	0.159421 	0.011401 	-3.12706 	90.0114 	154.139 	-0.597168 	268.954 	360.654 	284.868 	539.727 	
16.0866 	-0.00385174 	-0.501283 	0.779248 	0.159421 	0.011401 	-3.12706 	90.0114 	154.139 	-0.597168 	268.954 	360.654 	284.868 	539.727 	
16.0966 	-0.00385174 	-0.501283 	0.779248 	0.159421 	0.011401 	-3.12706 	90.0114 	154.139 	-0.597168 	268.954 	360.654 	284.868 	539.727 	
16.1066 	-0.00385174 	-0.501283 	0.779248 	0.159421 	0.011401 	-3.12706 	90.0114 	154.139 	-0.597168 	268.954 	360.654 	284.868 	539.727 	
16.1165 	-0.00385174 	-0.501283 	0.779248 	0.159421 	0.011401 	-3.12706 	90.0114 	154.139 	-0.597168 	268.954 	360.654 	284.868 	539.727 	
16.1267 	-0.00385174 	-0.501283 	0.779248 	0.159421 	0.011401 	-3.12706 	90.0114 	154.139 	-0.597168 	268.954 	360.654 	284.868 	539.727 	
16.1366 	-0.00385174 	-0.501283 	0.779248 	0.159421 	0.011401 	-3.12706 	90.0114 	154.139 	-0.597168 	268.954 	360.654 	284.868 	539.727 	
16.1466 	-0.00385174 	-0.501283 	0.779248 	0.159421 	0.011401 	-3.12706 	90.0114 	154.139 	-0.597168 	268.954 	360.654 	284.868 	539.727 	
16.1566 	-0.00385174 	-0.501283 	0.779248 	0.159421 	0.011401 	-3.12706 	90.0114 	154.139 	-0.597168 	268.954 	360.654 	284.868 	539.727 	
16.1667 	-0.00385174 	-0.501283 	0.779248 	0.159421 	0.011401 	-3.12706 	90.0114 	154.139 	-0.597168 	268.954 	360.654 	284.868 	539.727 	
16.1767 	-0.00385174 	-0.501283 	0.779248 	0.159421 	0.011401 	-3.12706 	90.0114 	154.139 	-0.597168 	268.954 	360.654 	284.868 	539.727 	
16.1867 	-0.00385174 	-0.501283 	0.779248 	0.159421 	0.011401 	-3.12706 	90.0114 	154.139 	-0.597168 	268.954 	360.654 	284.868 	539.727 	
16.1966 	-0.00385174 	-0.501283 	0.779248 	0.159421 	0.011401 	-3.12706 	90.0114 	154.139 	-0.597168 	268.954 	360.654 	284.868 	539.727 	
16.2066 	-0.00385174 	-0.501283 	0.779248 	0.159421 	0.011401 	-3.12706 	90.0114 	154.139 	-0.597168 	268.954 	360.654 	284.868 	539.727 	
16.2166 	-0.00385174 	-0.501283 	0.779248 	0.159421 	0.011401 	-3.12706 	90.0114 	154.139 	-0.597168 	268.954 	360.654 	284.868 	539.727 	
16.2266 	-0.00385174 	-0.501283 	0.779248 	0.159421 	0.011401 	-3.12706 	90.0114 	154.139 	-0.597168 	268.954 	360.654 	284.868 	539.727 	
16.2366 	-0.00385174 	-0.501283 	0.779248 	0.159421 	0.011401 	-3.12706 	90.0114 	154.139 	-0.597168 	268.954 	360.654 	284.868 	539.727 	
16.2467 	-0.00385174 	-0.501283 	0.779248 	0.159421 	0.011401 	-3.12706 	90.0114 	154.139 	-0.597168 	268.954 	360.654 	284.868 	539.727 	
16.2566 	-0.00385174 	-0.501283 	0.779248 	0.159421 	0.011401 	-3.12706 	90.0114 	154.139 	-0.597168 	268.954 	360.654 	284.868 	539.727 	
16.2667 	-0.00385174 	-0.501283 	0.779248 	0.159421 	0.011401 	-3.12706 	90.0114 	154.139 	-0.597168 	268.954 	360.654 	284.868 	539.727 	
16.2766 	-0.00385174 	-0.501283 	0.779248 	0.159421 	0.011401 	-3.12706 	90.0114 	154.139 	-0.597168 	268.954 	360.654 	284.868 	539.727 	
16.2867 	-0.00385174 	-0.501283 	0.779248 	0.159421 	0.011401 	-3.12706 	90.0114 	154.139 	-0.597168 	268.954 	360.654 	284.868 	539.727 	
16.2965 	-0.00385174 	-0.501283 	0.779248 	0.159421 	0.011401 	-3.12706 	90.0114 	154.139 	-0.597168 	268.954 	360.654 	284.868 	539.727 	
16.3066 	-0.00385174 	-0.501283 	0.779248 	0.159421 	0.011401 	-3.12706 	90.0114 	154.139 	-0.597168 	268.954 	360.654 	284.868 	539.727 	
16.3165 	-0.00385174 	-0.501283 	0.779248 	0.159421 	0.011401 	-3.12706 	90.0114 	154.139 	-0.597168 	268.954 	360.654 	284.868 	539.727 	
16.3267 	-0.00385174 	-0.501283 	0.779248 	0.159421 	0.011401 	-3.12706 	90.0114 	154.139 	-0.597168 	268.954 	360.654 	284.868 	539.727 	
16.3366 	-0.00385174 	-0.501283 	0.779248 	0.159421 	0.011401 	-3.12706 	90.0114 	154.139 	-0.597168 	268.954 	360.654 	284.868 	539.727 	
16.3466 	-0.00385174 	-0.501283 	0.779248 	0.159421 	0.011401 	-3.12706 	90.0114 	154.139 	-0.597168 	268.954 	360.654 	284.868 	539.727 	
16.3566 	-0.00385174 	-0.501283 	0.779248 	0.159421 	0.011401 	-3.12706 	90.0114 	154.139 	-0.597168 	268.954 	360.654 	284.868 	539.727 	
16.3667 	-0.00385174 	-0.501283 	0.779248 	0.159421 	0.011401 	-3.12706 	90.0114 	154.139 	-0.597168 	268.954 	360.654 	284.868 	539.727 	
16.3767 	-0.00385174 	-0.501283 	0.779248 	0.159421 	0.011401 	-3.12706 	90.0114 	154.139 	-0.597168 	268.954 	360.654 	284.868 	539.727 	
16.3867 	-0.00385174 	-0.501283 	0.779248 	0.159421 	0.011401 	-3.12706 	90.0114 	154.139 	-0.597168 	268.954 	360.654 	284.868 	539.727 	
16.3966 	-0.00385174 	-0.501283 	0.779248 	0.159421 	0.011401 	-3.12706 	90.0114 	154.139 	-0.597168 	268.954 	360.654 	284.868 	539.727 	
16.4066 	-0.00385174 	-0.501283 	0.779248 	0.159421 	0.011401 	-3.12706 	90.0114 	154.139 	-0.597168 	268.954 	360.654 	284.868 	539.727 	
16.4165 	-0.00385174 	-0.501283 	0.779248 	0.159421 	0.011401 	-3.12706 	90.0114 	154.139 	-0.597168 	268.954 	360.654 	284.868 	539.727 	
16.4266 	-0.00385174 	-0.501283 	0.779248 	0.159421 	0.011401 	-3.12706 	90.0114 	154.139 	-0.597168 	268.954 	360.654 	284.868 	539.727 	
16.4366 	-0.00385174 	-0.501283 	0.779248 	0.159421 	0.011401 	-3.12706 	90.0114 	154.139 	-0.597168 	268.954 	360.654 	284.868 	539.727 	
16.4467 	-0.00385174 	-0.501283 	0.779248 	0.159421 	0.011401 	-3.12706 	90.0114 	154.139 	-0.597168 	268.954 	360.654 	284.868 	539.727 	
16.4566 	-0.00385174 	-0.501283 	0.779248 	0.159421 	0.011401 	-3.12706 	90.0114 	154.139 	-0.597168 	268.954 	360.654 	284.868 	539.727 	
16.4667 	-0.00385174 	-0.501283 	0.779248 	0.159421 	0.011401 	-3.12706 	90.0114 	154.139 	-0.597168 	268.954 	360.654 	284.868 	539.727 	
16.4766 	-0.00385174 	-0.501283 	0.779248 	0.159421 	0.011401 	-3.12706 	90.0114 	154.139 	-0.597168 	268.954 	360.654 	284.868 	539.727 	
16.4867 	-0.00385174 	-0.501283 	0.779248 	0.159421 	0.011401 	-3.12706 	90.0114 	154.139 	-0.597168 	268.954 	360.654 	284.868 	539.727 	
16.4966 	-0.00385174 	-0.501283 	0.779248 	0.159421 	0.011401 	-3.12706 	90.0114 	154.139 	-0.597168 	268.954 	360.654 	284.868 	539.727 	
16.5065 	-0.00385174 	-0.501283 	0.779248 	0.159421 	0.011401 	-3.12706 	90.0114 	154.139 	-0.597168 	268.954 	360.654 	284.868 	539.727 	
16.5166 	-0.00385174 	-0.501283 	0.779248 	0.159421 	0.011401 	-3.12706 	90.0114 	154.139 	-0.597168 	268.954 	360.654 	284.868 	539.727 	
16.5266 	-0.00385174 	-0.501283 	0.779248 	0.159421 	0.011401 	-3.12706 	90.0114 	154.139 	-0.597168 	268.954 	360.654 	284.868 	539.727 	
16.5366 	-0.00385174 	-0.501283 	0.779248 	0.159421 	0.011401 	-3.12706 	90.0114 	154.139 	-0.597168 	268.954 	360.654 	284.868 	539.727 	
16.5465 	-0.00385174 	-0.501283 	0.779248 	0.159421 	0.011401 	-3.12706 	90.0114 	154.139 	-0.597168 	268.954 	360.654 	284.868 	539.727 	
16.5565 	-0.00385174 	-0.501283 	0.779248 	0.159421 	0.011401 	-3.12706 	90.0114 	154.139 	-0.597168 	268.954 	360.654 	284.868 	539.727 	
16.5666 	-0.00385174 	-0.501283 	0.779248 	0.159421 	0.011401 	-3.12706 	90.0114 	154.139 	-0.597168 	268.954 	360.654 	284.868 	539.727 	
16.5767 	-0.00385174 	-0.501283 	0.779248 	0.159421 	0.011401 	-3.12706 	90.0114 	154.139 	-0.597168 	268.954 	360.654 	284.868 	539.727 	
16.5866 	-0.00385174 	-0.501283 	0.779248 	0.159421 	0.011401 	-3.12706 	90.0114 	154.139 	-0.597168 	268.954 	360.654 	284.868 	539.727 	
16.5966 	-0.00385174 	-0.501283 	0.779248 	0.159421 	0.011401 	-3.12706 	90.0114 	154.139 	-0.597168 	268.954 	360.654 	284.868 	539.727 	
16.6066 	-0.00385174 	-0.501283 	0.779248 	0.159421 	0.011401 	-3.12706 	90.0114 	154.139 	-0.597168 	268.954 	360.654 	284.868 	539.727 	
16.6165 	-0.00385174 	-0.501283 	0.779248 	0.159421 	0.011401 	-3.12706 	90.0114 	154.139 	-0.597168 	268.954 	360.654 	284.868 	539.727 	
16.6266 	-0.00385174 	-0.501283 	0.779248 	0.159421 	0.011401 	-3.12706 	90.0114 	154.139 	-0.597168 	268.954 	360.654 	284.868 	539.727 	
16.6366 	-0.00385174 	-0.501283 	0.779248 	0.159421 	0.011401 	-3.12706 	90.0114 	154.139 	-0.597168 	268.954 	360.654 	284.868 	539.727 	
16.6467 	-0.00385174 	-0.501283 	0.779248 	0.159421 	0.011401 	-3.12706 	90.0114 	154.139 	-0.597168 	268.954 	360.654 	284.868 	539.727 	
16.6566 	-0.00385174 	-0.501283 	0.779248 	0.159421 	0.011401 	-3.12706 	90.0114 	154.139 	-0.597168 	268.954 	360.654 	284.868 	539.727 	
16.6667 	-0.00385174 	-0.501283 	0.779248 	0.159421 	0.011401 	-3.12706 	90.0114 	154.139 	-0.597168 	268.954 	360.654 	284.868 	539.727 	
16.6766 	-0.00385174 	-0.501283 	0.779248 	0.159421 	0.011401 	-3.12706 	90.0114 	154.139 	-0.597168 	268.954 	360.654 	284.868 	539.727 	
16.6866 	-0.00385174 	-0.501283 	0.779248 	0.159421 	0.011401 	-3.12706 	90.0114 	154.139 	-0.597168 	268.954 	360.654 	284.868 	539.727 	
16.6966 	-0.00385174 	-0.501283 	0.779248 	0.159421 	0.011401 	-3.12706 	90.0114 	154.139 	-0.597168 	268.954 	360.654 	284.868 	539.727 	
16.7066 	-0.00385174 	-0.501283 	0.779248 	0.159421 	0.011401 	-3.12706 	90.0114 	154.139 	-0.597168 	268.954 	360.654 	284.868 	539.727 	
16.7165 	-0.00385174 	-0.501283 	0.779248 	0.159421 	0.011401 	-3.12706 	90.0114 	154.139 	-0.597168 	268.954 	360.654 	284.868 	539.727 	
16.7266 	-0.00385174 	-0.501283 	0.779248 	0.159421 	0.011401 	-3.12706 	90.0114 	154.139 	-0.597168 	268.954 	360.654 	284.868 	539.727 	
16.7366 	-0.00385174 	-0.501283 	0.779248 	0.159421 	0.011401 	-3.12706 	90.0114 	154.139 	-0.597168 	268.954 	360.654 	284.868 	539.727 	
16.7465 	-0.00385174 	-0.501283 	0.779248 	0.159421 	0.011401 	-3.12706 	90.0114 	154.139 	-0.597168 	268.954 	360.654 	284.868 	539.727 	
16.7565 	-0.00385174 	-0.501283 	0.779248 	0.159421 	0.011401 	-3.12706 	90.0114 	154.139 	-0.597168 	268.954 	360.654 	284.868 	539.727 	
16.7667 	-0.00385174 	-0.501283 	0.779248 	0.159421 	0.011401 	-3.12706 	90.0114 	154.139 	-0.597168 	268.954 	360.654 	284.868 	539.727 	
16.7767 	-0.00385174 	-0.501283 	0.779248 	0.159421 	0.011401 	-3.12706 	90.0114 	154.139 	-0.597168 	268.954 	360.654 	284.868 	539.727 	
16.7867 	-0.00385174 	-0.501283 	0.779248 	0.159421 	0.011401 	-3.12706 	90.0114 	154.139 	-0.597168 	268.954 	360.654 	284.868 	539.727 	
16.7966 	-0.00385174 	-0.501283 	0.779248 	0.159421 	0.011401 	-3.12706 	90.0114 	154.139 	-0.597168 	268.954 	360.654 	284.868 	539.727 	
16.8067 	-0.00385174 	-0.501283 	0.779248 	0.159421 	0.011401 	-3.12706 	90.0114 	154.139 	-0.597168 	268.954 	360.654 	284.868 	539.727 	
16.8165 	-0.00385174 	-0.501283 	0.779248 	0.159421 	0.011401 	-3.12706 	90.0114 	154.139 	-0.597168 	268.954 	360.654 	284.868 	539.727 	
16.8267 	-0.00385174 	-0.501283 	0.779248 	0.159421 	0.011401 	-3.12706 	90.0114 	154.139 	-0.597168 	268.954 	360.654 	284.868 	539.727 	
16.8366 	-0.00385174 	-0.501283 	0.779248 	0.159421 	0.011401 	-3.12706 	90.0114 	154.139 	-0.597168 	268.954 	360.654 	284.868 	539.727 	
16.8467 	-0.00385174 	-0.501283 	0.779248 	0.159421 	0.011401 	-3.12706 	90.0114 	154.139 	-0.597168 	268.954 	360.654 	284.868 	539.727 	
16.8534 	-0.00385174 	-0.501283 	0.779248 	0.159421 	0.011401 	-3.12706 	90.0114 	154.139 	-0.597168 	268.954 	360.654 	284.868 	539.727 	
16.8638 	-0.00385174 	-0.501283 	0.779248 	0.159421 	0.011401 	-3.12706 	90.0114 	154.139 	-0.597168 	268.954 	360.654 	284.868 	539.727 	
16.8737 	-0.00385174 	-0.501283 	0.779248 	0.159421 	0.011401 	-3.12706 	90.0114 	154.139 	-0.597168 	268.954 	360.654 	284.868 	539.727 	
16.8836 	-0.00385174 	-0.501283 	0.779248 	0.159421 	0.011401 	-3.12706 	90.0114 	154.139 	-0.597168 	268.954 	360.654 	284.868 	539.727 	
16.8938 	-0.00385174 	-0.501283 	0.779248 	0.159421 	0.011401 	-3.12706 	90.0114 	154.139 	-0.597168 	268.954 	360.654 	284.868 	539.727 	
16.9038 	-0.00385174 	-0.501283 	0.779248 	0.159421 	0.011401 	-3.12706 	90.0114 	154.139 	-0.597168 	268.954 	360.654 	284.868 	539.727 	
16.9137 	-0.00385174 	-0.501283 	0.779248 	0.159421 	0.011401 	-3.12706 	90.0114 	154.139 	-0.597168 	268.954 	360.654 	284.868 	539.727 	
16.9237 	-0.00385174 	-0.501283 	0.779248 	0.159421 	0.011401 	-3.12706 	90.0114 	154.139 	-0.597168 	268.954 	360.654 	284.868 	539.727 	
16.9338 	-0.00385174 	-0.501283 	0.779248 	0.159421 	0.011401 	-3.12706 	90.0114 	154.139 	-0.597168 	268.954 	360.654 	284.868 	539.727 	
16.9438 	-0.00385174 	-0.501283 	0.779248 	0.159421 	0.011401 	-3.12706 	90.0114 	154.139 	-0.597168 	268.954 	360.654 	284.868 	539.727 	
16.9537 	-0.00385174 	-0.501283 	0.779248 	0.159421 	0.011401 	-3.12706 	90.0114 	154.139 	-0.597168 	268.954 	360.654 	284.868 	539.727 	
16.9638 	-0.00385174 	-0.501283 	0.779248 	0.159421 	0.011401 	-3.12706 	90.0114 	154.139 	-0.597168 	268.954 	360.654 	284.868 	539.727 	
16.9738 	-0.00385174 	-0.501283 	0.779248 	0.159421 	0.011401 	-3.12706 	90.0114 	154.139 	-0.597168 	268.954 	360.654 	284.868 	539.727 	
16.9837 	-0.00385174 	-0.501283 	0.779248 	0.159421 	0.011401 	-3.12706 	90.0114 	154.139 	-0.597168 	268.954 	360.654 	284.868 	539.727 	
16.9938 	-0.00385174 	-0.501283 	0.779248 	0.159421 	0.011401 	-3.12706 	90.0114 	154.139 	-0.597168 	268.954 	360.654 	284.868 	539.727 	
17.0038 	-0.00385174 	-0.501283 	0.779248 	0.159421 	0.011401 	-3.12706 	90.0114 	154.139 	-0.597168 	268.954 	360.654 	284.868 	539.727 	
17.0136 	-0.00385174 	-0.501283 	0.779248 	0.159421 	0.011401 	-3.12706 	90.0114 	154.139 	-0.597168 	268.954 	360.654 	284.868 	539.727 	
17.0236 	-0.00385174 	-0.501283 	0.779248 	0.159421 	0.011401 	-3.12706 	90.0114 	154.139 	-0.597168 	268.954 	360.654 	284.868 	539.727 	
17.0338 	-0.00385174 	-0.501283 	0.779248 	0.159421 	0.011401 	-3.12706 	90.0114 	154.139 	-0.597168 	268.954 	360.654 	284.868 	539.727 	
17.0438 	-0.00385174 	-0.501283 	0.779248 	0.159421 	0.011401 	-3.12706 	90.0114 	154.139 	-0.597168 	268.954 	360.654 	284.868 	539.727 	
17.0538 	-0.00385174 	-0.501283 	0.779248 	0.159421 	0.011401 	-3.12706 	90.0114 	154.139 	-0.597168 	268.954 	360.654 	284.868 	539.727 	
17.0638 	-0.00385174 	-0.501283 	0.779248 	0.159421 	0.011401 	-3.12706 	90.0114 	154.139 	-0.597168 	268.954 	360.654 	284.868 	539.727 	
17.0737 	-0.00385174 	-0.501283 	0.779248 	0.159421 	0.011401 	-3.12706 	90.0114 	154.139 	-0.597168 	268.954 	360.654 	284.868 	539.727 	
17.0836 	-0.00385174 	-0.501283 	0.779248 	0.159421 	0.011401 	-3.12706 	90.0114 	154.139 	-0.597168 	268.954 	360.654 	284.868 	539.727 	
17.0938 	-0.00385174 	-0.501283 	0.779248 	0.159421 	0.011401 	-3.12706 	90.0114 	154.139 	-0.597168 	268.954 	360.654 	284.868 	539.727 	
17.1038 	-0.00385174 	-0.501283 	0.779248 	0.159421 	0.011401 	-3.12706 	90.0114 	154.139 	-0.597168 	268.954 	360.654 	284.868 	539.727 	
17.1136 	-0.00385174 	-0.501283 	0.779248 	0.159421 	0.011401 	-3.12706 	90.0114 	154.139 	-0.597168 	268.954 	360.654 	284.868 	539.727 	
17.1236 	-0.00385174 	-0.501283 	0.779248 	0.159421 	0.011401 	-3.12706 	90.0114 	154.139 	-0.597168 	268.954 	360.654 	284.868 	539.727 	
17.1338 	-0.00385174 	-0.501283 	0.779248 	0.159421 	0.011401 	-3.12706 	90.0114 	154.139 	-0.597168 	268.954 	360.654 	284.868 	539.727 	
17.1438 	-0.00385174 	-0.501283 	0.779248 	0.159421 	0.011401 	-3.12706 	90.0114 	154.139 	-0.597168 	268.954 	360.654 	284.868 	539.727 	
17.1538 	-0.00385174 	-0.501283 	0.779248 	0.159421 	0.011401 	-3.12706 	90.0114 	154.139 	-0.597168 	268.954 	360.654 	284.868 	539.727 	
17.1638 	-0.00385174 	-0.501283 	0.779248 	0.159421 	0.011401 	-3.12706 	90.0114 	154.139 	-0.597168 	268.954 	360.654 	284.868 	539.727 	
17.1738 	-0.00385174 	-0.501283 	0.779248 	0.159421 	0.011401 	-3.12706 	90.0114 	154.139 	-0.597168 	268.954 	360.654 	284.868 	539.727 	
17.1838 	-0.00385174 	-0.501283 	0.779248 	0.159421 	0.011401 	-3.12706 	90.0114 	154.139 	-0.597168 	268.954 	360.654 	284.868 	539.727 	
17.1938 	-0.00385174 	-0.501283 	0.779248 	0.159421 	0.011401 	-3.12706 	90.0114 	154.139 	-0.597168 	268.954 	360.654 	284.868 	539.727 	
17.2038 	-0.00385174 	-0.501283 	0.779248 	0.159421 	0.011401 	-3.12706 	90.0114 	154.139 	-0.597168 	268.954 	360.654 	284.868 	539.727 	
17.2137 	-0.00385174 	-0.501283 	0.779248 	0.159421 	0.011401 	-3.12706 	90.0114 	154.139 	-0.597168 	268.954 	360.654 	284.868 	539.727 	
17.2216 	-0.00385174 	-0.501283 	0.779248 	0.159421 	0.011401 	-3.12706 	90.0114 	154.139 	-0.597168 	268.954 	360.654 	284.868 	539.727 	
17.2319 	-0.00385174 	-0.501283 	0.779248 	0.159421 	0.011401 	-3.12706 	90.0114 	154.139 	-0.597168 	268.954 	360.654 	284.868 	539.727 	
17.242 	-0.00385174 	-0.501283 	0.779248 	0.159421 	0.011401 	-3.12706 	90.0114 	154.139 	-0.597168 	268.954 	360.654 	284.868 	539.727 	
17.2518 	-0.00385174 	-0.501283 	0.779248 	0.159421 	0.011401 	-3.12706 	90.0114 	154.139 	-0.597168 	268.954 	360.654 	284.868 	539.727 	
17.262 	-0.00385174 	-0.501283 	0.779248 	0.159421 	0.011401 	-3.12706 	90.0114 	154.139 	-0.597168 	268.954 	360.654 	284.868 	539.727 	
17.2719 	-0.00385174 	-0.501283 	0.779248 	0.159421 	0.011401 	-3.12706 	90.0114 	154.139 	-0.597168 	268.954 	360.654 	284.868 	539.727 	
17.282 	-0.00385174 	-0.501283 	0.779248 	0.159421 	0.011401 	-3.12706 	90.0114 	154.139 	-0.597168 	268.954 	360.654 	284.868 	539.727 	
17.2919 	-0.00385174 	-0.501283 	0.779248 	0.159421 	0.011401 	-3.12706 	90.0114 	154.139 	-0.597168 	268.954 	360.654 	284.868 	539.727 	
17.302 	-0.00385174 	-0.501283 	0.779248 	0.159421 	0.011401 	-3.12706 	90.0114 	154.139 	-0.597168 	268.954 	360.654 	284.868 	539.727 	
17.312 	-0.00385174 	-0.501283 	0.779248 	0.159421 	0.011401 	-3.12706 	90.0114 	154.139 	-0.597168 	268.954 	360.654 	284.868 	539.727 	
17.3218 	-0.00385174 	-0.501283 	0.779248 	0.159421 	0.011401 	-3.12706 	90.0114 	154.139 	-0.597168 	268.954 	360.654 	284.868 	539.727 	
17.332 	-0.00385174 	-0.501283 	0.779248 	0.159421 	0.011401 	-3.12706 	90.0114 	154.139 	-0.597168 	268.954 	360.654 	284.868 	539.727 	
17.342 	-0.00385174 	-0.501283 	0.779248 	0.159421 	0.011401 	-3.12706 	90.0114 	154.139 	-0.597168 	268.954 	360.654 	284.868 	539.727 	
17.352 	-0.00385174 	-0.501283 	0.779248 	0.159421 	0.011401 	-3.12706 	90.0114 	154.139 	-0.597168 	268.954 	360.654 	284.868 	539.727 	
17.362 	-0.00385174 	-0.501283 	0.779248 	0.159421 	0.011401 	-3.12706 	90.0114 	154.139 	-0.597168 	268.954 	360.654 	284.868 	539.727 	
17.3719 	-0.00385174 	-0.501283 	0.779248 	0.159421 	0.011401 	-3.12706 	90.0114 	154.139 	-0.597168 	268.954 	360.654 	284.868 	539.727 	
17.3819 	-0.00385174 	-0.501283 	0.779248 	0.159421 	0.011401 	-3.12706 	90.0114 	154.139 	-0.597168 	268.954 	360.654 	284.868 	539.727 	
17.392 	-0.00385174 	-0.501283 	0.779248 	0.159421 	0.011401 	-3.12706 	90.0114 	154.139 	-0.597168 	268.954 	360.654 	284.868 	539.727 	
17.4019 	-0.00385174 	-0.501283 	0.779248 	0.159421 	0.011401 	-3.12706 	90.0114 	154.139 	-0.597168 	268.954 	360.654 	284.868 	539.727 	
17.4119 	-0.00385174 	-0.501283 	0.779248 	0.159421 	0.011401 	-3.12706 	90.0114 	154.139 	-0.597168 	268.954 	360.654 	284.868 	539.727 	
17.4219 	-0.00385174 	-0.501283 	0.779248 	0.159421 	0.011401 	-3.12706 	90.0114 	154.139 	-0.597168 	268.954 	360.654 	284.868 	539.727 	
17.432 	-0.00385174 	-0.501283 	0.779248 	0.159421 	0.011401 	-3.12706 	90.0114 	154.139 	-0.597168 	268.954 	360.654 	284.868 	539.727 	
17.442 	-0.00385174 	-0.501283 	0.779248 	0.159421 	0.011401 	-3.12706 	90.0114 	154.139 	-0.597168 	268.954 	360.654 	284.868 	539.727 	
17.452 	-0.00385174 	-0.501283 	0.779248 	0.159421 	0.011401 	-3.12706 	90.0114 	154.139 	-0.597168 	268.954 	360.654 	284.868 	539.727 	
17.4619 	-0.00385174 	-0.501283 	0.779248 	0.159421 	0.011401 	-3.12706 	90.0114 	154.139 	-0.597168 	268.954 	360.654 	284.868 	539.727 	
17.4691 	-0.00385174 	-0.501283 	0.779248 	0.159421 	0.011401 	-3.12706 	90.0114 	154.139 	-0.597168 	268.954 	360.654 	284.868 	539.727 	
17.4796 	-0.00385174 	-0.501283 	0.779248 	0.159421 	0.011401 	-3.12706 	90.0114 	154.139 	-0.597168 	268.954 	360.654 	284.868 	539.727 	
17.4893 	-0.00385174 	-0.501283 	0.779248 	0.159421 	0.011401 	-3.12706 	90.0114 	154.139 	-0.597168 	268.954 	360.654 	284.868 	539.727 	
17.4994 	-0.00385174 	-0.501283 	0.779248 	0.159421 	0.011401 	-3.12706 	90.0114 	154.139 	-0.597168 	268.954 	360.654 	284.868 	539.727 	
17.5094 	-0.00385174 	-0.501283 	0.779248 	0.159421 	0.011401 	-3.12706 	90.0114 	154.139 	-0.597168 	268.954 	360.654 	284.868 	539.727 	
17.5194 	-0.00385174 	-0.501283 	0.779248 	0.159421 	0.011401 	-3.12706 	90.0114 	154.139 	-0.597168 	268.954 	360.654 	284.868 	539.727 	
17.5294 	-0.00385174 	-0.501283 	0.779248 	0.159421 	0.011401 	-3.12706 	90.0114 	154.139 	-0.597168 	268.954 	360.654 	284.868 	539.727 	
17.5393 	-0.00385174 	-0.501283 	0.779248 	0.159421 	0.011401 	-3.12706 	90.0114 	154.139 	-0.597168 	268.954 	360.654 	284.868 	539.727 	
17.5494 	-0.00385174 	-0.501283 	0.779248 	0.159421 	0.011401 	-3.12706 	90.0114 	154.139 	-0.597168 	268.954 	360.654 	284.868 	539.727 	
17.5594 	-0.00385174 	-0.501283 	0.779248 	0.159421 	0.011401 	-3.12706 	90.0114 	154.139 	-0.597168 	268.954 	360.654 	284.868 	539.727 	
17.5694 	-0.00385174 	-0.501283 	0.779248 	0.159421 	0.011401 	-3.12706 	90.0114 	154.139 	-0.597168 	268.954 	360.654 	284.868 	539.727 	
17.5795 	-0.00385174 	-0.501283 	0.779248 	0.159421 	0.011401 	-3.12706 	90.0114 	154.139 	-0.597168 	268.954 	360.654 	284.868 	539.727 	
17.5894 	-0.00385174 	-0.501283 	0.779248 	0.159421 	0.011401 	-3.12706 	90.0114 	154.139 	-0.597168 	268.954 	360.654 	284.868 	539.727 	
17.5994 	-0.00385174 	-0.501283 	0.779248 	0.159421 	0.011401 	-3.12706 	90.0114 	154.139 	-0.597168 	268.954 	360.654 	284.868 	539.727 	
17.6095 	-0.00385174 	-0.501283 	0.779248 	0.159421 	0.011401 	-3.12706 	90.0114 	154.139 	-0.597168 	268.954 	360.654 	284.868 	539.727 	
17.6193 	-0.00385174 	-0.501283 	0.779248 	0.159421 	0.011401 	-3.12706 	90.0114 	154.139 	-0.597168 	268.954 	360.654 	284.868 	539.727 	
17.6294 	-0.00385174 	-0.501283 	0.779248 	0.159421 	0.011401 	-3.12706 	90.0114 	154.139 	-0.597168 	268.954 	360.654 	284.868 	539.727 	
17.637 	-0.00385174 	-0.501283 	0.779248 	0.159421 	0.011401 	-3.12706 	90.0114 	154.139 	-0.597168 	268.954 	360.654 	284.868 	539.727 	
17.6474 	-0.00385174 	-0.501283 	0.779248 	0.159421 	0.011401 	-3.12706 	90.0114 	154.139 	-0.597168 	268.954 	360.654 	284.868 	539.727 	
17.6573 	-0.00385174 	-0.501283 	0.779248 	0.159421 	0.011401 	-3.12706 	90.0114 	154.139 	-0.597168 	268.954 	360.654 	284.868 	539.727 	
17.6673 	-0.00385174 	-0.501283 	0.779248 	0.159421 	0.011401 	-3.12706 	90.0114 	154.139 	-0.597168 	268.954 	360.654 	284.868 	539.727 	
17.6774 	-0.00385174 	-0.501283 	0.779248 	0.159421 	0.011401 	-3.12706 	90.0114 	154.139 	-0.597168 	268.954 	360.654 	284.868 	539.727 	
17.6874 	-0.00385174 	-0.501283 	0.779248 	0.159421 	0.011401 	-3.12706 	90.0114 	154.139 	-0.597168 	268.954 	360.654 	284.868 	539.727 	
17.6974 	-0.00385174 	-0.501283 	0.779248 	0.159421 	0.011401 	-3.12706 	90.0114 	154.139 	-0.597168 	268.954 	360.654 	284.868 	539.727 	
17.7073 	-0.00385174 	-0.501283 	0.779248 	0.159421 	0.011401 	-3.12706 	90.0114 	154.139 	-0.597168 	268.954 	360.654 	284.868 	539.727 	
17.7173 	-0.00385174 	-0.501283 	0.779248 	0.159421 	0.011401 	-3.12706 	90.0114 	154.139 	-0.597168 	268.954 	360.654 	284.868 	539.727 	
17.7273 	-0.00385174 	-0.501283 	0.779248 	0.159421 	0.011401 	-3.12706 	90.0114 	154.139 	-0.597168 	268.954 	360.654 	284.868 	539.727 	
17.7372 	-0.00385174 	-0.501283 	0.779248 	0.159421 	0.011401 	-3.12706 	90.0114 	154.139 	-0.597168 	268.954 	360.654 	284.868 	539.727 	
17.7473 	-0.00385174 	-0.501283 	0.779248 	0.159421 	0.011401 	-3.12706 	90.0114 	154.139 	-0.597168 	268.954 	360.654 	284.868 	539.727 	
17.7573 	-0.00385174 	-0.501283 	0.779248 	0.159421 	0.011401 	-3.12706 	90.0114 	154.139 	-0.597168 	268.954 	360.654 	284.868 	539.727 	
17.7675 	-0.00385174 	-0.501283 	0.779248 	0.159421 	0.011401 	-3.12706 	90.0114 	154.139 	-0.597168 	268.954 	360.654 	284.868 	539.727 	
17.7774 	-0.00385174 	-0.501283 	0.779248 	0.159421 	0.011401 	-3.12706 	90.0114 	154.139 	-0.597168 	268.954 	360.654 	284.868 	539.727 	
17.7873 	-0.00385174 	-0.501283 	0.779248 	0.159421 	0.011401 	-3.12706 	90.0114 	154.139 	-0.597168 	268.954 	360.654 	284.868 	539.727 	
17.7972 	-0.00385174 	-0.501283 	0.779248 	0.159421 	0.011401 	-3.12706 	90.0114 	154.139 	-0.597168 	268.954 	360.654 	284.868 	539.727 	
17.7977 	-0.00385174 	-0.501283 	0.779248 	0.159421 	0.011401 	-3.12706 	90.0114 	154.139 	-0.597168 	268.954 	360.654 	284.868 	539.727 	
17.8079 	-0.00385174 	-0.501283 	0.779248 	0.159421 	0.011401 	-3.12706 	90.0114 	154.139 	-0.597168 	268.954 	360.654 	284.868 	539.727 	
17.8178 	-0.00385174 	-0.501283 	0.779248 	0.159421 	0.011401 	-3.12706 	90.0114 	154.139 	-0.597168 	268.954 	360.654 	284.868 	539.727 	
17.8278 	-0.00385174 	-0.501283 	0.779248 	0.159421 	0.011401 	-3.12706 	90.0114 	154.139 	-0.597168 	268.954 	360.654 	284.868 	539.727 	
17.8379 	-0.00385174 	-0.501283 	0.779248 	0.159421 	0.011401 	-3.12706 	90.0114 	154.139 	-0.597168 	268.954 	360.654 	284.868 	539.727 	
17.8478 	-0.00385174 	-0.501283 	0.779248 	0.159421 	0.011401 	-3.12706 	90.0114 	154.139 	-0.597168 	268.954 	360.654 	284.868 	539.727 	
17.8579 	-0.00385174 	-0.501283 	0.779248 	0.159421 	0.011401 	-3.12706 	90.0114 	154.139 	-0.597168 	268.954 	360.654 	284.868 	539.727 	
17.8681 	-0.00385174 	-0.501283 	0.779248 	0.159421 	0.011401 	-3.12706 	90.0114 	154.139 	-0.597168 	268.954 	360.654 	284.868 	539.727 	
17.878 	-0.00385174 	-0.501283 	0.779248 	0.159421 	0.011401 	-3.12706 	90.0114 	154.139 	-0.597168 	268.954 	360.654 	284.868 	539.727 	
17.888 	-0.00385174 	-0.501283 	0.779248 	0.159421 	0.011401 	-3.12706 	90.0114 	154.139 	-0.597168 	268.954 	360.654 	284.868 	539.727 	
17.898 	-0.00385174 	-0.501283 	0.779248 	0.159421 	0.011401 	-3.12706 	90.0114 	154.139 	-0.597168 	268.954 	360.654 	284.868 	539.727 	
17.9079 	-0.00385174 	-0.501283 	0.779248 	0.159421 	0.011401 	-3.12706 	90.0114 	154.139 	-0.597168 	268.954 	360.654 	284.868 	539.727 	
17.9178 	-0.00385174 	-0.501283 	0.779248 	0.159421 	0.011401 	-3.12706 	90.0114 	154.139 	-0.597168 	268.954 	360.654 	284.868 	539.727 	
17.9278 	-0.00385174 	-0.501283 	0.779248 	0.159421 	0.011401 	-3.12706 	90.0114 	154.139 	-0.597168 	268.954 	360.654 	284.868 	539.727 	
17.938 	-0.00385174 	-0.501283 	0.779248 	0.159421 	0.011401 	-3.12706 	90.0114 	154.139 	-0.597168 	268.954 	360.654 	284.868 	539.727 	
17.948 	-0.00385174 	-0.501283 	0.779248 	0.159421 	0.011401 	-3.12706 	90.0114 	154.139 	-0.597168 	268.954 	360.654 	284.868 	539.727 	
17.958 	-0.00385174 	-0.501283 	0.779248 	0.159421 	0.011401 	-3.12706 	90.0114 	154.139 	-0.597168 	268.954 	360.654 	284.868 	539.727 	
17.968 	-0.00385174 	-0.501283 	0.779248 	0.159421 	0.011401 	-3.12706 	90.0114 	154.139 	-0.597168 	268.954 	360.654 	284.868 	539.727 	
17.978 	-0.00385174 	-0.501283 	0.779248 	0.159421 	0.011401 	-3.12706 	90.0114 	154.139 	-0.597168 	268.954 	360.654 	284.868 	539.727 	
17.988 	-0.00385174 	-0.501283 	0.779248 	0.159421 	0.011401 	-3.12706 	90.0114 	154.139 	-0.597168 	268.954 	360.654 	284.868 	539.727 	
17.998 	-0.00385174 	-0.501283 	0.779248 	0.159421 	0.011401 	-3.12706 	90.0114 	154.139 	-0.597168 	268.954 	360.654 	284.868 	539.727 	
18.0079 	-0.00385174 	-0.501283 	0.779248 	0.159421 	0.011401 	-3.12706 	90.0114 	154.139 	-0.597168 	268.954 	360.654 	284.868 	539.727 	
18.0178 	-0.00385174 	-0.501283 	0.779248 	0.159421 	0.011401 	-3.12706 	90.0114 	154.139 	-0.597168 	268.954 	360.654 	284.868 	539.727 	
18.0279 	-0.00385174 	-0.501283 	0.779248 	0.159421 	0.011401 	-3.12706 	90.0114 	154.139 	-0.597168 	268.954 	360.654 	284.868 	539.727 	
18.038 	-0.00385174 	-0.501283 	0.779248 	0.159421 	0.011401 	-3.12706 	90.0114 	154.139 	-0.597168 	268.954 	360.654 	284.868 	539.727 	
18.048 	-0.00385174 	-0.501283 	0.779248 	0.159421 	0.011401 	-3.12706 	90.0114 	154.139 	-0.597168 	268.954 	360.654 	284.868 	539.727 	
18.058 	-0.00385174 	-0.501283 	0.779248 	0.159421 	0.011401 	-3.12706 	90.0114 	154.139 	-0.597168 	268.954 	360.654 	284.868 	539.727 	
18.068 	-0.00385174 	-0.501283 	0.779248 	0.159421 	0.011401 	-3.12706 	90.0114 	154.139 	-0.597168 	268.954 	360.654 	284.868 	539.727 	
18.078 	-0.00385174 	-0.501283 	0.779248 	0.159421 	0.011401 	-3.12706 	90.0114 	154.139 	-0.597168 	268.954 	360.654 	284.868 	539.727 	
18.088 	-0.00385174 	-0.501283 	0.779248 	0.159421 	0.011401 	-3.12706 	90.0114 	154.139 	-0.597168 	268.954 	360.654 	284.868 	539.727 	
18.098 	-0.00385174 	-0.501283 	0.779248 	0.159421 	0.011401 	-3.12706 	90.0114 	154.139 	-0.597168 	268.954 	360.654 	284.868 	539.727 	
18.1079 	-0.00385174 	-0.501283 	0.779248 	0.159421 	0.011401 	-3.12706 	90.0114 	154.139 	-0.597168 	268.954 	360.654 	284.868 	539.727 	
18.1178 	-0.00385174 	-0.501283 	0.779248 	0.159421 	0.011401 	-3.12706 	90.0114 	154.139 	-0.597168 	268.954 	360.654 	284.868 	539.727 	
18.1279 	-0.00385174 	-0.501283 	0.779248 	0.159421 	0.011401 	-3.12706 	90.0114 	154.139 	-0.597168 	268.954 	360.654 	284.868 	539.727 	
18.1379 	-0.00385174 	-0.501283 	0.779248 	0.159421 	0.011401 	-3.12706 	90.0114 	154.139 	-0.597168 	268.954 	360.654 	284.868 	539.727 	
18.1479 	-0.00385174 	-0.501283 	0.779248 	0.159421 	0.011401 	-3.12706 	90.0114 	154.139 	-0.597168 	268.954 	360.654 	284.868 	539.727 	
18.1579 	-0.00385174 	-0.501283 	0.779248 	0.159421 	0.011401 	-3.12706 	90.0114 	154.139 	-0.597168 	268.954 	360.654 	284.868 	539.727 	
18.168 	-0.00385174 	-0.501283 	0.779248 	0.159421 	0.011401 	-3.12706 	90.0114 	154.139 	-0.597168 	268.954 	360.654 	284.868 	539.727 	
18.178 	-0.00385174 	-0.501283 	0.779248 	0.159421 	0.011401 	-3.12706 	90.0114 	154.139 	-0.597168 	268.954 	360.654 	284.868 	539.727 	
18.1879 	-0.00385174 	-0.501283 	0.779248 	0.159421 	0.011401 	-3.12706 	90.0114 	154.139 	-0.597168 	268.954 	360.654 	284.868 	539.727 	
18.198 	-0.00385174 	-0.501283 	0.779248 	0.159421 	0.011401 	-3.12706 	90.0114 	154.139 	-0.597168 	268.954 	360.654 	284.868 	539.727 	
18.2078 	-0.00385174 	-0.501283 	0.779248 	0.159421 	0.011401 	-3.12706 	90.0114 	154.139 	-0.597168 	268.954 	360.654 	284.868 	539.727 	
18.2179 	-0.00385174 	-0.501283 	0.779248 	0.159421 	0.011401 	-3.12706 	90.0114 	154.139 	-0.597168 	268.954 	360.654 	284.868 	539.727 	
18.2278 	-0.00385174 	-0.501283 	0.779248 	0.159421 	0.011401 	-3.12706 	90.0114 	154.139 	-0.597168 	268.954 	360.654 	284.868 	539.727 	
18.238 	-0.00385174 	-0.501283 	0.779248 	0.159421 	0.011401 	-3.12706 	90.0114 	154.139 	-0.597168 	268.954 	360.654 	284.868 	539.727 	
18.248 	-0.00385174 	-0.501283 	0.779248 	0.159421 	0.011401 	-3.12706 	90.0114 	154.139 	-0.597168 	268.954 	360.654 	284.868 	539.727 	
18.258 	-0.00385174 	-0.501283 	0.779248 	0.159421 	0.011401 	-3.12706 	90.0114 	154.139 	-0.597168 	268.954 	360.654 	284.868 	539.727 	
18.268 	-0.00385174 	-0.501283 	0.779248 	0.159421 	0.011401 	-3.12706 	90.0114 	154.139 	-0.597168 	268.954 	360.654 	284.868 	539.727 	
18.278 	-0.00385174 	-0.501283 	0.779248 	0.159421 	0.011401 	-3.12706 	90.0114 	154.139 	-0.597168 	268.954 	360.654 	284.868 	539.727 	
18.2879 	-0.00385174 	-0.501283 	0.779248 	0.159421 	0.011401 	-3.12706 	90.0114 	154.139 	-0.597168 	268.954 	360.654 	284.868 	539.727 	
18.298 	-0.00385174 	-0.501283 	0.779248 	0.159421 	0.011401 	-3.12706 	90.0114 	154.139 	-0.597168 	268.954 	360.654 	284.868 	539.727 	
18.3079 	-0.00385174 	-0.501283 	0.779248 	0.159421 	0.011401 	-3.12706 	90.0114 	154.139 	-0.597168 	268.954 	360.654 	284.868 	539.727 	
18.3178 	-0.00385174 	-0.501283 	0.779248 	0.159421 	0.011401 	-3.12706 	90.0114 	154.139 	-0.597168 	268.954 	360.654 	284.868 	539.727 	
18.3278 	-0.00385174 	-0.501283 	0.779248 	0.159421 	0.011401 	-3.12706 	90.0114 	154.139 	-0.597168 	268.954 	360.654 	284.868 	539.727 	
18.338 	-0.00385174 	-0.501283 	0.779248 	0.159421 	0.011401 	-3.12706 	90.0114 	154.139 	-0.597168 	268.954 	360.654 	284.868 	539.727 	
18.3479 	-0.00385174 	-0.501283 	0.779248 	0.159421 	0.011401 	-3.12706 	90.0114 	154.139 	-0.597168 	268.954 	360.654 	284.868 	539.727 	
18.3578 	-0.00385174 	-0.501283 	0.779248 	0.159421 	0.011401 	-3.12706 	90.0114 	154.139 	-0.597168 	268.954 	360.654 	284.868 	539.727 	
18.368 	-0.00385174 	-0.501283 	0.779248 	0.159421 	0.011401 	-3.12706 	90.0114 	154.139 	-0.597168 	268.954 	360.654 	284.868 	539.727 	
18.378 	-0.00385174 	-0.501283 	0.779248 	0.159421 	0.011401 	-3.12706 	90.0114 	154.139 	-0.597168 	268.954 	360.654 	284.868 	539.727 	
18.3879 	-0.00385174 	-0.501283 	0.779248 	0.159421 	0.011401 	-3.12706 	90.0114 	154.139 	-0.597168 	268.954 	360.654 	284.868 	539.727 	
18.398 	-0.00385174 	-0.501283 	0.779248 	0.159421 	0.011401 	-3.12706 	90.0114 	154.139 	-0.597168 	268.954 	360.654 	284.868 	539.727 	
18.4078 	-0.00385174 	-0.501283 	0.779248 	0.159421 	0.011401 	-3.12706 	90.0114 	154.139 	-0.597168 	268.954 	360.654 	284.868 	539.727 	
18.4178 	-0.00385174 	-0.501283 	0.779248 	0.159421 	0.011401 	-3.12706 	90.0114 	154.139 	-0.597168 	268.954 	360.654 	284.868 	539.727 	
18.428 	-0.00385174 	-0.501283 	0.779248 	0.159421 	0.011401 	-3.12706 	90.0114 	154.139 	-0.597168 	268.954 	360.654 	284.868 	539.727 	
18.438 	-0.00385174 	-0.501283 	0.779248 	0.159421 	0.011401 	-3.12706 	90.0114 	154.139 	-0.597168 	268.954 	360.654 	284.868 	539.727 	
18.448 	-0.00385174 	-0.501283 	0.779248 	0.159421 	0.011401 	-3.12706 	90.0114 	154.139 	-0.597168 	268.954 	360.654 	284.868 	539.727 	
18.4579 	-0.00385174 	-0.501283 	0.779248 	0.159421 	0.011401 	-3.12706 	90.0114 	154.139 	-0.597168 	268.954 	360.654 	284.868 	539.727 	
18.4681 	-0.00385174 	-0.501283 	0.779248 	0.159421 	0.011401 	-3.12706 	90.0114 	154.139 	-0.597168 	268.954 	360.654 	284.868 	539.727 	
18.478 	-0.00385174 	-0.501283 	0.779248 	0.159421 	0.011401 	-3.12706 	90.0114 	154.139 	-0.597168 	268.954 	360.654 	284.868 	539.727 	
18.4878 	-0.00385174 	-0.501283 	0.779248 	0.159421 	0.011401 	-3.12706 	90.0114 	154.139 	-0.597168 	268.954 	360.654 	284.868 	539.727 	
18.498 	-0.00385174 	-0.501283 	0.779248 	0.159421 	0.011401 	-3.12706 	90.0114 	154.139 	-0.597168 	268.954 	360.654 	284.868 	539.727 	
18.5079 	-0.00385174 	-0.501283 	0.779248 	0.159421 	0.011401 	-3.12706 	90.0114 	154.139 	-0.597168 	268.954 	360.654 	284.868 	539.727 	
18.5178 	-0.00385174 	-0.501283 	0.779248 	0.159421 	0.011401 	-3.12706 	90.0114 	154.139 	-0.597168 	268.954 	360.654 	284.868 	539.727 	
18.5278 	-0.00385174 	-0.501283 	0.779248 	0.159421 	0.011401 	-3.12706 	90.0114 	154.139 	-0.597168 	268.954 	360.654 	284.868 	539.727 	
18.5379 	-0.00385174 	-0.501283 	0.779248 	0.159421 	0.011401 	-3.12706 	90.0114 	154.139 	-0.597168 	268.954 	360.654 	284.868 	539.727 	
18.5479 	-0.00385174 	-0.501283 	0.779248 	0.159421 	0.011401 	-3.12706 	90.0114 	154.139 	-0.597168 	268.954 	360.654 	284.868 	539.727 	
18.5579 	-0.00385174 	-0.501283 	0.779248 	0.159421 	0.011401 	-3.12706 	90.0114 	154.139 	-0.597168 	268.954 	360.654 	284.868 	539.727 	
18.5681 	-0.00385174 	-0.501283 	0.779248 	0.159421 	0.011401 	-3.12706 	90.0114 	154.139 	-0.597168 	268.954 	360.654 	284.868 	539.727 	
18.5779 	-0.00385174 	-0.501283 	0.779248 	0.159421 	0.011401 	-3.12706 	90.0114 	154.139 	-0.597168 	268.954 	360.654 	284.868 	539.727 	
18.5878 	-0.00385174 	-0.501283 	0.779248 	0.159421 	0.011401 	-3.12706 	90.0114 	154.139 	-0.597168 	268.954 	360.654 	284.868 	539.727 	
18.598 	-0.00385174 	-0.501283 	0.779248 	0.159421 	0.011401 	-3.12706 	90.0114 	154.139 	-0.597168 	268.954 	360.654 	284.868 	539.727 	
18.6078 	-0.00385174 	-0.501283 	0.779248 	0.159421 	0.011401 	-3.12706 	90.0114 	154.139 	-0.597168 	268.954 	360.654 	284.868 	539.727 	
18.6178 	-0.00385174 	-0.501283 	0.779248 	0.159421 	0.011401 	-3.12706 	90.0114 	154.139 	-0.597168 	268.954 	360.654 	284.868 	539.727 	
18.6278 	-0.00385174 	-0.501283 	0.779248 	0.159421 	0.011401 	-3.12706 	90.0114 	154.139 	-0.597168 	268.954 	360.654 	284.868 	539.727 	
18.6379 	-0.00385174 	-0.501283 	0.779248 	0.159421 	0.011401 	-3.12706 	90.0114 	154.139 	-0.597168 	268.954 	360.654 	284.868 	539.727 	
18.6479 	-0.00385174 	-0.501283 	0.779248 	0.159421 	0.011401 	-3.12706 	90.0114 	154.139 	-0.597168 	268.954 	360.654 	284.868 	539.727 	
18.6579 	-0.00385174 	-0.501283 	0.779248 	0.159421 	0.011401 	-3.12706 	90.0114 	154.139 	-0.597168 	268.954 	360.654 	284.868 	539.727 	
18.668 	-0.00385174 	-0.501283 	0.779248 	0.159421 	0.011401 	-3.12706 	90.0114 	154.139 	-0.597168 	268.954 	360.654 	284.868 	539.727 	
18.6779 	-0.00385174 	-0.501283 	0.779248 	0.159421 	0.011401 	-3.12706 	90.0114 	154.139 	-0.597168 	268.954 	360.654 	284.868 	539.727 	
18.688 	-0.00385174 	-0.501283 	0.779248 	0.159421 	0.011401 	-3.12706 	90.0114 	154.139 	-0.597168 	268.954 	360.654 	284.868 	539.727 	
18.698 	-0.00385174 	-0.501283 	0.779248 	0.159421 	0.011401 	-3.12706 	90.0114 	154.139 	-0.597168 	268.954 	360.654 	284.868 	539.727 	
18.7079 	-0.00385174 	-0.501283 	0.779248 	0.159421 	0.011401 	-3.12706 	90.0114 	154.139 	-0.597168 	268.954 	360.654 	284.868 	539.727 	
18.7178 	-0.00385174 	-0.501283 	0.779248 	0.159421 	0.011401 	-3.12706 	90.0114 	154.139 	-0.597168 	268.954 	360.654 	284.868 	539.727 	
18.7278 	-0.00385174 	-0.501283 	0.779248 	0.159421 	0.011401 	-3.12706 	90.0114 	154.139 	-0.597168 	268.954 	360.654 	284.868 	539.727 	
18.738 	-0.00385174 	-0.501283 	0.779248 	0.159421 	0.011401 	-3.12706 	90.0114 	154.139 	-0.597168 	268.954 	360.654 	284.868 	539.727 	
18.7479 	-0.00385174 	-0.501283 	0.779248 	0.159421 	0.011401 	-3.12706 	90.0114 	154.139 	-0.597168 	268.954 	360.654 	284.868 	539.727 	
18.758 	-0.00385174 	-0.501283 	0.779248 	0.159421 	0.011401 	-3.12706 	90.0114 	154.139 	-0.597168 	268.954 	360.654 	284.868 	539.727 	
18.768 	-0.00385174 	-0.501283 	0.779248 	0.159421 	0.011401 	-3.12706 	90.0114 	154.139 	-0.597168 	268.954 	360.654 	284.868 	539.727 	
18.7778 	-0.00385174 	-0.501283 	0.779248 	0.159421 	0.011401 	-3.12706 	90.0114 	154.139 	-0.597168 	268.954 	360.654 	284.868 	539.727 	
18.7878 	-0.00385174 	-0.501283 	0.779248 	0.159421 	0.011401 	-3.12706 	90.0114 	154.139 	-0.597168 	268.954 	360.654 	284.868 	539.727 	
18.7978 	-0.00385174 	-0.501283 	0.779248 	0.159421 	0.011401 	-3.12706 	90.0114 	154.139 	-0.597168 	268.954 	360.654 	284.868 	539.727 	
18.808 	-0.00385174 	-0.501283 	0.779248 	0.159421 	0.011401 	-3.12706 	90.0114 	154.139 	-0.597168 	268.954 	360.654 	284.868 	539.727 	
18.8179 	-0.00385174 	-0.501283 	0.779248 	0.159421 	0.011401 	-3.12706 	90.0114 	154.139 	-0.597168 	268.954 	360.654 	284.868 	539.727 	
18.8279 	-0.00385174 	-0.501283 	0.779248 	0.159421 	0.011401 	-3.12706 	90.0114 	154.139 	-0.597168 	268.954 	360.654 	284.868 	539.727 	
18.8379 	-0.00385174 	-0.501283 	0.779248 	0.159421 	0.011401 	-3.12706 	90.0114 	154.139 	-0.597168 	268.954 	360.654 	284.868 	539.727 	
18.8478 	-0.00385174 	-0.501283 	0.779248 	0.159421 	0.011401 	-3.12706 	90.0114 	154.139 	-0.597168 	268.954 	360.654 	284.868 	539.727 	
18.8579 	-0.00385174 	-0.501283 	0.779248 	0.159421 	0.011401 	-3.12706 	90.0114 	154.139 	-0.597168 	268.954 	360.654 	284.868 	539.727 	
18.8679 	-0.00385174 	-0.501283 	0.779248 	0.159421 	0.011401 	-3.12706 	90.0114 	154.139 	-0.597168 	268.954 	360.654 	284.868 	539.727 	
18.8778 	-0.00385174 	-0.501283 	0.779248 	0.159421 	0.011401 	-3.12706 	90.0114 	154.139 	-0.597168 	268.954 	360.654 	284.868 	539.727 	
18.888 	-0.00385174 	-0.501283 	0.779248 	0.159421 	0.011401 	-3.12706 	90.0114 	154.139 	-0.597168 	268.954 	360.654 	284.868 	539.727 	
18.898 	-0.00385174 	-0.501283 	0.779248 	0.159421 	0.011401 	-3.12706 	90.0114 	154.139 	-0.597168 	268.954 	360.654 	284.868 	539.727 	
18.9079 	-0.00385174 	-0.501283 	0.779248 	0.159421 	0.011401 	-3.12706 	90.0114 	154.139 	-0.597168 	268.954 	360.654 	284.868 	539.727 	
18.9179 	-0.00385174 	-0.501283 	0.779248 	0.159421 	0.011401 	-3.12706 	90.0114 	154.139 	-0.597168 	268.954 	360.654 	284.868 	539.727 	
18.9278 	-0.00385174 	-0.501283 	0.779248 	0.159421 	0.011401 	-3.12706 	90.0114 	154.139 	-0.597168 	268.954 	360.654 	284.868 	539.727 	
18.9379 	-0.00385174 	-0.501283 	0.779248 	0.159421 	0.011401 	-3.12706 	90.0114 	154.139 	-0.597168 	268.954 	360.654 	284.868 	539.727 	
18.9479 	-0.00385174 	-0.501283 	0.779248 	0.159421 	0.011401 	-3.12706 	90.0114 	154.139 	-0.597168 	268.954 	360.654 	284.868 	539.727 	
18.9579 	-0.00385174 	-0.501283 	0.779248 	0.159421 	0.011401 	-3.12706 	90.0114 	154.139 	-0.597168 	268.954 	360.654 	284.868 	539.727 	
18.968 	-0.00385174 	-0.501283 	0.779248 	0.159421 	0.011401 	-3.12706 	90.0114 	154.139 	-0.597168 	268.954 	360.654 	284.868 	539.727 	
18.978 	-0.00385174 	-0.501283 	0.779248 	0.159421 	0.011401 	-3.12706 	90.0114 	154.139 	-0.597168 	268.954 	360.654 	284.868 	539.727 	
18.988 	-0.00385174 	-0.501283 	0.779248 	0.159421 	0.011401 	-3.12706 	90.0114 	154.139 	-0.597168 	268.954 	360.654 	284.868 	539.727 	
18.9979 	-0.00385174 	-0.501283 	0.779248 	0.159421 	0.011401 	-3.12706 	90.0114 	154.139 	-0.597168 	268.954 	360.654 	284.868 	539.727 	
19.0078 	-0.00385174 	-0.501283 	0.779248 	0.159421 	0.011401 	-3.12706 	90.0114 	154.139 	-0.597168 	268.954 	360.654 	284.868 	539.727 	
19.0178 	-0.00385174 	-0.501283 	0.779248 	0.159421 	0.011401 	-3.12706 	90.0114 	154.139 	-0.597168 	268.954 	360.654 	284.868 	539.727 	
19.0279 	-0.00385174 	-0.501283 	0.779248 	0.159421 	0.011401 	-3.12706 	90.0114 	154.139 	-0.597168 	268.954 	360.654 	284.868 	539.727 	
19.038 	-0.00385174 	-0.501283 	0.779248 	0.159421 	0.011401 	-3.12706 	90.0114 	154.139 	-0.597168 	268.954 	360.654 	284.868 	539.727 	
19.0479 	-0.00385174 	-0.501283 	0.779248 	0.159421 	0.011401 	-3.12706 	90.0114 	154.139 	-0.597168 	268.954 	360.654 	284.868 	539.727 	
19.0579 	-0.00385174 	-0.501283 	0.779248 	0.159421 	0.011401 	-3.12706 	90.0114 	154.139 	-0.597168 	268.954 	360.654 	284.868 	539.727 	
19.068 	-0.00385174 	-0.501283 	0.779248 	0.159421 	0.011401 	-3.12706 	90.0114 	154.139 	-0.597168 	268.954 	360.654 	284.868 	539.727 	
19.078 	-0.00385174 	-0.501283 	0.779248 	0.159421 	0.011401 	-3.12706 	90.0114 	154.139 	-0.597168 	268.954 	360.654 	284.868 	539.727 	
19.0881 	-0.00385174 	-0.501283 	0.779248 	0.159421 	0.011401 	-3.12706 	90.0114 	154.139 	-0.597168 	268.954 	360.654 	284.868 	539.727 	
19.0979 	-0.00385174 	-0.501283 	0.779248 	0.159421 	0.011401 	-3.12706 	90.0114 	154.139 	-0.597168 	268.954 	360.654 	284.868 	539.727 	
19.1078 	-0.00385174 	-0.501283 	0.779248 	0.159421 	0.011401 	-3.12706 	90.0114 	154.139 	-0.597168 	268.954 	360.654 	284.868 	539.727 	
19.1178 	-0.00385174 	-0.501283 	0.779248 	0.159421 	0.011401 	-3.12706 	90.0114 	154.139 	-0.597168 	268.954 	360.654 	284.868 	539.727 	
19.1279 	-0.00385174 	-0.501283 	0.779248 	0.159421 	0.011401 	-3.12706 	90.0114 	154.139 	-0.597168 	268.954 	360.654 	284.868 	539.727 	
19.138 	-0.00385174 	-0.501283 	0.779248 	0.159421 	0.011401 	-3.12706 	90.0114 	154.139 	-0.597168 	268.954 	360.654 	284.868 	539.727 	
19.148 	-0.00385174 	-0.501283 	0.779248 	0.159421 	0.011401 	-3.12706 	90.0114 	154.139 	-0.597168 	268.954 	360.654 	284.868 	539.727 	
19.1578 	-0.00385174 	-0.501283 	0.779248 	0.159421 	0.011401 	-3.12706 	90.0114 	154.139 	-0.597168 	268.954 	360.654 	284.868 	539.727 	
19.1679 	-0.00385174 	-0.501283 	0.779248 	0.159421 	0.011401 	-3.12706 	90.0114 	154.139 	-0.597168 	268.954 	360.654 	284.868 	539.727 	
19.1779 	-0.00385174 	-0.501283 	0.779248 	0.159421 	0.011401 	-3.12706 	90.0114 	154.139 	-0.597168 	268.954 	360.654 	284.868 	539.727 	
19.1879 	-0.00385174 	-0.501283 	0.779248 	0.159421 	0.011401 	-3.12706 	90.0114 	154.139 	-0.597168 	268.954 	360.654 	284.868 	539.727 	
19.198 	-0.00385174 	-0.501283 	0.779248 	0.159421 	0.011401 	-3.12706 	90.0114 	154.139 	-0.597168 	268.954 	360.654 	284.868 	539.727 	
19.2079 	-0.00385174 	-0.501283 	0.779248 	0.159421 	0.011401 	-3.12706 	90.0114 	154.139 	-0.597168 	268.954 	360.654 	284.868 	539.727 	
19.2179 	-0.00385174 	-0.501283 	0.779248 	0.159421 	0.011401 	-3.12706 	90.0114 	154.139 	-0.597168 	268.954 	360.654 	284.868 	539.727 	
19.2278 	-0.00385174 	-0.501283 	0.779248 	0.159421 	0.011401 	-3.12706 	90.0114 	154.139 	-0.597168 	268.954 	360.654 	284.868 	539.727 	
19.2378 	-0.00385174 	-0.501283 	0.779248 	0.159421 	0.011401 	-3.12706 	90.0114 	154.139 	-0.597168 	268.954 	360.654 	284.868 	539.727 	
19.248 	-0.00385174 	-0.501283 	0.779248 	0.159421 	0.011401 	-3.12706 	90.0114 	154.139 	-0.597168 	268.954 	360.654 	284.868 	539.727 	
19.2579 	-0.00385174 	-0.501283 	0.779248 	0.159421 	0.011401 	-3.12706 	90.0114 	154.139 	-0.597168 	268.954 	360.654 	284.868 	539.727 	
19.2679 	-0.00385174 	-0.501283 	0.779248 	0.159421 	0.011401 	-3.12706 	90.0114 	154.139 	-0.597168 	268.954 	360.654 	284.868 	539.727 	
19.2779 	-0.00385174 	-0.501283 	0.779248 	0.159421 	0.011401 	-3.12706 	90.0114 	154.139 	-0.597168 	268.954 	360.654 	284.868 	539.727 	
19.2879 	-0.00385174 	-0.501283 	0.779248 	0.159421 	0.011401 	-3.12706 	90.0114 	154.139 	-0.597168 	268.954 	360.654 	284.868 	539.727 	
19.298 	-0.00385174 	-0.501283 	0.779248 	0.159421 	0.011401 	-3.12706 	90.0114 	154.139 	-0.597168 	268.954 	360.654 	284.868 	539.727 	
19.308 	-0.00385174 	-0.501283 	0.779248 	0.159421 	0.011401 	-3.12706 	90.0114 	154.139 	-0.597168 	268.954 	360.654 	284.868 	539.727 	
19.3178 	-0.00385174 	-0.501283 	0.779248 	0.159421 	0.011401 	-3.12706 	90.0114 	154.139 	-0.597168 	268.954 	360.654 	284.868 	539.727 	
19.328 	-0.00385174 	-0.501283 	0.779248 	0.159421 	0.011401 	-3.12706 	90.0114 	154.139 	-0.597168 	268.954 	360.654 	284.868 	539.727 	
19.338 	-0.00385174 	-0.501283 	0.779248 	0.159421 	0.011401 	-3.12706 	90.0114 	154.139 	-0.597168 	268.954 	360.654 	284.868 	539.727 	
19.348 	-0.00385174 	-0.501283 	0.779248 	0.159421 	0.011401 	-3.12706 	90.0114 	154.139 	-0.597168 	268.954 	360.654 	284.868 	539.727 	
19.3579 	-0.00385174 	-0.501283 	0.779248 	0.159421 	0.011401 	-3.12706 	90.0114 	154.139 	-0.597168 	268.954 	360.654 	284.868 	539.727 	
19.3679 	-0.00385174 	-0.501283 	0.779248 	0.159421 	0.011401 	-3.12706 	90.0114 	154.139 	-0.597168 	268.954 	360.654 	284.868 	539.727 	
19.378 	-0.00385174 	-0.501283 	0.779248 	0.159421 	0.011401 	-3.12706 	90.0114 	154.139 	-0.597168 	268.954 	360.654 	284.868 	539.727 	
19.388 	-0.00385174 	-0.501283 	0.779248 	0.159421 	0.011401 	-3.12706 	90.0114 	154.139 	-0.597168 	268.954 	360.654 	284.868 	539.727 	
19.398 	-0.00385174 	-0.501283 	0.779248 	0.159421 	0.011401 	-3.12706 	90.0114 	154.139 	-0.597168 	268.954 	360.654 	284.868 	539.727 	
19.4078 	-0.00385174 	-0.501283 	0.779248 	0.159421 	0.011401 	-3.12706 	90.0114 	154.139 	-0.597168 	268.954 	360.654 	284.868 	539.727 	
19.4179 	-0.00385174 	-0.501283 	0.779248 	0.159421 	0.011401 	-3.12706 	90.0114 	154.139 	-0.597168 	268.954 	360.654 	284.868 	539.727 	
19.4278 	-0.00385174 	-0.501283 	0.779248 	0.159421 	0.011401 	-3.12706 	90.0114 	154.139 	-0.597168 	268.954 	360.654 	284.868 	539.727 	
19.438 	-0.00385174 	-0.501283 	0.779248 	0.159421 	0.011401 	-3.12706 	90.0114 	154.139 	-0.597168 	268.954 	360.654 	284.868 	539.727 	
19.4478 	-0.00385174 	-0.501283 	0.779248 	0.159421 	0.011401 	-3.12706 	90.0114 	154.139 	-0.597168 	268.954 	360.654 	284.868 	539.727 	
19.4579 	-0.00385174 	-0.501283 	0.779248 	0.159421 	0.011401 	-3.12706 	90.0114 	154.139 	-0.597168 	268.954 	360.654 	284.868 	539.727 	
19.468 	-0.00385174 	-0.501283 	0.779248 	0.159421 	0.011401 	-3.12706 	90.0114 	154.139 	-0.597168 	268.954 	360.654 	284.868 	539.727 	
19.478 	-0.00385174 	-0.501283 	0.779248 	0.159421 	0.011401 	-3.12706 	90.0114 	154.139 	-0.597168 	268.954 	360.654 	284.868 	539.727 	
19.488 	-0.00385174 	-0.501283 	0.779248 	0.159421 	0.011401 	-3.12706 	90.0114 	154.139 	-0.597168 	268.954 	360.654 	284.868 	539.727 	
19.4981 	-0.00385174 	-0.501283 	0.779248 	0.159421 	0.011401 	-3.12706 	90.0114 	154.139 	-0.597168 	268.954 	360.654 	284.868 	539.727 	
19.5078 	-0.00385174 	-0.501283 	0.779248 	0.159421 	0.011401 	-3.12706 	90.0114 	154.139 	-0.597168 	268.954 	360.654 	284.868 	539.727 	
19.5179 	-0.00385174 	-0.501283 	0.779248 	0.159421 	0.011401 	-3.12706 	90.0114 	154.139 	-0.597168 	268.954 	360.654 	284.868 	539.727 	
19.5278 	-0.00385174 	-0.501283 	0.779248 	0.159421 	0.011401 	-3.12706 	90.0114 	154.139 	-0.597168 	268.954 	360.654 	284.868 	539.727 	
19.538 	-0.00385174 	-0.501283 	0.779248 	0.159421 	0.011401 	-3.12706 	90.0114 	154.139 	-0.597168 	268.954 	360.654 	284.868 	539.727 	
19.548 	-0.00385174 	-0.501283 	0.779248 	0.159421 	0.011401 	-3.12706 	90.0114 	154.139 	-0.597168 	268.954 	360.654 	284.868 	539.727 	
19.5579 	-0.00385174 	-0.501283 	0.779248 	0.159421 	0.011401 	-3.12706 	90.0114 	154.139 	-0.597168 	268.954 	360.654 	284.868 	539.727 	
19.568 	-0.00385174 	-0.501283 	0.779248 	0.159421 	0.011401 	-3.12706 	90.0114 	154.139 	-0.597168 	268.954 	360.654 	284.868 	539.727 	
19.578 	-0.00385174 	-0.501283 	0.779248 	0.159421 	0.011401 	-3.12706 	90.0114 	154.139 	-0.597168 	268.954 	360.654 	284.868 	539.727 	
19.588 	-0.00385174 	-0.501283 	0.779248 	0.159421 	0.011401 	-3.12706 	90.0114 	154.139 	-0.597168 	268.954 	360.654 	284.868 	539.727 	
19.5981 	-0.00385174 	-0.501283 	0.779248 	0.159421 	0.011401 	-3.12706 	90.0114 	154.139 	-0.597168 	268.954 	360.654 	284.868 	539.727 	
19.6078 	-0.00385174 	-0.501283 	0.779248 	0.159421 	0.011401 	-3.12706 	90.0114 	154.139 	-0.597168 	268.954 	360.654 	284.868 	539.727 	
19.6178 	-0.00385174 	-0.501283 	0.779248 	0.159421 	0.011401 	-3.12706 	90.0114 	154.139 	-0.597168 	268.954 	360.654 	284.868 	539.727 	
19.6279 	-0.00385174 	-0.501283 	0.779248 	0.159421 	0.011401 	-3.12706 	90.0114 	154.139 	-0.597168 	268.954 	360.654 	284.868 	539.727 	
19.6379 	-0.00385174 	-0.501283 	0.779248 	0.159421 	0.011401 	-3.12706 	90.0114 	154.139 	-0.597168 	268.954 	360.654 	284.868 	539.727 	
19.648 	-0.00385174 	-0.501283 	0.779248 	0.159421 	0.011401 	-3.12706 	90.0114 	154.139 	-0.597168 	268.954 	360.654 	284.868 	539.727 	
19.6579 	-0.00385174 	-0.501283 	0.779248 	0.159421 	0.011401 	-3.12706 	90.0114 	154.139 	-0.597168 	268.954 	360.654 	284.868 	539.727 	
19.6679 	-0.00385174 	-0.501283 	0.779248 	0.159421 	0.011401 	-3.12706 	90.0114 	154.139 	-0.597168 	268.954 	360.654 	284.868 	539.727 	
19.678 	-0.00385174 	-0.501283 	0.779248 	0.159421 	0.011401 	-3.12706 	90.0114 	154.139 	-0.597168 	268.954 	360.654 	284.868 	539.727 	
