RISC-NYUAD/HeavyPayloadDrone/projects/kinova-ros/devel/lib/ne_kinova_demo/VulcanTrajectory/Vulcan1_Vicon_y19m11d13h18min50.csv
time (NSec) 	Kinova Tip Position (t_x) 	t_y 	t_z 	Kinova Tip Angle (theta_x) 	Kinova Tip Angle (theta_y) 	Kinova Tip Angle (theta_z) 	Kinova Joint Angle (j1) 	(j2) 	(j3) 	(j4) 	Kinova Joint Angle (j5) 	(j6) 	(j7)
1.56316 	-0.0177666 	-0.554141 	0.933098 	0.919878 	-0.0159254 	-3.13871 	90.1559 	116.563 	-0.591211 	113.624 	360.634 	123.455 	539.793 	
1.66611 	-0.017756 	-0.558529 	0.930659 	0.924415 	-0.0158905 	-3.13877 	90.1559 	116.488 	-0.591211 	113.741 	360.634 	123.551 	539.793 	
1.77405 	-0.0177373 	-0.566098 	0.926361 	0.932269 	-0.0158296 	-3.13886 	90.1559 	116.128 	-0.591211 	114.136 	360.634 	123.987 	539.793 	
1.87706 	-0.0177161 	-0.57447 	0.92147 	0.940995 	-0.0157608 	-3.13896 	90.1559 	115.571 	-0.591211 	114.686 	360.634 	124.538 	539.793 	
1.9802 	-0.017692 	-0.583631 	0.915952 	0.950594 	-0.015684 	-3.13907 	90.1559 	115.045 	-0.591211 	115.202 	360.634 	125.062 	539.793 	
2.08327 	-0.0176696 	-0.591913 	0.910809 	0.95932 	-0.0156131 	-3.13917 	90.1559 	114.558 	-0.591211 	115.69 	360.634 	125.524 	539.793 	
2.18634 	-0.0176465 	-0.600148 	0.905547 	0.968046 	-0.0155411 	-3.13927 	90.1559 	114.008 	-0.591211 	116.25 	360.634 	126.02 	539.793 	
2.28914 	-0.017623 	-0.608336 	0.900166 	0.976772 	-0.0154681 	-3.13936 	90.1559 	113.487 	-0.591211 	116.758 	360.634 	126.614 	539.793 	
2.39245 	-0.0175988 	-0.616474 	0.894667 	0.985499 	-0.0153941 	-3.13946 	90.1559 	112.987 	-0.591211 	117.264 	360.634 	127.077 	539.793 	
2.4953 	-0.0175741 	-0.62456 	0.889049 	0.994225 	-0.0153191 	-3.13956 	90.1559 	112.438 	-0.591211 	117.763 	360.634 	127.565 	539.793 	
2.59849 	-0.0175489 	-0.632593 	0.883314 	1.00295 	-0.015243 	-3.13965 	90.1559 	111.929 	-0.591211 	118.325 	360.634 	128.162 	539.793 	
2.70131 	-0.0175231 	-0.64057 	0.877461 	1.01168 	-0.015166 	-3.13975 	90.1559 	111.418 	-0.591211 	118.833 	360.634 	128.626 	539.793 	
2.80436 	-0.0174967 	-0.64849 	0.871493 	1.0204 	-0.0150879 	-3.13984 	90.1559 	110.917 	-0.591211 	119.329 	360.634 	129.095 	539.793 	
2.90769 	-0.0174698 	-0.656352 	0.865408 	1.02913 	-0.0150089 	-3.13993 	90.1559 	110.363 	-0.591211 	119.89 	360.634 	129.709 	539.793 	
3.01341 	-0.0174423 	-0.664152 	0.859209 	1.03786 	-0.0149288 	-3.14003 	90.1559 	109.854 	-0.591211 	120.395 	360.634 	130.193 	539.793 	
3.11617 	-0.0174142 	-0.67189 	0.852894 	1.04658 	-0.0148478 	-3.14012 	90.1559 	109.303 	-0.591211 	120.963 	360.634 	130.648 	539.793 	
3.21919 	-0.0173856 	-0.679563 	0.846466 	1.05531 	-0.0147658 	-3.14021 	90.1559 	108.798 	-0.591211 	121.451 	360.634 	131.246 	539.793 	
3.32306 	-0.0173564 	-0.68717 	0.839925 	1.06403 	-0.0146828 	-3.1403 	90.1559 	108.29 	-0.591211 	121.967 	360.634 	131.753 	539.793 	
3.42712 	-0.0172964 	-0.702178 	0.826507 	1.08149 	-0.014514 	-3.14047 	90.1559 	107.738 	-0.591211 	122.517 	360.634 	132.242 	539.793 	
3.53092 	-0.0172656 	-0.709576 	0.819632 	1.09021 	-0.0144281 	-3.14056 	90.1559 	107.229 	-0.591211 	123.029 	360.634 	132.791 	539.793 	
3.63408 	-0.0172342 	-0.7169 	0.812646 	1.09894 	-0.0143413 	-3.14065 	90.1559 	106.729 	-0.591211 	123.527 	360.634 	133.308 	539.793 	
3.7371 	-0.0172023 	-0.724149 	0.805552 	1.10767 	-0.0142536 	-3.14073 	90.1559 	106.179 	-0.591211 	124.086 	360.634 	133.801 	539.793 	
3.83982 	-0.0171698 	-0.731321 	0.79835 	1.11639 	-0.0141649 	-3.14082 	90.1559 	105.67 	-0.591211 	124.589 	360.634 	134.33 	539.793 	
3.94328 	-0.0171367 	-0.738415 	0.79104 	1.12512 	-0.0140753 	-3.1409 	90.1559 	105.163 	-0.591211 	125.095 	360.634 	134.857 	539.793 	
4.0461 	-0.0171031 	-0.745429 	0.783625 	1.13384 	-0.0139848 	-3.14098 	90.1559 	104.608 	-0.591211 	125.646 	360.634 	135.299 	539.793 	
4.14903 	-0.017069 	-0.75236 	0.776104 	1.14257 	-0.0138934 	-3.14107 	90.1559 	104.108 	-0.591211 	126.146 	360.634 	135.866 	539.793 	
4.25216 	-0.0170342 	-0.759208 	0.768479 	1.1513 	-0.013801 	-3.14115 	90.1559 	103.603 	-0.591211 	126.653 	360.634 	136.4 	539.793 	
4.35526 	-0.016999 	-0.76597 	0.760751 	1.16002 	-0.0137078 	-3.14123 	90.1559 	103.045 	-0.591211 	127.158 	360.634 	136.858 	539.793 	
4.45849 	-0.0169632 	-0.772645 	0.752921 	1.16875 	-0.0136137 	-3.14131 	90.1559 	102.546 	-0.591211 	127.717 	360.634 	137.407 	539.793 	
4.56118 	-0.0169268 	-0.779232 	0.74499 	1.17748 	-0.0135187 	-3.14138 	90.1559 	102.037 	-0.591211 	128.212 	360.634 	137.948 	539.793 	
4.66419 	-0.0168899 	-0.785729 	0.73696 	1.1862 	-0.0134228 	-3.14146 	90.1559 	101.535 	-0.591211 	128.723 	360.634 	138.421 	539.793 	
4.76736 	-0.0168525 	-0.792133 	0.728831 	1.19493 	-0.0133261 	-3.14154 	90.1559 	100.981 	-0.591211 	129.268 	360.634 	138.951 	539.793 	
4.87431 	-0.0168145 	-0.798445 	0.720604 	1.20366 	-0.0132285 	3.14157 	90.1559 	100.476 	-0.591211 	129.78 	360.634 	139.494 	539.793 	
4.9774 	-0.016776 	-0.804661 	0.712281 	1.21238 	-0.01313 	3.1415 	90.1559 	99.9188 	-0.591211 	130.32 	360.634 	140.016 	539.793 	
5.08044 	-0.0167369 	-0.81078 	0.703863 	1.22111 	-0.0130307 	3.14142 	90.1559 	99.4207 	-0.591211 	130.833 	360.634 	140.494 	539.793 	
5.18315 	-0.0166973 	-0.816802 	0.695352 	1.22983 	-0.0129306 	3.14135 	90.1559 	98.921 	-0.591211 	131.332 	360.634 	141.038 	539.793 	
5.28638 	-0.0166572 	-0.822724 	0.686748 	1.23856 	-0.0128296 	3.14128 	90.1559 	98.3611 	-0.591211 	131.892 	360.634 	141.533 	539.793 	
5.38938 	-0.0166165 	-0.828544 	0.678053 	1.24729 	-0.0127278 	3.14121 	90.1559 	97.8615 	-0.591211 	132.387 	360.634 	142.032 	539.793 	
5.49238 	-0.0165753 	-0.834263 	0.669269 	1.25601 	-0.0126252 	3.14114 	90.1559 	97.3596 	-0.591211 	132.892 	360.634 	142.579 	539.793 	
5.59539 	-0.0165336 	-0.839877 	0.660396 	1.26474 	-0.0125217 	3.14107 	90.1559 	96.8036 	-0.591211 	133.392 	360.634 	143.086 	539.793 	
5.69853 	-0.0164913 	-0.845385 	0.651436 	1.27347 	-0.0124175 	3.141 	90.1559 	96.3004 	-0.591211 	133.943 	360.634 	143.589 	539.793 	
5.8015 	-0.0164485 	-0.850787 	0.64239 	1.28219 	-0.0123125 	3.14093 	90.1559 	95.8003 	-0.591211 	134.454 	360.634 	144.125 	539.793 	
5.90433 	-0.0164052 	-0.85608 	0.63326 	1.29092 	-0.0122067 	3.14087 	90.1559 	95.2917 	-0.591211 	134.951 	360.634 	144.641 	539.793 	
6.00762 	-0.0163613 	-0.861264 	0.624048 	1.29965 	-0.0121001 	3.1408 	90.1559 	94.7436 	-0.591211 	135.509 	360.634 	145.141 	539.793 	
6.11364 	-0.0163169 	-0.866336 	0.614754 	1.30837 	-0.0119928 	3.14074 	90.1559 	94.2321 	-0.591211 	136.002 	360.634 	145.667 	539.793 	
6.21633 	-0.0162721 	-0.871296 	0.605381 	1.3171 	-0.0118847 	3.14068 	90.1559 	93.6871 	-0.591211 	136.562 	360.634 	146.193 	539.793 	
6.31917 	-0.0162266 	-0.876143 	0.59593 	1.32583 	-0.0117758 	3.14061 	90.1559 	93.1795 	-0.591211 	137.057 	360.634 	146.692 	539.793 	
6.42218 	-0.0161807 	-0.880874 	0.586402 	1.33455 	-0.0116662 	3.14055 	90.1559 	92.678 	-0.591211 	137.571 	360.634 	147.207 	539.793 	
6.52637 	-0.0160873 	-0.889987 	0.567123 	1.35201 	-0.0114448 	3.14043 	90.1559 	92.1297 	-0.591211 	138.117 	360.634 	147.741 	539.793 	
6.63211 	-0.0160398 	-0.894366 	0.557375 	1.36073 	-0.011333 	3.14038 	90.1559 	91.6245 	-0.591211 	138.621 	360.634 	148.251 	539.793 	
6.73522 	-0.0159919 	-0.898624 	0.547557 	1.36946 	-0.0112205 	3.14032 	90.1559 	91.0733 	-0.591211 	139.12 	360.634 	148.745 	539.793 	
6.83834 	-0.0159434 	-0.902762 	0.53767 	1.37818 	-0.0111073 	3.14026 	90.1559 	90.5677 	-0.591211 	139.676 	360.634 	149.332 	539.793 	
6.94111 	-0.0158944 	-0.906778 	0.527717 	1.38691 	-0.0109935 	3.14021 	90.1559 	90.0726 	-0.591211 	140.176 	360.634 	149.801 	539.793 	
7.04422 	-0.0158449 	-0.910671 	0.517698 	1.39564 	-0.0108789 	3.14015 	90.1559 	89.5645 	-0.591211 	140.675 	360.634 	150.29 	539.793 	
7.14736 	-0.0157949 	-0.914438 	0.507616 	1.40436 	-0.0107636 	3.1401 	90.1559 	89.0214 	-0.591211 	141.23 	360.634 	150.891 	539.793 	
7.2503 	-0.0157445 	-0.918081 	0.497473 	1.41309 	-0.0106477 	3.14005 	90.1559 	88.5079 	-0.591211 	141.729 	360.634 	151.358 	539.793 	
7.35317 	-0.0156935 	-0.921597 	0.487269 	1.42182 	-0.0105312 	3.14 	90.1559 	88.0148 	-0.591211 	142.24 	360.634 	151.831 	539.793 	
7.45632 	-0.0156421 	-0.924985 	0.477008 	1.43054 	-0.010414 	3.13995 	90.1559 	87.452 	-0.591211 	142.78 	360.634 	152.38 	539.793 	
7.55955 	-0.0155901 	-0.928245 	0.46669 	1.43927 	-0.0102961 	3.1399 	90.1559 	86.9608 	-0.591211 	143.29 	360.634 	152.917 	539.793 	
7.66246 	-0.0155377 	-0.931376 	0.456317 	1.448 	-0.0101776 	3.13985 	90.1559 	86.4519 	-0.591211 	143.787 	360.634 	153.384 	539.793 	
7.7657 	-0.0154848 	-0.934376 	0.445892 	1.45672 	-0.0100585 	3.13981 	90.1559 	85.9542 	-0.591211 	144.298 	360.634 	153.929 	539.793 	
7.87402 	-0.0154314 	-0.937245 	0.435416 	1.46545 	-0.0099388 	3.13976 	90.1559 	85.4015 	-0.591211 	144.839 	360.634 	154.479 	539.793 	
7.97735 	-0.0153776 	-0.939981 	0.424891 	1.47418 	-0.00981847 	3.13972 	90.1559 	84.8533 	-0.591211 	145.398 	360.634 	154.985 	539.793 	
8.0805 	-0.0153233 	-0.942585 	0.414319 	1.4829 	-0.00969755 	3.13967 	90.1559 	84.3568 	-0.591211 	145.892 	360.634 	155.524 	539.793 	
8.18346 	-0.0152685 	-0.945055 	0.403701 	1.49163 	-0.00957605 	3.13963 	90.1559 	83.8504 	-0.591211 	146.399 	360.634 	156.028 	539.793 	
8.28634 	-0.0152132 	-0.94739 	0.39304 	1.50036 	-0.00945397 	3.13959 	90.1559 	83.3046 	-0.591211 	146.944 	360.634 	156.484 	539.793 	
8.3895 	-0.0151575 	-0.94959 	0.382338 	1.50908 	-0.00933133 	3.13955 	90.1559 	82.7952 	-0.591211 	147.447 	360.634 	157.07 	539.793 	
8.49252 	-0.015107 	-0.951453 	0.372672 	1.51694 	-0.00922047 	3.13951 	90.1559 	82.3033 	-0.591211 	147.952 	360.634 	157.583 	539.793 	
8.59528 	-0.0150447 	-0.95358 	0.360817 	1.52654 	-0.00908438 	3.13947 	90.1559 	81.7938 	-0.591211 	148.452 	360.634 	158.042 	539.793 	
8.69876 	-0.0149877 	-0.95537 	0.350002 	1.53526 	-0.00896009 	3.13944 	90.1558 	81.2539 	-0.591211 	149.007 	360.634 	158.606 	539.793 	
8.8015 	-0.0149302 	-0.957021 	0.339153 	1.54399 	-0.00883528 	3.1394 	90.1559 	80.7336 	-0.591211 	149.5 	360.634 	159.141 	539.793 	
8.90457 	-0.0148722 	-0.958534 	0.328272 	1.55272 	-0.00870994 	3.13937 	90.1559 	80.2483 	-0.591211 	150.008 	360.634 	159.598 	539.793 	
9.00801 	-0.0148138 	-0.959908 	0.317362 	1.56144 	-0.0085841 	3.13933 	90.1559 	79.684 	-0.591211 	150.551 	360.634 	160.158 	539.793 	
9.11453 	-0.014755 	-0.961141 	0.306424 	1.57017 	-0.00845775 	3.1393 	90.1559 	79.1972 	-0.591211 	151.064 	360.634 	160.69 	539.793 	
9.21726 	-0.0146957 	-0.962235 	0.29546 	1.5789 	-0.00833091 	3.13927 	90.1559 	78.6407 	-0.591211 	151.602 	360.634 	161.203 	539.793 	
9.32015 	-0.014636 	-0.963187 	0.284472 	1.58762 	-0.00820359 	3.13924 	90.1559 	78.145 	-0.591211 	152.111 	360.634 	161.69 	539.793 	
9.42616 	-0.0145759 	-0.963999 	0.273463 	1.59635 	-0.00807581 	3.13921 	90.1559 	77.598 	-0.591211 	152.657 	360.634 	162.235 	539.793 	
9.5292 	-0.0144545 	-0.965196 	0.251388 	1.6138 	-0.00781885 	3.13915 	90.1559 	77.0917 	-0.591211 	153.166 	360.634 	162.755 	539.793 	
9.63303 	-0.0143931 	-0.965582 	0.240325 	1.62253 	-0.00768971 	3.13913 	90.1558 	76.6003 	-0.591211 	153.66 	360.634 	163.239 	539.793 	
9.73624 	-0.0143313 	-0.965824 	0.22925 	1.63126 	-0.00756013 	3.1391 	90.1559 	76.0454 	-0.591211 	154.215 	360.634 	163.787 	539.793 	
9.8394 	-0.0142692 	-0.965924 	0.218162 	1.63998 	-0.00743013 	3.13908 	90.1558 	75.5585 	-0.591211 	154.712 	360.634 	164.305 	539.793 	
9.94222 	-0.0142066 	-0.96588 	0.207065 	1.64871 	-0.00729972 	3.13906 	90.1559 	75.0381 	-0.591211 	155.212 	360.634 	164.78 	539.793 	
10.0452 	-0.0141437 	-0.965693 	0.195961 	1.65744 	-0.00716891 	3.13904 	90.1559 	74.5522 	-0.591211 	155.719 	360.634 	165.332 	539.793 	
10.1483 	-0.0140803 	-0.965362 	0.184852 	1.66616 	-0.0070377 	3.13902 	90.1559 	73.9831 	-0.591211 	156.262 	360.634 	165.866 	539.793 	
10.2512 	-0.0140166 	-0.964887 	0.173739 	1.67489 	-0.00690612 	3.139 	90.1559 	73.5039 	-0.591211 	156.767 	360.634 	166.331 	539.793 	
10.3546 	-0.0139525 	-0.964268 	0.162625 	1.68362 	-0.00677416 	3.13898 	90.1558 	72.9943 	-0.591211 	157.262 	360.634 	166.88 	539.793 	
10.4577 	-0.013888 	-0.963505 	0.151512 	1.69234 	-0.00664183 	3.13896 	90.1559 	72.4503 	-0.591211 	157.822 	360.634 	167.428 	539.793 	
10.5607 	-0.0138232 	-0.962598 	0.140402 	1.70107 	-0.00650916 	3.13895 	90.1558 	71.9461 	-0.591211 	158.313 	360.634 	167.889 	539.793 	
10.6633 	-0.013758 	-0.961547 	0.129297 	1.7098 	-0.00637614 	3.13893 	90.156 	71.4532 	-0.591211 	158.818 	360.634 	168.423 	539.793 	
10.7668 	-0.0136924 	-0.960351 	0.118199 	1.71852 	-0.00624279 	3.13892 	90.1558 	70.9046 	-0.591211 	159.358 	360.634 	168.935 	539.793 	
10.8744 	-0.0136265 	-0.959011 	0.10711 	1.72725 	-0.00610912 	3.13891 	90.1559 	70.4005 	-0.591211 	159.868 	360.634 	169.445 	539.793 	
10.9773 	-0.0135602 	-0.957528 	0.0960331 	1.73598 	-0.00597514 	3.1389 	90.1559 	69.8632 	-0.591211 	160.411 	360.634 	170.023 	539.793 	
11.0804 	-0.0134936 	-0.9559 	0.084969 	1.7447 	-0.00584085 	3.13889 	90.1558 	69.3486 	-0.591211 	160.919 	360.634 	170.54 	539.793 	
11.1834 	-0.0134266 	-0.954128 	0.0739207 	1.75343 	-0.00570628 	3.13888 	90.1559 	68.8754 	-0.591211 	161.418 	360.634 	170.999 	539.793 	
11.2863 	-0.0133593 	-0.952213 	0.0628897 	1.76216 	-0.00557142 	3.13887 	90.1558 	68.3013 	-0.591211 	161.967 	360.634 	171.506 	539.793 	
11.3894 	-0.0132917 	-0.950154 	0.0518786 	1.77088 	-0.00543629 	3.13886 	90.1559 	67.8155 	-0.591211 	162.47 	360.634 	172.091 	539.793 	
11.4923 	-0.0132237 	-0.947952 	0.040889 	1.77961 	-0.0053009 	3.13886 	90.1558 	67.3017 	-0.591211 	162.959 	360.634 	172.55 	539.793 	
11.5956 	-0.0131555 	-0.945607 	0.0299233 	1.78834 	-0.00516526 	3.13885 	90.1559 	66.8219 	-0.591211 	163.467 	360.634 	173.058 	539.793 	
11.6986 	-0.0130869 	-0.943119 	0.0189834 	1.79706 	-0.00502938 	3.13885 	90.1558 	66.2608 	-0.591211 	164.012 	360.634 	173.65 	539.793 	
11.8018 	-0.013018 	-0.940489 	0.00807152 	1.80579 	-0.00489328 	3.13885 	90.1559 	65.7731 	-0.591211 	164.52 	360.634 	174.114 	539.793 	
11.9046 	-0.0129488 	-0.937716 	-0.00281037 	1.81452 	-0.00475695 	3.13885 	90.1558 	65.2698 	-0.591211 	165.01 	360.634 	174.602 	539.793 	
12.0082 	-0.0128793 	-0.934803 	-0.0136603 	1.82324 	-0.00462041 	3.13885 	90.1559 	64.7198 	-0.591211 	165.569 	360.634 	175.197 	539.793 	
12.115 	-0.0128095 	-0.931747 	-0.024476 	1.83197 	-0.00448368 	3.13885 	90.1559 	64.2374 	-0.591211 	166.054 	360.634 	175.664 	539.793 	
12.2174 	-0.0127394 	-0.928551 	-0.0352557 	1.8407 	-0.00434676 	3.13885 	90.1558 	63.6623 	-0.591211 	166.623 	360.634 	176.192 	539.793 	
12.3207 	-0.0126691 	-0.925215 	-0.0459971 	1.84942 	-0.00420966 	3.13886 	90.1559 	63.1873 	-0.591211 	167.111 	360.634 	176.74 	539.793 	
12.4262 	-0.0125985 	-0.921739 	-0.0566978 	1.85815 	-0.00407239 	3.13886 	90.1558 	62.6374 	-0.591211 	167.657 	360.634 	177.229 	539.793 	
12.5306 	-0.0124582 	-0.915619 	-0.074725 	1.87205 	-0.00379888 	3.13887 	90.1558 	62.2112 	-0.591211 	168.163 	360.634 	177.741 	539.793 	
12.6333 	-0.0123911 	-0.914878 	-0.0773362 	1.87205 	-0.00366488 	3.13887 	90.1558 	62.0913 	-0.591211 	168.682 	360.634 	178.265 	539.793 	
12.7366 	-0.012324 	-0.914115 	-0.079941 	1.87205 	-0.00353086 	3.13886 	90.1558 	62.088 	-0.591211 	169.204 	360.634 	178.789 	539.793 	
12.8396 	-0.0122568 	-0.913329 	-0.0825391 	1.87205 	-0.00339683 	3.13886 	90.1561 	62.0863 	-0.591211 	169.706 	360.634 	179.293 	539.793 	
12.9425 	-0.0121896 	-0.912521 	-0.08513 	1.87205 	-0.00326279 	3.13886 	90.156 	62.0858 	-0.591211 	170.214 	360.634 	179.837 	539.793 	
13.0457 	-0.0121222 	-0.91169 	-0.087714 	1.87205 	-0.00312876 	3.13886 	90.1563 	62.0858 	-0.591211 	170.704 	360.634 	180.343 	539.793 	
13.1484 	-0.0120548 	-0.910836 	-0.0902904 	1.87205 	-0.00299474 	3.13887 	90.1562 	62.0858 	-0.591211 	171.265 	360.634 	180.848 	539.793 	
13.2513 	-0.0119873 	-0.90996 	-0.0928595 	1.87205 	-0.00286075 	3.13887 	90.1563 	62.0858 	-0.591211 	171.749 	360.634 	181.38 	539.793 	
13.3545 	-0.0119198 	-0.909062 	-0.0954207 	1.87205 	-0.0027268 	3.13887 	90.1562 	62.0858 	-0.591211 	172.26 	360.634 	181.896 	539.793 	
13.4573 	-0.0118521 	-0.908141 	-0.097974 	1.87205 	-0.0025929 	3.13888 	90.1563 	62.0858 	-0.591211 	172.802 	360.634 	182.405 	539.793 	
13.5606 	-0.0117845 	-0.907198 	-0.100519 	1.87205 	-0.00245905 	3.13889 	90.1562 	62.0858 	-0.591211 	173.309 	360.634 	182.923 	539.793 	
13.6634 	-0.0117168 	-0.906232 	-0.103056 	1.87205 	-0.00232527 	3.1389 	90.1562 	62.0858 	-0.591211 	173.802 	360.634 	183.448 	539.793 	
13.7666 	-0.0116491 	-0.905245 	-0.105584 	1.87205 	-0.00219157 	3.13891 	90.1563 	62.0858 	-0.591211 	174.355 	360.634 	183.905 	539.793 	
13.8745 	-0.0115813 	-0.904236 	-0.108104 	1.87205 	-0.00205796 	3.13892 	90.1562 	62.0858 	-0.591211 	174.857 	360.634 	184.464 	539.793 	
13.9774 	-0.0115135 	-0.903205 	-0.110615 	1.87205 	-0.00192445 	3.13893 	90.1563 	62.0858 	-0.591211 	175.405 	360.634 	185.051 	539.793 	
14.0806 	-0.0114456 	-0.902151 	-0.113116 	1.87205 	-0.00179104 	3.13894 	90.1562 	62.0857 	-0.591211 	175.903 	360.634 	185.5 	539.793 	
14.1834 	-0.0113778 	-0.901076 	-0.115608 	1.87205 	-0.00165776 	3.13896 	90.1563 	62.0858 	-0.591211 	176.402 	360.634 	186.004 	539.793 	
14.2866 	-0.0113099 	-0.89998 	-0.118091 	1.87205 	-0.0015246 	3.13897 	90.1562 	62.0858 	-0.591211 	176.954 	360.634 	186.553 	539.793 	
14.3896 	-0.0112421 	-0.898861 	-0.120564 	1.87204 	-0.00139158 	3.13899 	90.1562 	62.0858 	-0.591211 	177.448 	360.634 	187.055 	539.793 	
14.4924 	-0.0111742 	-0.897722 	-0.123027 	1.87204 	-0.00125871 	3.139 	90.1562 	62.0858 	-0.591211 	177.95 	360.634 	187.563 	539.793 	
14.5956 	-0.0111063 	-0.89656 	-0.125481 	1.87204 	-0.001126 	3.13902 	90.1561 	62.0857 	-0.591211 	178.445 	360.634 	188.089 	539.793 	
14.6986 	-0.0110384 	-0.895377 	-0.127924 	1.87204 	-0.000993461 	3.13904 	90.1562 	62.0858 	-0.591211 	179.001 	360.634 	188.614 	539.793 	
14.8015 	-0.0109706 	-0.894174 	-0.130356 	1.87204 	-0.0008611 	3.13907 	90.1561 	62.0857 	-0.591211 	179.499 	360.634 	189.1 	539.793 	
14.9047 	-0.0109028 	-0.892948 	-0.132778 	1.87204 	-0.000728928 	3.13909 	90.1562 	62.0858 	-0.591211 	180.002 	360.634 	189.643 	539.793 	
15.0078 	-0.0108349 	-0.891702 	-0.135189 	1.87204 	-0.000596956 	3.13911 	90.1561 	62.0858 	-0.591211 	180.544 	360.634 	190.18 	539.793 	
15.1148 	-0.0107671 	-0.890435 	-0.13759 	1.87204 	-0.000465192 	3.13914 	90.1562 	62.0858 	-0.591211 	181.05 	360.634 	190.649 	539.793 	
15.2177 	-0.0106994 	-0.889147 	-0.139979 	1.87204 	-0.000333651 	3.13916 	90.1562 	62.0858 	-0.591211 	181.597 	360.634 	191.244 	539.793 	
15.3205 	-0.0106317 	-0.887838 	-0.142356 	1.87204 	-0.000202339 	3.13919 	90.1562 	62.0858 	-0.591211 	182.098 	360.634 	191.732 	539.793 	
15.429 	-0.0104964 	-0.885158 	-0.147077 	1.87204 	5.9559e-05 	3.13925 	90.1562 	62.0858 	-0.591211 	182.644 	360.634 	192.253 	539.793 	
15.5323 	-0.0104288 	-0.883787 	-0.14942 	1.87204 	0.000190124 	3.13928 	90.1561 	62.0858 	-0.591211 	183.145 	360.634 	192.78 	539.793 	
15.6354 	-0.0103613 	-0.882396 	-0.15175 	1.87204 	0.000320418 	3.13931 	90.1562 	62.0858 	-0.591211 	183.645 	360.634 	193.296 	539.793 	
15.7385 	-0.0102938 	-0.880984 	-0.154069 	1.87204 	0.000450434 	3.13934 	90.1561 	62.0858 	-0.591211 	184.194 	360.634 	193.802 	539.793 	
15.8417 	-0.0102264 	-0.879552 	-0.156375 	1.87204 	0.000580158 	3.13937 	90.1562 	62.0858 	-0.591211 	184.697 	360.634 	194.333 	539.793 	
15.9445 	-0.0101591 	-0.878101 	-0.158668 	1.87204 	0.000709585 	3.13941 	90.1561 	62.0858 	-0.591211 	185.189 	360.634 	194.843 	539.793 	
16.0474 	-0.0100919 	-0.876629 	-0.160949 	1.87203 	0.000838702 	3.13944 	90.1562 	62.0858 	-0.591211 	185.743 	360.634 	195.351 	539.793 	
16.1506 	-0.0100247 	-0.875137 	-0.163216 	1.87203 	0.000967498 	3.13948 	90.1562 	62.0858 	-0.591211 	186.238 	360.634 	195.872 	539.793 	
16.2534 	-0.00995766 	-0.873626 	-0.165471 	1.87203 	0.00109597 	3.13952 	90.1562 	62.0858 	-0.591211 	186.738 	360.634 	196.401 	539.793 	
16.3564 	-0.00989069 	-0.872095 	-0.167712 	1.87203 	0.0012241 	3.13956 	90.1562 	62.0858 	-0.591211 	187.283 	360.634 	196.86 	539.793 	
16.4595 	-0.00982382 	-0.870545 	-0.16994 	1.87203 	0.00135188 	3.1396 	90.1561 	62.0858 	-0.591211 	187.787 	360.634 	197.417 	539.793 	
16.5625 	-0.00975706 	-0.868975 	-0.172154 	1.87203 	0.00147931 	3.13964 	90.1562 	62.0858 	-0.591211 	188.286 	360.634 	197.949 	539.793 	
16.6655 	-0.0096904 	-0.867386 	-0.174354 	1.87203 	0.00160636 	3.13968 	90.1561 	62.0858 	-0.591211 	188.788 	360.634 	198.406 	539.793 	
16.7746 	-0.00962386 	-0.865777 	-0.176541 	1.87203 	0.00173304 	3.13973 	90.1562 	62.0858 	-0.591211 	189.334 	360.634 	198.961 	539.793 	
16.8777 	-0.00955744 	-0.86415 	-0.178713 	1.87203 	0.00185933 	3.13977 	90.1561 	62.0858 	-0.591211 	189.887 	360.634 	199.546 	539.793 	
16.9807 	-0.00949114 	-0.862504 	-0.180871 	1.87203 	0.00198523 	3.13982 	90.1562 	62.0858 	-0.591211 	190.387 	360.634 	200.013 	539.793 	
17.0835 	-0.00942497 	-0.860839 	-0.183015 	1.87203 	0.00211072 	3.13987 	90.1562 	62.0858 	-0.591211 	190.884 	360.634 	200.506 	539.793 	
17.1865 	-0.00935894 	-0.859155 	-0.185144 	1.87203 	0.00223579 	3.13991 	90.1561 	62.0858 	-0.591211 	191.436 	360.634 	201.045 	539.793 	
17.2895 	-0.00929305 	-0.857453 	-0.187258 	1.87203 	0.00236044 	3.13996 	90.1562 	62.0858 	-0.591211 	191.928 	360.634 	201.561 	539.793 	
17.3926 	-0.00922729 	-0.855733 	-0.189357 	1.87203 	0.00248465 	3.14001 	90.1562 	62.0858 	-0.591211 	192.429 	360.634 	202.053 	539.793 	
17.4956 	-0.0091617 	-0.853994 	-0.191441 	1.87202 	0.00260842 	3.14006 	90.1562 	62.0858 	-0.591211 	192.93 	360.634 	202.591 	539.793 	
17.5986 	-0.00909625 	-0.852237 	-0.19351 	1.87202 	0.00273173 	3.14012 	90.1562 	62.0858 	-0.591211 	193.48 	360.634 	203.137 	539.793 	
17.7015 	-0.00903096 	-0.850462 	-0.195564 	1.87202 	0.00285458 	3.14017 	90.1562 	62.0858 	-0.591211 	193.979 	360.634 	203.603 	539.793 	
17.8045 	-0.00896584 	-0.848669 	-0.197601 	1.87202 	0.00297696 	3.14023 	90.1562 	62.0858 	-0.591211 	194.48 	360.634 	204.137 	539.793 	
17.9081 	-0.00890089 	-0.846859 	-0.199624 	1.87202 	0.00309886 	3.14028 	90.1562 	62.0859 	-0.591211 	195.025 	360.634 	204.689 	539.793 	
18.0147 	-0.00883611 	-0.845031 	-0.20163 	1.87202 	0.00322026 	3.14034 	90.1562 	62.0858 	-0.591211 	195.529 	360.634 	205.148 	539.793 	
18.1174 	-0.00877152 	-0.843185 	-0.20362 	1.87202 	0.00334117 	3.1404 	90.1562 	62.0858 	-0.591211 	196.071 	360.634 	205.737 	539.793 	
18.2203 	-0.0087071 	-0.841322 	-0.205594 	1.87202 	0.00346156 	3.14045 	90.1562 	62.0859 	-0.591211 	196.567 	360.634 	206.247 	539.793 	
18.3253 	-0.00864288 	-0.839442 	-0.207552 	1.87202 	0.00358144 	3.14051 	90.1561 	62.0859 	-0.591211 	197.075 	360.634 	206.701 	539.793 	
18.4288 	-0.00857885 	-0.837545 	-0.209493 	1.87202 	0.00370079 	3.14058 	90.1562 	62.0859 	-0.591211 	197.621 	360.634 	207.276 	539.793 	
18.5325 	-0.00851502 	-0.835631 	-0.211418 	1.87202 	0.0038196 	3.14064 	90.1562 	62.0859 	-0.591211 	198.122 	360.634 	207.785 	539.793 	
18.6355 	-0.00838797 	-0.831754 	-0.215217 	1.87202 	0.00405558 	3.14077 	90.1562 	62.0858 	-0.591211 	198.618 	360.634 	208.243 	539.793 	
18.7385 	-0.00832476 	-0.82979 	-0.217091 	1.87201 	0.00417272 	3.14083 	90.1562 	62.0859 	-0.591211 	199.17 	360.634 	208.824 	539.793 	
18.8417 	-0.00826178 	-0.82781 	-0.218947 	1.87201 	0.0042893 	3.1409 	90.1561 	62.0859 	-0.591211 	199.664 	360.634 	209.352 	539.793 	
18.9445 	-0.00819901 	-0.825814 	-0.220787 	1.87201 	0.00440529 	3.14096 	90.1562 	62.0859 	-0.591211 	200.168 	360.634 	209.807 	539.793 	
19.0476 	-0.00813648 	-0.823802 	-0.222608 	1.87201 	0.00452069 	3.14103 	90.1561 	62.0859 	-0.591211 	200.714 	360.634 	210.367 	539.793 	
19.1506 	-0.00807417 	-0.821774 	-0.224412 	1.87201 	0.00463549 	3.1411 	90.1562 	62.0859 	-0.591211 	201.213 	360.634 	210.895 	539.793 	
19.2537 	-0.00801211 	-0.81973 	-0.226199 	1.87201 	0.00474969 	3.14117 	90.1561 	62.0859 	-0.591211 	201.714 	360.634 	211.361 	539.793 	
19.3567 	-0.00795028 	-0.817671 	-0.227967 	1.87201 	0.00486326 	3.14124 	90.1561 	62.0859 	-0.591211 	202.262 	360.634 	211.858 	539.793 	
19.4599 	-0.00788871 	-0.815597 	-0.229718 	1.87201 	0.00497621 	3.14131 	90.1561 	62.0859 	-0.591211 	202.758 	360.634 	212.447 	539.793 	
19.5624 	-0.00782738 	-0.813507 	-0.23145 	1.87201 	0.00508853 	3.14139 	90.1561 	62.0859 	-0.591211 	203.256 	360.634 	212.922 	539.793 	
19.666 	-0.00776631 	-0.811403 	-0.233164 	1.87201 	0.0052002 	3.14146 	90.1561 	62.0859 	-0.591211 	203.76 	360.634 	213.398 	539.793 	
19.7746 	-0.00770551 	-0.809283 	-0.23486 	1.87201 	0.00531123 	3.14154 	90.1561 	62.0859 	-0.591211 	204.307 	360.634 	213.98 	539.793 	
19.8778 	-0.00764496 	-0.807149 	-0.236537 	1.872 	0.00542159 	-3.14157 	90.1561 	62.0859 	-0.591211 	204.854 	360.634 	214.516 	539.793 	
19.981 	-0.00758469 	-0.805 	-0.238195 	1.872 	0.00553128 	-3.1415 	90.1561 	62.0859 	-0.591211 	205.349 	360.634 	214.993 	539.793 	
20.0835 	-0.00752469 	-0.802837 	-0.239834 	1.872 	0.0056403 	-3.14142 	90.1561 	62.0859 	-0.591211 	205.855 	360.634 	215.538 	539.793 	
20.1867 	-0.00746498 	-0.800659 	-0.241455 	1.872 	0.00574864 	-3.14134 	90.1561 	62.086 	-0.591211 	206.401 	360.634 	216.034 	539.793 	
20.2898 	-0.00740554 	-0.798468 	-0.243056 	1.872 	0.00585628 	-3.14126 	90.1561 	62.086 	-0.591211 	206.904 	360.634 	216.544 	539.793 	
20.3928 	-0.0073464 	-0.796262 	-0.244638 	1.872 	0.00596322 	-3.14118 	90.1561 	62.0859 	-0.591211 	207.394 	360.634 	217.079 	539.793 	
20.4955 	-0.00728754 	-0.794043 	-0.246201 	1.872 	0.00606945 	-3.1411 	90.1561 	62.086 	-0.591211 	207.9 	360.634 	217.584 	539.793 	
20.599 	-0.00722899 	-0.791811 	-0.247745 	1.872 	0.00617496 	-3.14101 	90.1562 	62.086 	-0.591211 	208.45 	360.634 	218.095 	539.793 	
20.702 	-0.00717073 	-0.789564 	-0.249269 	1.872 	0.00627975 	-3.14093 	90.1561 	62.086 	-0.591211 	208.946 	360.634 	218.627 	539.793 	
20.8046 	-0.00711278 	-0.787305 	-0.250773 	1.872 	0.0063838 	-3.14085 	90.1562 	62.086 	-0.591211 	209.442 	360.634 	219.15 	539.793 	
20.9077 	-0.00705515 	-0.785033 	-0.252258 	1.87199 	0.00648712 	-3.14076 	90.1561 	62.086 	-0.591211 	209.992 	360.634 	219.651 	539.793 	
21.0167 	-0.00699782 	-0.782747 	-0.253722 	1.87199 	0.00658968 	-3.14067 	90.1561 	62.086 	-0.591211 	210.493 	360.634 	220.169 	539.793 	
21.1193 	-0.00694082 	-0.78045 	-0.255167 	1.87199 	0.00669148 	-3.14059 	90.1562 	62.086 	-0.591211 	211.042 	360.634 	220.739 	539.793 	
21.2235 	-0.00688414 	-0.778139 	-0.256591 	1.87199 	0.00679253 	-3.1405 	90.1561 	62.086 	-0.591211 	211.538 	360.634 	221.198 	539.793 	
21.3267 	-0.00682779 	-0.775816 	-0.257996 	1.87199 	0.00689279 	-3.14041 	90.1562 	62.086 	-0.591211 	212.034 	360.634 	221.705 	539.793 	
21.4307 	-0.00671609 	-0.771134 	-0.260743 	1.87199 	0.00709099 	-3.14023 	90.1561 	62.0861 	-0.591211 	212.588 	360.634 	222.294 	539.793 	
21.5335 	-0.00666075 	-0.768776 	-0.262086 	1.87199 	0.00718889 	-3.14014 	90.1561 	62.0861 	-0.591211 	213.085 	360.634 	222.759 	539.793 	
21.6367 	-0.00660575 	-0.766405 	-0.263409 	1.87199 	0.00728599 	-3.14004 	90.1561 	62.0861 	-0.591211 	213.586 	360.634 	223.259 	539.793 	
21.7396 	-0.00655111 	-0.764023 	-0.26471 	1.87199 	0.00738229 	-3.13995 	90.1561 	62.0861 	-0.591211 	214.129 	360.634 	223.841 	539.793 	
21.8421 	-0.00649682 	-0.76163 	-0.265991 	1.87198 	0.00747776 	-3.13986 	90.1561 	62.0861 	-0.591211 	214.631 	360.634 	224.308 	539.793 	
21.9454 	-0.00644288 	-0.759226 	-0.267251 	1.87198 	0.00757241 	-3.13976 	90.1561 	62.0861 	-0.591211 	215.132 	360.634 	224.8 	539.793 	
22.0487 	-0.00638931 	-0.756811 	-0.26849 	1.87198 	0.00766623 	-3.13967 	90.1561 	62.0861 	-0.591211 	215.679 	360.634 	225.397 	539.793 	
22.1518 	-0.0063361 	-0.754385 	-0.269708 	1.87198 	0.00775921 	-3.13957 	90.1561 	62.0861 	-0.591211 	216.176 	360.634 	225.874 	539.793 	
22.2543 	-0.00628326 	-0.751948 	-0.270904 	1.87198 	0.00785134 	-3.13947 	90.1561 	62.0861 	-0.591211 	216.675 	360.634 	226.331 	539.793 	
22.3579 	-0.00623079 	-0.749501 	-0.272079 	1.87198 	0.00794263 	-3.13937 	90.1561 	62.0862 	-0.591211 	217.225 	360.634 	226.941 	539.793 	
22.4608 	-0.00617871 	-0.747045 	-0.273233 	1.87198 	0.00803304 	-3.13928 	90.1561 	62.0862 	-0.591211 	217.722 	360.634 	227.424 	539.793 	
22.5636 	-0.006127 	-0.744578 	-0.274365 	1.87198 	0.0081226 	-3.13918 	90.1561 	62.0862 	-0.591211 	218.223 	360.634 	227.894 	539.793 	
22.6667 	-0.00607568 	-0.742101 	-0.275476 	1.87198 	0.00821128 	-3.13908 	90.1561 	62.0862 	-0.591211 	218.717 	360.634 	228.432 	539.793 	
22.7746 	-0.00602475 	-0.739614 	-0.276565 	1.87197 	0.00829908 	-3.13897 	90.1561 	62.0863 	-0.591211 	219.27 	360.634 	228.988 	539.793 	
22.8778 	-0.00597422 	-0.737119 	-0.277633 	1.87197 	0.00838599 	-3.13887 	90.1561 	62.0863 	-0.591211 	219.818 	360.634 	229.498 	539.793 	
22.9808 	-0.00592408 	-0.734614 	-0.278678 	1.87197 	0.008472 	-3.13877 	90.1561 	62.0863 	-0.591211 	220.315 	360.634 	230.034 	539.793 	
23.0835 	-0.00587434 	-0.7321 	-0.279702 	1.87197 	0.00855712 	-3.13867 	90.1561 	62.0863 	-0.591211 	220.813 	360.634 	230.535 	539.793 	
23.1869 	-0.00582501 	-0.729577 	-0.280703 	1.87197 	0.00864133 	-3.13856 	90.1561 	62.0863 	-0.591211 	221.31 	360.634 	230.994 	539.793 	
23.2898 	-0.00577609 	-0.727046 	-0.281683 	1.87197 	0.00872463 	-3.13846 	90.1561 	62.0863 	-0.591211 	221.858 	360.634 	231.577 	539.793 	
23.3927 	-0.00572757 	-0.724506 	-0.28264 	1.87197 	0.00880701 	-3.13835 	90.1561 	62.0864 	-0.591211 	222.355 	360.634 	232.097 	539.793 	
23.4959 	-0.00567948 	-0.721957 	-0.283575 	1.87197 	0.00888846 	-3.13824 	90.1561 	62.0863 	-0.591211 	222.858 	360.634 	232.557 	539.793 	
23.5992 	-0.00563181 	-0.719401 	-0.284488 	1.87196 	0.00896897 	-3.13814 	90.1561 	62.0864 	-0.591211 	223.404 	360.634 	233.12 	539.793 	
23.7021 	-0.00558455 	-0.716837 	-0.285379 	1.87196 	0.00904855 	-3.13803 	90.1561 	62.0864 	-0.591211 	223.902 	360.634 	233.647 	539.793 	
23.805 	-0.00553773 	-0.714265 	-0.286247 	1.87196 	0.00912719 	-3.13792 	90.1561 	62.0864 	-0.591211 	224.401 	360.634 	234.107 	539.793 	
23.9076 	-0.00549134 	-0.711686 	-0.287093 	1.87196 	0.00920487 	-3.13781 	90.1561 	62.0864 	-0.591211 	224.952 	360.634 	234.661 	539.793 	
24.0147 	-0.00544538 	-0.709099 	-0.287916 	1.87196 	0.0092816 	-3.1377 	90.1561 	62.0865 	-0.591211 	225.446 	360.634 	235.202 	539.793 	
24.118 	-0.00539985 	-0.706506 	-0.288717 	1.87196 	0.00935737 	-3.13759 	90.1561 	62.0865 	-0.591211 	225.998 	360.634 	235.708 	539.793 	
24.2206 	-0.00535477 	-0.703905 	-0.289495 	1.87196 	0.00943217 	-3.13748 	90.1561 	62.0865 	-0.591211 	226.494 	360.634 	236.2 	539.793 	
24.324 	-0.00531014 	-0.701298 	-0.29025 	1.87196 	0.009506 	-3.13737 	90.1561 	62.0866 	-0.591211 	226.994 	360.634 	236.742 	539.793 	
24.4264 	-0.00526595 	-0.698684 	-0.290982 	1.87195 	0.00957884 	-3.13726 	90.1561 	62.0866 	-0.591211 	227.486 	360.634 	237.218 	539.793 	
24.5303 	-0.00517893 	-0.693438 	-0.292378 	1.87195 	0.00972157 	-3.13703 	90.1561 	62.0866 	-0.591211 	228.036 	360.634 	237.746 	539.793 	
24.6333 	-0.0051361 	-0.690806 	-0.293042 	1.87195 	0.00979145 	-3.13691 	90.1561 	62.0866 	-0.591211 	228.534 	360.634 	238.291 	539.793 	
24.7365 	-0.00509374 	-0.688168 	-0.293683 	1.87195 	0.00986032 	-3.1368 	90.1561 	62.0867 	-0.591211 	229.031 	360.634 	238.78 	539.793 	
24.8396 	-0.00505184 	-0.685525 	-0.2943 	1.87195 	0.00992819 	-3.13668 	90.1561 	62.0867 	-0.591211 	229.581 	360.634 	239.293 	539.793 	
24.9425 	-0.00501041 	-0.682876 	-0.294895 	1.87195 	0.00999505 	-3.13657 	90.1561 	62.0867 	-0.591211 	230.079 	360.634 	239.836 	539.793 	
25.0458 	-0.00496945 	-0.680223 	-0.295467 	1.87195 	0.0100609 	-3.13645 	90.1561 	62.0868 	-0.591211 	230.581 	360.634 	240.336 	539.793 	
25.1488 	-0.00492896 	-0.677564 	-0.296015 	1.87194 	0.0101257 	-3.13633 	90.1561 	62.0868 	-0.591211 	231.124 	360.634 	240.839 	539.793 	
25.2518 	-0.00488895 	-0.674901 	-0.29654 	1.87194 	0.0101895 	-3.13622 	90.1561 	62.0868 	-0.591211 	231.626 	360.634 	241.384 	539.793 	
25.3548 	-0.00484942 	-0.672233 	-0.297042 	1.87194 	0.0102523 	-3.1361 	90.1561 	62.0868 	-0.591211 	232.115 	360.634 	241.892 	539.793 	
25.4578 	-0.00481038 	-0.669561 	-0.29752 	1.87194 	0.010314 	-3.13598 	90.1561 	62.0869 	-0.591211 	232.669 	360.634 	242.397 	539.793 	
25.5608 	-0.00477182 	-0.666885 	-0.297975 	1.87194 	0.0103747 	-3.13586 	90.1561 	62.0869 	-0.591211 	233.165 	360.634 	242.928 	539.793 	
25.6638 	-0.00473375 	-0.664205 	-0.298407 	1.87194 	0.0104343 	-3.13574 	90.1561 	62.0869 	-0.591211 	233.662 	360.634 	243.446 	539.793 	
25.7671 	-0.00469617 	-0.661522 	-0.298815 	1.87194 	0.0104929 	-3.13562 	90.1561 	62.087 	-0.591211 	234.157 	360.634 	243.897 	539.793 	
25.8745 	-0.00465908 	-0.658835 	-0.2992 	1.87193 	0.0105504 	-3.1355 	90.1561 	62.087 	-0.591211 	234.706 	360.634 	244.468 	539.793 	
25.9777 	-0.00462249 	-0.656144 	-0.299562 	1.87193 	0.0106069 	-3.13538 	90.1561 	62.087 	-0.591211 	235.256 	360.634 	245.049 	539.793 	
26.0806 	-0.00458641 	-0.653451 	-0.2999 	1.87193 	0.0106623 	-3.13525 	90.1561 	62.0871 	-0.591211 	235.749 	360.634 	245.505 	539.793 	
26.184 	-0.00455082 	-0.650755 	-0.300214 	1.87193 	0.0107167 	-3.13513 	90.1561 	62.0871 	-0.591211 	236.25 	360.634 	246.008 	539.793 	
26.2868 	-0.00451575 	-0.648056 	-0.300505 	1.87193 	0.0107699 	-3.13501 	90.1561 	62.0872 	-0.591211 	236.745 	360.634 	246.55 	539.793 	
26.3898 	-0.00448117 	-0.645354 	-0.300773 	1.87193 	0.0108221 	-3.13488 	90.1561 	62.0872 	-0.591211 	237.298 	360.634 	247.05 	539.793 	
26.4928 	-0.00444711 	-0.642651 	-0.301017 	1.87193 	0.0108733 	-3.13476 	90.1561 	62.0872 	-0.591211 	237.786 	360.634 	247.548 	539.793 	
26.5958 	-0.00441357 	-0.639945 	-0.301237 	1.87193 	0.0109233 	-3.13464 	90.1561 	62.0873 	-0.591211 	238.292 	360.634 	248.099 	539.793 	
26.699 	-0.00438054 	-0.637238 	-0.301433 	1.87192 	0.0109722 	-3.13451 	90.1561 	62.0873 	-0.591211 	238.833 	360.634 	248.618 	539.793 	
26.8022 	-0.00434803 	-0.634529 	-0.301606 	1.87192 	0.0110201 	-3.13439 	90.1561 	62.0873 	-0.591211 	239.339 	360.634 	249.101 	539.793 	
26.905 	-0.00431604 	-0.631819 	-0.301756 	1.87192 	0.0110669 	-3.13426 	90.1561 	62.0874 	-0.591211 	239.829 	360.634 	249.645 	539.793 	
27.0158 	-0.00428458 	-0.629107 	-0.301881 	1.87192 	0.0111125 	-3.13413 	90.1561 	62.0875 	-0.591211 	240.376 	360.634 	250.172 	539.793 	
27.1185 	-0.00425364 	-0.626395 	-0.301983 	1.87192 	0.0111571 	-3.13401 	90.1561 	62.0875 	-0.591211 	240.919 	360.634 	250.689 	539.793 	
27.2225 	-0.00422323 	-0.623681 	-0.302061 	1.87192 	0.0112005 	-3.13388 	90.1561 	62.0875 	-0.591211 	241.422 	360.634 	251.24 	539.793 	
27.3279 	-0.00419335 	-0.620967 	-0.302116 	1.87192 	0.0112429 	-3.13375 	90.1561 	62.0876 	-0.591211 	241.967 	360.634 	251.774 	539.793 	
27.4326 	-0.00413519 	-0.615538 	-0.302154 	1.87191 	0.0113243 	-3.1335 	90.1561 	62.0877 	-0.591211 	242.465 	360.634 	252.243 	539.793 	
27.5359 	-0.00410692 	-0.612824 	-0.302138 	1.87191 	0.0113633 	-3.13337 	90.1561 	62.0877 	-0.591211 	242.966 	360.634 	252.787 	539.793 	
27.6386 	-0.00407918 	-0.610109 	-0.302098 	1.87191 	0.0114011 	-3.13324 	90.1561 	62.0878 	-0.591211 	243.511 	360.634 	253.331 	539.793 	
27.7418 	-0.00405199 	-0.607396 	-0.302034 	1.87191 	0.0114379 	-3.13311 	90.1562 	62.0878 	-0.591211 	244.011 	360.634 	253.791 	539.793 	
27.8448 	-0.00402534 	-0.604683 	-0.301946 	1.87191 	0.0114735 	-3.13298 	90.1562 	62.0879 	-0.591211 	244.505 	360.634 	254.335 	539.793 	
27.9479 	-0.00399924 	-0.60197 	-0.301835 	1.87191 	0.011508 	-3.13285 	90.1562 	62.0879 	-0.591211 	245.055 	360.634 	254.894 	539.793 	
28.0506 	-0.00397368 	-0.599259 	-0.3017 	1.87191 	0.0115414 	-3.13272 	90.1562 	62.088 	-0.591211 	245.547 	360.634 	255.346 	539.793 	
28.1539 	-0.00394867 	-0.596549 	-0.301542 	1.87191 	0.0115737 	-3.13259 	90.1562 	62.0881 	-0.591211 	246.049 	360.634 	255.872 	539.793 	
28.2568 	-0.00392421 	-0.59384 	-0.301361 	1.87191 	0.0116048 	-3.13246 	90.1562 	62.0881 	-0.591211 	246.547 	360.634 	256.396 	539.793 	
28.3596 	-0.00390031 	-0.591133 	-0.301156 	1.87191 	0.0116348 	-3.13233 	90.1562 	62.0882 	-0.591211 	247.095 	360.634 	256.891 	539.793 	
28.4629 	-0.00387695 	-0.588428 	-0.300927 	1.87191 	0.0116636 	-3.1322 	90.1561 	62.0882 	-0.591211 	247.59 	360.634 	257.413 	539.793 	
28.5661 	-0.00385416 	-0.585725 	-0.300675 	1.87191 	0.0116913 	-3.13207 	90.1562 	62.0883 	-0.591211 	248.087 	360.634 	257.951 	539.793 	
28.6738 	-0.00383192 	-0.583025 	-0.300399 	1.87191 	0.0117179 	-3.13194 	90.1562 	62.0884 	-0.591211 	248.633 	360.634 	258.451 	539.793 	
28.7769 	-0.00381239 	-0.580596 	-0.30013 	1.87191 	0.0117408 	-3.13182 	90.1561 	62.0885 	-0.591211 	249.134 	360.634 	258.955 	539.793 	
28.8797 	-0.00378913 	-0.577631 	-0.299776 	1.87192 	0.0117676 	-3.13168 	90.1562 	62.0886 	-0.591113 	249.683 	360.634 	259.551 	539.793 	
28.9829 	-0.00376858 	-0.574939 	-0.29943 	1.87192 	0.0117907 	-3.13154 	90.1562 	62.0886 	-0.591211 	250.176 	360.634 	260 	539.793 	
29.0858 	-0.0037486 	-0.572249 	-0.29906 	1.87192 	0.0118126 	-3.13141 	90.1562 	62.0887 	-0.591211 	250.678 	360.634 	260.497 	539.793 	
29.189 	-0.00372918 	-0.569563 	-0.298667 	1.87192 	0.0118334 	-3.13128 	90.1562 	62.0888 	-0.591113 	251.228 	360.634 	261.099 	539.793 	
29.292 	-0.00371033 	-0.566881 	-0.29825 	1.87192 	0.0118531 	-3.13115 	90.1562 	62.0889 	-0.591211 	251.727 	360.634 	261.567 	539.793 	
29.395 	-0.00369205 	-0.564202 	-0.29781 	1.87192 	0.0118716 	-3.13101 	90.1562 	62.089 	-0.591113 	252.22 	360.634 	262.045 	539.793 	
29.4981 	-0.00367434 	-0.561527 	-0.297346 	1.87192 	0.0118889 	-3.13088 	90.1562 	62.0892 	-0.591113 	252.775 	360.634 	262.644 	539.793 	
29.601 	-0.0036572 	-0.558857 	-0.296859 	1.87193 	0.0119051 	-3.13075 	90.1562 	62.0894 	-0.591113 	253.266 	360.634 	263.12 	539.793 	
29.7038 	-0.00364064 	-0.556191 	-0.296349 	1.87193 	0.0119201 	-3.13062 	90.1562 	62.0897 	-0.591113 	253.766 	360.634 	263.588 	539.793 	
29.807 	-0.00362465 	-0.553529 	-0.295816 	1.87193 	0.0119339 	-3.13048 	90.1562 	62.09 	-0.591211 	254.265 	360.634 	264.135 	539.793 	
29.9151 	-0.00360924 	-0.550872 	-0.295259 	1.87193 	0.0119466 	-3.13035 	90.1562 	62.0903 	-0.591113 	254.813 	360.634 	264.685 	539.793 	
30.0179 	-0.0035944 	-0.54822 	-0.29468 	1.87193 	0.0119582 	-3.13021 	90.1562 	62.0906 	-0.591113 	255.361 	360.634 	265.188 	539.793 	
30.1206 	-0.00358015 	-0.545573 	-0.294077 	1.87193 	0.0119685 	-3.13008 	90.1561 	62.0908 	-0.591113 	255.859 	360.634 	265.733 	539.793 	
30.2266 	-0.00356648 	-0.542932 	-0.29345 	1.87193 	0.0119777 	-3.12995 	90.1561 	62.0911 	-0.591113 	256.357 	360.634 	266.229 	539.793 	
30.3304 	-0.00355339 	-0.540297 	-0.292801 	1.87193 	0.0119857 	-3.12981 	90.1561 	62.0918 	-0.591113 	256.904 	360.634 	266.731 	539.793 	
30.4334 	-0.00352897 	-0.535045 	-0.291433 	1.87193 	0.0119982 	-3.12955 	90.1561 	62.0986 	-0.591113 	257.405 	360.634 	267.272 	539.793 	
30.5369 	-0.00351763 	-0.532428 	-0.290715 	1.87193 	0.0120027 	-3.12941 	90.1561 	62.1011 	-0.591113 	257.9 	360.634 	267.791 	539.793 	
30.6396 	-0.00350687 	-0.529817 	-0.289974 	1.87193 	0.012006 	-3.12928 	90.1561 	62.1018 	-0.591113 	258.45 	360.634 	268.288 	539.793 	
30.7429 	-0.0034967 	-0.527213 	-0.289211 	1.87193 	0.0120081 	-3.12914 	90.1561 	62.102 	-0.591113 	258.944 	360.634 	268.817 	539.793 	
30.8457 	-0.00348712 	-0.524616 	-0.288424 	1.87193 	0.0120091 	-3.12901 	90.1561 	62.1021 	-0.591113 	259.444 	360.634 	269.342 	539.793 	
30.949 	-0.00347812 	-0.522026 	-0.287615 	1.87192 	0.0120089 	-3.12888 	90.1561 	62.1023 	-0.591113 	259.988 	360.634 	269.841 	539.793 	
31.0519 	-0.00346971 	-0.519442 	-0.286784 	1.87192 	0.0120076 	-3.12874 	90.1561 	62.1027 	-0.591113 	260.492 	360.634 	270.35 	539.793 	
31.1548 	-0.00346189 	-0.516867 	-0.28593 	1.87192 	0.012005 	-3.12861 	90.1561 	62.1029 	-0.591113 	260.984 	360.634 	270.896 	539.793 	
31.2579 	-0.00345466 	-0.514298 	-0.285053 	1.87192 	0.0120013 	-3.12847 	90.1561 	62.1033 	-0.591113 	261.534 	360.634 	271.399 	539.793 	
31.3608 	-0.00344801 	-0.511738 	-0.284154 	1.87192 	0.0119965 	-3.12834 	90.1561 	62.1034 	-0.591113 	262.032 	360.634 	271.897 	539.793 	
31.464 	-0.00344196 	-0.509185 	-0.283233 	1.87192 	0.0119905 	-3.12821 	90.1561 	62.1037 	-0.591113 	262.531 	360.634 	272.44 	539.793 	
31.5668 	-0.00343649 	-0.506641 	-0.28229 	1.87192 	0.0119833 	-3.12807 	90.1561 	62.1043 	-0.591113 	263.033 	360.634 	272.905 	539.793 	
31.6737 	-0.00343161 	-0.504104 	-0.281324 	1.87192 	0.0119749 	-3.12794 	90.1561 	62.1046 	-0.591113 	263.576 	360.634 	273.437 	539.793 	
31.7768 	-0.00342733 	-0.501577 	-0.280336 	1.87192 	0.0119654 	-3.12781 	90.1561 	62.105 	-0.591113 	264.078 	360.634 	273.994 	539.793 	
31.8801 	-0.00342364 	-0.499058 	-0.279327 	1.87192 	0.0119547 	-3.12767 	90.1561 	62.1054 	-0.591113 	264.624 	360.634 	274.514 	539.793 	
31.9829 	-0.00342053 	-0.496548 	-0.278295 	1.87192 	0.0119428 	-3.12754 	90.1561 	62.1057 	-0.591113 	265.122 	360.634 	274.984 	539.793 	
32.086 	-0.00341802 	-0.494047 	-0.277242 	1.87191 	0.0119298 	-3.1274 	90.1561 	62.106 	-0.591113 	265.616 	360.634 	275.53 	539.793 	
32.1889 	-0.0034161 	-0.491555 	-0.276167 	1.87191 	0.0119156 	-3.12727 	90.1561 	62.1064 	-0.591113 	266.17 	360.634 	276.062 	539.793 	
32.2919 	-0.00341477 	-0.489073 	-0.27507 	1.87191 	0.0119002 	-3.12714 	90.1561 	62.1069 	-0.591113 	266.665 	360.634 	276.527 	539.793 	
32.3949 	-0.00341404 	-0.486601 	-0.273951 	1.87191 	0.0118837 	-3.12701 	90.1561 	62.1073 	-0.591113 	267.168 	360.634 	277.074 	539.793 	
32.498 	-0.00341389 	-0.484138 	-0.272811 	1.87191 	0.0118661 	-3.12687 	90.1561 	62.1105 	-0.591113 	267.709 	360.634 	277.627 	539.793 	
32.601 	-0.00341434 	-0.481685 	-0.27165 	1.87191 	0.0118472 	-3.12674 	90.1561 	62.1295 	-0.591113 	268.211 	360.634 	278.086 	539.793 	
32.7039 	-0.00341538 	-0.479243 	-0.270467 	1.87191 	0.0118272 	-3.12661 	90.1561 	62.1301 	-0.591113 	268.6 	360.634 	278.615 	539.793 	
32.8072 	-0.00344362 	-0.479482 	-0.268408 	1.86441 	0.011718 	-3.1265 	90.156 	62.1308 	-0.591113 	268.663 	360.634 	279.135 	539.793 	
32.911 	-0.00347645 	-0.480138 	-0.266203 	1.85568 	0.0115935 	-3.1264 	90.156 	62.131 	-0.591113 	268.667 	360.634 	279.63 	539.793 	
33.015 	-0.00350952 	-0.480776 	-0.263992 	1.84696 	0.0114681 	-3.1263 	90.156 	62.1311 	-0.591113 	268.668 	360.634 	280.157 	539.793 	
33.1182 	-0.00354282 	-0.481394 	-0.261776 	1.83823 	0.0113419 	-3.1262 	90.156 	62.1312 	-0.591113 	268.668 	360.634 	280.734 	539.793 	
33.2207 	-0.00357634 	-0.481993 	-0.259554 	1.82951 	0.0112148 	-3.1261 	90.156 	62.1312 	-0.591113 	268.668 	360.634 	281.182 	539.793 	
33.3267 	-0.00364406 	-0.483132 	-0.255096 	1.81206 	0.010958 	-3.12591 	90.156 	62.1312 	-0.591113 	268.668 	360.634 	281.696 	539.793 	
33.4307 	-0.00367826 	-0.483672 	-0.252859 	1.80334 	0.0108283 	-3.12581 	90.156 	62.1312 	-0.591113 	268.669 	360.634 	282.284 	539.793 	
33.5347 	-0.00371267 	-0.484193 	-0.250618 	1.79461 	0.0106979 	-3.12572 	90.156 	62.1312 	-0.591113 	268.669 	360.634 	282.731 	539.793 	
33.6378 	-0.00374729 	-0.484694 	-0.248373 	1.78589 	0.0105666 	-3.12563 	90.156 	62.1312 	-0.591113 	268.669 	360.634 	283.285 	539.793 	
33.6585 	-0.00374729 	-0.484694 	-0.248373 	1.78589 	0.0105666 	-3.12563 	90.156 	62.1312 	-0.591113 	268.669 	360.634 	283.4 	539.793 	
33.7619 	-0.00376553 	-0.48597 	-0.244738 	1.77821 	0.0105008 	-3.12553 	90.156 	62.2953 	-0.591113 	268.89 	360.634 	283.875 	539.793 	
33.8649 	-0.00377693 	-0.488051 	-0.239292 	1.76948 	0.0104647 	-3.12541 	90.156 	62.7366 	-0.591113 	269.346 	360.634 	284.329 	539.793 	
33.968 	-0.00376821 	-0.489827 	-0.235142 	1.76584 	0.0105059 	-3.12535 	90.156 	63.2598 	-0.591113 	269.889 	360.634 	284.534 	539.793 	
34.0734 	-0.00374492 	-0.491388 	-0.231921 	1.76583 	0.0106031 	-3.12532 	90.156 	63.7747 	-0.591113 	270.387 	360.634 	284.558 	539.793 	
34.1759 	-0.00372181 	-0.49292 	-0.228687 	1.76583 	0.0107005 	-3.1253 	90.156 	64.2533 	-0.591113 	270.888 	360.634 	284.57 	539.793 	
34.2788 	-0.00369888 	-0.494424 	-0.225439 	1.76582 	0.0107982 	-3.12528 	90.156 	64.8215 	-0.591113 	271.435 	360.634 	284.574 	539.793 	
34.3821 	-0.00367613 	-0.495899 	-0.222179 	1.76582 	0.010896 	-3.12525 	90.156 	65.2927 	-0.591113 	271.939 	360.634 	284.576 	539.793 	
34.485 	-0.00365355 	-0.497346 	-0.218905 	1.76582 	0.0109941 	-3.12523 	90.156 	65.8159 	-0.591113 	272.438 	360.634 	284.577 	539.793 	
34.5882 	-0.00363117 	-0.498765 	-0.215619 	1.76581 	0.0110923 	-3.12521 	90.156 	66.3429 	-0.591113 	272.99 	360.634 	284.577 	539.793 	
34.6909 	-0.00360896 	-0.500154 	-0.212321 	1.76581 	0.0111908 	-3.12519 	90.156 	66.8598 	-0.591113 	273.487 	360.634 	284.578 	539.793 	
34.7949 	-0.00358694 	-0.501515 	-0.209011 	1.76581 	0.0112894 	-3.12517 	90.1561 	67.3432 	-0.591113 	273.988 	360.634 	284.578 	539.793 	
34.8969 	-0.00356511 	-0.502847 	-0.205689 	1.7658 	0.0113881 	-3.12515 	90.1561 	67.8972 	-0.591113 	274.486 	360.634 	284.578 	539.793 	
35.0002 	-0.00354347 	-0.50415 	-0.202356 	1.7658 	0.011487 	-3.12513 	90.1561 	68.3954 	-0.591113 	275.038 	360.634 	284.578 	539.793 	
35.103 	-0.00352202 	-0.505423 	-0.199011 	1.7658 	0.0115861 	-3.12512 	90.1561 	68.8848 	-0.591113 	275.535 	360.634 	284.578 	539.793 	
35.2064 	-0.00350077 	-0.506668 	-0.195656 	1.76579 	0.0116853 	-3.1251 	90.1561 	69.4005 	-0.591113 	276.037 	360.634 	284.578 	539.793 	
35.3123 	-0.0034797 	-0.507883 	-0.19229 	1.76579 	0.0117847 	-3.12509 	90.1561 	69.9242 	-0.591113 	276.583 	360.634 	284.579 	539.793 	
35.4148 	-0.00345884 	-0.509069 	-0.188913 	1.76579 	0.0118841 	-3.12507 	90.1561 	70.4493 	-0.591113 	277.084 	360.634 	284.579 	539.793 	
35.5181 	-0.00343817 	-0.510225 	-0.185526 	1.76578 	0.0119837 	-3.12506 	90.1561 	70.9709 	-0.591113 	277.637 	360.634 	284.579 	539.793 	
35.6212 	-0.0034177 	-0.511352 	-0.182129 	1.76578 	0.0120835 	-3.12504 	90.1561 	71.4994 	-0.591113 	278.137 	360.634 	284.579 	539.793 	
35.7267 	-0.00339743 	-0.512449 	-0.178722 	1.76578 	0.0121833 	-3.12503 	90.1561 	72.015 	-0.591113 	278.638 	360.634 	284.579 	539.793 	
35.8306 	-0.00335751 	-0.514553 	-0.171881 	1.76577 	0.0123832 	-3.12501 	90.1561 	72.5401 	-0.591113 	279.187 	360.634 	284.579 	539.793 	
35.9337 	-0.00333785 	-0.515561 	-0.168447 	1.76577 	0.0124833 	-3.125 	90.1561 	73.018 	-0.591113 	279.687 	360.634 	284.579 	539.793 	
36.0369 	-0.0033184 	-0.516538 	-0.165004 	1.76576 	0.0125835 	-3.125 	90.1561 	73.5838 	-0.591113 	280.184 	360.634 	284.579 	539.793 	
36.1398 	-0.00329916 	-0.517485 	-0.161553 	1.76576 	0.0126837 	-3.12499 	90.1561 	74.0675 	-0.591113 	280.734 	360.634 	284.579 	539.793 	
36.2426 	-0.00328013 	-0.518402 	-0.158094 	1.76576 	0.012784 	-3.12498 	90.1561 	74.5657 	-0.591113 	281.234 	360.634 	284.579 	539.793 	
36.3459 	-0.00326131 	-0.519289 	-0.154627 	1.76575 	0.0128843 	-3.12498 	90.1561 	75.0762 	-0.591113 	281.736 	360.634 	284.579 	539.793 	
36.4487 	-0.00324455 	-0.520062 	-0.1515 	1.76575 	0.0129747 	-3.12497 	90.1561 	75.613 	-0.591113 	282.284 	360.634 	284.579 	539.793 	
36.5517 	-0.00322431 	-0.520972 	-0.14767 	1.76575 	0.0130851 	-3.12497 	90.1561 	76.1296 	-0.591113 	282.782 	360.634 	284.579 	539.793 	
36.6549 	-0.00320613 	-0.521768 	-0.144181 	1.76574 	0.0131856 	-3.12496 	90.1561 	76.6007 	-0.591113 	283.286 	360.634 	284.579 	539.793 	
36.7581 	-0.00318817 	-0.522533 	-0.140685 	1.76574 	0.0132861 	-3.12496 	90.1561 	77.1716 	-0.591113 	283.833 	360.634 	284.579 	539.793 	
36.8607 	-0.00317219 	-0.523196 	-0.137533 	1.76574 	0.0133765 	-3.12496 	90.156 	77.6449 	-0.591113 	284.332 	360.634 	284.579 	539.793 	
36.9639 	-0.00315464 	-0.523903 	-0.134025 	1.76573 	0.013477 	-3.12496 	90.156 	78.1766 	-0.591113 	284.829 	360.634 	284.579 	539.793 	
37.0672 	-0.00313732 	-0.52458 	-0.130511 	1.76573 	0.0135775 	-3.12496 	90.1561 	78.6921 	-0.591113 	285.335 	360.634 	284.579 	539.793 	
37.174 	-0.00312022 	-0.525226 	-0.126991 	1.76573 	0.013678 	-3.12496 	90.1561 	79.2136 	-0.591113 	285.88 	360.634 	284.579 	539.793 	
37.2759 	-0.00310166 	-0.525901 	-0.123112 	1.76572 	0.0137885 	-3.12497 	90.1561 	79.7454 	-0.591113 	286.381 	360.634 	284.579 	539.793 	
37.3787 	-0.00308668 	-0.526426 	-0.119935 	1.76572 	0.0138789 	-3.12497 	90.1561 	80.2593 	-0.591113 	286.929 	360.634 	284.579 	539.793 	
37.4817 	-0.00307026 	-0.526979 	-0.116399 	1.76572 	0.0139793 	-3.12497 	90.1561 	80.7558 	-0.591113 	287.431 	360.634 	284.579 	539.793 	
37.585 	-0.00305405 	-0.527502 	-0.112859 	1.76571 	0.0140797 	-3.12498 	90.1561 	81.2458 	-0.591113 	287.928 	360.634 	284.579 	539.793 	
37.6882 	-0.0030365 	-0.528041 	-0.108959 	1.76571 	0.01419 	-3.12498 	90.1561 	81.8098 	-0.591113 	288.483 	360.634 	284.579 	539.793 	
37.7905 	-0.00302234 	-0.528455 	-0.105765 	1.76571 	0.0142803 	-3.12499 	90.1561 	82.2929 	-0.591113 	288.983 	360.634 	284.579 	539.793 	
37.8942 	-0.00300683 	-0.528885 	-0.102212 	1.7657 	0.0143805 	-3.125 	90.1561 	82.8158 	-0.591113 	289.482 	360.634 	284.579 	539.793 	
37.9969 	-0.00299155 	-0.529283 	-0.0986559 	1.7657 	0.0144806 	-3.12501 	90.156 	83.3379 	-0.591113 	289.981 	360.634 	284.579 	539.793 	
38.1001 	-0.00297501 	-0.529686 	-0.0947401 	1.7657 	0.0145907 	-3.12502 	90.1561 	83.864 	-0.591113 	290.528 	360.634 	284.579 	539.793 	
38.203 	-0.00296169 	-0.529988 	-0.0915335 	1.76569 	0.0146807 	-3.12503 	90.1561 	84.334 	-0.591113 	291.034 	360.634 	284.579 	539.793 	
38.3058 	-0.00294567 	-0.530322 	-0.0876112 	1.76569 	0.0147906 	-3.12504 	90.1561 	84.8588 	-0.591113 	291.529 	360.634 	284.579 	539.793 	
38.4135 	-0.00293135 	-0.530594 	-0.084043 	1.76569 	0.0148904 	-3.12505 	90.1561 	85.3864 	-0.591113 	292.081 	360.634 	284.579 	539.793 	
38.5166 	-0.00291727 	-0.530834 	-0.0804724 	1.76569 	0.01499 	-3.12506 	90.156 	85.9525 	-0.591113 	292.579 	360.634 	284.579 	539.793 	
38.6197 	-0.00290343 	-0.531043 	-0.0769 	1.76568 	0.0150896 	-3.12508 	90.156 	86.4405 	-0.591113 	293.134 	360.634 	284.579 	539.793 	
38.7245 	-0.00288984 	-0.531221 	-0.0733258 	1.76568 	0.015189 	-3.12509 	90.156 	86.9504 	-0.591113 	293.629 	360.634 	284.579 	539.793 	
38.8286 	-0.00286336 	-0.531483 	-0.0661735 	1.76567 	0.0153875 	-3.12512 	90.1561 	87.4982 	-0.591113 	294.184 	360.634 	284.579 	539.793 	
38.9325 	-0.00285049 	-0.531567 	-0.0625959 	1.76567 	0.0154865 	-3.12514 	90.1561 	87.9911 	-0.591113 	294.68 	360.634 	284.579 	539.793 	
39.0346 	-0.00283786 	-0.531621 	-0.0590178 	1.76567 	0.0155854 	-3.12516 	90.1561 	88.5027 	-0.591113 	295.185 	360.634 	284.58 	539.793 	
39.1368 	-0.00282547 	-0.531642 	-0.0554394 	1.76566 	0.0156841 	-3.12518 	90.156 	89.0435 	-0.591113 	295.681 	360.634 	284.58 	539.793 	
39.2399 	-0.00281454 	-0.531635 	-0.0522187 	1.76566 	0.0157728 	-3.12519 	90.156 	89.5591 	-0.591113 	296.233 	360.634 	284.58 	539.793 	
39.3427 	-0.00280144 	-0.531592 	-0.0482826 	1.76566 	0.015881 	-3.12522 	90.1561 	90.0341 	-0.591113 	296.732 	360.634 	284.58 	539.793 	
39.4459 	-0.00279095 	-0.531529 	-0.0450626 	1.76566 	0.0159693 	-3.12524 	90.1561 	90.5547 	-0.591113 	297.23 	360.634 	284.58 	539.793 	
39.5485 	-0.00277953 	-0.531429 	-0.0414854 	1.76565 	0.0160673 	-3.12526 	90.1561 	91.0824 	-0.591113 	297.78 	360.634 	284.58 	539.793 	
39.6517 	-0.00276726 	-0.531283 	-0.0375518 	1.76565 	0.0161749 	-3.12528 	90.156 	91.6073 	-0.591113 	298.281 	360.634 	284.58 	539.793 	
39.7548 	-0.00275636 	-0.531117 	-0.0339771 	1.76565 	0.0162725 	-3.12531 	90.156 	92.0893 	-0.591113 	298.781 	360.634 	284.58 	539.793 	
39.858 	-0.00274677 	-0.530942 	-0.0307613 	1.76564 	0.0163601 	-3.12533 	90.156 	92.6475 	-0.591113 	299.327 	360.634 	284.58 	539.793 	
39.9602 	-0.00273635 	-0.530717 	-0.0271899 	1.76564 	0.0164573 	-3.12536 	90.1561 	93.1454 	-0.591113 	299.832 	360.634 	284.58 	539.793 	
40.064 	-0.00272618 	-0.530461 	-0.0236206 	1.76564 	0.0165542 	-3.12538 	90.1561 	93.6526 	-0.591113 	300.326 	360.634 	284.58 	539.793 	
40.167 	-0.00271627 	-0.530174 	-0.0200537 	1.76564 	0.0166509 	-3.12541 	90.1561 	94.1996 	-0.591113 	300.833 	360.634 	284.58 	539.793 	
40.2738 	-0.00270566 	-0.529822 	-0.0161333 	1.76563 	0.016757 	-3.12544 	90.1561 	94.6952 	-0.591113 	301.379 	360.634 	284.58 	539.793 	
40.3767 	-0.00269721 	-0.529507 	-0.0129282 	1.76563 	0.0168436 	-3.12547 	90.1561 	95.2535 	-0.591113 	301.88 	360.634 	284.58 	539.793 	
40.4797 	-0.00268807 	-0.529126 	-0.00937001 	1.76563 	0.0169396 	-3.1255 	90.1561 	95.7454 	-0.591113 	302.427 	360.634 	284.58 	539.793 	
40.5832 	-0.00267917 	-0.528715 	-0.00581532 	1.76562 	0.0170353 	-3.12553 	90.1561 	96.2616 	-0.591113 	302.931 	360.634 	284.58 	539.793 	
40.6858 	-0.00267054 	-0.528273 	-0.00226431 	1.76562 	0.0171307 	-3.12556 	90.1561 	96.7441 	-0.591113 	303.427 	360.634 	284.58 	539.793 	
40.789 	-0.00266216 	-0.527799 	0.00128261 	1.76562 	0.0172258 	-3.12559 	90.1561 	97.3085 	-0.591113 	303.979 	360.634 	284.58 	539.793 	
40.8923 	-0.00265325 	-0.527243 	0.00517927 	1.76562 	0.0173302 	-3.12563 	90.156 	97.7931 	-0.591113 	304.48 	360.634 	284.58 	539.793 	
40.9953 	-0.00264542 	-0.526705 	0.00871688 	1.76561 	0.0174247 	-3.12566 	90.156 	98.3114 	-0.591113 	304.976 	360.634 	284.58 	539.793 	
41.0984 	-0.00263859 	-0.526194 	0.0118966 	1.76561 	0.0175095 	-3.12569 	90.156 	98.8454 	-0.591113 	305.527 	360.634 	284.58 	539.793 	
41.2011 	-0.00263053 	-0.525536 	0.0157774 	1.76561 	0.0176129 	-3.12573 	90.1561 	99.3584 	-0.591113 	306.028 	360.634 	284.58 	539.793 	
41.3043 	-0.00262348 	-0.524905 	0.0192997 	1.76561 	0.0177065 	-3.12577 	90.1561 	99.8531 	-0.591113 	306.529 	360.634 	284.58 	539.793 	
41.4074 	-0.00261669 	-0.524244 	0.0228163 	1.7656 	0.0177998 	-3.12581 	90.1561 	100.409 	-0.591113 	307.026 	360.634 	284.58 	539.793 	
41.5157 	-0.00261016 	-0.523552 	0.0263271 	1.7656 	0.0178927 	-3.12584 	90.156 	100.909 	-0.591113 	307.581 	360.634 	284.58 	539.793 	
41.6178 	-0.00260389 	-0.522829 	0.0298317 	1.7656 	0.0179853 	-3.12588 	90.156 	101.453 	-0.591113 	308.124 	360.634 	284.58 	539.793 	
41.7218 	-0.00259789 	-0.522076 	0.0333299 	1.7656 	0.0180776 	-3.12592 	90.156 	101.963 	-0.591113 	308.628 	360.634 	284.58 	539.793 	
41.8267 	-0.00259214 	-0.521292 	0.0368212 	1.76559 	0.0181695 	-3.12596 	90.156 	102.46 	-0.591113 	309.128 	360.634 	284.58 	539.793 	
41.9298 	-0.00258196 	-0.519719 	0.0434354 	1.76559 	0.0183432 	-3.12604 	90.1561 	103.023 	-0.591113 	309.68 	360.634 	284.58 	539.793 	
42.031 	-0.00257699 	-0.518848 	0.0469059 	1.76559 	0.0184341 	-3.12609 	90.1561 	103.511 	-0.591113 	310.174 	360.634 	284.58 	539.793 	
42.1336 	-0.00257227 	-0.517946 	0.0503686 	1.76558 	0.0185246 	-3.12613 	90.1561 	104.022 	-0.591113 	310.674 	360.634 	284.58 	539.793 	
42.2356 	-0.00256783 	-0.517013 	0.0538232 	1.76558 	0.0186147 	-3.12617 	90.1561 	104.51 	-0.591113 	311.181 	360.634 	284.58 	539.793 	
42.3377 	-0.00256325 	-0.515953 	0.0576138 	1.76558 	0.0187133 	-3.12622 	90.1561 	105.076 	-0.591113 	311.728 	360.634 	284.58 	539.793 	
42.4408 	-0.00255936 	-0.514958 	0.0610508 	1.76558 	0.0188026 	-3.12627 	90.1561 	105.567 	-0.591113 	312.227 	360.634 	284.58 	539.793 	
42.5437 	-0.00255609 	-0.514036 	0.0641365 	1.76558 	0.0188826 	-3.12631 	90.1561 	106.071 	-0.591113 	312.727 	360.634 	284.58 	539.793 	
42.6466 	-0.00255271 	-0.512984 	0.0675565 	1.76557 	0.0189711 	-3.12636 	90.1561 	106.568 	-0.591113 	313.23 	360.634 	284.58 	539.793 	
42.7499 	-0.00254959 	-0.511902 	0.0709671 	1.76557 	0.0190592 	-3.12641 	90.1561 	107.129 	-0.591113 	313.774 	360.634 	284.58 	539.793 	
42.8526 	-0.00254674 	-0.51079 	0.0743683 	1.76557 	0.0191468 	-3.12646 	90.1561 	107.631 	-0.591113 	314.276 	360.634 	284.58 	539.793 	
42.9559 	-0.00254416 	-0.509649 	0.0777595 	1.76557 	0.0192341 	-3.12651 	90.1561 	108.127 	-0.591113 	314.774 	360.634 	284.58 	539.793 	
43.0589 	-0.00254185 	-0.508478 	0.0811406 	1.76556 	0.0193209 	-3.12656 	90.1561 	108.68 	-0.591113 	315.329 	360.634 	284.58 	539.793 	
43.1621 	-0.0025398 	-0.507278 	0.0845115 	1.76556 	0.0194072 	-3.12661 	90.1561 	109.183 	-0.591113 	315.829 	360.634 	284.58 	539.793 	
43.265 	-0.00253802 	-0.506048 	0.0878716 	1.76556 	0.0194931 	-3.12666 	90.1561 	109.696 	-0.591113 	316.327 	360.634 	284.58 	539.793 	
43.3682 	-0.00253651 	-0.504789 	0.0912209 	1.76556 	0.0195785 	-3.12672 	90.1561 	110.232 	-0.591113 	316.874 	360.634 	284.58 	539.793 	
43.4737 	-0.00253569 	-0.503831 	0.0950624 	1.76416 	0.019658 	-3.12677 	90.1561 	110.737 	-0.591113 	317.267 	360.634 	284.58 	539.793 	
43.5767 	-0.00253764 	-0.505233 	0.0990253 	1.7563 	0.0196559 	-3.12678 	90.1561 	111.238 	-0.591113 	317.326 	360.634 	284.58 	539.793 	
43.6801 	-0.00253977 	-0.506754 	0.103441 	1.74758 	0.0196537 	-3.12679 	90.1561 	111.799 	-0.591113 	317.332 	360.634 	284.58 	539.793 	
43.7828 	-0.00254204 	-0.508382 	0.108314 	1.73798 	0.0196515 	-3.1268 	90.1561 	112.284 	-0.591113 	317.342 	360.634 	284.58 	539.793 	
43.8861 	-0.00254405 	-0.509822 	0.112757 	1.72925 	0.0196495 	-3.12682 	90.1561 	112.791 	-0.591113 	317.358 	360.634 	284.58 	539.793 	
43.9891 	-0.00254601 	-0.511223 	0.117213 	1.72052 	0.0196476 	-3.12683 	90.1561 	113.336 	-0.591113 	317.36 	360.634 	284.58 	539.793 	
44.0921 	-0.00254791 	-0.512585 	0.12168 	1.7118 	0.0196458 	-3.12684 	90.1561 	113.842 	-0.591113 	317.361 	360.634 	284.58 	539.793 	
44.1951 	-0.00254958 	-0.513777 	0.125711 	1.70394 	0.0196443 	-3.12685 	90.1561 	114.341 	-0.591113 	317.361 	360.634 	284.58 	539.793 	
44.2985 	-0.00255137 	-0.515065 	0.1302 	1.69522 	0.0196428 	-3.12686 	90.1561 	114.89 	-0.591113 	317.362 	360.634 	284.58 	539.793 	
44.4015 	-0.00255329 	-0.516436 	0.135151 	1.68562 	0.0196412 	-3.12688 	90.1561 	115.391 	-0.591113 	317.363 	360.634 	284.58 	539.793 	
44.4467 	-0.00255497 	-0.517641 	0.139664 	1.67689 	0.0196398 	-3.12689 	90.1561 	115.586 	-0.591113 	317.363 	360.634 	284.58 	539.793 	
44.5502 	-0.00254142 	-0.519875 	0.142695 	1.67008 	0.0196567 	-3.12697 	90.1561 	116.093 	-0.591113 	317.267 	360.634 	284.565 	539.793 	
44.6531 	-0.00251183 	-0.523614 	0.145382 	1.66298 	0.0196925 	-3.12712 	90.1561 	116.507 	-0.591113 	316.885 	360.634 	284.25 	539.793 	
44.7562 	-0.00248426 	-0.526177 	0.144489 	1.66298 	0.0197247 	-3.12725 	90.1561 	116.565 	-0.591113 	316.404 	360.634 	283.703 	539.793 	
44.8594 	-0.0024572 	-0.528747 	0.143619 	1.66298 	0.0197558 	-3.12738 	90.1561 	116.567 	-0.591113 	315.861 	360.634 	283.207 	539.793 	
44.9624 	-0.00243326 	-0.531067 	0.142855 	1.66299 	0.0197828 	-3.1275 	90.1561 	116.567 	-0.591113 	315.363 	360.634 	282.737 	539.793 	
45.0652 	-0.00240715 	-0.533651 	0.142028 	1.66299 	0.0198118 	-3.12763 	90.1561 	116.568 	-0.591113 	314.867 	360.634 	282.161 	539.793 	
45.1683 	-0.00238154 	-0.536242 	0.141223 	1.66299 	0.0198395 	-3.12776 	90.1561 	116.568 	-0.591113 	314.32 	360.634 	281.698 	539.793 	
45.2741 	-0.00235396 	-0.539101 	0.140363 	1.66299 	0.0198688 	-3.1279 	90.1561 	116.568 	-0.591113 	313.822 	360.634 	281.197 	539.793 	
45.377 	-0.00233185 	-0.541446 	0.139681 	1.66299 	0.0198917 	-3.12802 	90.1561 	116.568 	-0.591113 	313.322 	360.634 	280.612 	539.793 	
45.4803 	-0.00230539 	-0.544319 	0.138871 	1.66299 	0.0199184 	-3.12817 	90.156 	116.568 	-0.591113 	312.771 	360.634 	280.09 	539.793 	
45.5831 	-0.00228421 	-0.546675 	0.13823 	1.66299 	0.0199392 	-3.12828 	90.156 	116.568 	-0.591113 	312.28 	360.634 	279.645 	539.793 	
45.6863 	-0.00225887 	-0.549562 	0.137471 	1.66299 	0.0199634 	-3.12843 	90.156 	116.568 	-0.591113 	311.777 	360.634 	279.078 	539.793 	
45.789 	-0.00223639 	-0.552193 	0.136805 	1.66299 	0.0199841 	-3.12856 	90.1561 	116.568 	-0.591113 	311.229 	360.634 	278.528 	539.793 	
45.8921 	-0.00221442 	-0.554829 	0.136161 	1.66299 	0.0200038 	-3.12869 	90.1561 	116.568 	-0.591113 	310.733 	360.634 	278.09 	539.793 	
45.995 	-0.00219509 	-0.557207 	0.135602 	1.66299 	0.0200204 	-3.12881 	90.1561 	116.568 	-0.591113 	310.238 	360.634 	277.535 	539.793 	
46.0983 	-0.00217205 	-0.560118 	0.134944 	1.66299 	0.0200395 	-3.12896 	90.1561 	116.568 	-0.591113 	309.685 	360.634 	277.007 	539.793 	
46.201 	-0.00215164 	-0.56277 	0.134371 	1.66299 	0.0200556 	-3.12909 	90.156 	116.568 	-0.591113 	309.189 	360.634 	276.54 	539.793 	
46.3043 	-0.00213176 	-0.565428 	0.13382 	1.663 	0.0200706 	-3.12923 	90.1561 	116.568 	-0.591113 	308.686 	360.634 	276.004 	539.793 	
46.4071 	-0.00211241 	-0.56809 	0.133292 	1.663 	0.0200844 	-3.12936 	90.1561 	116.568 	-0.591113 	308.191 	360.634 	275.458 	539.793 	
46.5143 	-0.00209358 	-0.570756 	0.132788 	1.663 	0.0200971 	-3.12949 	90.1561 	116.568 	-0.591113 	307.647 	360.634 	274.979 	539.793 	
46.6168 	-0.00207709 	-0.573159 	0.132354 	1.663 	0.0201075 	-3.12961 	90.1561 	116.568 	-0.591113 	307.144 	360.634 	274.455 	539.793 	
46.7199 	-0.00205752 	-0.576102 	0.131849 	1.663 	0.0201189 	-3.12976 	90.156 	116.568 	-0.591113 	306.598 	360.634 	273.855 	539.793 	
46.8246 	-0.00204029 	-0.57878 	0.131415 	1.663 	0.020128 	-3.12989 	90.156 	116.568 	-0.591113 	306.097 	360.634 	273.42 	539.793 	
46.9279 	-0.00202358 	-0.581463 	0.131004 	1.663 	0.020136 	-3.13003 	90.156 	116.568 	-0.591113 	305.556 	360.634 	272.934 	539.793 	
47.0311 	-0.00199178 	-0.586838 	0.130253 	1.663 	0.0201485 	-3.1303 	90.1561 	116.568 	-0.591113 	305.053 	360.634 	272.305 	539.793 	
47.1337 	-0.00197817 	-0.589261 	0.129945 	1.663 	0.0201526 	-3.13042 	90.1561 	116.568 	-0.591113 	304.554 	360.634 	271.862 	539.793 	
47.2366 	-0.00196356 	-0.591955 	0.129625 	1.66301 	0.020156 	-3.13055 	90.1561 	116.568 	-0.591113 	304.058 	360.634 	271.377 	539.793 	
47.3401 	-0.00194949 	-0.594653 	0.12933 	1.66301 	0.0201583 	-3.13068 	90.156 	116.568 	-0.591113 	303.516 	360.634 	270.748 	539.793 	
47.4429 	-0.00193595 	-0.597353 	0.129057 	1.66301 	0.0201594 	-3.13082 	90.156 	116.568 	-0.591113 	303.014 	360.634 	270.296 	539.793 	
47.5475 	-0.00192296 	-0.600055 	0.128808 	1.66301 	0.0201593 	-3.13095 	90.156 	116.568 	-0.591113 	302.514 	360.634 	269.834 	539.793 	
47.6497 	-0.00191051 	-0.60276 	0.128583 	1.66301 	0.0201581 	-3.13109 	90.156 	116.568 	-0.591113 	301.969 	360.634 	269.212 	539.793 	
47.7529 	-0.0018986 	-0.605466 	0.128381 	1.66301 	0.0201556 	-3.13122 	90.1561 	116.568 	-0.591113 	301.47 	360.634 	268.737 	539.793 	
47.8561 	-0.00188724 	-0.608174 	0.128203 	1.66301 	0.0201521 	-3.13135 	90.1561 	116.568 	-0.591113 	300.971 	360.634 	268.291 	539.793 	
47.959 	-0.00187537 	-0.611154 	0.128035 	1.66301 	0.0201468 	-3.1315 	90.156 	116.568 	-0.591113 	300.421 	360.634 	267.665 	539.793 	
48.0621 	-0.00186615 	-0.613594 	0.127918 	1.66301 	0.0201414 	-3.13162 	90.156 	116.568 	-0.591113 	299.925 	360.634 	267.18 	539.793 	
48.1654 	-0.00185642 	-0.616305 	0.127811 	1.66301 	0.0201343 	-3.13176 	90.156 	116.568 	-0.591113 	299.424 	360.634 	266.747 	539.793 	
48.2685 	-0.00184724 	-0.619018 	0.127728 	1.66302 	0.020126 	-3.13189 	90.156 	116.568 	-0.591113 	298.879 	360.634 	266.196 	539.793 	
48.3742 	-0.00183777 	-0.622002 	0.127663 	1.66302 	0.0201156 	-3.13204 	90.156 	116.568 	-0.591113 	298.383 	360.634 	265.622 	539.793 	
48.4772 	-0.00183052 	-0.624444 	0.127632 	1.66302 	0.020106 	-3.13216 	90.156 	116.568 	-0.591113 	297.883 	360.634 	265.186 	539.793 	
48.5801 	-0.00182298 	-0.627158 	0.127619 	1.66302 	0.0200943 	-3.13229 	90.156 	116.568 	-0.591113 	297.337 	360.634 	264.584 	539.793 	
48.6832 	-0.00181533 	-0.630143 	0.127633 	1.66302 	0.02008 	-3.13244 	90.156 	116.568 	-0.591113 	296.842 	360.634 	264.053 	539.793 	
48.7865 	-0.00180956 	-0.632585 	0.127665 	1.66302 	0.0200673 	-3.13256 	90.156 	116.568 	-0.591113 	296.342 	360.634 	263.625 	539.793 	
48.8892 	-0.00180312 	-0.63557 	0.127731 	1.66302 	0.0200505 	-3.1327 	90.156 	116.568 	-0.591113 	295.791 	360.634 	263.058 	539.793 	
48.9925 	-0.00179784 	-0.638282 	0.127815 	1.66302 	0.020034 	-3.13284 	90.156 	116.568 	-0.591113 	295.293 	360.634 	262.506 	539.793 	
49.0952 	-0.00179311 	-0.640994 	0.127924 	1.66302 	0.0200163 	-3.13297 	90.156 	116.568 	-0.591113 	294.795 	360.634 	262.069 	539.793 	
49.1985 	-0.00178933 	-0.643434 	0.128041 	1.66303 	0.0199994 	-3.13309 	90.156 	116.567 	-0.591113 	294.248 	360.634 	261.57 	539.793 	
49.3015 	-0.00178565 	-0.646143 	0.128194 	1.66303 	0.0199795 	-3.13322 	90.156 	116.567 	-0.591113 	293.753 	360.634 	260.948 	539.793 	
49.4044 	-0.00178252 	-0.648851 	0.128371 	1.66303 	0.0199585 	-3.13335 	90.156 	116.567 	-0.591113 	293.254 	360.634 	260.514 	539.793 	
49.5076 	-0.00177972 	-0.651828 	0.128593 	1.66303 	0.019934 	-3.1335 	90.156 	116.567 	-0.591113 	292.756 	360.634 	260.036 	539.793 	
49.6145 	-0.00177775 	-0.654532 	0.128819 	1.66303 	0.0199105 	-3.13363 	90.156 	116.567 	-0.591113 	292.207 	360.634 	259.409 	539.793 	
49.7171 	-0.00177634 	-0.657234 	0.129069 	1.66303 	0.0198859 	-3.13376 	90.156 	116.567 	-0.591113 	291.71 	360.634 	258.957 	539.793 	
49.8201 	-0.00177548 	-0.659935 	0.129343 	1.66303 	0.0198602 	-3.13389 	90.156 	116.567 	-0.591113 	291.163 	360.634 	258.436 	539.793 	
49.9229 	-0.00177517 	-0.662632 	0.12964 	1.66303 	0.0198333 	-3.13403 	90.156 	116.567 	-0.591113 	290.664 	360.634 	257.858 	539.793 	
50.0259 	-0.00177541 	-0.665327 	0.12996 	1.66304 	0.0198053 	-3.13416 	90.156 	116.567 	-0.591113 	290.165 	360.634 	257.387 	539.793 	
50.1302 	-0.00177611 	-0.66775 	0.130269 	1.66304 	0.019779 	-3.13427 	90.156 	116.567 	-0.591113 	289.617 	360.634 	256.893 	539.793 	
50.2329 	-0.00177926 	-0.673125 	0.131023 	1.66304 	0.0197175 	-3.13454 	90.156 	116.567 	-0.591113 	289.119 	360.634 	256.328 	539.793 	
50.3363 	-0.00178193 	-0.676075 	0.131477 	1.66304 	0.0196817 	-3.13468 	90.156 	116.567 	-0.591113 	288.617 	360.634 	255.828 	539.793 	
50.4391 	-0.00178461 	-0.678486 	0.131869 	1.66305 	0.0196514 	-3.13479 	90.156 	116.567 	-0.591113 	288.074 	360.634 	255.337 	539.793 	
50.5422 	-0.00178849 	-0.681428 	0.132374 	1.66305 	0.0196131 	-3.13494 	90.156 	116.567 	-0.591113 	287.579 	360.634 	254.772 	539.793 	
50.6443 	-0.00179216 	-0.683831 	0.132808 	1.66305 	0.0195808 	-3.13505 	90.156 	116.567 	-0.591113 	287.08 	360.634 	254.265 	539.793 	
50.7469 	-0.00179677 	-0.686497 	0.133313 	1.66306 	0.0195438 	-3.13518 	90.156 	116.567 	-0.591113 	286.577 	360.634 	253.834 	539.793 	
50.8504 	-0.00180193 	-0.689159 	0.133841 	1.66306 	0.0195057 	-3.13531 	90.156 	116.567 	-0.591113 	286.032 	360.634 	253.252 	539.793 	
50.9533 	-0.00180764 	-0.691816 	0.134392 	1.66307 	0.0194665 	-3.13544 	90.156 	116.567 	-0.591113 	285.537 	360.634 	252.713 	539.793 	
51.0562 	-0.00181391 	-0.694468 	0.134966 	1.66307 	0.0194261 	-3.13557 	90.156 	116.567 	-0.591113 	285.037 	360.634 	252.286 	539.793 	
51.1592 	-0.00182072 	-0.697115 	0.135564 	1.66307 	0.0193847 	-3.13569 	90.156 	116.567 	-0.591113 	284.489 	360.634 	251.702 	539.793 	
51.2623 	-0.00182808 	-0.699757 	0.136184 	1.66308 	0.0193421 	-3.13582 	90.156 	116.567 	-0.591113 	283.991 	360.634 	251.154 	539.793 	
51.3655 	-0.00183599 	-0.702394 	0.136828 	1.66308 	0.0192984 	-3.13595 	90.156 	116.567 	-0.591113 	283.492 	360.634 	250.725 	539.793 	
51.4683 	-0.00184445 	-0.705024 	0.137494 	1.66308 	0.0192536 	-3.13607 	90.156 	116.567 	-0.591113 	282.946 	360.634 	250.233 	539.793 	
51.5742 	-0.00185439 	-0.707911 	0.138253 	1.66309 	0.0192031 	-3.13621 	90.156 	116.567 	-0.591113 	282.449 	360.634 	249.608 	539.793 	
51.6772 	-0.00186301 	-0.710267 	0.138896 	1.66309 	0.0191608 	-3.13633 	90.156 	116.567 	-0.591113 	281.947 	360.634 	249.167 	539.793 	
51.7801 	-0.00187312 	-0.712879 	0.139631 	1.6631 	0.0191127 	-3.13645 	90.156 	116.567 	-0.591113 	281.402 	360.634 	248.624 	539.793 	
51.8833 	-0.00188486 	-0.715745 	0.140465 	1.6631 	0.0190586 	-3.13659 	90.156 	116.567 	-0.591113 	280.903 	360.634 	248.054 	539.793 	
51.9864 	-0.00189611 	-0.718343 	0.141248 	1.6631 	0.0190082 	-3.13671 	90.156 	116.567 	-0.591113 	280.406 	360.634 	247.6 	539.793 	
52.0893 	-0.0019079 	-0.720935 	0.142054 	1.66311 	0.0189567 	-3.13684 	90.156 	116.567 	-0.591113 	279.858 	360.634 	247.083 	539.793 	
52.1924 	-0.00192023 	-0.723519 	0.142882 	1.66311 	0.0189042 	-3.13696 	90.156 	116.567 	-0.591113 	279.361 	360.634 	246.521 	539.793 	
52.2953 	-0.0019318 	-0.725838 	0.143646 	1.66312 	0.018856 	-3.13707 	90.156 	116.567 	-0.591113 	278.86 	360.634 	246.036 	539.793 	
52.3985 	-0.00194653 	-0.728665 	0.144605 	1.66312 	0.018796 	-3.13721 	90.156 	116.567 	-0.591113 	278.316 	360.634 	245.578 	539.793 	
52.5013 	-0.00196049 	-0.731227 	0.1455 	1.66312 	0.0187402 	-3.13733 	90.156 	116.567 	-0.591113 	277.816 	360.634 	244.964 	539.793 	
52.6045 	-0.00197499 	-0.73378 	0.146418 	1.66313 	0.0186834 	-3.13745 	90.156 	116.567 	-0.591113 	277.319 	360.634 	244.469 	539.793 	
52.7078 	-0.00199002 	-0.736326 	0.147358 	1.66313 	0.0186256 	-3.13757 	90.156 	116.567 	-0.591113 	276.823 	360.634 	244.033 	539.793 	
52.8137 	-0.00200559 	-0.738863 	0.14832 	1.66314 	0.0185667 	-3.13769 	90.156 	116.567 	-0.591113 	276.273 	360.634 	243.438 	539.793 	
52.9174 	-0.0020217 	-0.741392 	0.149304 	1.66314 	0.0185067 	-3.13781 	90.156 	116.567 	-0.591113 	275.777 	360.634 	242.915 	539.793 	
53.0202 	-0.00203835 	-0.743912 	0.15031 	1.66314 	0.0184457 	-3.13793 	90.156 	116.567 	-0.591113 	275.227 	360.634 	242.435 	539.793 	
53.126 	-0.00207144 	-0.748676 	0.152282 	1.66315 	0.018327 	-3.13815 	90.156 	116.567 	-0.591113 	274.728 	360.634 	241.888 	539.793 	
53.2299 	-0.00208962 	-0.75117 	0.153352 	1.66315 	0.018263 	-3.13827 	90.156 	116.567 	-0.591113 	274.179 	360.634 	241.303 	539.793 	
53.333 	-0.00211024 	-0.753902 	0.154553 	1.66316 	0.0181914 	-3.1384 	90.156 	116.567 	-0.591113 	273.686 	360.634 	240.875 	539.793 	
53.4363 	-0.00212954 	-0.756376 	0.155669 	1.66316 	0.0181253 	-3.13852 	90.156 	116.567 	-0.591113 	273.186 	360.634 	240.353 	539.793 	
53.5393 	-0.00214735 	-0.758594 	0.156691 	1.66317 	0.0180649 	-3.13862 	90.156 	116.567 	-0.591113 	272.642 	360.634 	239.756 	539.793 	
53.6422 	-0.0021697 	-0.761294 	0.157963 	1.66317 	0.0179899 	-3.13875 	90.156 	116.567 	-0.591113 	272.136 	360.634 	239.32 	539.793 	
53.7451 	-0.00219057 	-0.763737 	0.159143 	1.66317 	0.0179208 	-3.13886 	90.156 	116.567 	-0.591113 	271.641 	360.634 	238.809 	539.793 	
53.8483 	-0.0022098 	-0.765928 	0.160222 	1.66318 	0.0178577 	-3.13897 	90.156 	116.567 	-0.591113 	271.096 	360.634 	238.253 	539.793 	
53.9512 	-0.00223167 	-0.768352 	0.161442 	1.66318 	0.0177866 	-3.13908 	90.156 	116.567 	-0.591113 	270.597 	360.634 	237.771 	539.793 	
54.0543 	-0.00225405 	-0.770765 	0.162683 	1.66319 	0.0177145 	-3.13919 	90.156 	116.567 	-0.591113 	270.097 	360.634 	237.275 	539.793 	
54.1577 	-0.00227694 	-0.773167 	0.163945 	1.66319 	0.0176415 	-3.13931 	90.156 	116.567 	-0.591113 	269.598 	360.634 	236.718 	539.793 	
54.2604 	-0.00230035 	-0.775558 	0.165228 	1.66319 	0.0175675 	-3.13942 	90.156 	116.567 	-0.591113 	269.056 	360.634 	236.211 	539.793 	
54.3632 	-0.00232428 	-0.777938 	0.166531 	1.6632 	0.0174925 	-3.13953 	90.156 	116.567 	-0.591113 	268.549 	360.634 	235.724 	539.793 	
54.4666 	-0.00234871 	-0.780307 	0.167856 	1.6632 	0.0174165 	-3.13964 	90.156 	116.567 	-0.591113 	268.06 	360.634 	235.161 	539.793 	
54.5742 	-0.00237366 	-0.782663 	0.169201 	1.6632 	0.0173396 	-3.13975 	90.156 	116.567 	-0.591113 	267.508 	360.634 	234.634 	539.793 	
54.6777 	-0.00239911 	-0.785008 	0.170566 	1.66321 	0.0172617 	-3.13986 	90.156 	116.567 	-0.591113 	267.019 	360.634 	234.175 	539.793 	
54.7802 	-0.00242507 	-0.787341 	0.171952 	1.66321 	0.0171829 	-3.13997 	90.156 	116.567 	-0.591113 	266.467 	360.634 	233.566 	539.793 	
54.8834 	-0.00245153 	-0.789662 	0.173358 	1.66322 	0.0171031 	-3.14007 	90.156 	116.567 	-0.591113 	265.968 	360.634 	233.074 	539.793 	
54.9864 	-0.00248122 	-0.7922 	0.174928 	1.66322 	0.0170143 	-3.14019 	90.156 	116.567 	-0.591113 	265.464 	360.634 	232.628 	539.793 	
55.0895 	-0.00250874 	-0.794495 	0.176376 	1.66322 	0.0169326 	-3.1403 	90.156 	116.567 	-0.591113 	264.919 	360.634 	232.017 	539.793 	
55.1925 	-0.00253393 	-0.796549 	0.177697 	1.66323 	0.0168582 	-3.14039 	90.156 	116.567 	-0.591113 	264.424 	360.634 	231.518 	539.793 	
55.2955 	-0.00256238 	-0.798819 	0.179183 	1.66323 	0.0167748 	-3.1405 	90.156 	116.567 	-0.591113 	263.925 	360.634 	231.083 	539.793 	
55.3985 	-0.00259133 	-0.801076 	0.180689 	1.66323 	0.0166904 	-3.1406 	90.156 	116.567 	-0.591113 	263.373 	360.634 	230.542 	539.793 	
55.502 	-0.00262078 	-0.80332 	0.182215 	1.66324 	0.0166051 	-3.14071 	90.156 	116.567 	-0.591113 	262.875 	360.634 	229.963 	539.793 	
55.6059 	-0.00265373 	-0.805773 	0.183916 	1.66324 	0.0165102 	-3.14082 	90.156 	116.567 	-0.591113 	262.383 	360.634 	229.528 	539.793 	
55.7137 	-0.0026842 	-0.807989 	0.185482 	1.66325 	0.0164231 	-3.14092 	90.156 	116.567 	-0.591113 	261.827 	360.634 	228.936 	539.793 	
55.8166 	-0.00271514 	-0.81019 	0.187068 	1.66325 	0.016335 	-3.14102 	90.156 	116.566 	-0.591113 	261.333 	360.634 	228.402 	539.793 	
55.9193 	-0.00274658 	-0.812378 	0.188673 	1.66325 	0.0162461 	-3.14112 	90.156 	116.566 	-0.591113 	260.784 	360.634 	227.925 	539.793 	
56.0219 	-0.00277849 	-0.814552 	0.190297 	1.66326 	0.0161563 	-3.14122 	90.156 	116.566 	-0.591113 	260.291 	360.634 	227.404 	539.793 	
56.127 	-0.00281088 	-0.816712 	0.191939 	1.66326 	0.0160656 	-3.14132 	90.156 	116.566 	-0.591113 	259.786 	360.634 	226.861 	539.793 	
56.2312 	-0.00287372 	-0.820775 	0.195112 	1.66327 	0.0158909 	-3.14151 	90.156 	116.566 	-0.591113 	259.241 	360.634 	226.366 	539.793 	
56.3342 	-0.00290748 	-0.822892 	0.196809 	1.66327 	0.0157978 	3.14158 	90.156 	116.566 	-0.591113 	258.74 	360.634 	225.852 	539.793 	
56.437 	-0.00294515 	-0.825204 	0.198697 	1.66327 	0.0156944 	3.14148 	90.156 	116.566 	-0.591113 	258.243 	360.634 	225.306 	539.793 	
56.5403 	-0.00297989 	-0.827289 	0.200433 	1.66328 	0.0155995 	3.14138 	90.156 	116.566 	-0.591113 	257.7 	360.634 	224.801 	539.793 	
56.6429 	-0.00301154 	-0.829154 	0.20201 	1.66328 	0.0155134 	3.1413 	90.156 	116.566 	-0.591113 	257.195 	360.634 	224.308 	539.793 	
56.7462 	-0.00305074 	-0.831415 	0.203958 	1.66329 	0.0154072 	3.1412 	90.156 	116.566 	-0.591113 	256.701 	360.634 	223.764 	539.793 	
56.8494 	-0.00308323 	-0.833252 	0.205568 	1.66329 	0.0153197 	3.14111 	90.156 	116.566 	-0.591113 	256.15 	360.634 	223.242 	539.793 	
56.9522 	-0.00311976 	-0.835278 	0.207375 	1.66329 	0.0152216 	3.14102 	90.156 	116.566 	-0.591113 	255.661 	360.634 	222.767 	539.793 	
57.0554 	-0.00315674 	-0.837289 	0.209199 	1.66329 	0.0151227 	3.14093 	90.156 	116.566 	-0.591113 	255.152 	360.634 	222.219 	539.793 	
57.1585 	-0.00319794 	-0.839482 	0.211226 	1.66329 	0.015013 	3.14083 	90.156 	116.566 	-0.591113 	254.66 	360.634 	221.727 	539.793 	
57.2612 	-0.00323204 	-0.841261 	0.2129 	1.66329 	0.0149226 	3.14075 	90.156 	116.566 	-0.591113 	254.104 	360.634 	221.232 	539.793 	
57.3644 	-0.00327036 	-0.843223 	0.214776 	1.66329 	0.0148214 	3.14067 	90.156 	116.566 	-0.591113 	253.613 	360.634 	220.677 	539.793 	
57.4677 	-0.00330912 	-0.845169 	0.216669 	1.66329 	0.0147194 	3.14058 	90.156 	116.566 	-0.591113 	253.109 	360.634 	220.171 	539.793 	
57.5743 	-0.00334831 	-0.847097 	0.218579 	1.66329 	0.0146167 	3.14049 	90.156 	116.566 	-0.591113 	252.568 	360.634 	219.679 	539.793 	
57.6773 	-0.00339193 	-0.8492 	0.2207 	1.66329 	0.0145028 	3.1404 	90.156 	116.566 	-0.591113 	252.065 	360.634 	219.129 	539.793 	
57.7802 	-0.00343203 	-0.851093 	0.222645 	1.66329 	0.0143985 	3.14031 	90.156 	116.566 	-0.591113 	251.515 	360.634 	218.56 	539.793 	
57.8833 	-0.00346849 	-0.852783 	0.22441 	1.6633 	0.014304 	3.14024 	90.156 	116.566 	-0.591113 	251.022 	360.634 	218.126 	539.793 	
57.9867 	-0.0035094 	-0.854644 	0.226386 	1.6633 	0.0141983 	3.14016 	90.156 	116.566 	-0.591113 	250.52 	360.634 	217.581 	539.793 	
58.0895 	-0.00355073 	-0.856488 	0.228379 	1.6633 	0.0140919 	3.14008 	90.156 	116.566 	-0.591113 	249.974 	360.634 	217.012 	539.793 	
58.1924 	-0.00359668 	-0.858496 	0.230589 	1.6633 	0.0139741 	3.13999 	90.156 	116.566 	-0.591113 	249.466 	360.634 	216.572 	539.793 	
58.2956 	-0.00363464 	-0.860123 	0.232412 	1.6633 	0.0138771 	3.13992 	90.156 	116.566 	-0.591113 	248.985 	360.634 	216.04 	539.793 	
58.3987 	-0.00367722 	-0.861913 	0.234452 	1.6633 	0.0137686 	3.13984 	90.156 	116.566 	-0.591113 	248.474 	360.634 	215.506 	539.793 	
58.5015 	-0.00372453 	-0.863863 	0.236714 	1.6633 	0.0136484 	3.13975 	90.156 	116.566 	-0.591113 	247.929 	360.634 	215.012 	539.793 	
58.6047 	-0.0037636 	-0.865441 	0.238578 	1.6633 	0.0135495 	3.13968 	90.156 	116.566 	-0.591113 	247.421 	360.634 	214.504 	539.793 	
58.7077 	-0.00381179 	-0.867351 	0.240874 	1.6633 	0.0134279 	3.1396 	90.156 	116.566 	-0.591113 	246.933 	360.634 	213.959 	539.793 	
58.8171 	-0.00385602 	-0.869068 	0.242977 	1.6633 	0.0133167 	3.13952 	90.156 	116.566 	-0.591113 	246.383 	360.634 	213.452 	539.793 	
58.9193 	-0.00390065 	-0.870766 	0.245094 	1.6633 	0.0132048 	3.13945 	90.156 	116.566 	-0.591113 	245.838 	360.634 	212.902 	539.793 	
59.0221 	-0.00394567 	-0.872446 	0.247227 	1.6633 	0.0130923 	3.13938 	90.156 	116.566 	-0.591113 	245.336 	360.634 	212.354 	539.793 	
59.1261 	-0.00399108 	-0.874107 	0.249374 	1.6633 	0.0129791 	3.13931 	90.156 	116.566 	-0.591113 	244.834 	360.634 	211.901 	539.793 	
59.23 	-0.00403227 	-0.875586 	0.251319 	1.6633 	0.0128768 	3.13924 	90.156 	116.566 	-0.591113 	244.292 	360.634 	211.38 	539.793 	
59.3329 	-0.00412492 	-0.878817 	0.255681 	1.66331 	0.0126475 	3.1391 	90.156 	116.566 	-0.591113 	243.791 	360.634 	210.816 	539.793 	
59.4364 	-0.00417181 	-0.880404 	0.257884 	1.66331 	0.012532 	3.13903 	90.156 	116.566 	-0.591113 	243.294 	360.634 	210.331 	539.793 	
59.5393 	-0.00421906 	-0.881972 	0.2601 	1.66331 	0.0124159 	3.13897 	90.156 	116.566 	-0.591113 	242.734 	360.634 	209.815 	539.793 	
59.6421 	-0.00427147 	-0.883674 	0.262553 	1.66331 	0.0122875 	3.1389 	90.156 	116.566 	-0.591113 	242.254 	360.634 	209.261 	539.793 	
59.7452 	-0.00431468 	-0.885049 	0.264572 	1.66331 	0.0121819 	3.13884 	90.156 	116.566 	-0.591113 	241.741 	360.634 	208.769 	539.793 	
59.8482 	-0.00436303 	-0.886559 	0.266829 	1.66331 	0.012064 	3.13877 	90.156 	116.566 	-0.591113 	241.253 	360.634 	208.322 	539.793 	
59.9513 	-0.00441173 	-0.888048 	0.269098 	1.66331 	0.0119456 	3.13871 	90.156 	116.566 	-0.591113 	240.692 	360.634 	207.722 	539.793 	
60.0542 	-0.00446079 	-0.889518 	0.271381 	1.66331 	0.0118267 	3.13865 	90.156 	116.565 	-0.591113 	240.2 	360.634 	207.223 	539.793 	
60.1574 	-0.0045102 	-0.890967 	0.273676 	1.66331 	0.0117073 	3.13859 	90.156 	116.565 	-0.591113 	239.703 	360.634 	206.779 	539.793 	
60.2604 	-0.00455995 	-0.892397 	0.275983 	1.66331 	0.0115873 	3.13853 	90.156 	116.565 	-0.591113 	239.152 	360.634 	206.177 	539.793 	
60.3634 	-0.00461004 	-0.893806 	0.278304 	1.66331 	0.0114667 	3.13847 	90.156 	116.565 	-0.591113 	238.646 	360.634 	205.659 	539.793 	
60.4664 	-0.00466048 	-0.895195 	0.280636 	1.66331 	0.0113457 	3.13841 	90.156 	116.565 	-0.591113 	238.151 	360.634 	205.209 	539.793 	
60.5744 	-0.00471124 	-0.896564 	0.28298 	1.66331 	0.0112242 	3.13836 	90.156 	116.565 	-0.591113 	237.607 	360.634 	204.628 	539.793 	
60.6775 	-0.00476233 	-0.897912 	0.285336 	1.66331 	0.0111022 	3.1383 	90.156 	116.565 	-0.591113 	237.104 	360.634 	204.108 	539.793 	
60.7806 	-0.00481375 	-0.899239 	0.287704 	1.66331 	0.0109797 	3.13825 	90.156 	116.565 	-0.591113 	236.556 	360.634 	203.61 	539.793 	
60.8834 	-0.00487069 	-0.900676 	0.290322 	1.66331 	0.0108444 	3.13819 	90.156 	116.565 	-0.591113 	236.048 	360.634 	203.087 	539.793 	
60.9864 	-0.00492278 	-0.90196 	0.292713 	1.66332 	0.010721 	3.13813 	90.156 	116.565 	-0.591113 	235.564 	360.634 	202.555 	539.793 	
61.0895 	-0.00496993 	-0.903097 	0.294875 	1.66332 	0.0106095 	3.13809 	90.156 	116.565 	-0.591113 	235.009 	360.634 	202.049 	539.793 	
61.1925 	-0.00502262 	-0.904341 	0.297288 	1.66332 	0.0104852 	3.13804 	90.156 	116.565 	-0.591113 	234.517 	360.634 	201.553 	539.793 	
61.2957 	-0.00508093 	-0.905685 	0.299955 	1.66332 	0.0103479 	3.13798 	90.156 	116.565 	-0.591113 	234.005 	360.634 	201.009 	539.793 	
61.3988 	-0.00512891 	-0.906766 	0.302146 	1.66332 	0.0102353 	3.13794 	90.156 	116.565 	-0.591113 	233.516 	360.634 	200.546 	539.793 	
61.5018 	-0.0051825 	-0.907946 	0.30459 	1.66332 	0.0101097 	3.13789 	90.156 	116.565 	-0.591113 	232.966 	360.634 	200.01 	539.793 	
61.6043 	-0.00524179 	-0.90922 	0.30729 	1.66332 	0.00997107 	3.13784 	90.156 	116.565 	-0.591113 	232.467 	360.634 	199.454 	539.793 	
61.7074 	-0.00529599 	-0.910356 	0.309756 	1.66332 	0.00984465 	3.1378 	90.156 	116.565 	-0.591113 	231.969 	360.634 	198.977 	539.793 	
61.8157 	-0.00535048 	-0.911469 	0.312232 	1.66332 	0.00971785 	3.13776 	90.156 	116.565 	-0.591113 	231.417 	360.634 	198.47 	539.793 	
61.9184 	-0.00540525 	-0.912562 	0.314717 	1.66332 	0.00959067 	3.13771 	90.156 	116.565 	-0.591113 	230.925 	360.634 	197.912 	539.793 	
62.0234 	-0.00545478 	-0.913526 	0.316961 	1.66332 	0.0094759 	3.13768 	90.156 	116.565 	-0.591113 	230.37 	360.634 	197.38 	539.793 	
62.1261 	-0.00556564 	-0.915606 	0.321976 	1.66332 	0.00921983 	3.1376 	90.156 	116.565 	-0.591113 	229.878 	360.634 	196.923 	539.793 	
62.2291 	-0.00562706 	-0.916712 	0.324749 	1.66332 	0.00907841 	3.13756 	90.156 	116.565 	-0.591113 	229.313 	360.634 	196.31 	539.793 	
62.3319 	-0.00567755 	-0.917598 	0.327026 	1.66332 	0.00896242 	3.13752 	90.156 	116.565 	-0.591113 	228.831 	360.634 	195.822 	539.793 	
62.4341 	-0.0057339 	-0.91856 	0.329564 	1.66332 	0.00883323 	3.13749 	90.156 	116.565 	-0.591113 	228.327 	360.634 	195.365 	539.793 	
62.5373 	-0.0057905 	-0.919501 	0.332111 	1.66332 	0.00870373 	3.13745 	90.156 	116.565 	-0.591113 	227.826 	360.634 	194.819 	539.793 	
62.6403 	-0.00584734 	-0.920419 	0.334665 	1.66332 	0.00857394 	3.13742 	90.156 	116.565 	-0.591113 	227.269 	360.634 	194.264 	539.793 	
62.7434 	-0.00590443 	-0.921315 	0.337227 	1.66332 	0.00844386 	3.13739 	90.156 	116.565 	-0.591113 	226.778 	360.634 	193.812 	539.793 	
62.8463 	-0.00596175 	-0.922189 	0.339797 	1.66332 	0.00831351 	3.13735 	90.156 	116.565 	-0.591113 	226.283 	360.634 	193.281 	539.793 	
62.9494 	-0.00601931 	-0.92304 	0.342375 	1.66332 	0.00818288 	3.13732 	90.156 	116.565 	-0.591113 	225.731 	360.634 	192.711 	539.793 	
63.0524 	-0.0060771 	-0.923869 	0.34496 	1.66332 	0.008052 	3.1373 	90.156 	116.565 	-0.591113 	225.229 	360.634 	192.267 	539.793 	
63.1553 	-0.00613512 	-0.924675 	0.347552 	1.66332 	0.00792088 	3.13727 	90.156 	116.565 	-0.591113 	224.722 	360.634 	191.742 	539.793 	
63.2585 	-0.00619336 	-0.925458 	0.350151 	1.66332 	0.00778951 	3.13724 	90.156 	116.565 	-0.591113 	224.237 	360.634 	191.205 	539.793 	
63.3615 	-0.00625181 	-0.926219 	0.352756 	1.66333 	0.00765792 	3.13722 	90.156 	116.565 	-0.591113 	223.678 	360.634 	190.705 	539.793 	
63.4644 	-0.00631048 	-0.926957 	0.355369 	1.66333 	0.0075261 	3.13719 	90.156 	116.565 	-0.591113 	223.183 	360.634 	190.198 	539.793 	
63.5676 	-0.00636936 	-0.927672 	0.357987 	1.66333 	0.00739409 	3.13717 	90.156 	116.565 	-0.591113 	222.675 	360.634 	189.652 	539.793 	
63.674 	-0.00642844 	-0.928364 	0.360612 	1.66333 	0.00726187 	3.13715 	90.156 	116.565 	-0.591113 	222.137 	360.634 	189.143 	539.793 	
63.7775 	-0.00648772 	-0.929033 	0.363243 	1.66333 	0.00712947 	3.13713 	90.156 	116.565 	-0.591113 	221.634 	360.634 	188.658 	539.793 	
63.8804 	-0.00654719 	-0.92968 	0.365879 	1.66333 	0.00699689 	3.13711 	90.156 	116.565 	-0.591113 	221.089 	360.634 	188.056 	539.793 	
63.9834 	-0.00660685 	-0.930303 	0.368521 	1.66333 	0.00686414 	3.13709 	90.156 	116.565 	-0.591113 	220.579 	360.634 	187.593 	539.793 	
64.0864 	-0.0066727 	-0.930962 	0.371433 	1.66333 	0.00671794 	3.13707 	90.156 	116.565 	-0.591113 	220.085 	360.634 	187.116 	539.793 	
64.1895 	-0.00673274 	-0.931536 	0.374086 	1.66333 	0.00658487 	3.13705 	90.156 	116.565 	-0.591113 	219.541 	360.634 	186.508 	539.793 	
64.2924 	-0.00678694 	-0.932034 	0.376478 	1.66333 	0.006465 	3.13704 	90.156 	116.565 	-0.591113 	219.04 	360.634 	186.029 	539.793 	
64.3955 	-0.00684731 	-0.932564 	0.37914 	1.66333 	0.00633168 	3.13702 	90.156 	116.564 	-0.591113 	218.536 	360.634 	185.571 	539.793 	
64.4987 	-0.00690786 	-0.933072 	0.381806 	1.66333 	0.00619826 	3.13701 	90.156 	116.564 	-0.591113 	218.031 	360.634 	185.012 	539.793 	
64.6017 	-0.00697464 	-0.933603 	0.384745 	1.66333 	0.00605136 	3.137 	90.156 	116.564 	-0.591113 	217.494 	360.634 	184.471 	539.793 	
64.7047 	-0.00703553 	-0.934061 	0.38742 	1.66333 	0.00591772 	3.13699 	90.156 	116.564 	-0.591113 	216.985 	360.634 	184.02 	539.793 	
64.808 	-0.00709656 	-0.934496 	0.390099 	1.66333 	0.00578399 	3.13698 	90.156 	116.564 	-0.591113 	216.495 	360.634 	183.472 	539.793 	
64.9147 	-0.00715774 	-0.934908 	0.392782 	1.66333 	0.00565019 	3.13697 	90.156 	116.564 	-0.591113 	215.933 	360.634 	182.914 	539.793 	
65.0175 	-0.00721907 	-0.935296 	0.395469 	1.66333 	0.00551632 	3.13696 	90.156 	116.564 	-0.591113 	215.441 	360.634 	182.461 	539.793 	
65.1203 	-0.00728053 	-0.935661 	0.398159 	1.66333 	0.0053824 	3.13696 	90.156 	116.564 	-0.591113 	214.889 	360.634 	181.874 	539.793 	
65.2262 	-0.00734213 	-0.936002 	0.400851 	1.66333 	0.00524843 	3.13695 	90.156 	116.564 	-0.591113 	214.393 	360.634 	181.362 	539.793 	
65.3292 	-0.00739768 	-0.936289 	0.403277 	1.66333 	0.00512783 	3.13695 	90.156 	116.564 	-0.591113 	213.835 	360.634 	180.868 	539.793 	
65.4323 	-0.00746571 	-0.936614 	0.406246 	1.66333 	0.00498041 	3.13695 	90.156 	116.564 	-0.591113 	213.338 	360.634 	180.329 	539.793 	
65.5351 	-0.00758355 	-0.937108 	0.411379 	1.66333 	0.00472574 	3.13695 	90.156 	116.564 	-0.591113 	212.842 	360.634 	179.803 	539.793 	
65.6384 	-0.00764574 	-0.937333 	0.414084 	1.66333 	0.00459171 	3.13695 	90.156 	116.564 	-0.591113 	212.341 	360.634 	179.352 	539.793 	
65.7413 	-0.00770804 	-0.937535 	0.416791 	1.66333 	0.00445769 	3.13695 	90.156 	116.564 	-0.591113 	211.79 	360.634 	178.791 	539.793 	
65.8446 	-0.00777043 	-0.937714 	0.419499 	1.66333 	0.0043237 	3.13696 	90.156 	116.564 	-0.591113 	211.285 	360.634 	178.256 	539.793 	
65.9474 	-0.00783292 	-0.937869 	0.422209 	1.66333 	0.00418974 	3.13696 	90.156 	116.564 	-0.591113 	210.798 	360.634 	177.807 	539.793 	
66.0504 	-0.00789551 	-0.938 	0.424921 	1.66333 	0.00405584 	3.13697 	90.156 	116.564 	-0.591113 	210.242 	360.634 	177.256 	539.793 	
66.1534 	-0.00795818 	-0.938107 	0.427633 	1.66333 	0.00392198 	3.13697 	90.156 	116.564 	-0.591113 	209.744 	360.634 	176.706 	539.793 	
66.2564 	-0.00802722 	-0.938198 	0.430617 	1.66333 	0.00377483 	3.13698 	90.156 	116.564 	-0.591113 	209.237 	360.634 	176.245 	539.793 	
66.3595 	-0.00808377 	-0.938251 	0.43306 	1.66333 	0.00365449 	3.13699 	90.156 	116.564 	-0.591113 	208.699 	360.634 	175.714 	539.793 	
66.4625 	-0.00814667 	-0.938288 	0.435774 	1.66333 	0.00352087 	3.137 	90.156 	116.564 	-0.591113 	208.193 	360.634 	175.151 	539.793 	
66.5657 	-0.00820964 	-0.9383 	0.438488 	1.66333 	0.00338735 	3.13701 	90.156 	116.564 	-0.591113 	207.698 	360.634 	174.687 	539.793 	
66.6745 	-0.00827268 	-0.93829 	0.441202 	1.66334 	0.00325394 	3.13703 	90.156 	116.564 	-0.591113 	207.137 	360.634 	174.178 	539.793 	
66.7777 	-0.00833578 	-0.938255 	0.443916 	1.66334 	0.00312064 	3.13704 	90.156 	116.564 	-0.591113 	206.64 	360.634 	173.613 	539.793 	
66.8804 	-0.00839893 	-0.938197 	0.44663 	1.66334 	0.00298747 	3.13706 	90.156 	116.564 	-0.591113 	206.101 	360.634 	173.082 	539.793 	
66.9833 	-0.00846845 	-0.938105 	0.449614 	1.66334 	0.00284115 	3.13707 	90.156 	116.564 	-0.591113 	205.6 	360.634 	172.615 	539.793 	
67.0864 	-0.00853169 	-0.937997 	0.452327 	1.66334 	0.00270828 	3.13709 	90.156 	116.564 	-0.591113 	205.099 	360.634 	172.062 	539.793 	
67.1894 	-0.00859498 	-0.937865 	0.455038 	1.66334 	0.00257558 	3.13711 	90.156 	116.564 	-0.591113 	204.542 	360.634 	171.525 	539.793 	
67.2926 	-0.00865197 	-0.937726 	0.457477 	1.66334 	0.00245629 	3.13713 	90.156 	116.564 	-0.591113 	204.044 	360.634 	171.066 	539.793 	
67.3956 	-0.00871531 	-0.93755 	0.460185 	1.66334 	0.00232391 	3.13715 	90.156 	116.564 	-0.591113 	203.543 	360.634 	170.52 	539.793 	
67.4986 	-0.00877868 	-0.937349 	0.462892 	1.66334 	0.00219173 	3.13717 	90.156 	116.564 	-0.591113 	203.05 	360.634 	170.011 	539.793 	
67.6017 	-0.00884207 	-0.937125 	0.465597 	1.66334 	0.00205974 	3.1372 	90.156 	116.564 	-0.591113 	202.486 	360.634 	169.519 	539.793 	
67.7047 	-0.00890548 	-0.936878 	0.4683 	1.66334 	0.00192796 	3.13722 	90.156 	116.564 	-0.591113 	201.996 	360.634 	168.98 	539.793 	
67.8074 	-0.0089689 	-0.936607 	0.471001 	1.66334 	0.0017964 	3.13725 	90.156 	116.564 	-0.591113 	201.497 	360.634 	168.459 	539.793 	
67.9146 	-0.00903866 	-0.936281 	0.473969 	1.66334 	0.00165195 	3.13727 	90.156 	116.564 	-0.591113 	200.951 	360.634 	167.977 	539.793 	
68.0173 	-0.00910208 	-0.935961 	0.476664 	1.66334 	0.00152088 	3.1373 	90.156 	116.564 	-0.591113 	200.44 	360.634 	167.447 	539.793 	
68.1203 	-0.0091655 	-0.935616 	0.479357 	1.66334 	0.00139006 	3.13733 	90.156 	116.564 	-0.591113 	199.89 	360.634 	166.856 	539.793 	
68.2263 	-0.00922891 	-0.935249 	0.482046 	1.66334 	0.00125951 	3.13736 	90.156 	116.564 	-0.591113 	199.398 	360.634 	166.413 	539.793 	
68.3292 	-0.00934934 	-0.934486 	0.487146 	1.66334 	0.0010122 	3.13742 	90.156 	116.564 	-0.591113 	198.843 	360.634 	165.844 	539.793 	
68.4324 	-0.00941269 	-0.93405 	0.489826 	1.66334 	0.00088245 	3.13746 	90.156 	116.564 	-0.591113 	198.344 	360.634 	165.3 	539.793 	
68.5353 	-0.00947602 	-0.933591 	0.492501 	1.66334 	0.000753002 	3.13749 	90.156 	116.564 	-0.591113 	197.836 	360.634 	164.854 	539.793 	
68.6385 	-0.00954564 	-0.933059 	0.495439 	1.66334 	0.000610965 	3.13753 	90.156 	116.564 	-0.591113 	197.341 	360.634 	164.359 	539.793 	
68.7413 	-0.00960257 	-0.932603 	0.497839 	1.66334 	0.00049504 	3.13756 	90.156 	116.564 	-0.591113 	196.791 	360.634 	163.747 	539.793 	
68.8437 	-0.00966578 	-0.932075 	0.500501 	1.66334 	0.000366545 	3.1376 	90.156 	116.564 	-0.591113 	196.29 	360.634 	163.302 	539.793 	
68.9473 	-0.00972894 	-0.931522 	0.503159 	1.66334 	0.000238389 	3.13764 	90.156 	116.564 	-0.591113 	195.785 	360.634 	162.822 	539.793 	
69.0503 	-0.00979206 	-0.930947 	0.505811 	1.66334 	0.000110581 	3.13768 	90.156 	116.564 	-0.591113 	195.237 	360.634 	162.201 	539.793 	
69.1536 	-0.00985511 	-0.930349 	0.508459 	1.66334 	-1.68714e-05 	3.13772 	90.156 	116.564 	-0.591113 	194.74 	360.634 	161.736 	539.793 	
69.2564 	-0.0099181 	-0.929727 	0.511101 	1.66334 	-0.000143954 	3.13777 	90.156 	116.564 	-0.591113 	194.244 	360.634 	161.27 	539.793 	
69.3594 	-0.00998103 	-0.929083 	0.513738 	1.66334 	-0.000270663 	3.13781 	90.156 	116.564 	-0.591113 	193.687 	360.634 	160.66 	539.793 	
69.4625 	-0.0100439 	-0.928415 	0.516369 	1.66335 	-0.000396983 	3.13786 	90.156 	116.564 	-0.591113 	193.183 	360.634 	160.18 	539.793 	
69.5657 	-0.0101067 	-0.927725 	0.518994 	1.66335 	-0.00052291 	3.1379 	90.156 	116.564 	-0.591113 	192.694 	360.634 	159.726 	539.793 	
69.6745 	-0.0101694 	-0.927012 	0.521613 	1.66335 	-0.000648427 	3.13795 	90.156 	116.564 	-0.591113 	192.138 	360.634 	159.117 	539.793 	
69.7775 	-0.010232 	-0.926275 	0.524225 	1.66335 	-0.000773532 	3.138 	90.156 	116.564 	-0.591113 	191.64 	360.634 	158.617 	539.793 	
69.8806 	-0.0102945 	-0.925516 	0.526831 	1.66335 	-0.000898211 	3.13805 	90.156 	116.564 	-0.591113 	191.082 	360.634 	158.125 	539.793 	
69.9836 	-0.0103569 	-0.924735 	0.529431 	1.66335 	-0.00102245 	3.1381 	90.156 	116.564 	-0.591113 	190.582 	360.634 	157.574 	539.793 	
70.0866 	-0.0104192 	-0.92393 	0.532023 	1.66335 	-0.00114626 	3.13815 	90.156 	116.564 	-0.591113 	190.088 	360.634 	157.059 	539.793 	
70.1897 	-0.0104815 	-0.923103 	0.534608 	1.66335 	-0.0012696 	3.1382 	90.156 	116.564 	-0.591113 	189.537 	360.634 	156.62 	539.793 	
70.2927 	-0.0105436 	-0.922254 	0.537186 	1.66335 	-0.00139249 	3.13825 	90.1559 	116.564 	-0.591113 	189.029 	360.634 	156.028 	539.793 	
70.3957 	-0.0106056 	-0.921382 	0.539757 	1.66335 	-0.00151491 	3.13831 	90.156 	116.564 	-0.591113 	188.535 	360.634 	155.504 	539.793 	
70.4987 	-0.0106674 	-0.920488 	0.54232 	1.66335 	-0.00163684 	3.13836 	90.1559 	116.564 	-0.591113 	188.033 	360.634 	155.068 	539.793 	
70.6017 	-0.0107292 	-0.919571 	0.544874 	1.66335 	-0.00175828 	3.13842 	90.156 	116.564 	-0.591113 	187.487 	360.634 	154.489 	539.793 	
70.7046 	-0.0107908 	-0.918632 	0.547421 	1.66335 	-0.00187922 	3.13848 	90.1559 	116.564 	-0.591113 	186.975 	360.634 	153.948 	539.793 	
70.8078 	-0.0108523 	-0.917671 	0.549959 	1.66335 	-0.00199966 	3.13854 	90.156 	116.564 	-0.591113 	186.473 	360.634 	153.52 	539.793 	
70.9149 	-0.0109137 	-0.916688 	0.552489 	1.66335 	-0.00211957 	3.1386 	90.1559 	116.564 	-0.591113 	185.931 	360.634 	152.973 	539.793 	
71.0177 	-0.010981 	-0.915581 	0.555262 	1.66335 	-0.00225087 	3.13866 	90.156 	116.564 	-0.591113 	185.432 	360.634 	152.4 	539.793 	
71.1203 	-0.0110359 	-0.914655 	0.557523 	1.66335 	-0.00235781 	3.13872 	90.1559 	116.564 	-0.591113 	184.879 	360.634 	151.908 	539.793 	
71.2262 	-0.0111576 	-0.912535 	0.562521 	1.66335 	-0.00259387 	3.13885 	90.156 	116.564 	-0.591211 	184.37 	360.634 	151.42 	539.793 	
71.3307 	-0.0112182 	-0.911442 	0.565005 	1.66335 	-0.00271106 	3.13891 	90.1559 	116.564 	-0.591211 	183.828 	360.634 	150.798 	539.793 	
71.4334 	-0.0112786 	-0.910328 	0.56748 	1.66336 	-0.00282768 	3.13898 	90.156 	116.564 	-0.591211 	183.331 	360.634 	150.347 	539.793 	
71.5366 	-0.0113389 	-0.909192 	0.569946 	1.66336 	-0.00294371 	3.13904 	90.156 	116.564 	-0.591211 	182.825 	360.634 	149.87 	539.793 	
71.6395 	-0.011399 	-0.908034 	0.572401 	1.66336 	-0.00305916 	3.13911 	90.1559 	116.564 	-0.591211 	182.272 	360.634 	149.298 	539.793 	
71.7424 	-0.0114589 	-0.906856 	0.574846 	1.66336 	-0.003174 	3.13918 	90.156 	116.564 	-0.591211 	181.771 	360.634 	148.787 	539.793 	
71.8456 	-0.0115186 	-0.905656 	0.57728 	1.66336 	-0.00328824 	3.13925 	90.1559 	116.564 	-0.591211 	181.273 	360.634 	148.33 	539.793 	
71.9486 	-0.0115781 	-0.904434 	0.579704 	1.66336 	-0.00340186 	3.13932 	90.156 	116.564 	-0.591211 	180.775 	360.634 	147.761 	539.793 	
72.0516 	-0.0116375 	-0.903192 	0.582118 	1.66336 	-0.00351486 	3.1394 	90.1559 	116.564 	-0.591211 	180.218 	360.634 	147.229 	539.793 	
72.1542 	-0.0116966 	-0.901928 	0.58452 	1.66336 	-0.00362723 	3.13947 	90.156 	116.564 	-0.591211 	179.714 	360.634 	146.795 	539.793 	
72.2577 	-0.0117555 	-0.900644 	0.586911 	1.66336 	-0.00373895 	3.13954 	90.1559 	116.564 	-0.591211 	179.219 	360.634 	146.223 	539.793 	
72.3605 	-0.0118143 	-0.899339 	0.589291 	1.66336 	-0.00385002 	3.13962 	90.156 	116.564 	-0.591211 	178.672 	360.634 	145.663 	539.793 	
72.4634 	-0.0118728 	-0.898013 	0.591659 	1.66336 	-0.00396043 	3.13969 	90.1559 	116.564 	-0.591211 	178.167 	360.634 	145.234 	539.793 	
72.5669 	-0.0119311 	-0.896666 	0.594016 	1.66336 	-0.00407018 	3.13977 	90.156 	116.564 	-0.591211 	177.663 	360.634 	144.684 	539.793 	
72.6747 	-0.0119892 	-0.895299 	0.596361 	1.66336 	-0.00417925 	3.13985 	90.1559 	116.564 	-0.591211 	177.11 	360.634 	144.105 	539.793 	
72.7777 	-0.012047 	-0.893912 	0.598694 	1.66336 	-0.00428763 	3.13993 	90.156 	116.564 	-0.591211 	176.615 	360.634 	143.683 	539.793 	
72.8806 	-0.0121047 	-0.892504 	0.601015 	1.66337 	-0.00439532 	3.14001 	90.1559 	116.564 	-0.591211 	176.059 	360.634 	143.09 	539.793 	
72.9833 	-0.0121621 	-0.891076 	0.603323 	1.66337 	-0.00450232 	3.14009 	90.156 	116.564 	-0.591211 	175.556 	360.634 	142.55 	539.793 	
73.0864 	-0.0122192 	-0.889628 	0.605619 	1.66337 	-0.0046086 	3.14017 	90.1559 	116.564 	-0.591211 	175.056 	360.634 	142.126 	539.793 	
73.1897 	-0.0122761 	-0.88816 	0.607902 	1.66337 	-0.00471417 	3.14025 	90.156 	116.564 	-0.591211 	174.506 	360.634 	141.611 	539.793 	
73.293 	-0.0123328 	-0.886672 	0.610172 	1.66337 	-0.00481901 	3.14034 	90.1559 	116.564 	-0.591211 	174.007 	360.634 	141 	539.793 	
73.3956 	-0.0123892 	-0.885164 	0.612429 	1.66337 	-0.00492311 	3.14042 	90.156 	116.564 	-0.591211 	173.5 	360.634 	140.566 	539.793 	
73.4988 	-0.0124454 	-0.883637 	0.614673 	1.66337 	-0.00502648 	3.14051 	90.1559 	116.564 	-0.591211 	173.003 	360.634 	140.073 	539.793 	
73.6021 	-0.0125013 	-0.88209 	0.616904 	1.66337 	-0.0051291 	3.14059 	90.156 	116.564 	-0.591211 	172.456 	360.634 	139.449 	539.793 	
73.7047 	-0.0125569 	-0.880524 	0.61912 	1.66337 	-0.00523097 	3.14068 	90.1559 	116.564 	-0.591211 	171.951 	360.634 	139.001 	539.793 	
73.808 	-0.0126123 	-0.878938 	0.621323 	1.66337 	-0.00533206 	3.14077 	90.156 	116.564 	-0.591211 	171.451 	360.634 	138.534 	539.793 	
73.9148 	-0.0126674 	-0.877333 	0.623513 	1.66337 	-0.00543239 	3.14086 	90.156 	116.564 	-0.591211 	170.893 	360.634 	137.901 	539.793 	
74.0174 	-0.0127277 	-0.875546 	0.625905 	1.66337 	-0.00554185 	3.14095 	90.156 	116.564 	-0.591211 	170.395 	360.634 	137.441 	539.793 	
74.1204 	-0.0127768 	-0.874067 	0.627849 	1.66338 	-0.0056307 	3.14104 	90.156 	116.564 	-0.591211 	169.853 	360.634 	136.942 	539.793 	
74.2265 	-0.0128365 	-0.872238 	0.630209 	1.66338 	-0.00573841 	3.14114 	90.156 	116.564 	-0.591211 	169.348 	360.634 	136.359 	539.793 	
74.3312 	-0.012885 	-0.870725 	0.632127 	1.66338 	-0.00582582 	3.14122 	90.156 	116.564 	-0.591211 	168.79 	360.634 	135.836 	539.793 	
74.4344 	-0.0129921 	-0.867309 	0.636346 	1.66338 	-0.00601771 	3.14141 	90.156 	116.564 	-0.591211 	168.288 	360.634 	135.385 	539.793 	
74.5374 	-0.0130452 	-0.865574 	0.638433 	1.66338 	-0.00611243 	3.1415 	90.156 	116.564 	-0.591211 	167.794 	360.634 	134.818 	539.793 	
74.6406 	-0.013098 	-0.86382 	0.640505 	1.66338 	-0.0062063 	-3.14159 	90.156 	116.564 	-0.591211 	167.239 	360.634 	134.273 	539.793 	
74.7436 	-0.0131504 	-0.862048 	0.642561 	1.66338 	-0.00629935 	-3.14149 	90.156 	116.564 	-0.591211 	166.735 	360.634 	133.85 	539.793 	
74.8466 	-0.0132026 	-0.860259 	0.644602 	1.66338 	-0.00639154 	-3.14139 	90.156 	116.564 	-0.591211 	166.235 	360.634 	133.278 	539.793 	
74.9498 	-0.0132544 	-0.858452 	0.646628 	1.66338 	-0.00648289 	-3.1413 	90.156 	116.564 	-0.591211 	165.686 	360.634 	132.759 	539.793 	
75.0521 	-0.0133059 	-0.856627 	0.648637 	1.66338 	-0.00657337 	-3.1412 	90.156 	116.564 	-0.591211 	165.185 	360.634 	132.294 	539.793 	
75.1556 	-0.0133571 	-0.854784 	0.65063 	1.66339 	-0.00666299 	-3.1411 	90.156 	116.564 	-0.591211 	164.679 	360.634 	131.748 	539.793 	
75.2587 	-0.013408 	-0.852925 	0.652608 	1.66339 	-0.00675173 	-3.141 	90.1559 	116.564 	-0.591211 	164.18 	360.634 	131.207 	539.793 	
75.3618 	-0.0134585 	-0.851048 	0.654569 	1.66339 	-0.00683959 	-3.1409 	90.156 	116.564 	-0.591211 	163.624 	360.634 	130.739 	539.793 	
75.4652 	-0.0135087 	-0.849154 	0.656513 	1.66339 	-0.00692657 	-3.14079 	90.1559 	116.564 	-0.591211 	163.128 	360.634 	130.223 	539.793 	
75.5678 	-0.0135586 	-0.847243 	0.658441 	1.66339 	-0.00701266 	-3.14069 	90.156 	116.564 	-0.591211 	162.623 	360.634 	129.654 	539.793 	
75.6746 	-0.0136081 	-0.845316 	0.660352 	1.66339 	-0.00709784 	-3.14059 	90.1559 	116.564 	-0.591211 	162.07 	360.634 	129.173 	539.793 	
75.7778 	-0.0136573 	-0.843371 	0.662246 	1.66339 	-0.00718212 	-3.14048 	90.156 	116.564 	-0.591211 	161.573 	360.634 	128.676 	539.793 	
75.8804 	-0.0137061 	-0.841411 	0.664124 	1.66339 	-0.00726548 	-3.14038 	90.156 	116.564 	-0.591211 	161.02 	360.634 	128.053 	539.793 	
75.9826 	-0.0137545 	-0.839434 	0.665984 	1.66339 	-0.00734793 	-3.14027 	90.156 	116.564 	-0.591211 	160.52 	360.634 	127.618 	539.793 	
76.0858 	-0.0138026 	-0.837441 	0.667826 	1.6634 	-0.00742945 	-3.14017 	90.156 	116.564 	-0.591211 	160.01 	360.634 	127.131 	539.793 	
