RISC-NYUAD/HeavyPayloadDrone/projects/kinova-ros/devel/lib/ne_kinova_demo/VulcanTrajectory/Vulcan1_Vicon_y19m11d14h14min15.csv
time (NSec) 	Kinova Tip Position (t_x) 	t_y 	t_z 	Kinova Tip Angle (theta_x) 	Kinova Tip Angle (theta_y) 	Kinova Tip Angle (theta_z) 	Kinova Joint Angle (j1) 	(j2) 	(j3) 	(j4) 	Kinova Joint Angle (j5) 	(j6) 	(j7)
1.92561 	-0.0612206 	0.0491367 	1.2512 	0.0863735 	-0.170675 	3.02372 	86.9236 	183.768 	353.847 	175.254 	223.066 	196.082 	334.248 	
2.02864 	-0.0612178 	0.04854 	1.25121 	0.0873094 	-0.170847 	3.02307 	87.0439 	183.641 	353.693 	175.359 	223.124 	196.175 	334.291 	
2.13548 	-0.0612368 	0.0339348 	1.25139 	0.110196 	-0.175185 	3.00703 	87.5019 	183.185 	353.218 	175.802 	223.585 	196.636 	334.735 	
2.23802 	-0.0614299 	0.0190578 	1.25128 	0.133467 	-0.179873 	2.99066 	87.987 	182.664 	352.729 	176.305 	224.097 	197.149 	335.224 	
2.34122 	-0.0617986 	0.00421531 	1.2509 	0.156653 	-0.184824 	2.97432 	88.5365 	182.118 	352.181 	176.841 	224.633 	197.69 	335.753 	
2.44703 	-0.0623427 	-0.0105847 	1.25024 	0.179752 	-0.190036 	2.95799 	89.0823 	181.628 	351.677 	177.333 	225.127 	198.18 	336.313 	
2.55222 	-0.0630616 	-0.0253339 	1.24931 	0.202763 	-0.195508 	2.9417 	89.6407 	181.091 	351.128 	177.874 	225.695 	198.735 	336.852 	
2.65522 	-0.0646995 	-0.05503 	1.24662 	0.249706 	-0.20577 	2.91506 	89.9578 	180.601 	350.628 	178.376 	226.191 	199.235 	337.341 	
2.75814 	-0.0652435 	-0.0701595 	1.24487 	0.274272 	-0.209518 	2.90749 	90.0859 	180.122 	350.137 	178.864 	226.672 	199.723 	337.836 	
2.86105 	-0.0657014 	-0.0852239 	1.24285 	0.298809 	-0.213119 	2.89987 	90.1805 	179.569 	349.581 	179.414 	227.247 	200.271 	338.34 	
2.96417 	-0.0660741 	-0.100217 	1.24056 	0.323314 	-0.216576 	2.89222 	90.224 	179.071 	349.083 	179.913 	227.747 	200.769 	338.89 	
3.07001 	-0.0663623 	-0.115132 	1.23802 	0.347782 	-0.219891 	2.88452 	90.1874 	178.536 	348.581 	180.408 	228.23 	201.257 	339.383 	
3.17304 	-0.0665669 	-0.129963 	1.23521 	0.372211 	-0.223065 	2.87678 	90.1865 	178.044 	348.036 	180.956 	228.801 	201.811 	339.934 	
3.27618 	-0.0666887 	-0.144705 	1.23215 	0.396597 	-0.226102 	2.86897 	90.1864 	177.562 	347.54 	181.447 	229.303 	202.299 	340.433 	
3.37907 	-0.0667287 	-0.159351 	1.22884 	0.420936 	-0.229004 	2.86111 	90.1864 	177.064 	347.037 	181.943 	229.78 	202.802 	340.919 	
3.48176 	-0.0666878 	-0.173895 	1.22527 	0.445226 	-0.231774 	2.85319 	90.1863 	176.525 	346.485 	182.49 	230.349 	203.344 	341.468 	
3.58509 	-0.0665671 	-0.188332 	1.22147 	0.469461 	-0.234415 	2.8452 	90.1863 	176.043 	345.989 	182.985 	230.853 	203.842 	341.981 	
3.68787 	-0.0663675 	-0.202656 	1.21742 	0.49364 	-0.236929 	2.83713 	90.1863 	175.563 	345.491 	183.476 	231.338 	204.329 	342.482 	
3.79094 	-0.0660901 	-0.216862 	1.21313 	0.517757 	-0.239319 	2.82899 	90.1863 	175.011 	344.94 	184.02 	231.901 	204.885 	342.983 	
3.89372 	-0.065736 	-0.230944 	1.2086 	0.541811 	-0.241589 	2.82077 	90.1863 	174.523 	344.441 	184.515 	232.406 	205.382 	343.538 	
3.99698 	-0.0653064 	-0.244899 	1.20385 	0.565796 	-0.243741 	2.81246 	90.1863 	174.013 	343.936 	185.021 	232.897 	205.881 	344.018 	
4.09986 	-0.0648023 	-0.258719 	1.19887 	0.58971 	-0.245778 	2.80407 	90.1863 	173.491 	343.448 	185.505 	233.413 	206.372 	344.512 	
4.20283 	-0.0642251 	-0.272401 	1.19367 	0.61355 	-0.247705 	2.79558 	90.1863 	172.959 	342.891 	186.069 	233.958 	206.924 	345.074 	
4.30572 	-0.0635758 	-0.285941 	1.18825 	0.637312 	-0.249524 	2.787 	90.1863 	172.5 	342.393 	186.551 	234.452 	207.409 	345.569 	
4.40888 	-0.0628559 	-0.299332 	1.18262 	0.660992 	-0.251239 	2.77832 	90.1863 	172.064 	341.891 	187.028 	234.958 	207.894 	346.08 	
4.51167 	-0.0620664 	-0.312572 	1.17678 	0.684588 	-0.252853 	2.76954 	90.1864 	171.432 	341.355 	187.598 	235.52 	208.493 	346.639 	
4.61463 	-0.0612087 	-0.325656 	1.17073 	0.708096 	-0.254369 	2.76065 	90.1859 	170.979 	340.843 	188.091 	236.008 	208.945 	347.119 	
4.71765 	-0.0602842 	-0.33858 	1.16449 	0.731512 	-0.255792 	2.75166 	90.1859 	170.517 	340.344 	188.572 	236.503 	209.429 	347.618 	
4.82067 	-0.0592941 	-0.351339 	1.15805 	0.754834 	-0.257125 	2.74255 	90.1861 	169.941 	339.803 	189.12 	237.076 	210.021 	348.113 	
4.92363 	-0.0582399 	-0.363931 	1.15143 	0.778059 	-0.258372 	2.73333 	90.1854 	169.416 	339.29 	189.64 	237.562 	210.49 	348.658 	
5.0265 	-0.0571227 	-0.376352 	1.14461 	0.801184 	-0.259535 	2.72399 	90.1852 	168.963 	338.794 	190.122 	238.057 	210.993 	349.179 	
5.13475 	-0.055944 	-0.388598 	1.13762 	0.824205 	-0.260619 	2.71454 	90.1853 	168.423 	338.245 	190.659 	238.629 	211.551 	349.731 	
5.23738 	-0.0545782 	-0.401863 	1.12973 	0.849405 	-0.261725 	2.704 	90.1852 	167.902 	337.744 	191.171 	239.124 	212.038 	350.215 	
5.34059 	-0.053408 	-0.412553 	1.12312 	0.869924 	-0.262565 	2.69526 	90.1852 	167.37 	337.193 	191.712 	239.659 	212.592 	350.708 	
5.443 	-0.0520533 	-0.424256 	1.11562 	0.892617 	-0.263434 	2.68544 	90.1852 	166.893 	336.703 	192.205 	240.176 	213.085 	351.26 	
5.54717 	-0.0506429 	-0.435772 	1.10796 	0.915195 	-0.264239 	2.67549 	90.1852 	166.386 	336.195 	192.706 	240.674 	213.586 	351.772 	
5.65134 	-0.049178 	-0.447099 	1.10015 	0.937654 	-0.264982 	2.66541 	90.1852 	165.859 	335.648 	193.247 	241.21 	214.132 	352.326 	
5.75398 	-0.0460908 	-0.469176 	1.08409 	0.98221 	-0.266302 	2.64486 	90.1853 	165.357 	335.148 	193.74 	241.738 	214.639 	352.829 	
5.85746 	-0.0444712 	-0.479922 	1.07584 	1.0043 	-0.266885 	2.63439 	90.1853 	164.858 	334.647 	194.242 	242.237 	215.132 	353.328 	
5.96021 	-0.0428032 	-0.49047 	1.06747 	1.02626 	-0.267422 	2.62379 	90.1853 	164.342 	334.097 	194.782 	242.774 	215.681 	353.813 	
6.06347 	-0.0410877 	-0.500818 	1.05897 	1.0481 	-0.267916 	2.61305 	90.1853 	163.843 	333.599 	195.28 	243.287 	216.177 	354.364 	
6.17025 	-0.0393266 	-0.510965 	1.05034 	1.06979 	-0.26837 	2.60218 	90.1853 	163.286 	333.095 	195.784 	243.784 	216.684 	354.864 	
6.27308 	-0.0375213 	-0.520909 	1.0416 	1.09136 	-0.268789 	2.59117 	90.1853 	162.794 	332.542 	196.332 	244.325 	217.222 	355.422 	
6.37627 	-0.0354858 	-0.531612 	1.03186 	1.11492 	-0.269212 	2.5789 	90.1853 	162.3 	332.044 	196.83 	244.84 	217.729 	355.935 	
6.47913 	-0.0337831 	-0.540184 	1.0238 	1.13407 	-0.269532 	2.56874 	90.1853 	161.791 	331.539 	197.328 	245.352 	218.228 	356.437 	
6.5821 	-0.0318534 	-0.549514 	1.01474 	1.15521 	-0.269864 	2.55732 	90.1854 	161.267 	330.999 	197.868 	245.887 	218.771 	356.962 	
6.68516 	-0.029885 	-0.558636 	1.00559 	1.17621 	-0.270172 	2.54577 	90.1853 	160.779 	330.494 	198.363 	246.389 	219.265 	357.463 	
6.78817 	-0.0278793 	-0.567551 	0.996344 	1.19706 	-0.270461 	2.53408 	90.1856 	160.277 	329.997 	198.866 	246.902 	219.78 	357.964 	
6.89121 	-0.0258381 	-0.576258 	0.987016 	1.21776 	-0.270734 	2.52225 	90.1856 	159.75 	329.444 	199.404 	247.443 	220.318 	358.511 	
6.99409 	-0.0237622 	-0.584757 	0.97761 	1.23831 	-0.270992 	2.51029 	90.1857 	159.26 	328.948 	199.903 	247.941 	220.81 	359.026 	
7.09708 	-0.0216535 	-0.593048 	0.968129 	1.25871 	-0.271241 	2.49819 	90.1861 	158.759 	328.45 	200.394 	248.466 	221.331 	359.525 	
7.19995 	-0.019513 	-0.60113 	0.95858 	1.27895 	-0.271481 	2.48596 	90.186 	158.216 	327.891 	200.954 	249.003 	221.809 	360.011 	
7.30272 	-0.0173422 	-0.609003 	0.948966 	1.29904 	-0.271716 	2.47359 	90.1861 	157.741 	327.393 	201.445 	249.496 	222.369 	360.564 	
7.40604 	-0.0151425 	-0.616668 	0.939294 	1.31896 	-0.271948 	2.46108 	90.1861 	157.239 	326.902 	201.939 	250.007 	222.878 	361.061 	
7.50921 	-0.0129149 	-0.624125 	0.929567 	1.33873 	-0.272181 	2.44845 	90.186 	156.692 	326.393 	202.454 	250.499 	223.366 	361.567 	
7.61213 	-0.0106612 	-0.631375 	0.919792 	1.35833 	-0.272415 	2.43568 	90.1861 	156.208 	325.845 	202.99 	251.046 	223.928 	362.128 	
7.7149 	-0.00838237 	-0.638418 	0.909973 	1.37776 	-0.272655 	2.42278 	90.186 	155.726 	325.341 	203.492 	251.571 	224.412 	362.629 	
7.81772 	-0.0060797 	-0.645255 	0.900115 	1.39703 	-0.272902 	2.40975 	90.186 	155.241 	324.834 	203.986 	252.072 	224.916 	363.119 	
7.92124 	-0.00375452 	-0.651887 	0.890223 	1.41614 	-0.273157 	2.39659 	90.1862 	154.679 	324.294 	204.534 	252.605 	225.477 	363.664 	
8.02388 	-0.00140796 	-0.658315 	0.880301 	1.43507 	-0.273424 	2.38331 	90.1862 	154.206 	323.791 	205.02 	253.123 	225.973 	364.157 	
8.12709 	0.000958711 	-0.66454 	0.870354 	1.45382 	-0.273703 	2.36989 	90.1861 	153.696 	323.296 	205.531 	253.629 	226.481 	364.658 	
8.23488 	0.00334433 	-0.670562 	0.860387 	1.47241 	-0.273998 	2.35636 	90.1861 	153.161 	322.742 	206.075 	254.154 	227.02 	365.219 	
8.33743 	0.0057477 	-0.676385 	0.850404 	1.49082 	-0.274308 	2.34269 	90.1864 	152.657 	322.301 	206.511 	254.622 	227.481 	365.685 	
8.44035 	0.00816784 	-0.682008 	0.84041 	1.50905 	-0.274637 	2.32891 	90.1861 	152.101 	321.683 	207.13 	255.237 	228.09 	366.274 	
8.54351 	0.0106032 	-0.687433 	0.830408 	1.5271 	-0.274985 	2.31501 	90.1863 	151.58 	321.192 	207.633 	255.705 	228.591 	366.76 	
8.64721 	0.015517 	-0.697699 	0.810402 	1.56267 	-0.275743 	2.28685 	90.1862 	151.107 	320.685 	208.13 	256.211 	229.072 	367.263 	
8.75116 	0.0179929 	-0.702542 	0.800404 	1.58017 	-0.276156 	2.2726 	90.1868 	150.584 	320.141 	208.661 	256.788 	229.645 	367.815 	
8.85433 	0.0204801 	-0.707194 	0.790417 	1.5975 	-0.276593 	2.25823 	90.1867 	150.084 	319.633 	209.174 	257.267 	230.138 	368.311 	
8.95708 	0.0229775 	-0.711658 	0.780443 	1.61463 	-0.277055 	2.24376 	90.1887 	149.574 	319.143 	209.662 	257.779 	230.64 	368.825 	
9.06058 	0.0254845 	-0.715936 	0.770487 	1.63158 	-0.277542 	2.22917 	90.1887 	149.04 	318.585 	210.221 	258.35 	231.205 	369.374 	
9.16366 	0.0279998 	-0.720029 	0.760551 	1.64833 	-0.278055 	2.21448 	90.1875 	148.55 	318.076 	210.724 	258.828 	231.685 	369.852 	
9.27029 	0.0305222 	-0.72394 	0.750641 	1.6649 	-0.278596 	2.19968 	90.1914 	147.992 	317.54 	211.269 	259.387 	232.254 	370.409 	
9.37338 	0.0330515 	-0.727672 	0.740759 	1.68127 	-0.279164 	2.18478 	90.1909 	147.492 	317.031 	211.765 	259.906 	232.75 	370.91 	
9.47632 	0.0355864 	-0.731225 	0.730909 	1.69745 	-0.279759 	2.16978 	90.1906 	146.995 	316.532 	212.272 	260.384 	233.244 	371.406 	
9.57935 	0.0381259 	-0.734604 	0.721094 	1.71343 	-0.280383 	2.15467 	90.1892 	146.454 	315.971 	212.827 	260.921 	233.736 	371.92 	
9.6823 	0.0406696 	-0.73781 	0.711318 	1.72922 	-0.281033 	2.13948 	90.1918 	145.949 	315.486 	213.317 	261.46 	234.319 	372.466 	
9.78527 	0.0432164 	-0.740846 	0.701584 	1.7448 	-0.281712 	2.12418 	90.1858 	145.484 	314.965 	213.828 	261.94 	234.797 	372.951 	
9.88825 	0.0457656 	-0.743715 	0.691895 	1.76019 	-0.282418 	2.1088 	90.1875 	145 	314.484 	214.308 	262.418 	235.305 	373.455 	
9.99121 	0.0483166 	-0.746419 	0.682254 	1.77538 	-0.283152 	2.09332 	90.1875 	144.45 	313.93 	214.865 	263 	235.85 	374.008 	
10.0944 	0.0511236 	-0.749205 	0.671707 	1.79185 	-0.28399 	2.0762 	90.1891 	143.967 	313.422 	215.357 	263.503 	236.357 	374.5 	
10.1975 	0.0534205 	-0.751342 	0.663126 	1.80515 	-0.2847 	2.06211 	90.1907 	143.462 	312.922 	215.868 	263.976 	236.863 	375.013 	
10.3004 	0.0559722 	-0.753567 	0.653646 	1.81973 	-0.285513 	2.04638 	90.1902 	142.917 	312.372 	216.412 	264.553 	237.409 	375.577 	
10.4032 	0.0585228 	-0.755638 	0.644225 	1.8341 	-0.286352 	2.03056 	90.1903 	142.406 	311.868 	216.927 	265.059 	237.926 	376.068 	
10.5062 	0.0610718 	-0.757558 	0.634865 	1.84827 	-0.287214 	2.01467 	90.1905 	141.919 	311.37 	217.415 	265.545 	238.422 	376.555 	
10.6094 	0.0636184 	-0.759329 	0.62557 	1.86223 	-0.288101 	1.9987 	90.1868 	141.364 	310.806 	217.981 	266.102 	238.912 	377.06 	
10.7122 	0.0661621 	-0.760955 	0.616341 	1.87598 	-0.28901 	1.98266 	90.1879 	140.907 	310.311 	218.457 	266.619 	239.485 	377.607 	
10.8151 	0.0689565 	-0.762579 	0.606268 	1.89087 	-0.290034 	1.96494 	90.1876 	140.372 	309.813 	218.975 	267.081 	239.981 	378.105 	
10.918 	0.071239 	-0.763781 	0.598091 	1.90286 	-0.290891 	1.95037 	90.1877 	139.875 	309.31 	219.474 	267.591 	240.475 	378.63 	
11.0214 	0.0737708 	-0.764987 	0.589074 	1.91598 	-0.291861 	1.93413 	90.1872 	139.351 	308.756 	220.026 	268.168 	241.038 	379.171 	
11.1245 	0.0762978 	-0.766059 	0.580132 	1.9289 	-0.292848 	1.91782 	90.1879 	138.856 	308.255 	220.522 	268.648 	241.544 	379.648 	
11.227 	0.078819 	-0.767 	0.571267 	1.9416 	-0.293853 	1.90145 	90.1875 	138.341 	307.757 	221.026 	269.147 	242.035 	380.159 	
11.3335 	0.0813348 	-0.767813 	0.56248 	1.95409 	-0.294872 	1.88502 	90.1876 	137.801 	307.201 	221.587 	269.719 	242.6 	380.705 	
11.4377 	0.0840943 	-0.768562 	0.552908 	1.96759 	-0.296009 	1.86688 	90.1878 	137.318 	306.701 	222.076 	270.196 	243.1 	381.202 	
11.5412 	0.0863463 	-0.769064 	0.54515 	1.97844 	-0.296949 	1.85199 	90.188 	136.752 	306.152 	222.637 	270.744 	243.644 	381.771 	
11.6441 	0.089091 	-0.769547 	0.535759 	1.99146 	-0.298109 	1.83374 	90.1882 	136.252 	305.651 	223.127 	271.276 	244.149 	382.27 	
11.7479 	0.0915778 	-0.769864 	0.527312 	2.00308 	-0.299172 	1.8171 	90.188 	135.759 	305.146 	223.64 	271.762 	244.661 	382.754 	
11.8518 	0.0938095 	-0.770052 	0.519783 	2.01335 	-0.300134 	1.80209 	90.1902 	135.239 	304.596 	224.176 	272.294 	245.212 	383.307 	
11.9544 	0.0987442 	-0.77015 	0.503307 	2.03556 	-0.302285 	1.7686 	90.1894 	134.699 	304.085 	224.696 	272.82 	245.714 	383.807 	
12.0574 	0.101198 	-0.77004 	0.495204 	2.04635 	-0.303362 	1.7518 	90.1927 	134.211 	303.596 	225.178 	273.311 	246.228 	384.291 	
12.1608 	0.103643 	-0.769828 	0.487191 	2.05692 	-0.304437 	1.73497 	90.1872 	133.664 	303.035 	225.742 	273.839 	246.747 	384.864 	
12.2639 	0.106079 	-0.769516 	0.479271 	2.06728 	-0.30551 	1.7181 	90.1916 	133.194 	302.539 	226.227 	274.386 	247.251 	385.372 	
12.3703 	0.108504 	-0.769106 	0.471443 	2.07742 	-0.306577 	1.70121 	90.1875 	132.633 	301.971 	226.798 	274.924 	247.818 	385.906 	
12.4736 	0.11092 	-0.768603 	0.463709 	2.08736 	-0.307637 	1.68429 	90.1919 	132.14 	301.476 	227.291 	275.41 	248.328 	386.412 	
12.5767 	0.113325 	-0.767642 	0.45762 	2.09506 	-0.308688 	1.66734 	90.1886 	131.685 	300.975 	227.809 	275.922 	248.82 	386.911 	
12.6797 	0.11572 	-0.766973 	0.450075 	2.10456 	-0.309725 	1.65038 	90.1912 	131.191 	300.427 	228.353 	276.47 	249.386 	387.453 	
12.7829 	0.118104 	-0.766219 	0.442625 	2.11386 	-0.310749 	1.6334 	90.1883 	130.711 	299.918 	228.851 	276.937 	249.876 	387.956 	
12.8856 	0.120713 	-0.765285 	0.434575 	2.1238 	-0.311857 	1.61471 	90.1921 	130.188 	299.429 	229.359 	277.454 	250.375 	388.478 	
12.9887 	0.122838 	-0.764454 	0.428049 	2.13179 	-0.312746 	1.5994 	90.1912 	129.667 	298.872 	229.904 	278.02 	250.885 	388.964 	
13.0916 	0.125422 	-0.763247 	0.420734 	2.14059 	-0.313811 	1.58069 	90.1912 	129.168 	298.372 	230.414 	278.493 	251.443 	389.498 	
13.1947 	0.127526 	-0.762282 	0.414381 	2.14819 	-0.314661 	1.56537 	90.1918 	128.716 	297.869 	230.903 	279.005 	251.931 	390.001 	
13.2976 	0.129853 	-0.760659 	0.410164 	2.15284 	-0.315584 	1.54835 	90.19 	128.403 	297.365 	231.416 	279.521 	252.442 	390.505 	
13.4004 	0.132167 	-0.759064 	0.405686 	2.15774 	-0.31648 	1.53133 	90.1891 	128.12 	296.808 	231.962 	280.047 	252.993 	391.045 	
13.5036 	0.1347 	-0.756497 	0.405445 	2.15683 	-0.317435 	1.51261 	90.1912 	128.072 	296.308 	232.458 	280.552 	253.486 	391.569 	
13.6064 	0.13676 	-0.754382 	0.405355 	2.15585 	-0.318189 	1.4973 	90.192 	128.046 	295.806 	232.967 	281.08 	253.991 	392.073 	
13.7098 	0.139038 	-0.752025 	0.405318 	2.15457 	-0.318994 	1.48029 	90.1909 	128.039 	295.258 	233.522 	281.604 	254.55 	392.593 	
13.8125 	0.141302 	-0.74966 	0.405346 	2.15308 	-0.319763 	1.46331 	90.1917 	128.039 	294.754 	234.017 	282.102 	255.045 	393.107 	
13.9155 	0.143777 	-0.747051 	0.405452 	2.15122 	-0.320565 	1.44464 	90.1911 	128.038 	294.251 	234.528 	282.616 	255.548 	393.61 	
14.0183 	0.14579 	-0.744909 	0.405596 	2.14953 	-0.321185 	1.42939 	90.1911 	128.038 	293.696 	235.075 	283.157 	256.06 	394.095 	
14.1215 	0.148014 	-0.742522 	0.405818 	2.14745 	-0.321831 	1.41247 	90.1911 	128.037 	293.197 	235.581 	283.642 	256.597 	394.664 	
14.2242 	0.150225 	-0.740129 	0.406102 	2.14519 	-0.322434 	1.39557 	90.1911 	128.036 	292.695 	236.079 	284.181 	257.094 	395.173 	
14.3274 	0.152421 	-0.737728 	0.406448 	2.14274 	-0.32299 	1.37871 	90.1909 	128.035 	292.189 	236.578 	284.674 	257.607 	395.649 	
14.4346 	0.154602 	-0.73532 	0.406856 	2.14009 	-0.323499 	1.36188 	90.1911 	128.035 	291.638 	237.13 	285.202 	258.157 	396.198 	
14.5372 	0.156985 	-0.732662 	0.407376 	2.13698 	-0.324001 	1.34342 	90.1912 	128.033 	291.144 	237.628 	285.72 	258.652 	396.714 	
14.64 	0.159135 	-0.730239 	0.407912 	2.13395 	-0.324403 	1.32668 	90.1901 	128.03 	290.583 	238.187 	286.272 	259.207 	397.245 	
14.7439 	0.16127 	-0.727808 	0.408507 	2.13074 	-0.324752 	1.30998 	90.1908 	128.03 	290.079 	238.682 	286.741 	259.705 	397.753 	
14.8489 	0.165495 	-0.722924 	0.409876 	2.12379 	-0.325283 	1.27675 	90.1907 	128.025 	289.529 	239.236 	287.322 	260.242 	398.278 	
14.9528 	0.167375 	-0.720716 	0.410568 	2.12043 	-0.325447 	1.26187 	90.1909 	128.012 	289.028 	239.733 	287.838 	260.767 	398.803 	
15.056 	0.169448 	-0.718255 	0.41139 	2.11654 	-0.325573 	1.24539 	90.1908 	128.009 	288.53 	240.238 	288.308 	261.267 	399.297 	
15.159 	0.17171 	-0.715538 	0.412361 	2.11207 	-0.325641 	1.22734 	90.191 	128.009 	287.975 	240.787 	288.873 	261.808 	399.805 	
15.2622 	0.173748 	-0.71306 	0.413302 	2.10783 	-0.325639 	1.211 	90.1909 	128.007 	287.482 	241.291 	289.38 	262.316 	400.348 	
15.3699 	0.175568 	-0.710822 	0.414196 	2.10387 	-0.325582 	1.19636 	90.1909 	128.007 	286.916 	241.849 	289.905 	262.877 	400.85 	
15.4731 	0.177773 	-0.708078 	0.415349 	2.09886 	-0.325443 	1.17855 	90.1907 	128.006 	286.418 	242.353 	290.413 	263.349 	401.427 	
15.5759 	0.179759 	-0.705573 	0.416453 	2.09414 	-0.325248 	1.16245 	90.1907 	128.005 	285.908 	242.852 	290.942 	263.865 	401.923 	
15.679 	0.181531 	-0.703311 	0.417493 	2.08977 	-0.325016 	1.14803 	90.1906 	128.005 	285.367 	243.395 	291.458 	264.422 	402.401 	
15.7817 	0.183676 	-0.700536 	0.418821 	2.08425 	-0.32466 	1.13049 	90.1907 	128.005 	284.862 	243.9 	291.957 	264.908 	402.946 	
15.8852 	0.185414 	-0.698257 	0.419953 	2.0796 	-0.324307 	1.11623 	90.1906 	128.004 	284.358 	244.398 	292.487 	265.413 	403.44 	
15.988 	0.187327 	-0.695714 	0.42126 	2.07431 	-0.32385 	1.10048 	90.1906 	128.004 	283.813 	244.948 	292.957 	265.928 	403.936 	
16.0908 	0.189408 	-0.692906 	0.422756 	2.06831 	-0.32327 	1.08326 	90.1908 	128.004 	283.31 	245.448 	293.503 	266.457 	404.509 	
16.1936 	0.191279 	-0.690341 	0.424167 	2.06272 	-0.32267 	1.06772 	90.1906 	128.002 	282.813 	245.955 	294.032 	266.953 	405.022 	
16.297 	0.19313 	-0.687766 	0.425627 	2.05699 	-0.322 	1.05229 	90.1907 	128.002 	282.306 	246.451 	294.522 	267.469 	405.498 	
16.3998 	0.194959 	-0.685179 	0.427135 	2.05113 	-0.321262 	1.03697 	90.1908 	128.001 	281.757 	247.006 	295.051 	268.023 	406.054 	
16.5031 	0.196767 	-0.682581 	0.42869 	2.04515 	-0.320455 	1.02176 	90.1905 	128 	281.25 	247.508 	295.584 	268.513 	406.551 	
16.606 	0.198552 	-0.67997 	0.430291 	2.03904 	-0.319579 	1.00667 	90.1906 	127.997 	280.752 	248.005 	296.077 	269.028 	407.038 	
16.7091 	0.200316 	-0.677347 	0.431937 	2.0328 	-0.318633 	0.991705 	90.1905 	127.995 	280.201 	248.561 	296.594 	269.566 	407.555 	
16.8117 	0.202057 	-0.674712 	0.433627 	2.02645 	-0.317619 	0.976865 	90.1905 	127.993 	279.7 	249.061 	297.113 	270.06 	408.132 	
16.9146 	0.203773 	-0.672063 	0.435362 	2.01998 	-0.316537 	0.962157 	90.1905 	127.993 	279.194 	249.56 	297.633 	270.575 	408.605 	
17.0177 	0.205466 	-0.669402 	0.437139 	2.01341 	-0.315386 	0.947581 	90.1905 	127.991 	278.648 	250.106 	298.111 	271.076 	409.098 	
17.1208 	0.207135 	-0.666726 	0.438958 	2.00672 	-0.314169 	0.933143 	90.1904 	127.987 	278.138 	250.613 	298.678 	271.616 	409.657 	
17.2235 	0.208615 	-0.664306 	0.44063 	2.00061 	-0.313017 	0.92027 	90.1904 	127.973 	277.642 	251.117 	299.189 	272.127 	410.145 	
17.327 	0.210396 	-0.661333 	0.442718 	1.99303 	-0.311537 	0.904694 	90.1905 	127.965 	277.137 	251.613 	299.651 	272.629 	410.656 	
17.4348 	0.211987 	-0.658614 	0.444658 	1.98604 	-0.310123 	0.890689 	90.1901 	127.961 	276.589 	252.163 	300.212 	273.155 	411.222 	
17.5374 	0.213552 	-0.65588 	0.446636 	1.97895 	-0.308646 	0.876836 	90.1903 	127.961 	276.034 	252.718 	300.746 	273.666 	411.709 	
17.6403 	0.215089 	-0.653131 	0.448652 	1.97177 	-0.307107 	0.863137 	90.1903 	127.96 	275.537 	253.216 	301.256 	274.232 	412.237 	
17.7432 	0.216597 	-0.650367 	0.450704 	1.9645 	-0.305507 	0.849596 	90.1903 	127.959 	275.037 	253.727 	301.767 	274.724 	412.762 	
17.8483 	0.218078 	-0.647586 	0.452791 	1.95715 	-0.303846 	0.836217 	90.1903 	127.958 	274.486 	254.271 	302.341 	275.272 	413.253 	
17.9514 	0.219529 	-0.644789 	0.454914 	1.94971 	-0.302127 	0.823001 	90.1903 	127.958 	273.983 	254.769 	302.804 	275.786 	413.792 	
18.0544 	0.222339 	-0.639146 	0.459259 	1.9346 	-0.298521 	0.797075 	90.1902 	127.958 	273.483 	255.272 	303.306 	276.263 	414.318 	
18.1573 	0.223698 	-0.636299 	0.461481 	1.92694 	-0.296638 	0.784372 	90.1902 	127.958 	272.934 	255.821 	303.841 	276.764 	414.821 	
18.2603 	0.224893 	-0.633722 	0.463506 	1.91998 	-0.294899 	0.773091 	90.1903 	127.957 	272.434 	256.323 	304.362 	277.333 	415.343 	
18.3634 	0.226317 	-0.630554 	0.466014 	1.9114 	-0.292719 	0.759498 	90.1902 	127.956 	271.931 	256.822 	304.857 	277.816 	415.852 	
18.4704 	0.227453 	-0.627945 	0.468092 	1.90432 	-0.290893 	0.748541 	90.1902 	127.956 	271.376 	257.375 	305.443 	278.371 	416.405 	
18.5732 	0.228803 	-0.624737 	0.470663 	1.8956 	-0.28861 	0.735351 	90.1903 	127.956 	270.879 	257.875 	305.915 	278.88 	416.887 	
18.6763 	0.229994 	-0.621801 	0.473028 	1.88761 	-0.286489 	0.723555 	90.1901 	127.954 	270.377 	258.379 	306.399 	279.373 	417.412 	
18.7791 	0.231149 	-0.618848 	0.475418 	1.87957 	-0.284328 	0.711949 	90.19 	127.952 	269.831 	258.929 	306.986 	279.914 	417.974 	
18.8822 	0.232268 	-0.615875 	0.477833 	1.87147 	-0.282126 	0.700534 	90.1901 	127.951 	269.325 	259.431 	307.474 	280.428 	418.436 	
18.9852 	0.23335 	-0.612885 	0.480271 	1.86332 	-0.279888 	0.689313 	90.19 	127.933 	268.828 	259.93 	307.954 	280.926 	418.94 	
19.0883 	0.234394 	-0.609875 	0.482732 	1.85513 	-0.277617 	0.678286 	90.1899 	127.929 	268.277 	260.479 	308.524 	281.469 	419.456 	
19.1911 	0.235399 	-0.606846 	0.485214 	1.84689 	-0.275312 	0.667458 	90.1871 	127.925 	267.776 	260.979 	309.025 	281.966 	419.986 	
19.294 	0.236366 	-0.603799 	0.487716 	1.83861 	-0.272979 	0.656829 	90.1871 	127.923 	267.276 	261.481 	309.498 	282.476 	420.503 	
19.3972 	0.237292 	-0.600732 	0.490236 	1.83029 	-0.270619 	0.646401 	90.187 	127.923 	266.723 	262.029 	310.02 	282.958 	421.024 	
19.5001 	0.238178 	-0.597647 	0.492775 	1.82193 	-0.268235 	0.636176 	90.1871 	127.919 	266.232 	262.531 	310.58 	283.516 	421.551 	
19.6034 	0.239022 	-0.594543 	0.495331 	1.81354 	-0.26583 	0.626156 	90.1872 	127.919 	265.725 	263.031 	311.061 	284.027 	422.043 	
19.7063 	0.239824 	-0.591419 	0.497901 	1.80512 	-0.263406 	0.616343 	90.1873 	127.918 	265.223 	263.53 	311.57 	284.519 	422.549 	
19.8092 	0.240976 	-0.588392 	0.500519 	1.79644 	-0.259422 	0.606678 	90.1871 	127.917 	264.668 	264.082 	312.132 	284.84 	423.087 	
19.912 	0.243898 	-0.585854 	0.503307 	1.78672 	-0.248329 	0.59697 	90.1871 	127.917 	264.171 	264.58 	312.601 	284.862 	423.592 	
20.015 	0.246784 	-0.583264 	0.506122 	1.77698 	-0.237224 	0.587491 	90.1871 	127.917 	263.667 	265.076 	313.1 	284.864 	424.114 	
20.1179 	0.249349 	-0.580889 	0.508678 	1.76821 	-0.227222 	0.579157 	90.187 	127.916 	263.124 	265.626 	313.677 	284.864 	424.615 	
20.221 	0.252441 	-0.577928 	0.51183 	1.75747 	-0.214992 	0.569222 	90.1868 	127.915 	262.614 	266.137 	314.16 	284.865 	425.144 	
20.3243 	0.254935 	-0.575459 	0.514432 	1.74866 	-0.204985 	0.5613 	90.1868 	127.914 	262.119 	266.633 	314.665 	284.865 	425.655 	
20.427 	0.257938 	-0.572384 	0.517639 	1.73787 	-0.192756 	0.551868 	90.1868 	127.911 	261.574 	267.184 	315.183 	284.865 	426.152 	
20.5351 	0.260623 	-0.569533 	0.520578 	1.72803 	-0.181646 	0.543533 	90.1868 	127.911 	261.066 	267.681 	315.709 	284.865 	426.67 	
20.6377 	0.263264 	-0.56663 	0.523542 	1.71816 	-0.170546 	0.535426 	90.1869 	127.91 	260.516 	268.23 	316.248 	284.865 	427.2 	
20.7409 	0.265795 	-0.563749 	0.526569 	1.70836 	-0.159702 	0.527793 	90.1865 	127.91 	260.016 	268.509 	316.769 	284.865 	427.768 	
20.8437 	0.266802 	-0.562474 	0.530548 	1.70073 	-0.154378 	0.525889 	90.1867 	127.909 	259.52 	268.55 	317.266 	284.865 	428.241 	
20.9464 	0.267662 	-0.561284 	0.534594 	1.69325 	-0.149517 	0.524434 	90.1866 	127.909 	258.962 	268.557 	317.76 	284.865 	428.754 	
21.0496 	0.268472 	-0.560073 	0.538645 	1.68575 	-0.144765 	0.523064 	90.1867 	127.908 	258.468 	268.561 	318.321 	284.865 	429.31 	
21.1536 	0.269938 	-0.557586 	0.54676 	1.67074 	-0.135586 	0.52057 	90.1867 	127.908 	257.96 	268.565 	318.821 	284.865 	429.777 	
21.2562 	0.270594 	-0.556311 	0.550822 	1.66322 	-0.131162 	0.519444 	90.1866 	127.907 	257.419 	268.574 	319.296 	284.865 	430.3 	
21.3596 	0.271199 	-0.555015 	0.554887 	1.65569 	-0.126849 	0.518398 	90.1866 	127.907 	256.914 	268.58 	319.872 	284.866 	430.873 	
21.4628 	0.271751 	-0.5537 	0.558953 	1.64817 	-0.122649 	0.51743 	90.1866 	127.907 	256.419 	268.581 	320.377 	284.866 	431.341 	
21.5703 	0.272251 	-0.552364 	0.563021 	1.64063 	-0.118562 	0.516541 	90.1866 	127.907 	255.864 	268.583 	320.906 	284.866 	431.893 	
21.6735 	0.272699 	-0.551009 	0.56709 	1.6331 	-0.114588 	0.515728 	90.1867 	127.906 	255.367 	268.583 	321.413 	284.866 	432.404 	
21.7764 	0.273094 	-0.549635 	0.571158 	1.62556 	-0.11073 	0.51499 	90.1866 	127.904 	254.819 	268.583 	321.923 	284.866 	432.883 	
21.8797 	0.273436 	-0.548242 	0.575226 	1.61801 	-0.106987 	0.514326 	90.1866 	127.904 	254.316 	268.583 	322.448 	284.866 	433.444 	
21.9827 	0.273725 	-0.546831 	0.579291 	1.61047 	-0.103361 	0.513733 	90.1866 	127.902 	253.819 	268.584 	322.963 	284.866 	433.964 	
22.0855 	0.27396 	-0.545402 	0.583355 	1.60293 	-0.0998525 	0.513212 	90.1866 	127.895 	253.316 	268.584 	323.481 	284.866 	434.455 	
22.1884 	0.274141 	-0.543955 	0.587416 	1.59538 	-0.0964627 	0.512759 	90.1866 	127.884 	252.768 	268.584 	324.008 	284.866 	434.996 	
22.2914 	0.274269 	-0.542492 	0.591473 	1.58784 	-0.0931916 	0.512376 	90.1866 	127.871 	252.261 	268.584 	324.509 	284.866 	435.507 	
22.3944 	0.274343 	-0.541012 	0.595526 	1.5803 	-0.0900406 	0.51206 	90.1866 	127.867 	251.771 	268.585 	325.022 	284.866 	436.003 	
22.4975 	0.274362 	-0.539516 	0.599574 	1.57277 	-0.0870099 	0.511808 	90.1866 	127.867 	251.209 	268.585 	325.552 	284.866 	436.487 	
22.6003 	0.274327 	-0.538003 	0.603616 	1.56523 	-0.0841004 	0.511621 	90.1866 	127.866 	250.722 	268.585 	326.043 	284.865 	437.062 	
22.7034 	0.274238 	-0.536476 	0.607651 	1.55771 	-0.0813125 	0.511498 	90.1866 	127.866 	250.217 	268.585 	326.573 	284.865 	437.572 	
22.8064 	0.274095 	-0.534933 	0.61168 	1.55019 	-0.0786467 	0.511436 	90.1866 	127.866 	249.667 	268.585 	327.054 	284.865 	438.04 	
22.9094 	0.273896 	-0.533376 	0.615701 	1.54268 	-0.076104 	0.511433 	90.1866 	127.865 	249.163 	268.585 	327.602 	284.865 	438.594 	
23.0124 	0.273643 	-0.531804 	0.619714 	1.53518 	-0.0736844 	0.51149 	90.1866 	127.865 	248.668 	268.585 	328.121 	284.865 	439.108 	
23.1153 	0.273335 	-0.530219 	0.623717 	1.52769 	-0.0713887 	0.511604 	90.1866 	127.864 	248.172 	268.585 	328.603 	284.865 	439.578 	
23.2183 	0.272973 	-0.52862 	0.627711 	1.52022 	-0.069217 	0.511774 	90.1866 	127.864 	247.614 	268.585 	329.146 	284.865 	440.158 	
23.3213 	0.272555 	-0.527008 	0.631694 	1.51275 	-0.06717 	0.511998 	90.1866 	127.863 	247.116 	268.585 	329.668 	284.865 	440.674 	
23.4243 	0.272082 	-0.525384 	0.635666 	1.50531 	-0.0652481 	0.512276 	90.1866 	127.863 	246.614 	268.585 	330.161 	284.865 	441.141 	
23.5273 	0.271555 	-0.523748 	0.639625 	1.49788 	-0.0634516 	0.512605 	90.1866 	127.863 	246.066 	268.586 	330.699 	284.865 	441.652 	
23.6341 	0.270972 	-0.5221 	0.643573 	1.49046 	-0.0617804 	0.512984 	90.1866 	127.862 	245.562 	268.586 	331.211 	284.865 	442.209 	
23.7371 	0.270335 	-0.520441 	0.647507 	1.48307 	-0.0602351 	0.513411 	90.1865 	127.862 	245.016 	268.586 	331.753 	284.865 	442.685 	
23.84 	0.269642 	-0.51877 	0.651427 	1.4757 	-0.0588158 	0.513886 	90.1866 	127.861 	244.518 	268.586 	332.241 	284.865 	443.247 	
23.9431 	0.268894 	-0.51709 	0.655332 	1.46835 	-0.0575231 	0.514407 	90.1866 	127.86 	244.024 	268.586 	332.75 	284.865 	443.765 	
24.0471 	0.268092 	-0.515399 	0.659222 	1.46102 	-0.0563567 	0.514972 	90.1866 	127.86 	243.467 	268.586 	333.314 	284.865 	444.253 	
24.1518 	0.267235 	-0.513699 	0.663096 	1.45372 	-0.0553163 	0.51558 	90.1866 	127.859 	242.967 	268.586 	333.796 	284.865 	444.796 	
24.2546 	0.265355 	-0.510272 	0.670793 	1.4392 	-0.0536163 	0.516918 	90.1866 	127.858 	242.466 	268.586 	334.303 	284.865 	445.305 	
24.3577 	0.264334 	-0.508546 	0.674614 	1.43199 	-0.0529559 	0.517645 	90.1866 	127.857 	241.919 	268.586 	334.863 	284.865 	445.844 	
24.4609 	0.263258 	-0.506812 	0.678417 	1.42481 	-0.0524222 	0.518409 	90.1866 	127.855 	241.42 	268.586 	335.334 	284.865 	446.34 	
24.564 	0.262127 	-0.50507 	0.6822 	1.41766 	-0.0520146 	0.51921 	90.1866 	127.854 	240.919 	268.586 	335.836 	284.865 	446.86 	
24.6698 	0.260942 	-0.503322 	0.685963 	1.41055 	-0.0517337 	0.520044 	90.1866 	127.851 	240.369 	268.586 	336.41 	284.865 	447.412 	
24.7731 	0.259703 	-0.501567 	0.689705 	1.40348 	-0.0515789 	0.52091 	90.1865 	127.851 	239.868 	268.586 	336.893 	284.865 	447.882 	
24.8759 	0.25841 	-0.499806 	0.693425 	1.39644 	-0.0515498 	0.521809 	90.1865 	127.85 	239.317 	268.587 	337.392 	284.865 	448.405 	
24.9788 	0.257063 	-0.498039 	0.697124 	1.38945 	-0.0516463 	0.522737 	90.1865 	127.848 	238.817 	268.587 	337.952 	284.865 	448.951 	
25.0819 	0.255663 	-0.496267 	0.700799 	1.3825 	-0.0518684 	0.523694 	90.1871 	127.827 	238.322 	268.587 	338.442 	284.865 	449.43 	
25.1848 	0.254209 	-0.49449 	0.704451 	1.37559 	-0.0522154 	0.524677 	90.185 	127.821 	237.824 	268.587 	338.918 	284.865 	449.958 	
25.2877 	0.252702 	-0.492709 	0.708079 	1.36873 	-0.0526872 	0.525687 	90.1848 	127.818 	237.283 	268.587 	339.49 	284.865 	450.519 	
25.3909 	0.251141 	-0.490924 	0.711682 	1.36191 	-0.0532832 	0.526721 	90.1844 	127.818 	236.771 	268.588 	339.984 	284.865 	450.985 	
25.4937 	0.249528 	-0.489136 	0.715259 	1.35515 	-0.0540026 	0.527779 	90.1854 	127.814 	236.275 	268.588 	340.486 	284.865 	451.507 	
25.5968 	0.247862 	-0.487344 	0.71881 	1.34844 	-0.0548458 	0.528858 	90.1828 	127.812 	235.732 	268.589 	341.039 	284.865 	452.004 	
25.6997 	0.246144 	-0.48555 	0.722334 	1.34178 	-0.0558115 	0.529958 	90.1826 	127.812 	235.223 	268.593 	341.535 	284.864 	452.523 	
25.8028 	0.244374 	-0.483753 	0.725831 	1.33517 	-0.0568996 	0.531078 	90.1819 	127.812 	234.729 	268.594 	342.019 	284.864 	453.042 	
25.9059 	0.242552 	-0.481955 	0.729299 	1.32862 	-0.0581095 	0.532216 	90.182 	127.812 	234.18 	268.594 	342.526 	284.864 	453.564 	
26.0089 	0.240678 	-0.480155 	0.732739 	1.32213 	-0.0594397 	0.533371 	90.1821 	127.811 	233.677 	268.594 	343.079 	284.864 	454.093 	
26.1117 	0.238754 	-0.478354 	0.736149 	1.31569 	-0.0608908 	0.534542 	90.182 	127.811 	233.177 	268.594 	343.573 	284.864 	454.601 	
26.2146 	0.236778 	-0.476553 	0.739529 	1.30932 	-0.0624615 	0.535728 	90.182 	127.811 	232.676 	268.594 	344.082 	284.864 	455.108 	
26.3177 	0.234752 	-0.474752 	0.742879 	1.30301 	-0.0641507 	0.536928 	90.182 	127.81 	232.126 	268.594 	344.626 	284.864 	455.641 	
26.4208 	0.232675 	-0.472951 	0.746197 	1.29677 	-0.0659581 	0.53814 	90.182 	127.81 	231.643 	268.594 	345.115 	284.864 	456.123 	
26.5239 	0.230549 	-0.471151 	0.749483 	1.29059 	-0.0678828 	0.539365 	90.182 	127.81 	231.127 	268.594 	345.618 	284.864 	456.647 	
26.6266 	0.228374 	-0.469352 	0.752737 	1.28448 	-0.0699237 	0.5406 	90.182 	127.81 	230.589 	268.594 	346.173 	284.864 	457.156 	
26.7351 	0.226149 	-0.467554 	0.755957 	1.27844 	-0.0720803 	0.541844 	90.182 	127.81 	230.088 	268.594 	346.67 	284.864 	457.695 	
26.8375 	0.223875 	-0.465758 	0.759144 	1.27247 	-0.0743512 	0.543098 	90.182 	127.81 	229.539 	268.595 	347.218 	284.864 	458.257 	
26.9406 	0.221553 	-0.463965 	0.762297 	1.26658 	-0.0767359 	0.544361 	90.182 	127.81 	229.037 	268.595 	347.726 	284.864 	458.753 	
27.0431 	0.219183 	-0.462175 	0.765414 	1.26076 	-0.0792333 	0.54563 	90.182 	127.81 	228.536 	268.595 	348.212 	284.864 	459.237 	
27.1484 	0.214301 	-0.458603 	0.771542 	1.24934 	-0.0845616 	0.548188 	90.182 	127.81 	227.994 	268.595 	348.755 	284.864 	459.807 	
27.252 	0.21179 	-0.456824 	0.774551 	1.24375 	-0.0873906 	0.549474 	90.182 	127.81 	227.488 	268.595 	349.268 	284.864 	460.302 	
27.3549 	0.209232 	-0.455048 	0.777523 	1.23825 	-0.0903277 	0.550765 	90.182 	127.81 	226.939 	268.595 	349.757 	284.864 	460.775 	
27.4584 	0.206629 	-0.453277 	0.780457 	1.23282 	-0.0933724 	0.55206 	90.1819 	127.81 	226.444 	268.595 	350.298 	284.864 	461.36 	
27.5615 	0.203981 	-0.451512 	0.783353 	1.22748 	-0.0965231 	0.553358 	90.182 	127.81 	225.946 	268.595 	350.822 	284.864 	461.86 	
27.6703 	0.201288 	-0.449751 	0.78621 	1.22222 	-0.0997784 	0.554659 	90.182 	127.809 	225.395 	268.595 	351.349 	284.864 	462.38 	
27.7734 	0.19855 	-0.447997 	0.789028 	1.21705 	-0.103138 	0.555963 	90.182 	127.81 	224.889 	268.595 	351.851 	284.864 	462.902 	
27.8762 	0.195769 	-0.446249 	0.791806 	1.21197 	-0.106599 	0.557267 	90.182 	127.809 	224.339 	268.595 	352.406 	284.864 	463.41 	
27.9792 	0.192944 	-0.444508 	0.794543 	1.20698 	-0.110162 	0.558574 	90.182 	127.809 	223.85 	268.595 	352.896 	284.864 	463.938 	
28.0827 	0.190077 	-0.442774 	0.797239 	1.20208 	-0.113824 	0.559882 	90.182 	127.809 	223.35 	268.595 	353.398 	284.864 	464.451 	
28.1851 	0.187168 	-0.441047 	0.799893 	1.19727 	-0.117585 	0.56119 	90.182 	127.809 	222.804 	268.595 	353.906 	284.864 	464.961 	
28.2885 	0.184216 	-0.439327 	0.802506 	1.19256 	-0.121444 	0.5625 	90.1819 	127.809 	222.302 	268.596 	354.448 	284.864 	465.486 	
28.3911 	0.181224 	-0.437616 	0.805076 	1.18794 	-0.125398 	0.56381 	90.1819 	127.807 	221.806 	268.596 	354.935 	284.864 	465.988 	
28.4942 	0.178192 	-0.435913 	0.807603 	1.18342 	-0.129446 	0.565119 	90.1819 	127.807 	221.307 	268.596 	355.436 	284.864 	466.513 	
28.5976 	0.175119 	-0.434219 	0.810087 	1.17899 	-0.133588 	0.566429 	90.1819 	127.806 	220.753 	268.596 	355.986 	284.864 	467.044 	
28.7002 	0.172007 	-0.432535 	0.812527 	1.17467 	-0.137821 	0.567739 	90.1819 	127.804 	220.264 	268.596 	356.482 	284.864 	467.544 	
28.8032 	0.168856 	-0.430859 	0.814922 	1.17044 	-0.142144 	0.56905 	90.1819 	127.802 	219.756 	268.596 	356.992 	284.864 	468.053 	
28.9062 	0.165667 	-0.429194 	0.817272 	1.16632 	-0.146556 	0.57036 	90.1819 	127.801 	219.218 	268.596 	357.54 	284.864 	468.542 	
29.0095 	0.16244 	-0.427538 	0.819577 	1.1623 	-0.151055 	0.571671 	90.1819 	127.794 	218.717 	268.596 	358.026 	284.864 	469.083 	
29.1132 	0.159177 	-0.425893 	0.821837 	1.15838 	-0.15564 	0.572982 	90.1819 	127.791 	218.215 	268.596 	358.528 	284.864 	469.61 	
29.2161 	0.155877 	-0.424259 	0.82405 	1.15458 	-0.160309 	0.574293 	90.1819 	127.787 	217.665 	268.596 	359.074 	284.863 	470.102 	
29.319 	0.152541 	-0.422636 	0.826217 	1.15087 	-0.16506 	0.575606 	90.1819 	127.786 	217.169 	268.596 	359.578 	284.863 	470.628 	
29.4219 	0.149171 	-0.421024 	0.828337 	1.14728 	-0.169892 	0.57692 	90.1819 	127.777 	216.681 	268.596 	360.065 	284.863 	471.147 	
29.5251 	0.145766 	-0.419424 	0.830409 	1.14379 	-0.174805 	0.578234 	90.1819 	127.777 	216.122 	268.596 	360.583 	284.863 	471.65 	
29.6281 	0.142972 	-0.41813 	0.832071 	1.14216 	-0.177308 	0.579052 	90.1819 	127.776 	215.628 	268.596 	360.738 	284.863 	472.175 	
29.7366 	0.141317 	-0.417372 	0.833062 	1.14367 	-0.175373 	0.578972 	90.1819 	127.775 	215.08 	268.596 	360.75 	284.863 	472.753 	
29.8397 	0.139651 	-0.416623 	0.834041 	1.14515 	-0.173425 	0.578885 	90.1819 	127.775 	214.585 	268.597 	360.752 	284.863 	473.254 	
29.9437 	0.137974 	-0.415883 	0.835008 	1.14663 	-0.171465 	0.578793 	90.1819 	127.774 	214.085 	268.597 	360.752 	284.863 	473.738 	
30.0475 	0.136287 	-0.415152 	0.835964 	1.14808 	-0.169492 	0.578695 	90.1819 	127.774 	213.54 	268.597 	360.753 	284.863 	474.302 	
30.1522 	0.134589 	-0.41443 	0.836908 	1.14952 	-0.167506 	0.57859 	90.1819 	127.774 	213.029 	268.597 	360.753 	284.863 	474.81 	
30.2546 	0.132881 	-0.413717 	0.83784 	1.15093 	-0.165509 	0.578481 	90.1819 	127.774 	212.495 	268.597 	360.754 	284.863 	475.281 	
30.3575 	0.129434 	-0.412318 	0.839668 	1.15372 	-0.161479 	0.578243 	90.1819 	127.774 	211.982 	268.597 	360.754 	284.863 	475.842 	
30.4607 	0.127696 	-0.411632 	0.840565 	1.15508 	-0.159446 	0.578117 	90.1819 	127.774 	211.493 	268.597 	360.754 	284.863 	476.358 	
30.5638 	0.125948 	-0.410956 	0.841449 	1.15643 	-0.157402 	0.577985 	90.1819 	127.774 	210.986 	268.597 	360.754 	284.863 	476.845 	
30.6709 	0.12419 	-0.410288 	0.842321 	1.15775 	-0.155347 	0.577846 	90.1819 	127.774 	210.446 	268.597 	360.754 	284.863 	477.39 	
30.7736 	0.122423 	-0.40963 	0.84318 	1.15906 	-0.15328 	0.577703 	90.1819 	127.774 	209.941 	268.597 	360.754 	284.863 	477.905 	
30.8767 	0.120647 	-0.408982 	0.844028 	1.16035 	-0.151202 	0.577554 	90.1816 	127.774 	209.403 	268.597 	360.754 	284.863 	478.441 	
30.9796 	0.118861 	-0.408342 	0.844863 	1.16163 	-0.149113 	0.577399 	90.1817 	127.774 	208.894 	268.597 	360.754 	284.863 	478.933 	
31.0824 	0.117066 	-0.407713 	0.845685 	1.16288 	-0.147014 	0.577239 	90.1816 	127.774 	208.395 	268.598 	360.754 	284.863 	479.458 	
31.1854 	0.115262 	-0.407092 	0.846496 	1.16412 	-0.144904 	0.577074 	90.1816 	127.774 	207.858 	268.598 	360.754 	284.863 	479.95 	
31.2885 	0.113449 	-0.406482 	0.847293 	1.16533 	-0.142784 	0.576904 	90.1816 	127.774 	207.35 	268.598 	360.754 	284.863 	480.495 	
31.3918 	0.111628 	-0.405881 	0.848078 	1.16653 	-0.140654 	0.576727 	90.1816 	127.773 	206.857 	268.598 	360.754 	284.863 	481.006 	
31.4948 	0.109798 	-0.405289 	0.84885 	1.16771 	-0.138513 	0.576547 	90.1816 	127.773 	206.351 	268.598 	360.754 	284.863 	481.49 	
31.5978 	0.10796 	-0.404707 	0.84961 	1.16887 	-0.136363 	0.576361 	90.1817 	127.773 	205.804 	268.598 	360.754 	284.863 	482.033 	
31.7011 	0.106113 	-0.404135 	0.850356 	1.17001 	-0.134203 	0.57617 	90.1817 	127.773 	205.303 	268.598 	360.754 	284.863 	482.546 	
31.8041 	0.104258 	-0.403573 	0.85109 	1.17113 	-0.132033 	0.575974 	90.1817 	127.773 	204.81 	268.598 	360.754 	284.863 	483.046 	
31.9075 	0.102395 	-0.403021 	0.851811 	1.17224 	-0.129854 	0.575774 	90.1816 	127.773 	204.259 	268.598 	360.754 	284.863 	483.584 	
32.0109 	0.100525 	-0.402478 	0.852519 	1.17332 	-0.127665 	0.575567 	90.1817 	127.773 	203.758 	268.598 	360.754 	284.863 	484.102 	
32.1142 	0.0986462 	-0.401946 	0.853214 	1.17438 	-0.125468 	0.575357 	90.1817 	127.773 	203.265 	268.598 	360.754 	284.863 	484.604 	
32.2175 	0.0967602 	-0.401423 	0.853896 	1.17543 	-0.123262 	0.575143 	90.1817 	127.772 	202.714 	268.598 	360.754 	284.863 	485.086 	
32.3207 	0.0948669 	-0.40091 	0.854565 	1.17646 	-0.121047 	0.574922 	90.1816 	127.772 	202.222 	268.598 	360.754 	284.863 	485.642 	
32.4239 	0.0931566 	-0.400458 	0.855156 	1.17736 	-0.119046 	0.574721 	90.1816 	127.772 	201.719 	268.598 	360.754 	284.863 	486.159 	
32.5278 	0.0910584 	-0.399915 	0.855863 	1.17845 	-0.116591 	0.57447 	90.1816 	127.772 	201.228 	268.598 	360.754 	284.863 	486.636 	
32.6345 	0.0891436 	-0.399433 	0.856492 	1.17942 	-0.114351 	0.574236 	90.1816 	127.772 	200.672 	268.598 	360.754 	284.863 	487.198 	
32.7376 	0.0872219 	-0.398961 	0.857108 	1.18037 	-0.112102 	0.573998 	90.1816 	127.772 	200.175 	268.598 	360.754 	284.863 	487.709 	
32.841 	0.0852936 	-0.398499 	0.857711 	1.1813 	-0.109846 	0.573757 	90.1816 	127.772 	199.621 	268.599 	360.754 	284.863 	488.23 	
32.9442 	0.0833587 	-0.398047 	0.8583 	1.18221 	-0.107582 	0.57351 	90.1816 	127.772 	199.124 	268.599 	360.754 	284.863 	488.736 	
33.0474 	0.0814174 	-0.397605 	0.858875 	1.1831 	-0.10531 	0.57326 	90.1815 	127.772 	198.628 	268.599 	360.754 	284.863 	489.254 	
33.151 	0.0777118 	-0.396794 	0.859932 	1.18474 	-0.100974 	0.572774 	90.1815 	127.771 	198.075 	268.599 	360.754 	284.862 	489.781 	
33.2541 	0.0757528 	-0.396383 	0.860468 	1.18557 	-0.0986808 	0.572512 	90.1815 	127.771 	197.581 	268.599 	360.754 	284.862 	490.29 	
33.3572 	0.0737879 	-0.395981 	0.860991 	1.18639 	-0.0963811 	0.572247 	90.1815 	127.771 	197.075 	268.599 	360.754 	284.862 	490.809 	
33.4599 	0.0718174 	-0.39559 	0.8615 	1.18718 	-0.0940747 	0.571977 	90.1814 	127.77 	196.585 	268.599 	360.754 	284.862 	491.29 	
33.5631 	0.0698413 	-0.39521 	0.861995 	1.18796 	-0.0917616 	0.571704 	90.1814 	127.77 	196.045 	268.599 	360.754 	284.862 	491.834 	
33.6701 	0.0678599 	-0.39484 	0.862477 	1.18871 	-0.0894421 	0.571428 	90.1814 	127.77 	195.542 	268.599 	360.754 	284.862 	492.354 	
33.7725 	0.0658732 	-0.39448 	0.862945 	1.18945 	-0.0871164 	0.571147 	90.1814 	127.77 	194.982 	268.599 	360.754 	284.862 	492.895 	
33.8757 	0.0638815 	-0.394131 	0.863399 	1.19016 	-0.0847845 	0.570864 	90.1814 	127.77 	194.49 	268.599 	360.754 	284.862 	493.389 	
33.9792 	0.0618848 	-0.393793 	0.863839 	1.19086 	-0.0824468 	0.570577 	90.1814 	127.769 	193.998 	268.599 	360.754 	284.862 	493.902 	
34.0827 	0.0598834 	-0.393465 	0.864265 	1.19153 	-0.0801032 	0.570287 	90.1814 	127.769 	193.443 	268.599 	360.754 	284.862 	494.396 	
34.1856 	0.0578773 	-0.393148 	0.864678 	1.19219 	-0.0777541 	0.569994 	90.1814 	127.769 	192.942 	268.599 	360.754 	284.862 	494.933 	
34.2891 	0.0558668 	-0.392841 	0.865076 	1.19282 	-0.0753995 	0.569698 	90.1814 	127.769 	192.445 	268.599 	360.754 	284.862 	495.447 	
34.3923 	0.053852 	-0.392545 	0.865461 	1.19344 	-0.0730397 	0.569399 	90.1814 	127.769 	191.943 	268.599 	360.754 	284.862 	495.956 	
34.4954 	0.051833 	-0.39226 	0.865831 	1.19403 	-0.0706748 	0.569096 	90.1809 	127.768 	191.402 	268.599 	360.754 	284.862 	496.489 	
34.5989 	0.04981 	-0.391985 	0.866188 	1.19461 	-0.068305 	0.568792 	90.1809 	127.767 	190.894 	268.599 	360.754 	284.862 	496.997 	
34.7019 	0.0477832 	-0.391721 	0.86653 	1.19516 	-0.0659305 	0.568484 	90.1809 	127.767 	190.403 	268.599 	360.754 	284.862 	497.499 	
34.8054 	0.0457526 	-0.391468 	0.866859 	1.19569 	-0.0635513 	0.568173 	90.1809 	127.767 	189.852 	268.599 	360.754 	284.862 	498.025 	
34.9087 	0.0437186 	-0.391225 	0.867173 	1.19621 	-0.0611679 	0.567861 	90.1809 	127.766 	189.355 	268.599 	360.754 	284.862 	498.535 	
35.0118 	0.0416811 	-0.390994 	0.867473 	1.1967 	-0.0587801 	0.567546 	90.1809 	127.764 	188.855 	268.599 	360.754 	284.862 	499.06 	
35.1152 	0.0396404 	-0.390773 	0.867759 	1.19718 	-0.0563883 	0.567228 	90.1809 	127.764 	188.307 	268.599 	360.754 	284.862 	499.541 	
35.2184 	0.0375966 	-0.390563 	0.868031 	1.19763 	-0.0539925 	0.566908 	90.1809 	127.764 	187.805 	268.599 	360.754 	284.862 	500.089 	
35.3217 	0.0355499 	-0.390363 	0.868288 	1.19807 	-0.0515931 	0.566586 	90.1809 	127.764 	187.307 	268.599 	360.754 	284.862 	500.608 	
35.425 	0.0335005 	-0.390175 	0.868532 	1.19848 	-0.0491901 	0.566262 	90.1809 	127.764 	186.808 	268.599 	360.754 	284.862 	501.083 	
35.5288 	0.0314484 	-0.389997 	0.868761 	1.19887 	-0.0467837 	0.565936 	90.1809 	127.764 	186.255 	268.599 	360.754 	284.862 	501.63 	
35.6346 	0.0293939 	-0.38983 	0.868976 	1.19924 	-0.0443742 	0.565609 	90.1809 	127.764 	185.764 	268.599 	360.754 	284.862 	502.152 	
35.7375 	0.0273371 	-0.389675 	0.869176 	1.1996 	-0.0419615 	0.565278 	90.1807 	127.764 	185.216 	268.599 	360.754 	284.862 	502.684 	
35.841 	0.0252782 	-0.38953 	0.869363 	1.19993 	-0.039546 	0.564947 	90.1807 	127.763 	184.721 	268.599 	360.754 	284.862 	503.186 	
35.944 	0.0232172 	-0.389396 	0.869535 	1.20024 	-0.0371278 	0.564615 	90.1807 	127.763 	184.216 	268.599 	360.754 	284.862 	503.708 	
36.0476 	0.0211545 	-0.389272 	0.869693 	1.20053 	-0.0347071 	0.56428 	90.1806 	127.762 	183.671 	268.599 	360.754 	284.862 	504.195 	
36.1522 	0.01909 	-0.38916 	0.869836 	1.2008 	-0.0322839 	0.563944 	90.1806 	127.763 	183.171 	268.599 	360.754 	284.862 	504.733 	
36.2544 	0.0151636 	-0.388977 	0.870069 	1.20126 	-0.0276742 	0.563303 	90.1806 	127.762 	182.675 	268.599 	360.754 	284.862 	505.242 	
36.3568 	0.0130953 	-0.388897 	0.870171 	1.20148 	-0.0252452 	0.562964 	90.1806 	127.762 	182.168 	268.599 	360.754 	284.862 	505.747 	
36.4595 	0.0110258 	-0.388827 	0.870258 	1.20167 	-0.0228145 	0.562624 	90.1806 	127.762 	181.622 	268.599 	360.754 	284.862 	506.285 	
36.5626 	0.00895551 	-0.388768 	0.870331 	1.20184 	-0.0203824 	0.562282 	90.1806 	127.762 	181.123 	268.599 	360.754 	284.862 	506.797 	
36.6698 	0.00688442 	-0.388721 	0.87039 	1.20199 	-0.0179488 	0.56194 	90.1806 	127.762 	180.575 	268.599 	360.754 	284.862 	507.348 	
36.7733 	0.0048128 	-0.388684 	0.870434 	1.20212 	-0.0155141 	0.561598 	90.1804 	127.762 	180.078 	268.599 	360.754 	284.862 	507.833 	
36.8764 	0.00274071 	-0.388658 	0.870464 	1.20223 	-0.0130783 	0.561254 	90.1804 	127.762 	179.58 	268.599 	360.754 	284.862 	508.322 	
36.9796 	0.000668405 	-0.388643 	0.87048 	1.20232 	-0.0106418 	0.56091 	90.1804 	127.762 	179.035 	268.6 	360.754 	284.862 	508.847 	
37.0829 	-0.00140406 	-0.38864 	0.870481 	1.20239 	-0.00820454 	0.560567 	90.1804 	127.762 	178.536 	268.6 	360.754 	284.862 	509.383 	
37.1862 	-0.00347642 	-0.388647 	0.870468 	1.20244 	-0.00576685 	0.560221 	90.1804 	127.762 	178.037 	268.6 	360.754 	284.862 	509.89 	
37.2895 	-0.00554858 	-0.388665 	0.870441 	1.20247 	-0.00332883 	0.559877 	90.1804 	127.762 	177.541 	268.6 	360.754 	284.862 	510.407 	
37.3928 	-0.00762042 	-0.388694 	0.870399 	1.20248 	-0.00089059 	0.559532 	90.1804 	127.762 	176.984 	268.6 	360.754 	284.862 	510.926 	
37.4962 	-0.00969169 	-0.388734 	0.870342 	1.20246 	0.00154756 	0.559188 	90.1803 	127.762 	176.489 	268.6 	360.754 	284.862 	511.425 	
37.5992 	-0.0117623 	-0.388785 	0.870272 	1.20243 	0.00398559 	0.558843 	90.1803 	127.762 	175.992 	268.6 	360.754 	284.862 	511.953 	
37.7024 	-0.0138321 	-0.388847 	0.870187 	1.20238 	0.0064232 	0.558498 	90.1802 	127.762 	175.438 	268.6 	360.754 	284.862 	512.481 	
37.8057 	-0.0159009 	-0.38892 	0.870087 	1.2023 	0.00886033 	0.558154 	90.1801 	127.762 	174.945 	268.6 	360.754 	284.862 	512.985 	
37.9091 	-0.0179685 	-0.389004 	0.869973 	1.20221 	0.0112967 	0.55781 	90.1801 	127.762 	174.442 	268.6 	360.754 	284.862 	513.499 	
38.0125 	-0.0200347 	-0.389098 	0.869845 	1.20209 	0.0137322 	0.557467 	90.18 	127.762 	173.895 	268.6 	360.754 	284.862 	513.99 	
38.1154 	-0.0220996 	-0.389204 	0.869703 	1.20196 	0.0161667 	0.557124 	90.18 	127.762 	173.395 	268.6 	360.754 	284.862 	514.533 	
38.2186 	-0.0241628 	-0.389321 	0.869546 	1.2018 	0.0185999 	0.556781 	90.18 	127.761 	172.9 	268.6 	360.754 	284.862 	515.045 	
38.3221 	-0.0262242 	-0.389448 	0.869375 	1.20163 	0.0210318 	0.55644 	90.18 	127.761 	172.4 	268.6 	360.754 	284.862 	515.54 	
38.4251 	-0.0282837 	-0.389587 	0.86919 	1.20143 	0.0234621 	0.5561 	90.1801 	127.761 	171.843 	268.6 	360.754 	284.862 	516.089 	
38.5285 	-0.0303411 	-0.389736 	0.86899 	1.20122 	0.0258907 	0.55576 	90.18 	127.761 	171.36 	268.6 	360.754 	284.862 	516.595 	
38.6349 	-0.0323962 	-0.389896 	0.868776 	1.20098 	0.0283174 	0.555422 	90.1799 	127.761 	170.853 	268.6 	360.754 	284.862 	517.097 	
38.7377 	-0.034449 	-0.390068 	0.868548 	1.20072 	0.030742 	0.555085 	90.18 	127.761 	170.352 	268.6 	360.754 	284.862 	517.581 	
38.8409 	-0.0364991 	-0.39025 	0.868306 	1.20044 	0.0331644 	0.554748 	90.1799 	127.761 	169.808 	268.6 	360.754 	284.862 	518.138 	
38.9474 	-0.0385465 	-0.390442 	0.868049 	1.20015 	0.0355843 	0.554414 	90.18 	127.761 	169.249 	268.6 	360.754 	284.862 	518.698 	
39.0513 	-0.0405911 	-0.390646 	0.867778 	1.19983 	0.0380017 	0.554081 	90.18 	127.761 	168.808 	268.6 	360.754 	284.862 	519.132 	
39.1534 	-0.044671 	-0.391086 	0.867194 	1.19913 	0.042828 	0.553419 	90.1799 	127.749 	168.256 	268.6 	360.754 	284.862 	519.689 	
39.2559 	-0.0467059 	-0.391322 	0.866881 	1.19875 	0.0452366 	0.553091 	90.18 	127.749 	167.704 	268.6 	360.754 	284.862 	520.254 	
39.3581 	-0.0487374 	-0.391569 	0.866553 	1.19835 	0.0476419 	0.552764 	90.1799 	127.748 	167.209 	268.6 	360.754 	284.862 	520.722 	
39.4615 	-0.0507652 	-0.391826 	0.866212 	1.19793 	0.0500438 	0.55244 	90.1794 	127.748 	166.727 	268.6 	360.754 	284.862 	521.232 	
39.5708 	-0.0527893 	-0.392094 	0.865856 	1.19749 	0.0524421 	0.552118 	90.1795 	127.741 	166.148 	268.6 	360.754 	284.862 	521.799 	
39.674 	-0.0548093 	-0.392373 	0.865487 	1.19703 	0.0548366 	0.551799 	90.179 	127.738 	165.669 	268.6 	360.754 	284.862 	522.285 	
39.7774 	-0.0568252 	-0.392663 	0.865103 	1.19655 	0.0572271 	0.55148 	90.179 	127.735 	165.115 	268.601 	360.754 	284.862 	522.844 	
39.8804 	-0.0588369 	-0.392963 	0.864706 	1.19605 	0.0596136 	0.551165 	90.1791 	127.735 	164.609 	268.601 	360.754 	284.862 	523.358 	
39.9837 	-0.0608441 	-0.393274 	0.864294 	1.19553 	0.0619957 	0.550852 	90.179 	127.734 	164.117 	268.601 	360.754 	284.862 	523.832 	
40.0869 	-0.0628468 	-0.393596 	0.863869 	1.19499 	0.0643734 	0.55054 	90.1792 	127.735 	163.569 	268.601 	360.754 	284.862 	524.332 	
40.1902 	-0.0648447 	-0.393928 	0.86343 	1.19443 	0.0667465 	0.550232 	90.1791 	127.732 	163.063 	268.601 	360.754 	284.862 	524.895 	
40.2932 	-0.0668378 	-0.394271 	0.862976 	1.19384 	0.0691148 	0.549927 	90.1791 	127.733 	162.577 	268.602 	360.754 	284.862 	525.378 	
40.3968 	-0.0688258 	-0.394624 	0.862509 	1.19324 	0.071478 	0.549624 	90.1791 	127.732 	162.064 	268.602 	360.754 	284.862 	525.886 	
40.4999 	-0.0708086 	-0.394988 	0.862029 	1.19262 	0.0738362 	0.549325 	90.1791 	127.732 	161.519 	268.602 	360.754 	284.862 	526.45 	
40.603 	-0.0727861 	-0.395362 	0.861534 	1.19198 	0.0761891 	0.549028 	90.1791 	127.732 	161.016 	268.602 	360.754 	284.862 	526.945 	
40.7064 	-0.0747581 	-0.395747 	0.861026 	1.19132 	0.0785364 	0.548734 	90.1791 	127.732 	160.517 	268.602 	360.754 	284.862 	527.436 	
40.8094 	-0.0767245 	-0.396142 	0.860504 	1.19064 	0.0808782 	0.548444 	90.1791 	127.732 	159.978 	268.602 	360.754 	284.862 	527.988 	
40.9129 	-0.0784893 	-0.396506 	0.860023 	1.19001 	0.0829808 	0.548185 	90.179 	127.732 	159.476 	268.602 	360.754 	284.862 	528.491 	
41.016 	-0.0804445 	-0.396921 	0.859476 	1.18929 	0.0853113 	0.5479 	90.1791 	127.732 	158.976 	268.602 	360.754 	284.862 	528.987 	
41.1191 	-0.0823937 	-0.397346 	0.858914 	1.18855 	0.0876358 	0.547619 	90.1791 	127.732 	158.425 	268.602 	360.754 	284.862 	529.496 	
41.2225 	-0.0843366 	-0.397782 	0.85834 	1.18779 	0.0899539 	0.547342 	90.1791 	127.732 	157.933 	268.602 	360.754 	284.862 	530.048 	
41.3259 	-0.0862733 	-0.398228 	0.857752 	1.18701 	0.0922656 	0.547068 	90.1791 	127.732 	157.431 	268.602 	360.754 	284.862 	530.523 	
41.429 	-0.0882033 	-0.398684 	0.85715 	1.18621 	0.0945706 	0.546797 	90.1791 	127.732 	156.938 	268.602 	360.754 	284.862 	531.03 	
41.5362 	-0.0901267 	-0.39915 	0.856535 	1.1854 	0.0968688 	0.546531 	90.1791 	127.732 	156.382 	268.605 	360.754 	284.862 	531.595 	
41.6391 	-0.0922346 	-0.399675 	0.855843 	1.18447 	0.0993888 	0.546241 	90.179 	127.732 	155.89 	268.607 	360.754 	284.862 	532.078 	
41.7432 	-0.093953 	-0.400113 	0.855265 	1.1837 	0.101444 	0.546009 	90.1791 	127.732 	155.336 	268.61 	360.754 	284.862 	532.634 	
41.8475 	-0.0977509 	-0.401116 	0.853943 	1.18193 	0.10599 	0.545502 	90.1791 	127.732 	154.841 	268.611 	360.754 	284.862 	533.153 	
41.9517 	-0.0996388 	-0.401633 	0.853262 	1.18101 	0.108252 	0.545256 	90.1791 	127.731 	154.286 	268.612 	360.754 	284.862 	533.677 	
42.0561 	-0.101519 	-0.402159 	0.852567 	1.18008 	0.110506 	0.545013 	90.1791 	127.731 	153.789 	268.613 	360.754 	284.862 	534.184 	
42.1593 	-0.103392 	-0.402696 	0.85186 	1.17912 	0.112752 	0.544774 	90.1791 	127.731 	153.294 	268.614 	360.754 	284.862 	534.693 	
42.2627 	-0.105257 	-0.403243 	0.85114 	1.17815 	0.11499 	0.54454 	90.1791 	127.731 	152.742 	268.614 	360.754 	284.862 	535.224 	
42.3697 	-0.107114 	-0.403799 	0.850407 	1.17715 	0.117219 	0.544311 	90.179 	127.731 	152.249 	268.615 	360.754 	284.862 	535.737 	
42.473 	-0.108963 	-0.404365 	0.849661 	1.17614 	0.11944 	0.544085 	90.1792 	127.731 	151.689 	268.615 	360.754 	284.862 	536.298 	
42.5761 	-0.110803 	-0.404941 	0.848903 	1.17511 	0.121652 	0.543865 	90.1768 	127.731 	151.213 	268.616 	360.754 	284.862 	536.781 	
42.6795 	-0.112635 	-0.405527 	0.848131 	1.17406 	0.123856 	0.543649 	90.1769 	127.731 	150.696 	268.616 	360.754 	284.862 	537.288 	
42.7828 	-0.114459 	-0.406122 	0.847347 	1.17299 	0.126051 	0.543438 	90.1767 	127.73 	150.158 	268.616 	360.754 	284.862 	537.791 	
42.8857 	-0.116274 	-0.406727 	0.846551 	1.1719 	0.128236 	0.543231 	90.1768 	127.73 	149.65 	268.617 	360.754 	284.862 	538.338 	
42.9892 	-0.11808 	-0.407341 	0.845741 	1.17079 	0.130412 	0.543029 	90.1768 	127.729 	149.153 	268.617 	360.754 	284.862 	538.836 	
43.0919 	-0.119878 	-0.407966 	0.84492 	1.16966 	0.132579 	0.542832 	90.1768 	127.73 	148.655 	268.619 	360.754 	284.862 	539.34 	
43.1954 	-0.121666 	-0.408599 	0.844086 	1.16851 	0.134736 	0.545031 	90.1767 	127.729 	148.106 	268.619 	360.754 	284.862 	539.68 	
43.2986 	-0.123445 	-0.409242 	0.843239 	1.16735 	0.136884 	0.553569 	90.1768 	127.73 	147.604 	268.621 	360.754 	284.862 	539.694 	
43.4019 	-0.125214 	-0.409895 	0.84238 	1.16616 	0.139021 	0.562111 	90.1766 	127.73 	147.11 	268.622 	360.754 	284.862 	539.696 	
43.5054 	-0.126975 	-0.410556 	0.841509 	1.16496 	0.141148 	0.570659 	90.1766 	127.729 	146.56 	268.623 	360.754 	284.862 	539.697 	
43.6084 	-0.128725 	-0.411227 	0.840626 	1.16374 	0.143265 	0.579212 	90.1766 	127.729 	146.055 	268.623 	360.754 	284.862 	539.698 	
43.7116 	-0.130466 	-0.411908 	0.83973 	1.1625 	0.145372 	0.58777 	90.1767 	127.73 	145.562 	268.623 	360.754 	284.862 	539.698 	
43.8148 	-0.132197 	-0.412597 	0.838823 	1.16124 	0.147468 	0.596333 	90.1766 	127.729 	145.01 	268.623 	360.754 	284.862 	539.698 	
43.9179 	-0.133918 	-0.413296 	0.837904 	1.15996 	0.149553 	0.604902 	90.1766 	127.729 	144.516 	268.624 	360.754 	284.862 	539.698 	
44.0213 	-0.135629 	-0.414004 	0.836972 	1.15866 	0.151628 	0.613476 	90.1766 	127.729 	144.013 	268.624 	360.754 	284.862 	539.698 	
44.1243 	-0.137329 	-0.414721 	0.836029 	1.15735 	0.153691 	0.622056 	90.1766 	127.729 	143.521 	268.624 	360.754 	284.862 	539.698 	
44.2279 	-0.139019 	-0.415446 	0.835074 	1.15602 	0.155743 	0.630641 	90.1766 	127.729 	142.97 	268.624 	360.754 	284.862 	539.699 	
44.3338 	-0.140699 	-0.416181 	0.834108 	1.15467 	0.157784 	0.639231 	90.1766 	127.729 	142.471 	268.624 	360.753 	284.862 	539.699 	
44.4371 	-0.142368 	-0.416925 	0.833129 	1.1533 	0.159813 	0.647827 	90.1766 	127.729 	141.92 	268.624 	360.753 	284.862 	539.699 	
44.5401 	-0.144026 	-0.417677 	0.83214 	1.15191 	0.161831 	0.656429 	90.1765 	127.729 	141.426 	268.624 	360.753 	284.862 	539.699 	
44.6431 	-0.145673 	-0.418438 	0.831139 	1.15051 	0.163836 	0.665037 	90.1765 	127.729 	140.929 	268.624 	360.753 	284.862 	539.699 	
44.7471 	-0.147309 	-0.419208 	0.830126 	1.14908 	0.16583 	0.67365 	90.1765 	127.729 	140.37 	268.624 	360.753 	284.862 	539.699 	
44.8514 	-0.148934 	-0.419986 	0.829102 	1.14764 	0.167811 	0.682269 	90.1765 	127.729 	139.884 	268.624 	360.753 	284.862 	539.699 	
44.9535 	-0.150548 	-0.420773 	0.828067 	1.14618 	0.16978 	0.690893 	90.1764 	127.729 	139.377 	268.624 	360.753 	284.862 	539.699 	
45.0557 	-0.153741 	-0.422373 	0.825963 	1.14321 	0.173681 	0.70816 	90.1764 	127.729 	138.885 	268.624 	360.753 	284.862 	539.699 	
45.1583 	-0.15532 	-0.423185 	0.824895 	1.1417 	0.175612 	0.716803 	90.1765 	127.729 	138.325 	268.624 	360.753 	284.862 	539.699 	
45.2612 	-0.156732 	-0.423924 	0.823924 	1.14033 	0.177339 	0.724586 	90.1764 	127.729 	137.836 	268.624 	360.753 	284.862 	539.699 	
45.3634 	-0.158443 	-0.424835 	0.822726 	1.13863 	0.179436 	0.734105 	90.1765 	127.729 	137.329 	268.624 	360.753 	284.862 	539.699 	
45.4697 	-0.159987 	-0.425672 	0.821625 	1.13706 	0.181327 	0.742765 	90.1765 	127.729 	136.785 	268.624 	360.753 	284.862 	539.699 	
45.5731 	-0.161365 	-0.426433 	0.820625 	1.13564 	0.183019 	0.750564 	90.1765 	127.73 	136.288 	268.624 	360.753 	284.862 	539.699 	
45.6764 	-0.162886 	-0.427286 	0.819504 	1.13405 	0.184885 	0.759236 	90.1765 	127.729 	135.785 	268.624 	360.753 	284.862 	539.699 	
45.7795 	-0.164544 	-0.428233 	0.818259 	1.13227 	0.186922 	0.768782 	90.1764 	127.73 	135.242 	268.624 	360.753 	284.862 	539.699 	
45.8826 	-0.166038 	-0.429102 	0.817116 	1.13064 	0.18876 	0.777466 	90.1766 	127.73 	134.732 	268.625 	360.753 	284.862 	539.699 	
45.9857 	-0.167372 	-0.429891 	0.816079 	1.12916 	0.190402 	0.785287 	90.1764 	127.729 	134.236 	268.624 	360.753 	284.862 	539.699 	
46.0891 	-0.168842 	-0.430776 	0.814916 	1.12749 	0.192212 	0.793983 	90.1764 	127.73 	133.691 	268.624 	360.753 	284.862 	539.699 	
46.1924 	-0.1703 	-0.431668 	0.813744 	1.12581 	0.194009 	0.802685 	90.1763 	127.729 	133.196 	268.625 	360.753 	284.862 	539.699 	
46.2956 	-0.171744 	-0.432568 	0.812561 	1.12412 	0.195791 	0.811393 	90.1763 	127.73 	132.688 	268.624 	360.753 	284.862 	539.699 	
46.399 	-0.173176 	-0.433475 	0.811368 	1.1224 	0.197558 	0.820108 	90.1765 	127.73 	132.192 	268.625 	360.753 	284.862 	539.699 	
46.502 	-0.174594 	-0.43439 	0.810166 	1.12068 	0.199311 	0.828828 	90.1763 	127.73 	131.644 	268.624 	360.753 	284.862 	539.699 	
46.6049 	-0.175999 	-0.435313 	0.808953 	1.11893 	0.201049 	0.837555 	90.1764 	127.729 	131.141 	268.625 	360.753 	284.862 	539.699 	
46.7063 	-0.177391 	-0.436242 	0.807731 	1.11717 	0.202772 	0.846288 	90.1763 	127.73 	130.651 	268.625 	360.753 	284.862 	539.699 	
46.8095 	-0.178769 	-0.43718 	0.8065 	1.11539 	0.20448 	0.855026 	90.1766 	127.73 	130.141 	268.625 	360.753 	284.862 	539.699 	
46.9127 	-0.180134 	-0.438124 	0.805259 	1.1136 	0.206172 	0.863772 	90.1764 	127.73 	129.601 	268.625 	360.753 	284.862 	539.699 	
47.0159 	-0.181485 	-0.439076 	0.804008 	1.11179 	0.207849 	0.872523 	90.1767 	127.73 	129.096 	268.625 	360.753 	284.862 	539.7 	
47.1191 	-0.182823 	-0.440035 	0.802748 	1.10997 	0.209511 	0.881281 	90.1767 	127.73 	128.604 	268.625 	360.753 	284.862 	539.7 	
47.2228 	-0.184146 	-0.441001 	0.801479 	1.10813 	0.211157 	0.890044 	90.1768 	127.73 	128.041 	268.625 	360.753 	284.862 	539.7 	
47.3255 	-0.185456 	-0.441973 	0.800201 	1.10627 	0.212787 	0.898814 	90.1769 	127.73 	127.557 	268.625 	360.753 	284.862 	539.7 	
47.4291 	-0.186751 	-0.442953 	0.798914 	1.1044 	0.214401 	0.90759 	90.1769 	127.73 	127.053 	268.625 	360.753 	284.862 	539.7 	
47.5349 	-0.188032 	-0.44394 	0.797618 	1.10252 	0.215999 	0.916372 	90.1769 	127.73 	126.499 	268.625 	360.753 	284.862 	539.7 	
47.6378 	-0.189299 	-0.444933 	0.796313 	1.10062 	0.217581 	0.925161 	90.1771 	127.73 	125.987 	268.625 	360.753 	284.862 	539.7 	
47.741 	-0.190552 	-0.445933 	0.794999 	1.0987 	0.219146 	0.933955 	90.1771 	127.73 	125.503 	268.625 	360.753 	284.862 	539.7 	
47.8471 	-0.19179 	-0.44694 	0.793676 	1.09677 	0.220695 	0.942756 	90.1769 	127.73 	124.954 	268.625 	360.753 	284.862 	539.7 	
47.9512 	-0.193014 	-0.447953 	0.792346 	1.09483 	0.222227 	0.951563 	90.1773 	127.731 	124.454 	268.625 	360.753 	284.862 	539.7 	
48.0547 	-0.195417 	-0.449998 	0.789659 	1.0909 	0.225241 	0.969194 	90.1771 	127.731 	123.907 	268.625 	360.753 	284.862 	539.7 	
48.1573 	-0.196596 	-0.451031 	0.788303 	1.08891 	0.226722 	0.978019 	90.1772 	127.732 	123.405 	268.625 	360.753 	284.862 	539.7 	
48.2597 	-0.197761 	-0.452069 	0.786939 	1.08691 	0.228187 	0.98685 	90.1772 	127.732 	122.907 	268.625 	360.753 	284.862 	539.7 	
48.3632 	-0.19891 	-0.453114 	0.785567 	1.0849 	0.229634 	0.995687 	90.1772 	127.731 	122.352 	268.625 	360.753 	284.862 	539.7 	
48.4702 	-0.200045 	-0.454164 	0.784187 	1.08287 	0.231063 	1.00453 	90.1771 	127.731 	121.856 	268.625 	360.753 	284.862 	539.7 	
48.5735 	-0.201164 	-0.455221 	0.782799 	1.08082 	0.232475 	1.01338 	90.1771 	127.732 	121.312 	268.625 	360.753 	284.862 	539.7 	
48.6769 	-0.202268 	-0.456284 	0.781404 	1.07877 	0.23387 	1.02223 	90.1771 	127.732 	120.82 	268.625 	360.753 	284.862 	539.7 	
48.7799 	-0.203356 	-0.457352 	0.780001 	1.0767 	0.235247 	1.03109 	90.1771 	127.732 	120.305 	268.625 	360.753 	284.862 	539.7 	
48.883 	-0.20443 	-0.458426 	0.77859 	1.07462 	0.236605 	1.03996 	90.1776 	127.732 	119.812 	268.625 	360.753 	284.862 	539.7 	
48.9863 	-0.205487 	-0.459506 	0.777172 	1.07252 	0.237946 	1.04883 	90.1772 	127.732 	119.261 	268.625 	360.753 	284.862 	539.7 	
49.0894 	-0.206529 	-0.460591 	0.775747 	1.07041 	0.239269 	1.05771 	90.1773 	127.732 	118.762 	268.625 	360.753 	284.862 	539.7 	
49.1929 	-0.207556 	-0.461682 	0.774314 	1.06829 	0.240573 	1.06659 	90.1773 	127.732 	118.265 	268.625 	360.753 	284.862 	539.7 	
49.2959 	-0.208566 	-0.462778 	0.772875 	1.06616 	0.241859 	1.07548 	90.1772 	127.732 	117.716 	268.625 	360.753 	284.862 	539.7 	
49.399 	-0.209561 	-0.46388 	0.771429 	1.06401 	0.243127 	1.08438 	90.1773 	127.732 	117.217 	268.625 	360.753 	284.862 	539.7 	
49.502 	-0.21054 	-0.464986 	0.769975 	1.06186 	0.244376 	1.09328 	90.1773 	127.732 	116.716 	268.625 	360.753 	284.862 	539.7 	
49.6054 	-0.211503 	-0.466098 	0.768515 	1.05969 	0.245606 	1.10218 	90.1772 	127.732 	116.173 	268.625 	360.753 	284.862 	539.7 	
49.7089 	-0.21245 	-0.467215 	0.767049 	1.05751 	0.246818 	1.1111 	90.1773 	127.732 	115.672 	268.625 	360.753 	284.862 	539.7 	
49.8118 	-0.213381 	-0.468337 	0.765576 	1.05531 	0.248011 	1.12001 	90.1778 	127.733 	115.174 	268.625 	360.753 	284.862 	539.7 	
49.9148 	-0.214295 	-0.469464 	0.764096 	1.05311 	0.249184 	1.12893 	90.1774 	127.732 	114.66 	268.625 	360.753 	284.862 	539.7 	
50.018 	-0.215194 	-0.470596 	0.762611 	1.05089 	0.250339 	1.13786 	90.1773 	127.733 	114.129 	268.625 	360.753 	284.862 	539.7 	
50.1215 	-0.216076 	-0.471732 	0.761119 	1.04866 	0.251474 	1.1468 	90.1773 	127.733 	113.622 	268.625 	360.753 	284.862 	539.7 	
50.2245 	-0.216941 	-0.472873 	0.759621 	1.04642 	0.25259 	1.15573 	90.1772 	127.733 	113.118 	268.625 	360.753 	284.862 	539.7 	
50.3279 	-0.21779 	-0.474019 	0.758117 	1.04418 	0.253686 	1.16468 	90.1771 	127.733 	112.579 	268.625 	360.753 	284.862 	539.7 	
50.435 	-0.218623 	-0.475169 	0.756607 	1.04192 	0.254763 	1.17362 	90.177 	127.733 	112.078 	268.625 	360.753 	284.862 	539.7 	
50.5379 	-0.219439 	-0.476323 	0.755092 	1.03964 	0.255821 	1.18258 	90.1772 	127.733 	111.526 	268.625 	360.753 	284.862 	539.7 	
50.641 	-0.220238 	-0.477482 	0.753571 	1.03736 	0.256858 	1.19153 	90.1772 	127.733 	111.033 	268.625 	360.753 	284.862 	539.7 	
50.7451 	-0.221021 	-0.478645 	0.752044 	1.03507 	0.257876 	1.2005 	90.1771 	127.733 	110.525 	268.625 	360.753 	284.862 	539.7 	
50.8487 	-0.222461 	-0.480865 	0.749129 	1.03069 	0.259755 	1.21754 	90.1772 	127.733 	109.982 	268.625 	360.753 	284.862 	539.7 	
50.9522 	-0.223195 	-0.48204 	0.747588 	1.02837 	0.260715 	1.22652 	90.1772 	127.733 	109.479 	268.625 	360.753 	284.862 	539.7 	
51.0541 	-0.223983 	-0.483337 	0.745886 	1.02581 	0.261748 	1.2364 	90.1772 	127.733 	108.981 	268.625 	360.753 	284.862 	539.7 	
51.1565 	-0.224681 	-0.484519 	0.744334 	1.02347 	0.262665 	1.24538 	90.177 	127.733 	108.482 	268.624 	360.753 	284.862 	539.7 	
51.2599 	-0.225295 	-0.485587 	0.742933 	1.02136 	0.263473 	1.25347 	90.1775 	127.735 	107.932 	268.625 	360.752 	284.862 	539.7 	
51.3634 	-0.226026 	-0.486895 	0.741215 	1.01877 	0.264439 	1.26337 	90.1772 	127.735 	107.435 	268.624 	360.752 	284.862 	539.7 	
51.4705 	-0.226609 	-0.487969 	0.739806 	1.01664 	0.26521 	1.27147 	90.1773 	127.735 	106.882 	268.625 	360.752 	284.862 	539.7 	
51.5736 	-0.22724 	-0.489165 	0.738236 	1.01427 	0.266048 	1.28047 	90.1773 	127.735 	106.384 	268.625 	360.752 	284.862 	539.7 	
51.6767 	-0.227854 	-0.490365 	0.736661 	1.01188 	0.266865 	1.28948 	90.1773 	127.735 	105.882 	268.625 	360.752 	284.862 	539.7 	
51.7798 	-0.228451 	-0.491568 	0.735083 	1.00949 	0.267661 	1.29849 	90.1774 	127.736 	105.343 	268.625 	360.752 	284.862 	539.7 	
51.8832 	-0.229031 	-0.492774 	0.7335 	1.0071 	0.268437 	1.3075 	90.1773 	127.736 	104.828 	268.624 	360.752 	284.862 	539.7 	
51.9863 	-0.229593 	-0.493983 	0.731914 	1.00469 	0.269191 	1.31652 	90.1774 	127.737 	104.343 	268.625 	360.752 	284.862 	539.7 	
52.0896 	-0.230137 	-0.495195 	0.730323 	1.00228 	0.269925 	1.32554 	90.1773 	127.736 	103.781 	268.624 	360.752 	284.862 	539.7 	
52.1926 	-0.230664 	-0.49641 	0.728729 	0.999861 	0.270638 	1.33457 	90.1773 	127.737 	103.285 	268.624 	360.752 	284.862 	539.7 	
52.2958 	-0.231174 	-0.497627 	0.727131 	0.997434 	0.271329 	1.3436 	90.1775 	127.737 	102.793 	268.625 	360.752 	284.862 	539.7 	
52.3988 	-0.231666 	-0.498848 	0.72553 	0.995001 	0.272 	1.35263 	90.1774 	127.737 	102.29 	268.625 	360.752 	284.862 	539.7 	
52.5025 	-0.232141 	-0.50007 	0.723926 	0.99256 	0.272649 	1.36166 	90.1773 	127.736 	101.736 	268.624 	360.752 	284.862 	539.7 	
52.6054 	-0.232598 	-0.501296 	0.722318 	0.990114 	0.273277 	1.3707 	90.1773 	127.737 	101.234 	268.624 	360.752 	284.862 	539.7 	
52.7085 	-0.233037 	-0.502524 	0.720707 	0.987661 	0.273883 	1.37975 	90.1773 	127.737 	100.75 	268.624 	360.752 	284.862 	539.7 	
52.8114 	-0.233458 	-0.503753 	0.719093 	0.985202 	0.274468 	1.38879 	90.1773 	127.737 	100.189 	268.624 	360.752 	284.862 	539.7 	
52.9148 	-0.233862 	-0.504986 	0.717476 	0.982738 	0.275032 	1.39784 	90.1774 	127.737 	99.6933 	268.624 	360.752 	284.862 	539.7 	
53.0179 	-0.234248 	-0.50622 	0.715857 	0.980268 	0.275575 	1.40689 	90.1774 	127.737 	99.1934 	268.624 	360.752 	284.862 	539.7 	
53.1212 	-0.234616 	-0.507456 	0.714235 	0.977792 	0.276095 	1.41594 	90.1774 	127.737 	98.6467 	268.624 	360.752 	284.862 	539.7 	
53.2243 	-0.234967 	-0.508695 	0.712611 	0.975311 	0.276595 	1.425 	90.1774 	127.737 	98.1414 	268.624 	360.752 	284.862 	539.7 	
53.3277 	-0.2353 	-0.509935 	0.710984 	0.972826 	0.277072 	1.43406 	90.1774 	127.738 	97.6447 	268.624 	360.752 	284.862 	539.7 	
53.4343 	-0.235614 	-0.511176 	0.709355 	0.970335 	0.277528 	1.44312 	90.1774 	127.738 	97.1 	268.624 	360.752 	284.863 	539.7 	
53.5375 	-0.235911 	-0.51242 	0.707723 	0.967841 	0.277962 	1.45219 	90.1774 	127.738 	96.5894 	268.624 	360.752 	284.863 	539.7 	
53.6407 	-0.23619 	-0.513665 	0.70609 	0.965341 	0.278374 	1.46125 	90.1774 	127.739 	96.1046 	268.624 	360.752 	284.863 	539.7 	
53.7435 	-0.236451 	-0.514911 	0.704455 	0.962838 	0.278765 	1.47032 	90.18 	127.739 	95.5407 	268.624 	360.752 	284.863 	539.7 	
53.8478 	-0.236694 	-0.516159 	0.702818 	0.960331 	0.279134 	1.47939 	90.1811 	127.739 	95.0489 	268.625 	360.752 	284.863 	539.7 	
53.9522 	-0.237126 	-0.518658 	0.69954 	0.955306 	0.279805 	1.49753 	90.1809 	127.739 	94.4912 	268.624 	360.752 	284.863 	539.7 	
54.0555 	-0.237316 	-0.519909 	0.697899 	0.952789 	0.280108 	1.50661 	90.1809 	127.74 	94.0006 	268.624 	360.752 	284.863 	539.7 	
54.1585 	-0.237487 	-0.521162 	0.696257 	0.950269 	0.280389 	1.51569 	90.1808 	127.739 	93.4938 	268.624 	360.752 	284.863 	539.7 	
54.2618 	-0.23764 	-0.522415 	0.694613 	0.947746 	0.280648 	1.52476 	90.1808 	127.74 	93.0012 	268.624 	360.752 	284.863 	539.7 	
54.3695 	-0.237775 	-0.523668 	0.692968 	0.94522 	0.280885 	1.53384 	90.1809 	127.74 	92.4438 	268.624 	360.752 	284.863 	539.7 	
54.4729 	-0.237892 	-0.524923 	0.691323 	0.942692 	0.2811 	1.54293 	90.1807 	127.74 	91.8917 	268.624 	360.752 	284.863 	539.7 	
54.5761 	-0.237991 	-0.526178 	0.689677 	0.940162 	0.281293 	1.55201 	90.1811 	127.74 	91.3969 	268.624 	360.752 	284.863 	539.7 	
54.6792 	-0.238071 	-0.527434 	0.68803 	0.93763 	0.281464 	1.56109 	90.1807 	127.74 	90.8936 	268.624 	360.752 	284.863 	539.7 	
54.7824 	-0.238134 	-0.52869 	0.686383 	0.935097 	0.281613 	1.57017 	90.1808 	127.74 	90.3991 	268.624 	360.752 	284.863 	539.7 	
54.8855 	-0.238179 	-0.529946 	0.684735 	0.932562 	0.281739 	1.57926 	90.1809 	127.74 	89.8476 	268.624 	360.752 	284.863 	539.7 	
54.9888 	-0.238206 	-0.531203 	0.683087 	0.930026 	0.281844 	1.58834 	90.1807 	127.74 	89.3555 	268.624 	360.752 	284.863 	539.7 	
55.092 	-0.238214 	-0.532459 	0.681439 	0.927489 	0.281926 	1.59743 	90.1811 	127.74 	88.849 	268.624 	360.752 	284.863 	539.7 	
55.1952 	-0.238204 	-0.533716 	0.679791 	0.924951 	0.281986 	1.60651 	90.1812 	127.741 	88.3021 	268.624 	360.752 	284.863 	539.7 	
55.2983 	-0.238177 	-0.534972 	0.678143 	0.922413 	0.282024 	1.6156 	90.1808 	127.741 	87.7961 	268.624 	360.752 	284.863 	539.7 	
55.4015 	-0.238131 	-0.536229 	0.676496 	0.919875 	0.28204 	1.62469 	90.1812 	127.741 	87.2986 	268.624 	360.752 	284.863 	539.7 	
55.5046 	-0.238067 	-0.537485 	0.674849 	0.917336 	0.282034 	1.63377 	90.1811 	127.741 	86.7494 	268.624 	360.752 	284.863 	539.7 	
55.6077 	-0.237985 	-0.538741 	0.673202 	0.914798 	0.282006 	1.64286 	90.181 	127.742 	86.2531 	268.624 	360.752 	284.863 	539.7 	
55.7108 	-0.237885 	-0.539996 	0.671556 	0.91226 	0.281955 	1.65194 	90.181 	127.742 	85.7517 	268.624 	360.752 	284.863 	539.7 	
55.8139 	-0.237767 	-0.541251 	0.669911 	0.909723 	0.281882 	1.66103 	90.1809 	127.742 	85.2489 	268.624 	360.752 	284.863 	539.7 	
55.9172 	-0.237631 	-0.542505 	0.668266 	0.907186 	0.281787 	1.67011 	90.1808 	127.742 	84.7011 	268.624 	360.752 	284.863 	539.7 	
56.0201 	-0.237477 	-0.543758 	0.666623 	0.904651 	0.28167 	1.6792 	90.1809 	127.742 	84.1955 	268.624 	360.752 	284.863 	539.7 	
56.1237 	-0.237305 	-0.54501 	0.664981 	0.902117 	0.281531 	1.68828 	90.1809 	127.742 	83.7025 	268.624 	360.752 	284.863 	539.7 	
56.2268 	-0.237115 	-0.546262 	0.66334 	0.899585 	0.28137 	1.69737 	90.1808 	127.743 	83.1477 	268.624 	360.752 	284.863 	539.7 	
56.3351 	-0.236907 	-0.547512 	0.661701 	0.897054 	0.281187 	1.70645 	90.1807 	127.743 	82.6502 	268.624 	360.752 	284.863 	539.7 	
56.438 	-0.23668 	-0.548762 	0.660063 	0.894525 	0.280981 	1.71553 	90.1808 	127.743 	82.094 	268.624 	360.752 	284.863 	539.7 	
56.5407 	-0.236436 	-0.55001 	0.658426 	0.891998 	0.280754 	1.72461 	90.1807 	127.743 	81.5988 	268.624 	360.752 	284.863 	539.7 	
56.6438 	-0.236174 	-0.551257 	0.656792 	0.889474 	0.280504 	1.73369 	90.181 	127.743 	81.0951 	268.624 	360.752 	284.864 	539.7 	
56.749 	-0.235596 	-0.553746 	0.653528 	0.884434 	0.27994 	1.75184 	90.1808 	127.744 	80.5524 	268.624 	360.752 	284.864 	539.7 	
56.8529 	-0.23528 	-0.554988 	0.6519 	0.881918 	0.279624 	1.76092 	90.1809 	127.744 	80.0487 	268.624 	360.752 	284.864 	539.7 	
56.9549 	-0.234947 	-0.556229 	0.650274 	0.879406 	0.279287 	1.76999 	90.1808 	127.744 	79.5464 	268.624 	360.752 	284.864 	539.7 	
57.0572 	-0.234595 	-0.557467 	0.64865 	0.876898 	0.278928 	1.77906 	90.1808 	127.754 	78.9992 	268.624 	360.752 	284.864 	539.7 	
57.1593 	-0.234264 	-0.558581 	0.64719 	0.874643 	0.278586 	1.78722 	90.1808 	127.761 	78.5025 	268.624 	360.752 	284.864 	539.7 	
57.263 	-0.233839 	-0.559939 	0.64541 	0.871892 	0.278144 	1.79719 	90.1809 	127.766 	78.0018 	268.624 	360.752 	284.864 	539.7 	
57.3701 	-0.233434 	-0.561172 	0.643794 	0.869395 	0.277719 	1.80626 	90.1809 	127.768 	77.4518 	268.624 	360.752 	284.864 	539.7 	
57.4732 	-0.233011 	-0.562402 	0.642181 	0.866903 	0.277273 	1.81532 	90.1808 	127.769 	76.9518 	268.624 	360.752 	284.864 	539.7 	
57.5764 	-0.232571 	-0.563631 	0.64057 	0.864415 	0.276804 	1.82438 	90.181 	127.77 	76.4456 	268.624 	360.752 	284.864 	539.7 	
57.6794 	-0.232113 	-0.564857 	0.638963 	0.861932 	0.276315 	1.83344 	90.1803 	127.77 	75.8988 	268.624 	360.752 	284.864 	539.7 	
57.7825 	-0.231638 	-0.56608 	0.63736 	0.859454 	0.275803 	1.84249 	90.1807 	127.771 	75.3985 	268.624 	360.752 	284.864 	539.7 	
57.8857 	-0.231144 	-0.567301 	0.635759 	0.856982 	0.27527 	1.85155 	90.1807 	127.773 	74.9043 	268.624 	360.752 	284.864 	539.7 	
57.9891 	-0.230686 	-0.568398 	0.634322 	0.854761 	0.274772 	1.85969 	90.1806 	127.774 	74.345 	268.624 	360.752 	284.864 	539.7 	
58.092 	-0.230106 	-0.569735 	0.632569 	0.852053 	0.27414 	1.86964 	90.181 	127.774 	73.8558 	268.624 	360.752 	284.864 	539.7 	
58.1951 	-0.229615 	-0.570827 	0.631139 	0.849843 	0.273603 	1.87778 	90.181 	127.775 	73.3483 	268.624 	360.752 	284.864 	539.7 	
58.2983 	-0.229054 	-0.572037 	0.629553 	0.847393 	0.272987 	1.88682 	90.1809 	127.775 	72.8032 	268.624 	360.752 	284.864 	539.7 	
58.4017 	-0.228475 	-0.573244 	0.627971 	0.84495 	0.272349 	1.89586 	90.1809 	127.775 	72.3006 	268.624 	360.752 	284.864 	539.7 	
58.5049 	-0.227879 	-0.574448 	0.626393 	0.842513 	0.27169 	1.9049 	90.1808 	127.775 	71.797 	268.624 	360.752 	284.864 	539.7 	
58.6079 	-0.227266 	-0.575649 	0.624819 	0.840082 	0.27101 	1.91393 	90.1809 	127.776 	71.2997 	268.624 	360.752 	284.864 	539.7 	
58.7109 	-0.226635 	-0.576847 	0.62325 	0.837659 	0.270308 	1.92295 	90.1809 	127.776 	70.7501 	268.624 	360.752 	284.864 	539.7 	
58.8142 	-0.225987 	-0.578041 	0.621685 	0.835243 	0.269586 	1.93198 	90.1809 	127.776 	70.2413 	268.624 	360.752 	284.864 	539.7 	
58.9173 	-0.225322 	-0.579232 	0.620124 	0.832834 	0.268842 	1.941 	90.1808 	127.776 	69.7457 	268.624 	360.752 	284.865 	539.7 	
59.0204 	-0.22464 	-0.580419 	0.618568 	0.830432 	0.268078 	1.95002 	90.181 	127.776 	69.1969 	268.624 	360.752 	284.865 	539.7 	
59.1234 	-0.223941 	-0.581603 	0.617018 	0.828039 	0.267293 	1.95903 	90.1809 	127.776 	68.6957 	268.624 	360.752 	284.865 	539.7 	
59.2266 	-0.223225 	-0.582782 	0.615472 	0.825653 	0.266487 	1.96804 	90.181 	127.777 	68.1986 	268.624 	360.752 	284.865 	539.7 	
59.3338 	-0.222492 	-0.583958 	0.613931 	0.823276 	0.26566 	1.97704 	90.1809 	127.777 	67.6432 	268.624 	360.752 	284.865 	539.7 	
59.437 	-0.221666 	-0.585248 	0.612242 	0.82067 	0.264727 	1.98694 	90.1808 	127.777 	67.1487 	268.624 	360.752 	284.865 	539.7 	
59.54 	-0.220975 	-0.586299 	0.610864 	0.818546 	0.263945 	1.99504 	90.1809 	127.777 	66.5964 	268.624 	360.752 	284.865 	539.7 	
59.6439 	-0.220191 	-0.587463 	0.609339 	0.816194 	0.263057 	2.00403 	90.1809 	127.777 	66.0953 	268.624 	360.752 	284.865 	539.7 	
59.7491 	-0.21931 	-0.588738 	0.607668 	0.813617 	0.262057 	2.01392 	90.181 	127.778 	65.5881 	268.624 	360.752 	284.865 	539.7 	
59.8518 	-0.21774 	-0.590929 	0.604797 	0.809193 	0.260271 	2.03098 	90.1808 	127.778 	65.0456 	268.624 	360.752 	284.865 	539.7 	
59.9539 	-0.21689 	-0.592076 	0.603295 	0.806878 	0.259301 	2.03996 	90.1809 	127.779 	64.547 	268.624 	360.752 	284.865 	539.7 	
60.0563 	-0.216024 	-0.593218 	0.601799 	0.804573 	0.258312 	2.04892 	90.1808 	127.779 	64.0398 	268.624 	360.752 	284.865 	539.7 	
60.1597 	-0.215141 	-0.594356 	0.600308 	0.802278 	0.257303 	2.05789 	90.1808 	127.779 	63.5362 	268.624 	360.752 	284.865 	539.7 	
60.263 	-0.214242 	-0.595489 	0.598824 	0.799993 	0.256274 	2.06685 	90.181 	127.78 	62.992 	268.624 	360.752 	284.865 	539.7 	
60.3698 	-0.213326 	-0.596617 	0.597347 	0.797718 	0.255225 	2.0758 	90.1808 	127.781 	62.4917 	268.624 	360.752 	284.865 	539.7 	
60.4731 	-0.212395 	-0.59774 	0.595875 	0.795453 	0.254157 	2.08475 	90.1808 	127.781 	61.9438 	268.624 	360.752 	284.865 	539.7 	
60.5762 	-0.211447 	-0.598859 	0.594411 	0.793199 	0.253069 	2.0937 	90.1811 	127.781 	61.441 	268.624 	360.752 	284.865 	539.7 	
60.6796 	-0.210483 	-0.599972 	0.592952 	0.790956 	0.251961 	2.10264 	90.1807 	127.782 	60.9442 	268.624 	360.752 	284.866 	539.7 	
60.7824 	-0.209503 	-0.60108 	0.591501 	0.788724 	0.250835 	2.11157 	90.181 	127.783 	60.3902 	268.624 	360.752 	284.866 	539.7 	
60.8858 	-0.208508 	-0.602183 	0.590057 	0.786503 	0.249689 	2.1205 	90.1809 	127.784 	59.89 	268.624 	360.752 	284.866 	539.7 	
60.9891 	-0.207496 	-0.60328 	0.588619 	0.784293 	0.248523 	2.12942 	90.181 	127.784 	59.3916 	268.624 	360.752 	284.866 	539.7 	
61.0921 	-0.206469 	-0.604373 	0.587189 	0.782095 	0.247339 	2.13834 	90.181 	127.784 	58.8402 	268.624 	360.752 	284.866 	539.7 	
61.1951 	-0.205426 	-0.605459 	0.585765 	0.779908 	0.246136 	2.14726 	90.1811 	127.784 	58.3371 	268.624 	360.752 	284.866 	539.7 	
61.2981 	-0.204368 	-0.60654 	0.584349 	0.777733 	0.244914 	2.15616 	90.1809 	127.785 	57.8393 	268.624 	360.752 	284.866 	539.7 	
61.4016 	-0.203294 	-0.607616 	0.582941 	0.77557 	0.243673 	2.16506 	90.181 	127.785 	57.341 	268.624 	360.752 	284.866 	539.7 	
61.5043 	-0.202204 	-0.608686 	0.58154 	0.77342 	0.242413 	2.17396 	90.1809 	127.785 	56.786 	268.624 	360.752 	284.866 	539.7 	
61.6076 	-0.201099 	-0.60975 	0.580146 	0.771281 	0.241135 	2.18285 	90.181 	127.785 	56.2819 	268.624 	360.752 	284.867 	539.7 	
61.7107 	-0.199979 	-0.610808 	0.578761 	0.769155 	0.239839 	2.19174 	90.1808 	127.786 	55.7901 	268.624 	360.752 	284.867 	539.7 	
61.8137 	-0.198844 	-0.61186 	0.577383 	0.767042 	0.238524 	2.20062 	90.1808 	127.785 	55.2312 	268.624 	360.752 	284.867 	539.7 	
61.917 	-0.197694 	-0.612907 	0.576013 	0.764941 	0.237192 	2.20949 	90.1808 	127.786 	54.7398 	268.624 	360.752 	284.867 	539.7 	
62.0201 	-0.196529 	-0.613947 	0.574651 	0.762853 	0.235841 	2.21836 	90.1813 	127.786 	54.2351 	268.624 	360.752 	284.867 	539.7 	
62.1233 	-0.195348 	-0.614981 	0.573297 	0.760779 	0.234472 	2.22722 	90.1809 	127.787 	53.6822 	268.624 	360.752 	284.868 	539.7 	
62.2265 	-0.194153 	-0.616008 	0.571952 	0.758718 	0.233085 	2.23608 	90.1809 	127.787 	53.1862 	268.624 	360.752 	284.869 	539.7 	
62.3349 	-0.192944 	-0.61703 	0.570615 	0.75667 	0.231681 	2.24493 	90.1809 	127.787 	52.6341 	268.624 	360.752 	284.87 	539.7 	
62.4376 	-0.191719 	-0.618044 	0.569286 	0.754635 	0.230259 	2.25377 	90.1808 	127.788 	52.1337 	268.624 	360.752 	284.882 	539.7 	
62.5406 	-0.19048 	-0.619053 	0.567966 	0.752614 	0.22882 	2.26261 	90.1813 	127.791 	51.6356 	268.624 	360.752 	284.895 	539.7 	
62.6434 	-0.189227 	-0.620054 	0.566654 	0.750607 	0.227363 	2.27145 	90.1813 	127.792 	51.0789 	268.624 	360.752 	284.912 	539.7 	
62.7475 	-0.187959 	-0.62105 	0.565352 	0.748614 	0.225889 	2.28027 	90.1807 	127.793 	50.5766 	268.624 	360.752 	284.929 	539.7 	
62.8512 	-0.186677 	-0.622038 	0.564058 	0.746635 	0.224398 	2.28909 	90.1808 	127.793 	50.0769 	268.624 	360.752 	284.931 	539.7 	
62.9537 	-0.184071 	-0.623994 	0.561497 	0.74272 	0.221365 	2.30672 	90.1809 	127.794 	49.5314 	268.624 	360.752 	284.932 	539.7 	
63.0561 	-0.182747 	-0.624962 	0.56023 	0.740785 	0.219824 	2.31552 	90.1809 	127.794 	49.0281 	268.624 	360.752 	284.933 	539.7 	
63.1593 	-0.181409 	-0.625923 	0.558973 	0.738863 	0.218266 	2.32432 	90.1809 	127.794 	48.5311 	268.624 	360.752 	284.933 	539.7 	
63.2625 	-0.180057 	-0.626876 	0.557725 	0.736957 	0.216691 	2.33311 	90.1809 	127.795 	48.0278 	268.624 	360.752 	284.934 	539.7 	
63.3706 	-0.178692 	-0.627823 	0.556486 	0.735066 	0.215101 	2.34189 	90.1809 	127.796 	47.4754 	268.624 	360.752 	284.934 	539.7 	
63.4737 	-0.177313 	-0.628762 	0.555257 	0.733189 	0.213494 	2.35067 	90.181 	127.796 	46.9734 	268.624 	360.752 	284.935 	539.7 	
63.5768 	-0.17592 	-0.629694 	0.554038 	0.731328 	0.211871 	2.35944 	90.1808 	127.797 	46.4261 	268.623 	360.752 	284.935 	539.7 	
63.6801 	-0.174515 	-0.630618 	0.552828 	0.729482 	0.210232 	2.36821 	90.1809 	127.8 	45.925 	268.624 	360.752 	284.936 	539.7 	
63.7832 	-0.173096 	-0.631535 	0.551628 	0.727651 	0.208577 	2.37697 	90.1809 	127.805 	45.4266 	268.624 	360.752 	284.936 	539.7 	
63.8861 	-0.171663 	-0.632445 	0.550438 	0.725836 	0.206907 	2.38572 	90.1809 	127.807 	44.8696 	268.624 	360.752 	284.936 	539.7 	
63.9894 	-0.170218 	-0.633346 	0.549258 	0.724037 	0.205222 	2.39447 	90.1809 	127.81 	44.3668 	268.624 	360.752 	284.936 	539.7 	
64.0926 	-0.16876 	-0.634241 	0.548088 	0.722253 	0.203521 	2.40321 	90.1808 	127.813 	43.8716 	268.623 	360.752 	284.937 	539.7 	
64.1956 	-0.167289 	-0.635127 	0.546928 	0.720485 	0.201804 	2.41194 	90.1809 	127.815 	43.3691 	268.623 	360.752 	284.937 	539.7 	
64.2988 	-0.165806 	-0.636006 	0.545778 	0.718733 	0.200073 	2.42067 	90.1809 	127.816 	42.8221 	268.623 	360.752 	284.937 	539.7 	
64.4019 	-0.16431 	-0.636876 	0.544639 	0.716997 	0.198327 	2.42939 	90.1809 	127.816 	42.3234 	268.623 	360.752 	284.937 	539.7 	
64.5049 	-0.162801 	-0.637739 	0.54351 	0.715278 	0.196566 	2.43811 	90.1809 	127.816 	41.8216 	268.623 	360.752 	284.937 	539.7 	
64.6081 	-0.16128 	-0.638594 	0.542392 	0.713575 	0.19479 	2.44682 	90.181 	127.816 	41.2634 	268.623 	360.752 	284.937 	539.7 	
64.7112 	-0.159747 	-0.639441 	0.541285 	0.711888 	0.193 	2.45552 	90.1809 	127.817 	40.7661 	268.623 	360.752 	284.938 	539.7 	
64.8143 	-0.158202 	-0.64028 	0.540187 	0.710218 	0.191196 	2.46422 	90.181 	127.817 	40.2639 	268.624 	360.752 	284.938 	539.7 	
64.9176 	-0.156645 	-0.64111 	0.539101 	0.708564 	0.189377 	2.47291 	90.181 	127.818 	39.7136 	268.623 	360.752 	284.938 	539.7 	
65.0207 	-0.155076 	-0.641932 	0.538026 	0.706927 	0.187545 	2.4816 	90.1808 	127.818 	39.2076 	268.623 	360.752 	284.938 	539.7 	
65.1237 	-0.153495 	-0.642746 	0.536962 	0.705307 	0.185698 	2.49028 	90.1809 	127.818 	38.7083 	268.623 	360.752 	284.938 	539.7 	
65.2271 	-0.151902 	-0.643551 	0.535908 	0.703704 	0.183838 	2.49895 	90.1809 	127.818 	38.2119 	268.623 	360.752 	284.938 	539.7 	
65.3349 	-0.150298 	-0.644349 	0.534866 	0.702117 	0.181964 	2.50762 	90.181 	127.819 	37.6611 	268.623 	360.752 	284.939 	539.7 	
65.4379 	-0.148683 	-0.645137 	0.533835 	0.700548 	0.180077 	2.51628 	90.1809 	127.819 	37.1102 	268.623 	360.752 	284.939 	539.7 	
65.541 	-0.147056 	-0.645917 	0.532815 	0.698997 	0.178176 	2.52494 	90.1809 	127.819 	36.604 	268.623 	360.752 	284.939 	539.7 	
65.6441 	-0.145419 	-0.646688 	0.531806 	0.697462 	0.176263 	2.53359 	90.1809 	127.82 	36.1123 	268.623 	360.752 	284.939 	539.7 	
65.7473 	-0.14377 	-0.647451 	0.530809 	0.695945 	0.174336 	2.54223 	90.1809 	127.82 	35.6011 	268.623 	360.752 	284.939 	539.7 	
65.8509 	-0.14211 	-0.648205 	0.529824 	0.694445 	0.172396 	2.55087 	90.1809 	127.82 	35.0586 	268.623 	360.752 	284.939 	539.7 	
65.9543 	-0.14044 	-0.64895 	0.52885 	0.692963 	0.170444 	2.5595 	90.1809 	127.821 	34.5505 	268.623 	360.752 	284.939 	539.7 	
66.0576 	-0.137067 	-0.650413 	0.526936 	0.690052 	0.166502 	2.57675 	90.1807 	127.821 	34.0497 	268.623 	360.752 	284.94 	539.7 	
66.1606 	-0.135365 	-0.651132 	0.525998 	0.688623 	0.164513 	2.58536 	90.1808 	127.822 	33.5003 	268.623 	360.752 	284.94 	539.7 	
66.2637 	-0.133825 	-0.651771 	0.525163 	0.687352 	0.162712 	2.59311 	90.1808 	127.822 	32.9987 	268.623 	360.752 	284.94 	539.7 	
66.3695 	-0.131931 	-0.652541 	0.524155 	0.685819 	0.160498 	2.60257 	90.1809 	127.822 	32.4485 	268.623 	360.752 	284.94 	539.7 	
66.4719 	-0.130372 	-0.653164 	0.523342 	0.68458 	0.158676 	2.61031 	90.1807 	127.823 	31.9481 	268.623 	360.752 	284.94 	539.7 	
66.5753 	-0.128456 	-0.653914 	0.522361 	0.683087 	0.156436 	2.61976 	90.1809 	127.823 	31.4457 	268.623 	360.752 	284.94 	539.7 	
66.6783 	-0.12688 	-0.65452 	0.521569 	0.681881 	0.154594 	2.62749 	90.1808 	127.824 	30.9455 	268.623 	360.752 	284.941 	539.7 	
66.7814 	-0.124943 	-0.65525 	0.520615 	0.680427 	0.152329 	2.63693 	90.1809 	127.823 	30.3941 	268.623 	360.752 	284.941 	539.7 	
66.8846 	-0.123349 	-0.65584 	0.519846 	0.679255 	0.150466 	2.64465 	90.1807 	127.824 	29.8932 	268.623 	360.752 	284.941 	539.7 	
66.9875 	-0.12157 	-0.656485 	0.519002 	0.677969 	0.148386 	2.65322 	90.1809 	127.824 	29.3934 	268.623 	360.752 	284.942 	539.7 	
67.0911 	-0.119781 	-0.657121 	0.518171 	0.676702 	0.146295 	2.66178 	90.1808 	127.824 	28.8392 	268.623 	360.752 	284.942 	539.7 	
67.1937 	-0.117983 	-0.657748 	0.517353 	0.675453 	0.144193 	2.67034 	90.1807 	127.824 	28.3416 	268.623 	360.752 	284.942 	539.7 	
67.2972 	-0.116177 	-0.658365 	0.516547 	0.674223 	0.14208 	2.6789 	90.1806 	127.825 	27.8372 	268.623 	360.752 	284.944 	539.7 	
67.4002 	-0.114362 	-0.658973 	0.515753 	0.673012 	0.139958 	2.68745 	90.1808 	127.825 	27.2896 	268.623 	360.752 	284.961 	539.7 	
67.5032 	-0.112538 	-0.659571 	0.514972 	0.67182 	0.137825 	2.69599 	90.1807 	127.825 	26.7825 	268.623 	360.752 	284.967 	539.7 	
67.6065 	-0.110521 	-0.660217 	0.514128 	0.670529 	0.135467 	2.70538 	90.1807 	127.825 	26.2851 	268.623 	360.752 	284.968 	539.7 	
67.7096 	-0.108864 	-0.660738 	0.513448 	0.669491 	0.133529 	2.71306 	90.1807 	127.825 	25.7872 	268.623 	360.752 	284.969 	539.7 	
67.8125 	-0.107015 	-0.661307 	0.512706 	0.668355 	0.131367 	2.72159 	90.1807 	127.825 	25.2307 	268.623 	360.752 	284.97 	539.7 	
67.9157 	-0.105158 	-0.661866 	0.511976 	0.667238 	0.129195 	2.73012 	90.1807 	127.825 	24.7312 	268.623 	360.752 	284.971 	539.7 	
68.0187 	-0.103293 	-0.662415 	0.511259 	0.666139 	0.127014 	2.73864 	90.1806 	127.825 	24.2278 	268.623 	360.752 	284.972 	539.7 	
68.1216 	-0.10142 	-0.662954 	0.510556 	0.665061 	0.124823 	2.74715 	90.1804 	127.825 	23.6802 	268.623 	360.752 	284.972 	539.7 	
68.2246 	-0.099539 	-0.663484 	0.509865 	0.664001 	0.122624 	2.75566 	90.1805 	127.825 	23.1744 	268.623 	360.752 	284.973 	539.7 	
68.3284 	-0.0976508 	-0.664003 	0.509187 	0.66296 	0.120416 	2.76416 	90.1804 	127.826 	22.6781 	268.623 	360.752 	284.974 	539.7 	
68.4352 	-0.0957552 	-0.664513 	0.508522 	0.661938 	0.118198 	2.77267 	90.1806 	127.826 	22.1246 	268.623 	360.752 	284.976 	539.7 	
68.538 	-0.0938524 	-0.665012 	0.507871 	0.660936 	0.115973 	2.78116 	90.1804 	127.826 	21.6207 	268.623 	360.752 	284.988 	539.7 	
68.642 	-0.0919426 	-0.665501 	0.507233 	0.659953 	0.113739 	2.78965 	90.1805 	127.826 	21.0657 	268.623 	360.752 	284.994 	539.7 	
68.7487 	-0.0881021 	-0.666449 	0.505996 	0.658046 	0.109246 	2.80662 	90.1805 	127.826 	20.5729 	268.623 	360.752 	285.001 	539.7 	
68.8517 	-0.0861719 	-0.666908 	0.505398 	0.657121 	0.106988 	2.8151 	90.1805 	127.827 	20.0204 	268.623 	360.752 	285.005 	539.7 	
68.9541 	-0.0842351 	-0.667357 	0.504813 	0.656216 	0.104723 	2.82358 	90.1805 	127.827 	19.5219 	268.623 	360.752 	285.008 	539.7 	
69.0563 	-0.0822919 	-0.667795 	0.504242 	0.655331 	0.102449 	2.83205 	90.1805 	127.827 	19.0206 	268.623 	360.752 	285.011 	539.7 	
69.16 	-0.0803426 	-0.668223 	0.503684 	0.654465 	0.100168 	2.84051 	90.1805 	127.827 	18.5111 	268.623 	360.752 	285.012 	539.7 	
69.2632 	-0.0783872 	-0.668641 	0.50314 	0.653618 	0.0978805 	2.84898 	90.1804 	127.827 	17.9642 	268.623 	360.752 	285.013 	539.7 	
69.3697 	-0.0764259 	-0.669048 	0.502609 	0.652792 	0.0955855 	2.85744 	90.1803 	127.827 	17.4577 	268.623 	360.752 	285.013 	539.7 	
69.4732 	-0.0744588 	-0.669445 	0.502092 	0.651985 	0.0932837 	2.86589 	90.1804 	127.828 	16.9129 	268.623 	360.752 	285.013 	539.7 	
69.5762 	-0.0724861 	-0.669832 	0.501589 	0.651197 	0.0909751 	2.87434 	90.1783 	127.829 	16.4029 	268.623 	360.752 	285.014 	539.7 	
69.6794 	-0.0705079 	-0.670208 	0.501099 	0.65043 	0.0886599 	2.88279 	90.177 	127.834 	15.9091 	268.623 	360.752 	285.015 	539.7 	
69.7824 	-0.0685244 	-0.670574 	0.500623 	0.649682 	0.0863384 	2.89123 	90.1796 	127.834 	15.3614 	268.623 	360.752 	285.015 	539.7 	
69.8854 	-0.0665357 	-0.670929 	0.500161 	0.648955 	0.0840107 	2.89968 	90.1778 	127.835 	14.8594 	268.623 	360.752 	285.016 	539.7 	
69.9889 	-0.064542 	-0.671274 	0.499713 	0.648247 	0.0816769 	2.90811 	90.1771 	127.835 	14.3508 	268.623 	360.752 	285.016 	539.7 	
70.0918 	-0.0625435 	-0.671608 	0.499278 	0.647559 	0.0793373 	2.91655 	90.1757 	127.834 	13.8417 	268.623 	360.752 	285.016 	539.7 	
70.1949 	-0.0605402 	-0.671931 	0.498858 	0.646891 	0.0769919 	2.92498 	90.1818 	127.834 	13.3067 	268.623 	360.752 	285.016 	539.7 	
70.2977 	-0.0585324 	-0.672244 	0.498451 	0.646242 	0.074641 	2.93341 	90.1816 	127.836 	12.813 	268.623 	360.752 	285.017 	539.7 	
70.4015 	-0.0565202 	-0.672546 	0.498058 	0.645614 	0.0722848 	2.94183 	90.1741 	127.849 	12.2968 	268.623 	360.752 	285.032 	539.7 	
70.5042 	-0.0545038 	-0.672838 	0.49768 	0.645006 	0.0699234 	2.95026 	90.1766 	127.852 	11.7494 	268.623 	360.752 	285.036 	539.7 	
70.6075 	-0.0524832 	-0.673119 	0.497315 	0.644418 	0.0675569 	2.95868 	90.1763 	127.854 	11.2501 	268.623 	360.752 	285.041 	539.7 	
70.7105 	-0.0504587 	-0.673389 	0.496964 	0.643851 	0.0651856 	2.96709 	90.1762 	127.856 	10.7515 	268.623 	360.752 	285.044 	539.7 	
70.8136 	-0.0484305 	-0.673649 	0.496628 	0.643303 	0.0628096 	2.97551 	90.176 	127.858 	10.1942 	268.623 	360.752 	285.046 	539.7 	
70.9166 	-0.0463986 	-0.673897 	0.496305 	0.642775 	0.0604291 	2.98392 	90.1777 	127.861 	9.69294 	268.623 	360.752 	285.049 	539.7 	
71.0196 	-0.0443632 	-0.674135 	0.495997 	0.642267 	0.0580443 	2.99233 	90.1815 	127.861 	9.19958 	268.623 	360.752 	285.049 	539.7 	
71.1225 	-0.0423245 	-0.674362 	0.495703 	0.64178 	0.0556552 	3.00073 	90.18 	127.861 	8.69587 	268.623 	360.752 	285.05 	539.7 	
71.2257 	-0.0402826 	-0.674579 	0.495423 	0.641313 	0.0532622 	3.00914 	90.1801 	127.861 	8.14919 	268.623 	360.752 	285.051 	539.7 	
71.335 	-0.0382377 	-0.674785 	0.495157 	0.640866 	0.0508653 	3.01754 	90.1802 	127.861 	7.5906 	268.623 	360.752 	285.051 	539.7 	
71.4379 	-0.03619 	-0.674979 	0.494905 	0.640439 	0.0484648 	3.02594 	90.1798 	127.861 	7.08533 	268.623 	360.752 	285.051 	539.7 	
71.5408 	-0.0341396 	-0.675163 	0.494667 	0.640033 	0.0460608 	3.03434 	90.1809 	127.861 	6.58982 	268.623 	360.752 	285.051 	539.7 	
71.6469 	-0.0320866 	-0.675336 	0.494444 	0.639647 	0.0436534 	3.04274 	90.1806 	127.861 	6.03748 	268.623 	360.752 	285.051 	539.7 	
71.7503 	-0.0300312 	-0.675499 	0.494235 	0.639281 	0.0412429 	3.05113 	90.1813 	127.862 	5.54587 	268.623 	360.752 	285.052 	539.7 	
71.853 	-0.0259139 	-0.67579 	0.49386 	0.63861 	0.0364131 	3.06792 	90.1812 	127.862 	5.03875 	268.623 	360.752 	285.052 	539.7 	
71.9562 	-0.0238524 	-0.67592 	0.493694 	0.638305 	0.0339941 	3.07631 	90.1809 	127.863 	4.48103 	268.623 	360.752 	285.053 	539.7 	
72.0593 	-0.021789 	-0.676039 	0.493542 	0.63802 	0.0315727 	3.08469 	90.1787 	127.865 	3.97898 	268.623 	360.752 	285.053 	539.7 	
72.1622 	-0.0197241 	-0.676146 	0.493405 	0.637756 	0.029149 	3.09308 	90.1758 	127.866 	3.48025 	268.623 	360.752 	285.053 	539.7 	
72.2705 	-0.0176577 	-0.676243 	0.493282 	0.637512 	0.0267232 	3.10147 	90.1744 	127.866 	2.91228 	268.623 	360.752 	285.053 	539.7 	
72.3738 	-0.01559 	-0.676329 	0.493173 	0.637288 	0.0242954 	3.10985 	90.1751 	127.868 	2.42664 	268.623 	360.752 	285.054 	539.7 	
72.4769 	-0.0135212 	-0.676404 	0.493078 	0.637085 	0.0218658 	3.11824 	90.1749 	127.868 	1.86257 	268.623 	360.752 	285.054 	539.7 	
72.58 	-0.0114515 	-0.676468 	0.492998 	0.636902 	0.0194346 	3.12662 	90.1727 	127.867 	1.36033 	268.623 	360.752 	285.054 	539.7 	
72.6832 	-0.00938086 	-0.676521 	0.492932 	0.63674 	0.0170019 	3.135 	90.1729 	127.868 	0.860913 	268.623 	360.752 	285.054 	539.7 	
72.7861 	-0.00730961 	-0.676563 	0.492881 	0.636598 	0.014568 	-3.1398 	90.1734 	127.868 	0.31355 	268.623 	360.752 	285.055 	539.7 	
72.8894 	-0.00523786 	-0.676594 	0.492844 	0.636476 	0.012133 	-3.13142 	90.1733 	127.868 	-0.186255 	268.623 	360.752 	285.055 	539.7 	
72.9924 	-0.00409684 	-0.676606 	0.49283 	0.636418 	0.0107917 	-3.12681 	90.1723 	127.868 	-0.478247 	268.623 	360.753 	285.055 	539.7 	
73.0955 	-0.00409684 	-0.676606 	0.49283 	0.636418 	0.0107917 	-3.12681 	90.1724 	127.868 	-0.524439 	268.623 	360.753 	285.055 	539.7 	
73.1984 	-0.00409684 	-0.676606 	0.49283 	0.636418 	0.0107917 	-3.12681 	90.1724 	127.868 	-0.535669 	268.623 	360.753 	285.055 	539.7 	
73.3019 	-0.00409684 	-0.676606 	0.49283 	0.636418 	0.0107917 	-3.12681 	90.1713 	127.868 	-0.541431 	268.623 	360.753 	285.055 	539.7 	
73.4074 	-0.00409684 	-0.676606 	0.49283 	0.636418 	0.0107917 	-3.12681 	90.1707 	127.868 	-0.547974 	268.623 	360.753 	285.055 	539.7 	
73.5109 	-0.00409031 	-0.677034 	0.490803 	0.640606 	0.0108134 	-3.1268 	90.1701 	127.791 	-0.552271 	268.743 	360.753 	285.055 	539.7 	
73.6138 	-0.00406648 	-0.678563 	0.481832 	0.658057 	0.0108907 	-3.12676 	90.1675 	127.431 	-0.564478 	269.161 	360.753 	285.055 	539.7 	
73.7174 	-0.00404268 	-0.67996 	0.472855 	0.675508 	0.0109685 	-3.12672 	90.1647 	126.859 	-0.569263 	269.697 	360.753 	285.055 	539.7 	
73.82 	-0.00401891 	-0.681225 	0.463872 	0.692958 	0.0110468 	-3.12668 	90.1588 	126.354 	-0.570435 	270.203 	360.753 	285.055 	539.7 	
73.9235 	-0.00399517 	-0.682359 	0.454887 	0.710409 	0.0111255 	-3.12664 	90.151 	125.831 	-0.571118 	270.715 	360.753 	285.055 	539.7 	
74.0264 	-0.00397146 	-0.683361 	0.445902 	0.72786 	0.0112048 	-3.1266 	90.1481 	125.291 	-0.571509 	271.264 	360.753 	285.055 	539.7 	
74.1346 	-0.00394778 	-0.684233 	0.436918 	0.74531 	0.0112845 	-3.12656 	90.1452 	124.816 	-0.571899 	271.758 	360.753 	285.055 	539.7 	
74.2372 	-0.00392415 	-0.684973 	0.427937 	0.762761 	0.0113647 	-3.12652 	90.1388 	124.258 	-0.573462 	272.305 	360.753 	285.055 	539.7 	
74.3411 	-0.00390055 	-0.685583 	0.418962 	0.780212 	0.0114454 	-3.12648 	90.1279 	123.778 	-0.57522 	272.803 	360.753 	285.055 	539.7 	
74.4473 	-0.003877 	-0.686062 	0.409994 	0.797663 	0.0115266 	-3.12644 	90.1255 	123.229 	-0.575317 	273.357 	360.753 	285.055 	539.7 	
74.5515 	-0.00383002 	-0.68663 	0.39209 	0.832564 	0.0116905 	-3.12637 	90.1062 	122.71 	-0.575415 	273.86 	360.753 	285.055 	539.7 	
74.6543 	-0.00380661 	-0.68672 	0.383157 	0.850015 	0.0117731 	-3.12633 	90.1022 	122.204 	-0.575806 	274.363 	360.753 	285.055 	539.7 	
74.7567 	-0.00378324 	-0.686681 	0.374241 	0.867466 	0.0118562 	-3.1263 	90.1022 	121.642 	-0.575708 	274.924 	360.753 	285.055 	539.7 	
74.8596 	-0.00375993 	-0.686513 	0.365341 	0.884917 	0.0119398 	-3.12626 	90.1023 	121.132 	-0.575708 	275.428 	360.753 	285.055 	539.7 	
74.9633 	-0.00373668 	-0.686217 	0.356462 	0.902367 	0.0120238 	-3.12623 	90.102 	120.662 	-0.575806 	275.929 	360.753 	285.055 	539.7 	
75.0702 	-0.00371348 	-0.685794 	0.347605 	0.919818 	0.0121083 	-3.12619 	90.0945 	120.088 	-0.576294 	276.481 	360.753 	285.056 	539.7 	
75.1733 	-0.00369035 	-0.685243 	0.338771 	0.937269 	0.0121933 	-3.12616 	90.0931 	119.622 	-0.576685 	276.975 	360.753 	285.056 	539.7 	
75.2765 	-0.00366958 	-0.684639 	0.330842 	0.952974 	0.0122701 	-3.12613 	90.0926 	119.089 	-0.576685 	277.488 	360.753 	285.056 	539.7 	
75.3793 	-0.00364427 	-0.683762 	0.321182 	0.97217 	0.0123646 	-3.12609 	90.0919 	118.541 	-0.57688 	278.04 	360.753 	285.056 	539.7 	
75.4827 	-0.00362129 	-0.682808 	0.312908 	0.988923 	0.0124514 	-3.12606 	90.0889 	118.079 	-0.577271 	278.538 	360.753 	285.056 	539.7 	
75.5855 	-0.00359808 	-0.681506 	0.309709 	0.998275 	0.0125443 	-3.12604 	90.0888 	117.935 	-0.577368 	279.041 	360.753 	285.056 	539.7 	
75.6889 	-0.00357734 	-0.680292 	0.307225 	1.00613 	0.0126284 	-3.12603 	90.0888 	117.911 	-0.577368 	279.592 	360.753 	285.057 	539.7 	
75.7918 	-0.00355449 	-0.678922 	0.304478 	1.01485 	0.0127221 	-3.12601 	90.0888 	117.911 	-0.577466 	280.1 	360.753 	285.057 	539.7 	
75.8949 	-0.00352962 	-0.677386 	0.301469 	1.02445 	0.0128253 	-3.12599 	90.0889 	117.907 	-0.577368 	280.594 	360.753 	285.057 	539.7 	
75.9979 	-0.00350723 	-0.675965 	0.298746 	1.03317 	0.0129193 	-3.12597 	90.0887 	117.889 	-0.577563 	281.152 	360.753 	285.057 	539.7 	
76.1014 	-0.00348507 	-0.67452 	0.296036 	1.04189 	0.0130134 	-3.12595 	90.0889 	117.885 	-0.577466 	281.651 	360.753 	285.057 	539.7 	
76.2043 	-0.00346313 	-0.673051 	0.293339 	1.05062 	0.0131077 	-3.12594 	90.089 	117.884 	-0.577466 	282.156 	360.753 	285.058 	539.7 	
76.3075 	-0.0034414 	-0.671559 	0.290654 	1.05934 	0.0132021 	-3.12592 	90.089 	117.883 	-0.577368 	282.655 	360.753 	285.058 	539.7 	
76.4106 	-0.00341991 	-0.670044 	0.287983 	1.06806 	0.0132966 	-3.12591 	90.089 	117.883 	-0.577466 	283.202 	360.753 	285.058 	539.7 	
76.5137 	-0.00340076 	-0.668661 	0.28559 	1.07592 	0.0133818 	-3.1259 	90.089 	117.883 	-0.577563 	283.7 	360.753 	285.058 	539.7 	
76.617 	-0.00337969 	-0.667101 	0.282945 	1.08464 	0.0134765 	-3.12589 	90.089 	117.882 	-0.577466 	284.202 	360.753 	285.058 	539.7 	
76.7196 	-0.00335886 	-0.665519 	0.280312 	1.09336 	0.0135714 	-3.12587 	90.0891 	117.881 	-0.577466 	284.757 	360.753 	285.059 	539.7 	
76.8226 	-0.00333825 	-0.663914 	0.277694 	1.10209 	0.0136663 	-3.12586 	90.0889 	117.881 	-0.577563 	285.262 	360.753 	285.059 	539.7 	
76.9261 	-0.00331788 	-0.662286 	0.27509 	1.11081 	0.0137614 	-3.12585 	90.0891 	117.875 	-0.577563 	285.766 	360.753 	285.059 	539.7 	
77.035 	-0.00329775 	-0.660635 	0.2725 	1.11954 	0.0138565 	-3.12584 	90.0891 	117.875 	-0.577661 	286.319 	360.753 	285.059 	539.7 	
77.1387 	-0.00327587 	-0.658793 	0.269668 	1.12913 	0.0139612 	-3.12584 	90.0891 	117.875 	-0.577563 	286.816 	360.753 	285.059 	539.7 	
77.2418 	-0.00325818 	-0.657266 	0.267365 	1.13698 	0.014047 	-3.12583 	90.0891 	117.875 	-0.577563 	287.367 	360.753 	285.059 	539.7 	
77.3476 	-0.00323876 	-0.655548 	0.264819 	1.14571 	0.0141423 	-3.12582 	90.0891 	117.874 	-0.577563 	287.869 	360.753 	285.059 	539.7 	
77.4521 	-0.00321958 	-0.653808 	0.262288 	1.15443 	0.0142376 	-3.12582 	90.0891 	117.872 	-0.577563 	288.424 	360.753 	285.059 	539.7 	
77.5548 	-0.00318193 	-0.650262 	0.257273 	1.17188 	0.0144285 	-3.12581 	90.0892 	117.872 	-0.577466 	288.921 	360.753 	285.059 	539.7 	
77.6583 	-0.00316348 	-0.648456 	0.254789 	1.1806 	0.014524 	-3.1258 	90.0896 	117.872 	-0.577466 	289.421 	360.753 	285.06 	539.7 	
77.7614 	-0.00314527 	-0.646629 	0.252321 	1.18933 	0.0146195 	-3.1258 	90.0896 	117.872 	-0.577466 	289.973 	360.753 	285.06 	539.7 	
77.8648 	-0.00312731 	-0.64478 	0.249868 	1.19805 	0.0147151 	-3.1258 	90.0898 	117.87 	-0.577368 	290.474 	360.753 	285.06 	539.7 	
77.9706 	-0.0031096 	-0.64291 	0.247432 	1.20677 	0.0148106 	-3.1258 	90.0902 	117.87 	-0.577368 	291.032 	360.753 	285.06 	539.7 	
78.0735 	-0.00309213 	-0.641019 	0.245012 	1.2155 	0.0149061 	-3.1258 	90.0905 	117.865 	-0.577368 	291.529 	360.753 	285.06 	539.7 	
78.1767 	-0.00307492 	-0.639107 	0.242609 	1.22422 	0.0150017 	-3.1258 	90.0906 	117.864 	-0.577368 	292.028 	360.753 	285.06 	539.7 	
78.2797 	-0.00305797 	-0.637173 	0.240223 	1.23295 	0.0150972 	-3.1258 	90.093 	117.864 	-0.577271 	292.585 	360.753 	285.06 	539.7 	
78.3827 	-0.00304126 	-0.635219 	0.237854 	1.24167 	0.0151927 	-3.12581 	90.0933 	117.864 	-0.577173 	293.089 	360.753 	285.061 	539.7 	
78.4859 	-0.00302481 	-0.633245 	0.235501 	1.25039 	0.0152882 	-3.12581 	90.0941 	117.863 	-0.577075 	293.584 	360.753 	285.061 	539.7 	
78.5893 	-0.00300862 	-0.63125 	0.233166 	1.25912 	0.0153836 	-3.12581 	90.0946 	117.863 	-0.577271 	294.085 	360.753 	285.061 	539.7 	
78.6922 	-0.00299268 	-0.629234 	0.230849 	1.26784 	0.015479 	-3.12582 	90.0948 	117.862 	-0.577173 	294.641 	360.753 	285.061 	539.7 	
78.7951 	-0.00297701 	-0.627199 	0.228549 	1.27657 	0.0155744 	-3.12582 	90.095 	117.862 	-0.577075 	295.142 	360.753 	285.061 	539.7 	
78.8982 	-0.00296159 	-0.625144 	0.226267 	1.28529 	0.0156697 	-3.12583 	90.095 	117.861 	-0.577173 	295.648 	360.753 	285.061 	539.7 	
79.0014 	-0.00294644 	-0.623068 	0.224003 	1.29402 	0.0157649 	-3.12584 	90.0951 	117.848 	-0.577075 	296.198 	360.753 	285.061 	539.7 	
79.1046 	-0.00293155 	-0.620974 	0.221758 	1.30274 	0.0158601 	-3.12585 	90.0954 	117.838 	-0.577075 	296.7 	360.753 	285.061 	539.7 	
79.2071 	-0.00291692 	-0.618859 	0.21953 	1.31146 	0.0159551 	-3.12586 	90.0955 	117.835 	-0.576978 	297.199 	360.753 	285.061 	539.7 	
79.3106 	-0.00290256 	-0.616725 	0.217322 	1.32019 	0.0160501 	-3.12587 	90.0962 	117.829 	-0.577075 	297.754 	360.753 	285.061 	539.7 	
79.4138 	-0.00288846 	-0.614572 	0.215131 	1.32891 	0.016145 	-3.12588 	90.0972 	117.829 	-0.576978 	298.251 	360.753 	285.061 	539.7 	
79.5169 	-0.00287463 	-0.6124 	0.21296 	1.33764 	0.0162399 	-3.12589 	90.1011 	117.828 	-0.57688 	298.755 	360.753 	285.061 	539.7 	
