RISC-NYUAD/HeavyPayloadDrone/projects/kinova-ros/devel/lib/ne_kinova_demo/VulcanTrajectory/Vulcan1_Vicon_y19m11d13h19min26.csv
time (NSec) 	Kinova Tip Position (t_x) 	t_y 	t_z 	Kinova Tip Angle (theta_x) 	Kinova Tip Angle (theta_y) 	Kinova Tip Angle (theta_z) 	Kinova Joint Angle (j1) 	(j2) 	(j3) 	(j4) 	Kinova Joint Angle (j5) 	(j6) 	(j7)
1.11133 	-0.0326538 	-0.0444841 	1.1423 	-0.295998 	0.0282718 	3.00333 	93.3398 	193.791 	5.00537 	239.665 	0.43892 	242.93 	179.647 	
1.21471 	-0.0259911 	-0.0581218 	1.13874 	-0.285965 	0.0379263 	3.00451 	93.084 	193.555 	4.7335 	239.934 	0.667472 	243.283 	179.905 	
1.31678 	-0.0124262 	-0.0742033 	1.13214 	-0.283728 	0.0649756 	2.99009 	92.2081 	192.692 	3.88535 	240.817 	2.36477 	244.968 	181.56 	
1.41888 	0.00184704 	-0.0893872 	1.12482 	-0.283177 	0.0925764 	2.97758 	91.2281 	191.573 	2.89453 	241.848 	4.35568 	246.912 	183.528 	
1.52179 	0.0159703 	-0.103738 	1.11677 	-0.283583 	0.122596 	2.95997 	90.4211 	190.516 	1.79912 	242.938 	6.54744 	249.116 	185.707 	
1.62376 	0.0293391 	-0.117578 	1.10801 	-0.284163 	0.155367 	2.93561 	90.2414 	189.476 	0.789844 	243.95 	8.57045 	251.112 	187.726 	
1.7258 	0.0417166 	-0.131012 	1.09856 	-0.285099 	0.188715 	2.90943 	90.2173 	188.461 	-0.068457 	244.957 	10.5634 	253.141 	189.722 	
1.82789 	0.0515499 	-0.144478 	1.08849 	-0.284706 	0.223745 	2.87513 	90.2012 	187.454 	-0.464063 	245.958 	12.5972 	255.13 	191.737 	
1.92994 	0.0607089 	-0.157786 	1.07777 	-0.284015 	0.25951 	2.84043 	90.2012 	186.335 	-0.537402 	246.956 	14.5845 	257.096 	193.713 	
2.03693 	0.0698338 	-0.170778 	1.06639 	-0.283696 	0.295483 	2.80822 	90.2005 	185.31 	-0.556055 	248.063 	16.7764 	259.319 	195.933 	
2.13899 	0.0788798 	-0.18341 	1.05435 	-0.283898 	0.33154 	2.77856 	90.2004 	184.301 	-0.55791 	249.064 	18.7793 	261.319 	197.927 	
2.24086 	0.0878024 	-0.195636 	1.04168 	-0.284784 	0.367551 	2.75154 	90.2001 	183.184 	-0.569141 	250.173 	21.0116 	263.513 	199.936 	
2.34286 	0.0965579 	-0.207411 	1.02839 	-0.286525 	0.403381 	2.72726 	90.1999 	182.177 	-0.570312 	251.174 	22.9949 	265.508 	202.119 	
2.44498 	0.105103 	-0.21869 	1.01451 	-0.289297 	0.438889 	2.70582 	90.1998 	181.166 	-0.572461 	252.172 	25.0038 	267.515 	204.143 	
2.54716 	0.113396 	-0.22943 	1.00007 	-0.293286 	0.473926 	2.68734 	90.1996 	180.153 	-0.573145 	253.175 	27.0205 	269.529 	206.139 	
2.64907 	0.121397 	-0.239591 	0.985109 	-0.298683 	0.508334 	2.67195 	90.1996 	179.146 	-0.573535 	254.181 	29.0305 	271.509 	208.118 	
2.75108 	0.128314 	-0.248208 	0.971232 	-0.304902 	0.538626 	2.66085 	90.1992 	178.033 	-0.574121 	255.285 	31.2311 	273.711 	210.128 	
2.85292 	0.136363 	-0.258022 	0.953794 	-0.31447 	0.574582 	2.65097 	90.1992 	177.018 	-0.574219 	256.291 	33.2202 	275.727 	212.326 	
2.95502 	0.142585 	-0.265437 	0.93918 	-0.324069 	0.602963 	2.64602 	90.199 	176.021 	-0.574414 	257.291 	35.2504 	277.715 	214.343 	
3.05696 	0.149707 	-0.273719 	0.920958 	-0.338161 	0.63615 	2.64395 	90.1992 	175.003 	-0.574316 	258.284 	37.2494 	279.689 	216.322 	
3.15905 	0.155112 	-0.279835 	0.905807 	-0.351754 	0.661888 	2.6456 	90.199 	173.999 	-0.574609 	259.287 	39.247 	281.689 	218.311 	
3.26108 	0.161168 	-0.286486 	0.887063 	-0.371021 	0.691358 	2.6518 	90.1992 	172.895 	-0.574414 	260.388 	41.4499 	283.883 	220.335 	
3.36463 	0.166149 	-0.293782 	0.872154 	-0.376143 	0.716147 	2.65188 	90.1992 	171.891 	-0.574609 	261.383 	43.4554 	284.728 	222.523 	
3.46796 	0.173191 	-0.308492 	0.8549 	-0.350548 	0.752137 	2.63206 	90.1991 	170.876 	-0.574512 	262.386 	45.4783 	284.819 	224.519 	
3.57078 	0.17936 	-0.321066 	0.838645 	-0.32849 	0.784692 	2.61517 	90.1993 	169.766 	-0.574414 	263.387 	47.4582 	284.836 	226.515 	
3.67376 	0.185298 	-0.332847 	0.821889 	-0.307724 	0.81707 	2.5995 	90.1992 	168.759 	-0.574512 	264.492 	49.6571 	284.84 	228.729 	
3.77673 	0.191 	-0.343807 	0.804679 	-0.288409 	0.849247 	2.58521 	90.1994 	167.753 	-0.574414 	265.493 	51.6856 	284.841 	230.737 	
3.87994 	0.196458 	-0.353922 	0.787061 	-0.270731 	0.881193 	2.5725 	90.1993 	166.743 	-0.574512 	266.494 	53.6766 	284.841 	232.726 	
3.98284 	0.201666 	-0.363171 	0.769084 	-0.254908 	0.912873 	2.56159 	90.1993 	165.637 	-0.574512 	267.597 	55.8683 	284.841 	234.936 	
4.08561 	0.206616 	-0.371532 	0.750796 	-0.241198 	0.944248 	2.55274 	90.1994 	164.633 	-0.574316 	268.546 	57.8793 	284.841 	236.939 	
4.18889 	0.21129 	-0.378454 	0.734542 	-0.238386 	0.975197 	2.54617 	90.1992 	163.614 	-0.574414 	268.854 	59.8864 	284.841 	238.937 	
4.2923 	0.215686 	-0.384277 	0.720452 	-0.247162 	1.00566 	2.54223 	90.1993 	162.519 	-0.574414 	268.916 	62.0831 	284.841 	240.928 	
4.39816 	0.21981 	-0.389684 	0.706157 	-0.259099 	1.03564 	2.54141 	90.1993 	161.517 	-0.574414 	268.92 	64.0805 	284.841 	243.124 	
4.50069 	0.223657 	-0.394669 	0.691678 	-0.274692 	1.06505 	2.5442 	90.1992 	160.408 	-0.574414 	268.92 	66.0838 	284.841 	245.143 	
4.60394 	0.227223 	-0.399229 	0.677034 	-0.294519 	1.09379 	2.5512 	90.1992 	159.41 	-0.574316 	268.921 	68.2832 	284.841 	247.337 	
4.70688 	0.230504 	-0.40336 	0.662247 	-0.31926 	1.12171 	2.56307 	90.1993 	158.399 	-0.574316 	268.921 	70.2895 	284.841 	249.336 	
4.81066 	0.233495 	-0.407062 	0.647337 	-0.349703 	1.14867 	2.58062 	90.1993 	157.293 	-0.574316 	268.921 	72.2844 	284.841 	251.333 	
4.91457 	0.238595 	-0.413172 	0.617229 	-0.43135 	1.19885 	2.6364 	90.1991 	156.295 	-0.574316 	268.921 	74.4977 	284.841 	253.532 	
5.01792 	0.240697 	-0.415582 	0.602073 	-0.484545 	1.22153 	2.67663 	90.1992 	155.29 	-0.574219 	268.921 	76.4891 	284.841 	255.513 	
5.12091 	0.242497 	-0.417563 	0.586876 	-0.547269 	1.24215 	2.72637 	90.1992 	154.187 	-0.574219 	268.921 	78.4888 	284.841 	257.531 	
5.22422 	0.243993 	-0.419119 	0.571658 	-0.620221 	1.26029 	2.78633 	90.1991 	153.172 	-0.574219 	268.921 	80.693 	284.841 	259.754 	
5.32687 	0.245183 	-0.420253 	0.55644 	-0.703596 	1.27552 	2.85669 	90.199 	152.173 	-0.574121 	268.921 	82.6808 	284.841 	261.735 	
5.43034 	0.246066 	-0.42097 	0.541242 	-0.796772 	1.28734 	2.93685 	90.1986 	151.159 	-0.574121 	268.921 	84.6964 	284.841 	263.722 	
5.5382 	0.24664 	-0.421277 	0.526082 	-0.898049 	1.29532 	3.0251 	90.1985 	150.058 	-0.574121 	268.921 	86.8916 	284.841 	265.941 	
5.64096 	0.246905 	-0.421178 	0.510981 	-1.00457 	1.29913 	3.11859 	90.1984 	148.952 	-0.574023 	268.921 	88.8793 	284.841 	267.934 	
5.74403 	0.24686 	-0.420683 	0.495956 	-1.11261 	1.29859 	-3.06959 	90.1985 	147.947 	-0.573926 	268.921 	91.0967 	284.841 	270.118 	
5.84716 	0.246505 	-0.419799 	0.481027 	-1.21816 	1.29372 	-2.97708 	90.1984 	146.95 	-0.573926 	268.921 	93.0767 	284.841 	272.143 	
5.95019 	0.245842 	-0.418535 	0.466212 	-1.31765 	1.28474 	-2.89061 	90.1985 	145.958 	-0.573926 	268.921 	95.0663 	284.841 	274.142 	
6.05322 	0.24487 	-0.416901 	0.451527 	-1.40851 	1.27203 	-2.81277 	90.1985 	144.849 	-0.573926 	268.921 	97.2744 	284.841 	276.33 	
6.1561 	0.243591 	-0.414909 	0.43699 	-1.48933 	1.25604 	-2.74497 	90.1985 	143.847 	-0.573926 	268.921 	99.2744 	284.841 	278.337 	
6.25927 	0.242178 	-0.412818 	0.424046 	-1.55313 	1.23923 	-2.69286 	90.1984 	142.844 	-0.573926 	268.921 	101.27 	284.841 	280.333 	
6.36214 	0.240117 	-0.409893 	0.408423 	-1.62 	1.21606 	-2.64029 	90.1984 	141.74 	-0.573926 	268.921 	103.478 	284.841 	282.352 	
6.46526 	0.237927 	-0.406895 	0.394425 	-1.67098 	1.19293 	-2.60228 	90.1984 	140.729 	-0.573828 	268.921 	105.468 	284.841 	284.526 	
6.56821 	0.235439 	-0.403588 	0.380635 	-1.71362 	1.16816 	-2.57258 	90.1984 	139.733 	-0.573828 	268.92 	107.455 	284.841 	286.522 	
6.67181 	0.232654 	-0.399986 	0.367067 	-1.74894 	1.14205 	-2.55019 	90.1984 	138.62 	-0.573828 	268.92 	109.452 	284.841 	288.542 	
6.77447 	0.229577 	-0.396104 	0.353734 	-1.7779 	1.11483 	-2.53413 	90.1984 	137.623 	-0.573828 	268.92 	111.659 	284.841 	290.736 	
6.87726 	0.226212 	-0.391957 	0.340649 	-1.80137 	1.08668 	-2.52354 	90.1985 	136.63 	-0.57373 	268.92 	113.662 	284.841 	292.736 	
6.98058 	0.222561 	-0.38756 	0.327822 	-1.8201 	1.05776 	-2.51765 	90.1984 	135.625 	-0.573828 	268.92 	115.647 	284.841 	294.735 	
7.08344 	0.218631 	-0.38293 	0.315264 	-1.83474 	1.02819 	-2.51581 	90.1984 	134.533 	-0.573828 	268.919 	117.84 	284.841 	296.937 	
7.18662 	0.214425 	-0.378083 	0.302983 	-1.84586 	0.998077 	-2.51745 	90.1984 	133.533 	-0.573828 	268.919 	119.848 	284.841 	298.95 	
7.28938 	0.209949 	-0.373035 	0.290989 	-1.85394 	0.967495 	-2.52211 	90.1984 	132.53 	-0.573828 	268.919 	121.823 	284.841 	300.917 	
7.39266 	0.205208 	-0.367805 	0.279289 	-1.85936 	0.936516 	-2.52937 	90.1984 	131.431 	-0.573828 	268.918 	124.028 	284.841 	302.943 	
7.49865 	0.200208 	-0.362409 	0.267891 	-1.86246 	0.905196 	-2.5389 	90.1984 	130.433 	-0.573828 	268.918 	126.04 	284.84 	305.154 	
7.60194 	0.194955 	-0.356865 	0.256799 	-1.86355 	0.873581 	-2.5504 	90.1984 	129.326 	-0.573828 	268.917 	128.024 	284.84 	307.133 	
7.70431 	0.189455 	-0.351191 	0.246019 	-1.86285 	0.841711 	-2.56363 	90.1984 	128.325 	-0.573828 	268.916 	130.211 	284.84 	309.33 	
7.80711 	0.183715 	-0.345404 	0.235555 	-1.86057 	0.809618 	-2.57837 	90.1984 	127.323 	-0.573828 	268.915 	132.218 	284.84 	311.352 	
7.91125 	0.177743 	-0.339522 	0.22541 	-1.8569 	0.77733 	-2.59445 	90.1984 	126.221 	-0.573828 	268.914 	134.202 	284.84 	313.349 	
8.0145 	0.165127 	-0.327545 	0.206084 	-1.84594 	0.712261 	-2.63 	90.1984 	125.22 	-0.573828 	268.913 	136.415 	284.84 	315.539 	
8.11697 	0.1585 	-0.321485 	0.196904 	-1.8389 	0.679517 	-2.64923 	90.1984 	124.212 	-0.573926 	268.912 	138.396 	284.84 	317.548 	
8.22044 	0.15167 	-0.315402 	0.188046 	-1.83095 	0.646654 	-2.66929 	90.1984 	123.214 	-0.573828 	268.911 	140.382 	284.84 	319.554 	
8.32307 	0.144647 	-0.309311 	0.179508 	-1.82218 	0.613686 	-2.69007 	90.1983 	122.123 	-0.573926 	268.91 	142.588 	284.84 	321.736 	
8.42659 	0.137438 	-0.303232 	0.171287 	-1.81266 	0.580624 	-2.71152 	90.1982 	121.126 	-0.573926 	268.909 	144.589 	284.84 	323.728 	
8.52961 	0.130052 	-0.297179 	0.163381 	-1.80245 	0.547477 	-2.73355 	90.1981 	120.132 	-0.573926 	268.908 	146.569 	284.84 	325.747 	
8.63753 	0.122498 	-0.291171 	0.155785 	-1.79162 	0.514256 	-2.75611 	90.1981 	119.03 	-0.574023 	268.907 	148.777 	284.84 	327.946 	
8.74046 	0.114785 	-0.285222 	0.148493 	-1.7802 	0.480967 	-2.77913 	90.1979 	118.035 	-0.574023 	268.906 	150.771 	284.84 	329.934 	
8.8438 	0.106924 	-0.279349 	0.1415 	-1.76825 	0.447618 	-2.80258 	90.1977 	116.928 	-0.574121 	268.905 	152.972 	284.84 	332.135 	
8.94637 	0.0989227 	-0.273566 	0.1348 	-1.75579 	0.414215 	-2.8264 	90.1977 	115.928 	-0.574121 	268.904 	154.969 	284.84 	334.153 	
9.04953 	0.0907915 	-0.267889 	0.128384 	-1.74287 	0.380764 	-2.85055 	90.1977 	114.928 	-0.574121 	268.904 	156.959 	284.84 	336.152 	
9.15255 	0.0825404 	-0.262332 	0.122244 	-1.72951 	0.34727 	-2.87501 	90.1976 	113.829 	-0.574219 	268.903 	159.155 	284.84 	338.14 	
9.25591 	0.0741792 	-0.256908 	0.116372 	-1.71573 	0.313738 	-2.89972 	90.1976 	112.83 	-0.574316 	268.902 	161.16 	284.84 	340.332 	
9.35858 	0.0657182 	-0.251629 	0.110757 	-1.70157 	0.280172 	-2.92467 	90.1977 	111.833 	-0.574316 	268.901 	163.16 	284.84 	342.358 	
9.46169 	0.0580265 	-0.247014 	0.105916 	-1.68849 	0.249937 	-2.9473 	90.1976 	110.743 	-0.574414 	268.9 	165.148 	284.84 	344.349 	
9.56482 	0.0485381 	-0.241559 	0.100259 	-1.67212 	0.212954 	-2.97515 	90.1976 	109.746 	-0.574414 	268.898 	167.339 	284.84 	346.531 	
9.66788 	0.0398399 	-0.236789 	0.0953537 	-1.65688 	0.179309 	-3.00064 	90.1976 	108.744 	-0.574609 	268.898 	169.342 	284.84 	348.552 	
9.7707 	0.0310836 	-0.232211 	0.0906607 	-1.64131 	0.145645 	-3.02624 	90.1976 	107.748 	-0.574609 	268.896 	171.338 	284.84 	350.536 	
9.8737 	0.02228 	-0.227832 	0.086168 	-1.62541 	0.111964 	-3.05195 	90.1975 	106.644 	-0.574902 	268.894 	173.54 	284.84 	352.724 	
9.97684 	0.0134398 	-0.223662 	0.0818627 	-1.6092 	0.0782706 	-3.07775 	90.1975 	105.645 	-0.575195 	268.893 	175.544 	284.84 	354.728 	
10.0802 	0.00457363 	-0.219708 	0.0777312 	-1.59268 	0.0445663 	-3.1036 	90.1976 	104.649 	-0.575293 	268.891 	177.541 	284.84 	356.749 	
10.1832 	-0.00430752 	-0.215978 	0.0737599 	-1.57586 	0.0108546 	-3.1295 	90.1975 	103.551 	-0.575781 	268.888 	179.744 	284.84 	358.751 	
10.286 	-0.013193 	-0.212476 	0.0699345 	-1.55873 	-0.0228621 	3.12777 	90.1975 	102.551 	-0.576074 	268.886 	181.725 	284.84 	360.921 	
10.3888 	-0.0220718 	-0.209209 	0.0662408 	-1.5413 	-0.0565808 	3.10186 	90.1976 	101.554 	-0.576465 	268.877 	183.735 	284.84 	362.94 	
10.4925 	-0.0309334 	-0.206181 	0.062664 	-1.52357 	-0.0902991 	3.07597 	90.1975 	100.459 	-0.576953 	268.86 	185.731 	284.84 	364.954 	
10.5981 	-0.0397667 	-0.203394 	0.0591894 	-1.50553 	-0.124014 	3.05012 	90.1976 	99.4564 	-0.577344 	268.856 	187.933 	284.84 	367.143 	
10.7008 	-0.0485611 	-0.200851 	0.0558021 	-1.48718 	-0.157723 	3.02433 	90.1976 	98.4671 	-0.577832 	268.854 	189.935 	284.84 	369.124 	
10.8038 	-0.0573058 	-0.198554 	0.052487 	-1.46851 	-0.191423 	2.99863 	90.1976 	97.3619 	-0.578418 	268.852 	192.13 	284.84 	371.341 	
10.9067 	-0.0659902 	-0.196503 	0.0492291 	-1.44952 	-0.22511 	2.97304 	90.1976 	96.3632 	-0.579004 	268.85 	194.142 	284.84 	373.346 	
11.0111 	-0.0746037 	-0.194698 	0.0460134 	-1.43019 	-0.258783 	2.94758 	90.1976 	95.3661 	-0.579785 	268.849 	196.14 	284.84 	375.323 	
11.115 	-0.0915761 	-0.19182 	0.0396486 	-1.39047 	-0.32607 	2.89715 	90.1976 	94.2686 	-0.580664 	268.848 	198.337 	284.84 	377.545 	
11.2179 	-0.0999143 	-0.190742 	0.0364699 	-1.37005 	-0.359678 	2.87224 	90.1976 	93.2727 	-0.581641 	268.846 	200.327 	284.84 	379.549 	
11.3205 	-0.10814 	-0.189899 	0.0332743 	-1.34922 	-0.393255 	2.84757 	90.1976 	92.2801 	-0.58252 	268.845 	202.332 	284.84 	381.544 	
11.424 	-0.115439 	-0.189338 	0.030372 	-1.33012 	-0.423446 	2.8256 	90.1976 	91.1788 	-0.583496 	268.842 	204.551 	284.84 	383.741 	
11.5269 	-0.124215 	-0.188899 	0.0267756 	-1.30627 	-0.460305 	2.79909 	90.1976 	90.1825 	-0.58418 	268.834 	206.541 	284.84 	385.746 	
11.6303 	-0.132045 	-0.18873 	0.0234449 	-1.28408 	-0.493766 	2.77536 	90.1976 	89.1847 	-0.584668 	268.814 	208.54 	284.84 	387.757 	
11.7379 	-0.139723 	-0.188772 	0.0200422 	-1.26137 	-0.527179 	2.75202 	90.1976 	88.0935 	-0.585156 	268.812 	210.743 	284.84 	389.933 	
11.8411 	-0.14724 	-0.189017 	0.0165547 	-1.23809 	-0.560535 	2.72913 	90.1976 	87.0893 	-0.585547 	268.811 	212.747 	284.84 	391.928 	
11.9439 	-0.154587 	-0.189456 	0.01297 	-1.21421 	-0.593828 	2.70673 	90.1977 	85.9878 	-0.586133 	268.81 	214.954 	284.84 	394.154 	
12.0472 	-0.161047 	-0.190009 	0.00965103 	-1.19215 	-0.623732 	2.68705 	90.1977 	84.9903 	-0.586719 	268.809 	216.956 	284.84 	396.153 	
12.15 	-0.168047 	-0.19079 	0.0058497 	-1.16696 	-0.656882 	2.66577 	90.1976 	83.9925 	-0.587305 	268.807 	218.966 	284.84 	398.142 	
12.2532 	-0.17552 	-0.191837 	0.0015179 	-1.13832 	-0.693244 	2.64318 	90.1976 	82.8931 	-0.587891 	268.806 	221.156 	284.84 	400.148 	
12.3564 	-0.1821 	-0.192948 	-0.00256775 	-1.11137 	-0.726193 	2.62347 	90.1976 	81.8946 	-0.58877 	268.804 	223.166 	284.84 	402.361 	
12.4593 	-0.18784 	-0.194067 	-0.0063732 	-1.08627 	-0.755748 	2.60649 	90.1976 	80.8933 	-0.590234 	268.803 	225.175 	284.84 	404.355 	
12.5624 	-0.19401 	-0.195431 	-0.010752 	-1.05736 	-0.788463 	2.58859 	90.1976 	79.7963 	-0.592773 	268.801 	227.162 	284.84 	406.339 	
12.6654 	-0.199952 	-0.196908 	-0.0152971 	-1.02724 	-0.821029 	2.57182 	90.1975 	78.8033 	-0.594141 	268.799 	229.366 	284.84 	408.547 	
12.7681 	-0.206217 	-0.198648 	-0.0204975 	-0.992533 	-0.856654 	2.55487 	90.1975 	77.8002 	-0.594824 	268.794 	231.363 	284.84 	410.563 	
12.8714 	-0.211126 	-0.200147 	-0.0249146 	-0.962744 	-0.885625 	2.54234 	90.1975 	76.8054 	-0.595703 	268.768 	233.362 	284.84 	412.548 	
12.9744 	-0.216852 	-0.202057 	-0.0305183 	-0.924396 	-0.920784 	2.52889 	90.1975 	75.712 	-0.598145 	268.761 	235.589 	284.84 	414.745 	
13.0774 	-0.22179 	-0.20385 	-0.0358132 	-0.88742 	-0.95247 	2.51873 	90.1975 	74.7171 	-0.604297 	268.76 	237.577 	284.84 	416.76 	
13.1803 	-0.226467 	-0.205681 	-0.0413034 	-0.848119 	-0.983846 	2.51083 	90.1973 	73.7153 	-0.623535 	268.76 	239.589 	284.84 	418.742 	
13.2836 	-0.230448 	-0.207348 	-0.0464141 	-0.810466 	-1.01178 	2.50597 	90.197 	72.6251 	-0.625879 	268.759 	241.787 	284.84 	420.748 	
13.3865 	-0.235015 	-0.209393 	-0.0528813 	-0.761039 	-1.04545 	2.50339 	90.1968 	71.6189 	-0.626367 	268.759 	243.79 	284.84 	422.955 	
13.4897 	-0.238876 	-0.211242 	-0.0589728 	-0.712314 	-1.07552 	2.50479 	90.1967 	70.6279 	-0.626367 	268.759 	245.793 	284.84 	424.946 	
13.5925 	-0.242454 	-0.213065 	-0.065267 	-0.659343 	-1.10499 	2.5104 	90.1967 	69.528 	-0.626367 	268.758 	247.809 	284.84 	426.944 	
13.6994 	-0.245747 	-0.214844 	-0.0717634 	-0.601387 	-1.13373 	2.52096 	90.1961 	68.5225 	-0.626367 	268.758 	250.006 	284.84 	429.146 	
13.8026 	-0.248749 	-0.216564 	-0.0784608 	-0.537567 	-1.16159 	2.53736 	90.1954 	67.4367 	-0.626367 	268.757 	251.995 	284.84 	431.156 	
13.9073 	-0.251199 	-0.218047 	-0.0846586 	-0.474269 	-1.18573 	2.55795 	90.1947 	66.4426 	-0.626367 	268.757 	254.22 	284.84 	433.354 	
14.01 	-0.253867 	-0.219758 	-0.0924491 	-0.388077 	-1.2138 	2.59193 	90.1938 	65.4576 	-0.626367 	268.756 	256.22 	284.84 	435.339 	
14.1141 	-0.255779 	-0.221061 	-0.098996 	-0.309219 	-1.23532 	2.62804 	90.1926 	64.3548 	-0.626367 	268.755 	258.415 	284.84 	437.558 	
14.217 	-0.259149 	-0.223717 	-0.114004 	-0.102609 	-1.27698 	2.73996 	90.1894 	63.375 	-0.626367 	268.755 	260.42 	284.84 	439.552 	
14.3205 	-0.260487 	-0.228741 	-0.120375 	0.0220461 	-1.29515 	2.82213 	90.1836 	62.6799 	-0.626465 	268.755 	262.424 	284.84 	441.561 	
14.4234 	-0.26131 	-0.235884 	-0.123891 	0.127163 	-1.30687 	2.90016 	90.1558 	62.4775 	-0.626465 	268.754 	264.62 	284.84 	443.534 	
14.5264 	-0.261931 	-0.243846 	-0.127805 	0.253789 	-1.31605 	2.99669 	90.1535 	62.4466 	-0.626465 	268.754 	266.609 	284.84 	445.763 	
14.6296 	-0.262242 	-0.251824 	-0.131722 	0.387593 	-1.32077 	3.10039 	90.1533 	62.4446 	-0.626563 	268.754 	268.634 	284.84 	447.761 	
14.7375 	-0.262243 	-0.259808 	-0.135639 	0.523975 	-1.32078 	-3.07652 	90.1533 	62.4431 	-0.626563 	268.754 	270.831 	284.84 	449.952 	
14.8405 	-0.261933 	-0.26779 	-0.139549 	0.657798 	-1.31607 	-2.97281 	90.1533 	62.4414 	-0.626465 	268.754 	272.816 	284.84 	451.935 	
14.9435 	-0.261313 	-0.275758 	-0.14345 	0.784457 	-1.30691 	-2.87625 	90.1533 	62.4396 	-0.626465 	268.754 	275.027 	284.84 	453.951 	
15.0466 	-0.260384 	-0.283704 	-0.147335 	0.90071 	-1.29372 	-2.79009 	90.1534 	62.437 	-0.626465 	268.754 	277.023 	284.84 	456.165 	
15.1496 	-0.259147 	-0.291618 	-0.1512 	1.00493 	-1.27706 	-2.71595 	90.1534 	62.4281 	-0.626563 	268.754 	279.029 	284.84 	458.141 	
15.2526 	-0.257603 	-0.299489 	-0.15504 	1.09685 	-1.25748 	-2.6541 	90.1534 	62.4008 	-0.626563 	268.754 	281.033 	284.84 	460.15 	
15.3558 	-0.255755 	-0.307309 	-0.158851 	1.17713 	-1.23549 	-2.60388 	90.1534 	62.399 	-0.626465 	268.754 	283.215 	284.84 	462.349 	
15.4586 	-0.253604 	-0.315069 	-0.162627 	1.24689 	-1.21152 	-2.56415 	90.1534 	62.3979 	-0.626465 	268.754 	285.234 	284.84 	464.357 	
15.5616 	-0.251153 	-0.322757 	-0.166365 	1.30743 	-1.18596 	-2.53363 	90.1534 	62.3971 	-0.626465 	268.754 	287.233 	284.84 	466.348 	
15.6647 	-0.248406 	-0.330366 	-0.17006 	1.36002 	-1.1591 	-2.51102 	90.1534 	62.3965 	-0.626465 	268.754 	289.425 	284.84 	468.559 	
15.7678 	-0.245364 	-0.337885 	-0.173707 	1.40583 	-1.13118 	-2.49518 	90.1534 	62.3957 	-0.626465 	268.754 	291.426 	284.84 	470.553 	
15.8708 	-0.242034 	-0.345306 	-0.177302 	1.44585 	-1.10238 	-2.48508 	90.1535 	62.3954 	-0.626465 	268.754 	293.439 	284.84 	472.543 	
15.9739 	-0.238417 	-0.35262 	-0.180841 	1.48097 	-1.07286 	-2.47986 	90.1535 	62.3947 	-0.626465 	268.754 	295.612 	284.84 	474.536 	
16.0768 	-0.234519 	-0.359818 	-0.184318 	1.51189 	-1.04275 	-2.47879 	90.1535 	62.3939 	-0.626465 	268.754 	297.607 	284.84 	476.76 	
16.1798 	-0.230344 	-0.36689 	-0.187731 	1.53924 	-1.01213 	-2.48126 	90.1535 	62.3917 	-0.626465 	268.755 	299.623 	284.84 	478.762 	
16.2827 	-0.225898 	-0.373829 	-0.191074 	1.56352 	-0.981095 	-2.48675 	90.1535 	62.3674 	-0.626367 	268.755 	301.611 	284.84 	480.744 	
16.386 	-0.221186 	-0.380626 	-0.194344 	1.58515 	-0.949699 	-2.49484 	90.1536 	62.3569 	-0.626367 	268.755 	303.801 	284.84 	482.956 	
16.4888 	-0.216213 	-0.387272 	-0.197537 	1.60448 	-0.917999 	-2.50518 	90.1535 	62.3559 	-0.626367 	268.755 	305.81 	284.84 	484.972 	
16.5922 	-0.210986 	-0.39376 	-0.200648 	1.62181 	-0.886035 	-2.51746 	90.1536 	62.3551 	-0.626367 	268.755 	307.817 	284.84 	486.961 	
16.6991 	-0.204951 	-0.400704 	-0.203972 	1.63886 	-0.850615 	-2.53291 	90.1536 	62.3547 	-0.626367 	268.755 	310.004 	284.84 	489.158 	
16.8011 	-0.199211 	-0.406833 	-0.206901 	1.65276 	-0.818211 	-2.54849 	90.1536 	62.3543 	-0.626367 	268.755 	312.004 	284.84 	491.145 	
16.9037 	-0.193845 	-0.412194 	-0.209458 	1.66411 	-0.788902 	-2.56361 	90.1536 	62.354 	-0.626367 	268.755 	314.208 	284.84 	493.161 	
17.0097 	-0.187668 	-0.417971 	-0.212207 	1.67557 	-0.756196 	-2.58149 	90.1536 	62.3539 	-0.626367 	268.755 	316.219 	284.84 	495.359 	
17.1126 	-0.181271 	-0.423552 	-0.214858 	1.68595 	-0.723358 	-2.60036 	90.1536 	62.3536 	-0.62627 	268.755 	318.2 	284.84 	497.356 	
17.2164 	-0.167851 	-0.4341 	-0.219849 	1.7039 	-0.657351 	-2.64068 	90.1536 	62.3533 	-0.62627 	268.755 	320.399 	284.84 	499.562 	
17.3184 	-0.160843 	-0.439053 	-0.222184 	1.71164 	-0.624206 	-2.66193 	90.1536 	62.3531 	-0.62627 	268.755 	322.412 	284.84 	501.552 	
17.4207 	-0.153649 	-0.443785 	-0.224407 	1.71866 	-0.590981 	-2.6838 	90.1536 	62.3529 	-0.62627 	268.755 	324.391 	284.84 	503.55 	
17.5242 	-0.146276 	-0.448289 	-0.226517 	1.72501 	-0.557685 	-2.70623 	90.1536 	62.3527 	-0.626367 	268.756 	326.581 	284.84 	505.56 	
17.6269 	-0.138735 	-0.452561 	-0.22851 	1.73077 	-0.524327 	-2.72915 	90.1536 	62.3525 	-0.626172 	268.756 	328.57 	284.84 	507.757 	
17.7301 	-0.131033 	-0.456595 	-0.230384 	1.73596 	-0.490912 	-2.7525 	90.1536 	62.3523 	-0.62627 	268.756 	330.601 	284.84 	509.761 	
17.838 	-0.123182 	-0.460386 	-0.232136 	1.74063 	-0.457449 	-2.77624 	90.1536 	62.3521 	-0.62627 	268.756 	332.792 	284.84 	511.953 	
17.9411 	-0.115189 	-0.463929 	-0.233766 	1.74482 	-0.423942 	-2.80034 	90.1536 	62.3521 	-0.62627 	268.756 	334.768 	284.84 	513.964 	
18.044 	-0.107065 	-0.46722 	-0.23527 	1.74856 	-0.390396 	-2.82473 	90.1537 	62.352 	-0.626074 	268.756 	336.983 	284.84 	515.957 	
18.1471 	-0.0988197 	-0.470255 	-0.236647 	1.75187 	-0.356817 	-2.84941 	90.1537 	62.352 	-0.626074 	268.756 	338.993 	284.84 	518.137 	
18.2502 	-0.0904632 	-0.473031 	-0.237895 	1.75478 	-0.323208 	-2.87431 	90.1537 	62.3519 	-0.626074 	268.756 	340.973 	284.84 	520.161 	
18.353 	-0.0820056 	-0.475543 	-0.239012 	1.75731 	-0.289573 	-2.89943 	90.1537 	62.3519 	-0.626074 	268.756 	342.955 	284.84 	522.159 	
18.4561 	-0.0734573 	-0.47779 	-0.239998 	1.75947 	-0.255917 	-2.92472 	90.1537 	62.3518 	-0.626074 	268.756 	345.179 	284.84 	524.359 	
18.5592 	-0.0648286 	-0.479768 	-0.240851 	1.76128 	-0.222242 	-2.95017 	90.1537 	62.3518 	-0.626074 	268.756 	347.17 	284.84 	526.348 	
18.6622 	-0.0561302 	-0.481475 	-0.24157 	1.76276 	-0.188553 	-2.97575 	90.1537 	62.3517 	-0.626074 	268.756 	349.168 	284.84 	528.36 	
18.7653 	-0.0473725 	-0.482908 	-0.242154 	1.76391 	-0.154851 	-3.00143 	90.1537 	62.3517 	-0.625977 	268.756 	351.344 	284.84 	530.563 	
18.8682 	-0.0385662 	-0.484066 	-0.242603 	1.76475 	-0.12114 	-3.0272 	90.1537 	62.3516 	-0.625977 	268.756 	353.357 	284.84 	532.56 	
18.9712 	-0.0297223 	-0.484948 	-0.242915 	1.76527 	-0.087424 	-3.05302 	90.1538 	62.3516 	-0.625879 	268.756 	355.352 	284.84 	534.537 	
19.0743 	-0.0208512 	-0.485553 	-0.243091 	1.76548 	-0.0537038 	-3.07889 	90.1538 	62.3516 	-0.625879 	268.756 	357.533 	284.84 	536.551 	
19.1774 	-0.0119638 	-0.485879 	-0.243131 	1.76538 	-0.0199832 	-3.10477 	90.1538 	62.3515 	-0.625781 	268.756 	359.522 	284.84 	538.745 	
19.2039 	-0.0119638 	-0.485879 	-0.243131 	1.76538 	-0.0199832 	-3.10477 	90.1537 	62.3515 	-0.625781 	268.756 	359.991 	284.84 	539.057 	
19.307 	-0.00423901 	-0.485987 	-0.243022 	1.76542 	0.00859448 	-3.12484 	90.1534 	62.5871 	-0.626172 	269.091 	360.569 	284.839 	539.721 	
19.4109 	-0.00380886 	-0.488832 	-0.237399 	1.76539 	0.0102393 	-3.12545 	90.1532 	63.4026 	-0.626172 	269.967 	360.623 	284.839 	539.782 	
19.5169 	-0.00371995 	-0.494684 	-0.225128 	1.76539 	0.0106157 	-3.12535 	90.1533 	64.4601 	-0.626172 	271.04 	360.631 	284.839 	539.798 	
19.62 	-0.00367418 	-0.4976 	-0.218593 	1.76539 	0.010815 	-3.12531 	90.1534 	65.4623 	-0.626074 	272.043 	360.634 	284.839 	539.801 	
19.7218 	-0.00362915 	-0.5004 	-0.212008 	1.76539 	0.0110151 	-3.12526 	90.1533 	66.4602 	-0.626172 	273.045 	360.635 	284.839 	539.802 	
19.8241 	-0.00358487 	-0.503086 	-0.205376 	1.76539 	0.0112159 	-3.12522 	90.1533 	67.551 	-0.626172 	274.138 	360.636 	284.839 	539.802 	
19.9268 	-0.00354134 	-0.505656 	-0.198697 	1.76539 	0.0114173 	-3.12519 	90.1534 	68.548 	-0.626172 	275.133 	360.636 	284.839 	539.803 	
20.0288 	-0.00349858 	-0.508109 	-0.191975 	1.76539 	0.0116194 	-3.12516 	90.1534 	69.5378 	-0.626172 	276.138 	360.637 	284.839 	539.803 	
20.1368 	-0.00345661 	-0.510443 	-0.185211 	1.76539 	0.0118219 	-3.12513 	90.1534 	70.63 	-0.626172 	277.235 	360.637 	284.839 	539.803 	
20.2388 	-0.00341544 	-0.51266 	-0.178408 	1.76539 	0.0120249 	-3.12511 	90.1534 	71.6247 	-0.626172 	278.241 	360.637 	284.839 	539.803 	
20.3409 	-0.00337507 	-0.514757 	-0.171566 	1.76539 	0.0122283 	-3.12508 	90.1533 	72.6138 	-0.626172 	279.242 	360.637 	284.839 	539.804 	
20.4429 	-0.00333553 	-0.516735 	-0.164689 	1.76539 	0.012432 	-3.12507 	90.1534 	73.7158 	-0.626172 	280.236 	360.637 	284.839 	539.804 	
20.5448 	-0.00329682 	-0.518593 	-0.157779 	1.76539 	0.0126361 	-3.12505 	90.1534 	74.7105 	-0.626172 	281.335 	360.637 	284.839 	539.804 	
20.6469 	-0.00325896 	-0.520329 	-0.150837 	1.76539 	0.0128403 	-3.12504 	90.1533 	75.7051 	-0.626172 	282.34 	360.638 	284.839 	539.804 	
20.7489 	-0.00322195 	-0.521944 	-0.143866 	1.76539 	0.0130446 	-3.12504 	90.1533 	76.7109 	-0.626172 	283.335 	360.638 	284.839 	539.804 	
20.8508 	-0.00318582 	-0.523437 	-0.136868 	1.76539 	0.0132491 	-3.12503 	90.1533 	77.7116 	-0.626172 	284.344 	360.638 	284.839 	539.804 	
20.9529 	-0.00315056 	-0.524808 	-0.129845 	1.76539 	0.0134536 	-3.12503 	90.1533 	78.7096 	-0.626172 	285.336 	360.638 	284.839 	539.804 	
21.0546 	-0.00311619 	-0.526056 	-0.122799 	1.76539 	0.013658 	-3.12504 	90.1533 	79.7999 	-0.626172 	286.435 	360.638 	284.839 	539.804 	
21.1572 	-0.00308273 	-0.527181 	-0.115732 	1.76539 	0.0138624 	-3.12504 	90.1533 	80.8088 	-0.626172 	287.435 	360.638 	284.839 	539.804 	
21.2606 	-0.00305018 	-0.528182 	-0.108647 	1.76539 	0.0140665 	-3.12506 	90.1533 	81.7911 	-0.626172 	288.441 	360.638 	284.839 	539.804 	
21.3637 	-0.00301854 	-0.52906 	-0.101546 	1.76539 	0.0142705 	-3.12507 	90.1533 	82.7914 	-0.626172 	289.442 	360.638 	284.839 	539.804 	
21.4666 	-0.00298784 	-0.529813 	-0.0944296 	1.76539 	0.0144741 	-3.12509 	90.1533 	83.8797 	-0.626172 	290.536 	360.638 	284.839 	539.804 	
21.5696 	-0.00295808 	-0.530442 	-0.0873018 	1.76539 	0.0146775 	-3.12511 	90.1533 	84.8889 	-0.626172 	291.537 	360.638 	284.839 	539.805 	
21.6726 	-0.00292926 	-0.530947 	-0.0801639 	1.76539 	0.0148804 	-3.12514 	90.1533 	85.8812 	-0.626172 	292.534 	360.638 	284.839 	539.805 	
21.7757 	-0.00290141 	-0.531327 	-0.0730184 	1.76539 	0.0150828 	-3.12516 	90.1533 	86.9865 	-0.626172 	293.641 	360.638 	284.839 	539.805 	
21.8788 	-0.00287452 	-0.531582 	-0.0658673 	1.76539 	0.0152847 	-3.1252 	90.1533 	87.9822 	-0.626172 	294.644 	360.638 	284.839 	539.805 	
21.9818 	-0.00284861 	-0.531712 	-0.0587128 	1.76539 	0.015486 	-3.12523 	90.1533 	88.986 	-0.626172 	295.642 	360.638 	284.839 	539.805 	
22.0849 	-0.00282368 	-0.531718 	-0.0515572 	1.76539 	0.0156867 	-3.12527 	90.1533 	90.0919 	-0.626172 	296.746 	360.638 	284.839 	539.805 	
22.1877 	-0.00279973 	-0.531598 	-0.0444026 	1.76539 	0.0158866 	-3.12532 	90.1533 	91.0951 	-0.626172 	297.744 	360.638 	284.839 	539.805 	
22.291 	-0.00277679 	-0.531354 	-0.0372511 	1.7654 	0.0160857 	-3.12536 	90.1533 	92.0962 	-0.626172 	298.742 	360.638 	284.839 	539.805 	
22.3978 	-0.00275485 	-0.530985 	-0.030105 	1.7654 	0.0162841 	-3.12541 	90.1533 	93.1921 	-0.626172 	299.837 	360.638 	284.839 	539.805 	
22.5009 	-0.00273392 	-0.530491 	-0.0229664 	1.7654 	0.0164815 	-3.12546 	90.1533 	94.1885 	-0.626172 	300.839 	360.638 	284.839 	539.805 	
22.604 	-0.00271401 	-0.529873 	-0.0158375 	1.7654 	0.0166779 	-3.12552 	90.1533 	95.1885 	-0.626172 	301.837 	360.638 	284.839 	539.805 	
22.7065 	-0.00269512 	-0.52913 	-0.00872057 	1.7654 	0.0168733 	-3.12558 	90.1533 	96.2872 	-0.626172 	302.939 	360.638 	284.839 	539.805 	
22.8104 	-0.00267727 	-0.528264 	-0.00161764 	1.7654 	0.0170677 	-3.12565 	90.1533 	97.2791 	-0.626172 	303.938 	360.638 	284.839 	539.805 	
22.9135 	-0.00266044 	-0.527273 	0.0054692 	1.7654 	0.0172609 	-3.12571 	90.1533 	98.2875 	-0.626172 	304.936 	360.638 	284.839 	539.805 	
23.0164 	-0.00264466 	-0.526159 	0.0125375 	1.7654 	0.0174529 	-3.12578 	90.1533 	99.3853 	-0.626172 	306.044 	360.638 	284.839 	539.805 	
23.1185 	-0.00261623 	-0.523562 	0.0266106 	1.76541 	0.0178331 	-3.12593 	90.1533 	100.387 	-0.626172 	307.046 	360.638 	284.839 	539.805 	
23.2214 	-0.00260359 	-0.522079 	0.033611 	1.76541 	0.0180212 	-3.12601 	90.1533 	101.402 	-0.626172 	308.039 	360.638 	284.839 	539.805 	
23.325 	-0.00259201 	-0.520475 	0.0405845 	1.76541 	0.0182078 	-3.1261 	90.1533 	102.494 	-0.626172 	309.147 	360.638 	284.839 	539.805 	
23.4279 	-0.0025815 	-0.518749 	0.0475288 	1.76541 	0.018393 	-3.12618 	90.1533 	103.507 	-0.626172 	310.144 	360.638 	284.839 	539.805 	
23.5308 	-0.00257204 	-0.516902 	0.054442 	1.76541 	0.0185766 	-3.12627 	90.1533 	104.51 	-0.626172 	311.14 	360.638 	284.839 	539.805 	
23.6379 	-0.00256365 	-0.514935 	0.0613221 	1.76542 	0.0187586 	-3.12637 	90.1533 	105.616 	-0.626172 	312.243 	360.638 	284.839 	539.805 	
23.7408 	-0.00255633 	-0.512848 	0.0681666 	1.76542 	0.018939 	-3.12646 	90.1533 	106.607 	-0.626172 	313.242 	360.638 	284.839 	539.805 	
23.8441 	-0.00255009 	-0.510642 	0.0749736 	1.76542 	0.0191176 	-3.12656 	90.1533 	107.612 	-0.626172 	314.24 	360.638 	284.839 	539.805 	
23.9471 	-0.00254491 	-0.508318 	0.0817412 	1.76542 	0.0192945 	-3.12667 	90.1533 	108.719 	-0.626172 	315.335 	360.638 	284.839 	539.805 	
24.0501 	-0.00254081 	-0.505875 	0.0884671 	1.76542 	0.0194696 	-3.12677 	90.1533 	109.723 	-0.626172 	316.337 	360.638 	284.839 	539.805 	
24.153 	-0.00253878 	-0.504082 	0.0954329 	1.76311 	0.0196192 	-3.12687 	90.1533 	110.715 	-0.626172 	317.141 	360.638 	284.839 	539.805 	
24.2561 	-0.00254349 	-0.507148 	0.104258 	1.74565 	0.0196143 	-3.12689 	90.1533 	111.82 	-0.626172 	317.298 	360.638 	284.839 	539.805 	
24.3592 	-0.00254797 	-0.510059 	0.113135 	1.7282 	0.0196098 	-3.12692 	90.1533 	112.821 	-0.626172 	317.324 	360.638 	284.839 	539.805 	
24.4621 	-0.00255222 	-0.512815 	0.122061 	1.71075 	0.0196058 	-3.12695 	90.1533 	113.827 	-0.626172 	317.325 	360.638 	284.839 	539.805 	
24.5651 	-0.00255622 	-0.515415 	0.131034 	1.6933 	0.0196023 	-3.12697 	90.1533 	114.924 	-0.626172 	317.327 	360.638 	284.839 	539.805 	
24.6684 	-0.00255997 	-0.517858 	0.140051 	1.67584 	0.0195993 	-3.127 	90.1533 	115.923 	-0.626172 	317.328 	360.638 	284.839 	539.805 	
24.6888 	-0.00255997 	-0.517858 	0.140051 	1.67584 	0.0195993 	-3.127 	90.1533 	116.114 	-0.626172 	317.328 	360.638 	284.839 	539.805 	
24.7924 	-0.00245051 	-0.519721 	0.146994 	1.66222 	0.019836 	-3.12692 	90.1523 	116.557 	-0.625977 	317.135 	360.638 	284.839 	539.805 	
24.8993 	-0.0024562 	-0.525104 	0.149693 	1.64511 	0.0196672 	-3.12684 	90.1523 	116.592 	-0.625977 	316.22 	360.638 	284.839 	539.805 	
25.0018 	-0.00246243 	-0.530005 	0.152253 	1.62941 	0.0195109 	-3.12676 	90.1523 	116.599 	-0.625977 	315.25 	360.638 	284.839 	539.805 	
25.1074 	-0.00247046 	-0.535404 	0.155187 	1.61195 	0.0193359 	-3.12668 	90.1523 	116.599 	-0.625977 	314.155 	360.638 	284.839 	539.805 	
25.2119 	-0.00247967 	-0.54075 	0.158215 	1.5945 	0.0191595 	-3.12661 	90.1522 	116.599 	-0.625977 	313.157 	360.638 	284.839 	539.805 	
25.3149 	-0.00249004 	-0.546043 	0.161335 	1.57704 	0.0189818 	-3.12653 	90.1522 	116.599 	-0.625977 	312.068 	360.638 	284.839 	539.805 	
25.4178 	-0.0025143 	-0.556461 	0.167851 	1.54213 	0.0186226 	-3.12639 	90.1522 	116.599 	-0.625977 	311.07 	360.638 	284.839 	539.805 	
25.5208 	-0.00252816 	-0.561583 	0.171245 	1.52468 	0.0184413 	-3.12633 	90.1522 	116.599 	-0.625977 	310.076 	360.638 	284.839 	539.805 	
25.6228 	-0.00254318 	-0.566645 	0.174727 	1.50722 	0.0182589 	-3.12627 	90.1522 	116.599 	-0.625977 	309.079 	360.638 	284.839 	539.805 	
25.726 	-0.00255935 	-0.571646 	0.178297 	1.48977 	0.0180754 	-3.12621 	90.1522 	116.599 	-0.625977 	307.98 	360.638 	284.839 	539.805 	
25.829 	-0.00257667 	-0.576583 	0.181954 	1.47231 	0.017891 	-3.12616 	90.1522 	116.599 	-0.625977 	306.981 	360.638 	284.839 	539.805 	
25.9371 	-0.00259513 	-0.581456 	0.185696 	1.45486 	0.0177056 	-3.1261 	90.1522 	116.599 	-0.625977 	305.888 	360.638 	284.839 	539.805 	
26.04 	-0.00261472 	-0.586263 	0.189523 	1.43741 	0.0175193 	-3.12606 	90.1522 	116.599 	-0.625977 	304.89 	360.638 	284.839 	539.805 	
26.1432 	-0.00263544 	-0.591002 	0.193433 	1.41995 	0.0173323 	-3.12601 	90.1522 	116.599 	-0.625977 	303.891 	360.638 	284.839 	539.805 	
26.2463 	-0.00265729 	-0.595673 	0.197425 	1.4025 	0.0171444 	-3.12597 	90.1522 	116.599 	-0.625977 	302.796 	360.639 	284.839 	539.805 	
26.3493 	-0.00268025 	-0.600273 	0.201498 	1.38504 	0.0169559 	-3.12593 	90.1522 	116.599 	-0.625977 	301.801 	360.639 	284.839 	539.805 	
26.4523 	-0.00270432 	-0.604801 	0.205651 	1.36759 	0.0167667 	-3.1259 	90.1522 	116.599 	-0.625977 	300.813 	360.639 	284.839 	539.805 	
26.5555 	-0.00272949 	-0.609256 	0.209882 	1.35014 	0.016577 	-3.12586 	90.1522 	116.599 	-0.625977 	299.711 	360.639 	284.839 	539.805 	
26.6584 	-0.00275575 	-0.613636 	0.21419 	1.33268 	0.0163867 	-3.12583 	90.1521 	116.599 	-0.625977 	298.71 	360.639 	284.839 	539.805 	
26.7613 	-0.0027831 	-0.617941 	0.218575 	1.31523 	0.0161959 	-3.12581 	90.1521 	116.599 	-0.625977 	297.713 	360.639 	284.839 	539.805 	
26.8643 	-0.00281153 	-0.622168 	0.223033 	1.29777 	0.0160047 	-3.12579 	90.1521 	116.599 	-0.625977 	296.721 	360.639 	284.839 	539.805 	
26.9674 	-0.00284103 	-0.626317 	0.227565 	1.28032 	0.0158132 	-3.12577 	90.1521 	116.599 	-0.625977 	295.619 	360.639 	284.839 	539.805 	
27.0705 	-0.00287158 	-0.630387 	0.232168 	1.26287 	0.0156214 	-3.12575 	90.1521 	116.599 	-0.625977 	294.627 	360.639 	284.839 	539.805 	
27.1736 	-0.00290319 	-0.634375 	0.236842 	1.24541 	0.0154293 	-3.12574 	90.1521 	116.599 	-0.625977 	293.63 	360.639 	284.839 	539.805 	
27.2764 	-0.00293584 	-0.638281 	0.241585 	1.22796 	0.0152371 	-3.12573 	90.1521 	116.599 	-0.625977 	292.536 	360.639 	284.839 	539.805 	
27.3797 	-0.00296952 	-0.642104 	0.246395 	1.21051 	0.0150447 	-3.12573 	90.1521 	116.599 	-0.625977 	291.542 	360.639 	284.839 	539.805 	
27.4826 	-0.00300422 	-0.645842 	0.251271 	1.19305 	0.0148523 	-3.12573 	90.1521 	116.599 	-0.625977 	290.537 	360.639 	284.839 	539.805 	
27.5856 	-0.00303993 	-0.649495 	0.256211 	1.1756 	0.0146598 	-3.12573 	90.1521 	116.599 	-0.625977 	289.441 	360.639 	284.839 	539.805 	
27.6888 	-0.00307664 	-0.65306 	0.261215 	1.15815 	0.0144674 	-3.12573 	90.152 	116.599 	-0.625977 	288.45 	360.639 	284.839 	539.805 	
27.7915 	-0.00311433 	-0.656538 	0.26628 	1.14069 	0.0142752 	-3.12574 	90.152 	116.599 	-0.625977 	287.449 	360.639 	284.839 	539.805 	
27.8987 	-0.00315693 	-0.660261 	0.27192 	1.1215 	0.0140639 	-3.12575 	90.152 	116.599 	-0.625977 	286.351 	360.639 	284.839 	539.805 	
28.0018 	-0.00319265 	-0.663226 	0.276588 	1.10579 	0.0138912 	-3.12577 	90.152 	116.599 	-0.625977 	285.357 	360.639 	284.839 	539.805 	
28.1049 	-0.00323324 	-0.666434 	0.281828 	1.08833 	0.0136996 	-3.12578 	90.152 	116.599 	-0.625977 	284.364 	360.639 	284.839 	539.805 	
28.2086 	-0.00327477 	-0.66955 	0.287123 	1.07088 	0.0135084 	-3.12581 	90.152 	116.599 	-0.625977 	283.264 	360.639 	284.839 	539.805 	
28.3122 	-0.00336061 	-0.675503 	0.297872 	1.03598 	0.0131272 	-3.12586 	90.152 	116.599 	-0.625977 	282.263 	360.639 	284.839 	539.805 	
28.4162 	-0.00340488 	-0.678337 	0.303323 	1.01852 	0.0129374 	-3.12589 	90.152 	116.598 	-0.625977 	281.168 	360.639 	284.839 	539.805 	
28.5193 	-0.00345005 	-0.681077 	0.308823 	1.00107 	0.0127481 	-3.12593 	90.152 	116.598 	-0.625977 	280.174 	360.639 	284.839 	539.805 	
28.6227 	-0.00349608 	-0.683719 	0.31437 	0.983618 	0.0125595 	-3.12596 	90.152 	116.598 	-0.625977 	279.173 	360.639 	284.839 	539.805 	
28.7257 	-0.00354298 	-0.686265 	0.319962 	0.966165 	0.0123715 	-3.126 	90.152 	116.598 	-0.625977 	278.08 	360.639 	284.839 	539.805 	
28.8285 	-0.00359073 	-0.688712 	0.325597 	0.948712 	0.0121844 	-3.12605 	90.1519 	116.598 	-0.625977 	277.082 	360.639 	284.839 	539.805 	
28.9317 	-0.00363931 	-0.691061 	0.331275 	0.931259 	0.011998 	-3.1261 	90.1519 	116.598 	-0.625977 	276.094 	360.639 	284.839 	539.805 	
29.0376 	-0.0036887 	-0.69331 	0.336992 	0.913807 	0.0118125 	-3.12615 	90.1519 	116.598 	-0.625977 	274.992 	360.639 	284.839 	539.805 	
29.1407 	-0.00373889 	-0.695459 	0.342748 	0.896354 	0.0116279 	-3.1262 	90.1519 	116.598 	-0.625977 	273.993 	360.639 	284.839 	539.805 	
29.2439 	-0.00378988 	-0.697508 	0.34854 	0.878901 	0.0114443 	-3.12626 	90.1519 	116.598 	-0.625977 	272.993 	360.639 	284.839 	539.805 	
29.3467 	-0.00384163 	-0.699455 	0.354368 	0.861449 	0.0112617 	-3.12632 	90.1519 	116.598 	-0.625977 	271.898 	360.639 	284.839 	539.805 	
29.4498 	-0.00389414 	-0.7013 	0.360228 	0.843996 	0.0110802 	-3.12639 	90.1519 	116.598 	-0.625977 	270.907 	360.639 	284.839 	539.805 	
29.5528 	-0.00394738 	-0.703042 	0.36612 	0.826544 	0.0108999 	-3.12645 	90.1519 	116.598 	-0.625977 	269.901 	360.639 	284.839 	539.805 	
29.656 	-0.00400135 	-0.704681 	0.372041 	0.809091 	0.0107208 	-3.12652 	90.1519 	116.598 	-0.625977 	268.811 	360.639 	284.839 	539.805 	
29.7589 	-0.00405603 	-0.706217 	0.37799 	0.791639 	0.0105429 	-3.1266 	90.1519 	116.598 	-0.625977 	267.814 	360.639 	284.839 	539.805 	
29.862 	-0.00411139 	-0.707649 	0.383965 	0.774186 	0.0103663 	-3.12667 	90.1519 	116.598 	-0.625977 	266.816 	360.639 	284.839 	539.805 	
29.965 	-0.00416743 	-0.708976 	0.389964 	0.756734 	0.0101911 	-3.12675 	90.1519 	116.598 	-0.625977 	265.82 	360.639 	284.839 	539.805 	
30.0679 	-0.00422412 	-0.710198 	0.395985 	0.739281 	0.0100173 	-3.12684 	90.1519 	116.598 	-0.625977 	264.726 	360.639 	284.839 	539.805 	
30.171 	-0.00428146 	-0.711315 	0.402026 	0.721829 	0.00984495 	-3.12692 	90.1518 	116.598 	-0.625977 	263.724 	360.639 	284.839 	539.805 	
30.274 	-0.00433941 	-0.712326 	0.408086 	0.704376 	0.00967415 	-3.12701 	90.1518 	116.597 	-0.625977 	262.726 	360.639 	284.839 	539.805 	
30.3769 	-0.00439797 	-0.713231 	0.414163 	0.686924 	0.00950491 	-3.1271 	90.1518 	116.597 	-0.625977 	261.626 	360.639 	284.839 	539.805 	
30.4802 	-0.00445711 	-0.714031 	0.420255 	0.669472 	0.0093373 	-3.1272 	90.1518 	116.597 	-0.625977 	260.63 	360.639 	284.839 	539.805 	
30.5829 	-0.00451682 	-0.714723 	0.42636 	0.652019 	0.00917136 	-3.12729 	90.1518 	116.597 	-0.625977 	259.631 	360.639 	284.839 	539.805 	
30.686 	-0.00457708 	-0.715309 	0.432475 	0.634567 	0.00900715 	-3.12739 	90.1518 	116.597 	-0.625977 	258.532 	360.639 	284.839 	539.805 	
30.789 	-0.00463787 	-0.715789 	0.438601 	0.617114 	0.00884472 	-3.1275 	90.1518 	116.597 	-0.625977 	257.534 	360.639 	284.839 	539.805 	
30.8925 	-0.00469917 	-0.716161 	0.444733 	0.599662 	0.00868411 	-3.1276 	90.1518 	116.597 	-0.625977 	256.547 	360.639 	284.839 	539.805 	
30.9992 	-0.00476097 	-0.716426 	0.450871 	0.58221 	0.00852538 	-3.12771 	90.1518 	116.597 	-0.625977 	255.445 	360.639 	284.839 	539.805 	
31.1019 	-0.00482324 	-0.716584 	0.457013 	0.564757 	0.00836857 	-3.12782 	90.1518 	116.597 	-0.625977 	254.444 	360.639 	284.839 	539.805 	
31.2069 	-0.00488597 	-0.716635 	0.463157 	0.547305 	0.00821373 	-3.12794 	90.1518 	116.597 	-0.625977 	253.349 	360.639 	284.839 	539.805 	
31.3106 	-0.00494914 	-0.716578 	0.4693 	0.529852 	0.00806091 	-3.12805 	90.1518 	116.597 	-0.625977 	252.349 	360.639 	284.839 	539.805 	
31.417 	-0.00501272 	-0.716414 	0.475442 	0.5124 	0.00791015 	-3.12817 	90.1518 	116.597 	-0.625977 	251.254 	360.639 	284.839 	539.805 	
31.5197 	-0.00514106 	-0.715765 	0.487712 	0.477495 	0.00761502 	-3.12842 	90.1517 	116.597 	-0.625977 	250.253 	360.639 	284.839 	539.805 	
31.6229 	-0.00520578 	-0.71528 	0.493837 	0.460043 	0.00747072 	-3.12855 	90.1517 	116.597 	-0.625977 	249.255 	360.639 	284.839 	539.805 	
31.7261 	-0.00527084 	-0.714689 	0.499952 	0.442591 	0.00732868 	-3.12868 	90.1517 	116.597 	-0.625977 	248.163 	360.639 	284.839 	539.805 	
31.8289 	-0.00533621 	-0.71399 	0.506056 	0.425139 	0.00718892 	-3.12881 	90.1517 	116.597 	-0.625977 	247.161 	360.639 	284.839 	539.805 	
31.9372 	-0.00540189 	-0.713185 	0.512147 	0.407686 	0.00705149 	-3.12895 	90.1517 	116.597 	-0.625977 	246.063 	360.639 	284.839 	539.805 	
32.0401 	-0.00546785 	-0.712274 	0.518223 	0.390234 	0.00691643 	-3.12908 	90.1517 	116.597 	-0.625977 	245.06 	360.639 	284.839 	539.805 	
32.1431 	-0.00553407 	-0.711257 	0.524282 	0.372781 	0.00678379 	-3.12922 	90.1517 	116.597 	-0.625977 	244.061 	360.639 	284.839 	539.805 	
32.246 	-0.00560052 	-0.710135 	0.530322 	0.355329 	0.0066536 	-3.12936 	90.1517 	116.596 	-0.625977 	242.963 	360.639 	284.84 	539.805 	
32.3491 	-0.0056672 	-0.708907 	0.536342 	0.337877 	0.0065259 	-3.12951 	90.1517 	116.596 	-0.625977 	241.965 	360.639 	284.84 	539.805 	
32.4521 	-0.00573407 	-0.707574 	0.54234 	0.320424 	0.00640073 	-3.12965 	90.1517 	116.596 	-0.625977 	240.972 	360.639 	284.84 	539.805 	
32.5555 	-0.00580113 	-0.706137 	0.548313 	0.302972 	0.00627813 	-3.1298 	90.1517 	116.596 	-0.625977 	239.972 	360.639 	284.84 	539.805 	
32.6582 	-0.00586834 	-0.704596 	0.55426 	0.28552 	0.00615815 	-3.12995 	90.1517 	116.596 	-0.625977 	238.878 	360.639 	284.84 	539.805 	
32.7615 	-0.00593569 	-0.702951 	0.56018 	0.268067 	0.0060408 	-3.13011 	90.1517 	116.596 	-0.625977 	237.874 	360.639 	284.84 	539.805 	
32.8642 	-0.00600315 	-0.701203 	0.56607 	0.250615 	0.00592614 	-3.13026 	90.1517 	116.596 	-0.625977 	236.874 	360.639 	284.84 	539.805 	
32.9675 	-0.00607071 	-0.699353 	0.571928 	0.233163 	0.00581419 	-3.13042 	90.1517 	116.596 	-0.625977 	235.778 	360.639 	284.84 	539.805 	
33.0705 	-0.00613835 	-0.6974 	0.577754 	0.21571 	0.00570498 	-3.13057 	90.1517 	116.596 	-0.625977 	234.78 	360.639 	284.84 	539.805 	
33.1735 	-0.00620605 	-0.695346 	0.583544 	0.198258 	0.00559856 	-3.13073 	90.1517 	116.596 	-0.625977 	233.773 	360.639 	284.84 	539.805 	
33.2764 	-0.00627378 	-0.693192 	0.589298 	0.180805 	0.00549496 	-3.1309 	90.1517 	116.596 	-0.625977 	232.682 	360.639 	284.84 	539.805 	
33.3797 	-0.00634152 	-0.690937 	0.595013 	0.163353 	0.0053942 	-3.13106 	90.1517 	116.596 	-0.625977 	231.674 	360.639 	284.84 	539.805 	
33.4825 	-0.00640925 	-0.688583 	0.600688 	0.145901 	0.00529632 	-3.13123 	90.1517 	116.596 	-0.625977 	230.686 	360.639 	284.84 	539.805 	
33.5853 	-0.00647696 	-0.68613 	0.606321 	0.128448 	0.00520134 	-3.13139 	90.1517 	116.596 	-0.625977 	229.687 	360.639 	284.84 	539.805 	
33.6885 	-0.00654463 	-0.68358 	0.61191 	0.110996 	0.0051093 	-3.13156 	90.1517 	116.596 	-0.625977 	228.579 	360.639 	284.84 	539.805 	
33.7917 	-0.00661222 	-0.680932 	0.617454 	0.0935431 	0.00502022 	-3.13173 	90.1517 	116.596 	-0.625977 	227.59 	360.639 	284.84 	539.805 	
33.8987 	-0.00667972 	-0.678188 	0.622951 	0.0760909 	0.00493413 	-3.13191 	90.1517 	116.596 	-0.625977 	226.484 	360.639 	284.84 	539.805 	
34.0012 	-0.00674712 	-0.675348 	0.628399 	0.0586385 	0.00485106 	-3.13208 	90.1517 	116.596 	-0.625977 	225.486 	360.639 	284.84 	539.805 	
34.1045 	-0.00681438 	-0.672414 	0.633797 	0.0411859 	0.00477104 	-3.13225 	90.1517 	116.596 	-0.625977 	224.49 	360.639 	284.841 	539.805 	
34.2104 	-0.00694844 	-0.666264 	0.644435 	0.00628099 	0.0046202 	-3.13261 	90.1516 	116.596 	-0.625977 	223.39 	360.639 	284.841 	539.805 	
34.3162 	-0.00701519 	-0.663051 	0.649671 	-0.0111716 	0.00454944 	-3.13279 	90.1516 	116.596 	-0.625977 	222.387 	360.639 	284.841 	539.805 	
34.4193 	-0.00708173 	-0.659747 	0.654851 	-0.028624 	0.00448182 	-3.13297 	90.1516 	116.596 	-0.625977 	221.283 	360.639 	284.841 	539.805 	
34.5224 	-0.00714804 	-0.656354 	0.659973 	-0.0460766 	0.00441734 	-3.13315 	90.1516 	116.596 	-0.625977 	220.288 	360.639 	284.841 	539.805 	
34.6256 	-0.00721409 	-0.652871 	0.665034 	-0.0635291 	0.00435605 	-3.13333 	90.1516 	116.596 	-0.625977 	219.282 	360.639 	284.841 	539.805 	
34.7285 	-0.00727988 	-0.649301 	0.670034 	-0.0809814 	0.00429794 	-3.13351 	90.1516 	116.596 	-0.625977 	218.185 	360.639 	284.841 	539.805 	
34.8317 	-0.00734537 	-0.645643 	0.674971 	-0.0984339 	0.00424305 	-3.1337 	90.1516 	116.596 	-0.625977 	217.188 	360.639 	284.842 	539.805 	
34.9373 	-0.00741054 	-0.641901 	0.679843 	-0.115887 	0.00419138 	-3.13388 	90.1516 	116.596 	-0.625977 	216.082 	360.639 	284.842 	539.805 	
35.0405 	-0.00747539 	-0.638073 	0.684649 	-0.133339 	0.00414296 	-3.13407 	90.1516 	116.596 	-0.625977 	215.083 	360.639 	284.842 	539.805 	
35.1436 	-0.00753989 	-0.634163 	0.689388 	-0.150792 	0.00409779 	-3.13426 	90.1516 	116.596 	-0.625977 	214.078 	360.639 	284.842 	539.805 	
35.2468 	-0.00760401 	-0.63017 	0.694057 	-0.168244 	0.0040559 	-3.13445 	90.1516 	116.596 	-0.625977 	213.08 	360.639 	284.842 	539.805 	
35.3496 	-0.00766774 	-0.626097 	0.698656 	-0.185697 	0.00401729 	-3.13463 	90.1516 	116.596 	-0.625977 	211.989 	360.639 	284.842 	539.805 	
35.4526 	-0.00773106 	-0.621943 	0.703184 	-0.203149 	0.00398198 	-3.13482 	90.1516 	116.596 	-0.625977 	210.982 	360.639 	284.843 	539.805 	
35.5557 	-0.00779395 	-0.617712 	0.707638 	-0.220602 	0.00394997 	-3.13501 	90.1516 	116.596 	-0.625977 	209.981 	360.639 	284.843 	539.805 	
35.6587 	-0.00785639 	-0.613403 	0.712018 	-0.238054 	0.00392128 	-3.1352 	90.1516 	116.596 	-0.625977 	208.876 	360.639 	284.843 	539.805 	
35.7617 	-0.00791837 	-0.609019 	0.716322 	-0.255507 	0.00389591 	-3.13539 	90.1516 	116.596 	-0.625977 	207.877 	360.639 	284.843 	539.805 	
35.8647 	-0.00797985 	-0.60456 	0.720548 	-0.272959 	0.00387388 	-3.13559 	90.1516 	116.596 	-0.625977 	206.871 	360.639 	284.843 	539.805 	
35.9678 	-0.00804084 	-0.600027 	0.724696 	-0.290412 	0.00385519 	-3.13578 	90.1516 	116.596 	-0.625977 	205.778 	360.639 	284.844 	539.805 	
36.0708 	-0.00810129 	-0.595424 	0.728765 	-0.307864 	0.00383984 	-3.13597 	90.1516 	116.596 	-0.625977 	204.773 	360.639 	284.844 	539.805 	
36.1743 	-0.00816121 	-0.59075 	0.732752 	-0.325317 	0.00382784 	-3.13616 	90.1516 	116.596 	-0.625977 	203.771 	360.639 	284.844 	539.805 	
36.2769 	-0.00822056 	-0.586006 	0.736658 	-0.34277 	0.0038192 	-3.13635 	90.1516 	116.596 	-0.625977 	202.77 	360.639 	284.844 	539.805 	
36.38 	-0.00827934 	-0.581196 	0.74048 	-0.360222 	0.00381391 	-3.13655 	90.1516 	116.596 	-0.625977 	201.665 	360.639 	284.845 	539.805 	
36.4832 	-0.00833752 	-0.57632 	0.744217 	-0.377675 	0.00381198 	-3.13674 	90.1516 	116.596 	-0.625977 	200.663 	360.639 	284.845 	539.805 	
36.586 	-0.00839508 	-0.571379 	0.747869 	-0.395127 	0.00381341 	-3.13693 	90.1515 	116.596 	-0.625977 	199.669 	360.639 	284.845 	539.805 	
36.6891 	-0.00845201 	-0.566375 	0.751434 	-0.41258 	0.0038182 	-3.13712 	90.1515 	116.596 	-0.625977 	198.562 	360.639 	284.85 	539.805 	
36.7923 	-0.00850829 	-0.561309 	0.754911 	-0.430032 	0.00382635 	-3.13732 	90.1515 	116.596 	-0.625977 	197.562 	360.639 	284.874 	539.805 	
36.8992 	-0.00856391 	-0.556184 	0.758299 	-0.447485 	0.00383784 	-3.13751 	90.1515 	116.596 	-0.625977 	196.462 	360.639 	284.886 	539.805 	
37.0022 	-0.00861884 	-0.551 	0.761597 	-0.464938 	0.00385269 	-3.1377 	90.1515 	116.596 	-0.625977 	195.454 	360.639 	284.891 	539.805 	
37.1066 	-0.00867307 	-0.54576 	0.764804 	-0.48239 	0.00387089 	-3.13789 	90.1515 	116.596 	-0.625977 	194.463 	360.639 	284.894 	539.805 	
37.2096 	-0.00872658 	-0.540464 	0.767919 	-0.499843 	0.00389243 	-3.13808 	90.1515 	116.596 	-0.625977 	193.352 	360.639 	284.895 	539.805 	
37.3127 	-0.00877937 	-0.535115 	0.770941 	-0.517295 	0.00391729 	-3.13827 	90.1515 	116.596 	-0.625977 	192.355 	360.639 	284.897 	539.805 	
37.4166 	-0.0088314 	-0.529714 	0.77387 	-0.534748 	0.00394549 	-3.13846 	90.1515 	116.596 	-0.625977 	191.349 	360.639 	284.898 	539.805 	
37.5199 	-0.00893315 	-0.518763 	0.779442 	-0.569653 	0.00401183 	-3.13884 	90.1515 	116.596 	-0.625977 	190.25 	360.639 	284.9 	539.805 	
37.6228 	-0.00898284 	-0.513216 	0.782084 	-0.587105 	0.00404995 	-3.13903 	90.1515 	116.596 	-0.625977 	189.244 	360.639 	284.901 	539.805 	
37.7258 	-0.00903172 	-0.507623 	0.784628 	-0.604558 	0.00409136 	-3.13922 	90.1515 	116.596 	-0.625977 	188.242 	360.639 	284.902 	539.805 	
37.8288 	-0.00907977 	-0.501987 	0.787075 	-0.62201 	0.00413604 	-3.13941 	90.1515 	116.596 	-0.625977 	187.145 	360.639 	284.902 	539.805 	
37.9379 	-0.00912699 	-0.49631 	0.789423 	-0.639463 	0.00418397 	-3.13959 	90.1515 	116.596 	-0.625977 	186.039 	360.639 	284.903 	539.805 	
38.041 	-0.00917334 	-0.490592 	0.791671 	-0.656916 	0.00423516 	-3.13978 	90.1515 	116.596 	-0.625977 	185.034 	360.639 	284.904 	539.805 	
38.144 	-0.00921883 	-0.484836 	0.793819 	-0.674368 	0.00428957 	-3.13996 	90.1515 	116.596 	-0.625977 	184.03 	360.639 	284.905 	539.805 	
38.2471 	-0.00926344 	-0.479043 	0.795867 	-0.69182 	0.0043472 	-3.14015 	90.1515 	116.596 	-0.625977 	183.032 	360.639 	284.905 	539.805 	
38.3503 	-0.00930715 	-0.473215 	0.797813 	-0.709273 	0.00440803 	-3.14033 	90.1515 	116.596 	-0.625977 	181.928 	360.639 	284.906 	539.805 	
38.4532 	-0.00934994 	-0.467355 	0.799657 	-0.726725 	0.00447203 	-3.14051 	90.1515 	116.596 	-0.625977 	180.923 	360.639 	284.906 	539.805 	
38.5561 	-0.00939182 	-0.461462 	0.801399 	-0.744178 	0.00453918 	-3.14069 	90.1515 	116.596 	-0.625977 	179.922 	360.639 	284.907 	539.805 	
38.6594 	-0.00943276 	-0.455541 	0.803037 	-0.76163 	0.00460948 	-3.14087 	90.1515 	116.596 	-0.626074 	178.824 	360.639 	284.908 	539.805 	
38.7623 	-0.00947275 	-0.449592 	0.804572 	-0.779083 	0.00468289 	-3.14105 	90.1515 	116.596 	-0.626074 	177.816 	360.639 	284.908 	539.805 	
38.8653 	-0.00951178 	-0.443616 	0.806002 	-0.796535 	0.00475939 	-3.14122 	90.1515 	116.596 	-0.626074 	176.813 	360.639 	284.909 	539.805 	
38.9683 	-0.00954984 	-0.437617 	0.807329 	-0.813988 	0.00483897 	-3.1414 	90.1515 	116.596 	-0.626074 	175.714 	360.639 	284.91 	539.805 	
39.0715 	-0.00958691 	-0.431596 	0.80855 	-0.83144 	0.00492159 	-3.14157 	90.1515 	116.596 	-0.626074 	174.708 	360.639 	284.925 	539.805 	
39.1743 	-0.00962299 	-0.425554 	0.809666 	-0.848893 	0.00500723 	3.14144 	90.1515 	116.596 	-0.626074 	173.705 	360.639 	284.958 	539.805 	
39.2774 	-0.00965807 	-0.419493 	0.810676 	-0.866345 	0.00509586 	3.14127 	90.1515 	116.596 	-0.626074 	172.704 	360.639 	284.977 	539.805 	
39.3802 	-0.00969212 	-0.413416 	0.811581 	-0.883798 	0.00518746 	3.1411 	90.1515 	116.596 	-0.626074 	171.596 	360.639 	284.986 	539.805 	
39.4836 	-0.00972515 	-0.407324 	0.812379 	-0.90125 	0.00528201 	3.14093 	90.1515 	116.596 	-0.626074 	170.589 	360.639 	284.993 	539.805 	
39.5864 	-0.00975714 	-0.401219 	0.813071 	-0.918702 	0.00537946 	3.14077 	90.1515 	116.596 	-0.626074 	169.589 	360.639 	284.995 	539.805 	
39.6893 	-0.00978809 	-0.395103 	0.813656 	-0.936155 	0.00547979 	3.1406 	90.1515 	116.596 	-0.626074 	168.482 	360.639 	284.997 	539.805 	
39.7927 	-0.00981798 	-0.388978 	0.814135 	-0.953607 	0.00558297 	3.14044 	90.1515 	116.596 	-0.626074 	167.485 	360.639 	285 	539.805 	
39.8989 	-0.0098468 	-0.382845 	0.814506 	-0.971059 	0.00568898 	3.14028 	90.1515 	116.596 	-0.626074 	166.381 	360.639 	285.006 	539.805 	
40.0023 	-0.00987455 	-0.376706 	0.81477 	-0.988512 	0.00579777 	3.14012 	90.1515 	116.596 	-0.626074 	165.372 	360.639 	285.02 	539.805 	
40.1051 	-0.00990121 	-0.370564 	0.814927 	-1.00596 	0.00590931 	3.13996 	90.1515 	116.596 	-0.626074 	164.372 	360.639 	285.032 	539.805 	
40.21 	-0.00992679 	-0.36442 	0.814977 	-1.02342 	0.00602358 	3.13981 	90.1515 	116.596 	-0.626074 	163.27 	360.639 	285.037 	539.805 	
40.3132 	-0.00997463 	-0.352134 	0.814755 	-1.05832 	0.00626012 	3.13951 	90.1515 	116.596 	-0.626074 	162.264 	360.639 	285.039 	539.805 	
40.416 	-0.00999689 	-0.345996 	0.814484 	-1.07577 	0.00638233 	3.13936 	90.1515 	116.596 	-0.626074 	161.258 	360.64 	285.04 	539.805 	
40.5195 	-0.010018 	-0.339864 	0.814105 	-1.09323 	0.00650712 	3.13921 	90.1515 	116.596 	-0.626074 	160.15 	360.64 	285.041 	539.805 	
40.6221 	-0.010038 	-0.333739 	0.813619 	-1.11068 	0.00663444 	3.13907 	90.1515 	116.596 	-0.626074 	159.154 	360.64 	285.042 	539.805 	
40.725 	-0.0100569 	-0.327624 	0.813026 	-1.12813 	0.00676427 	3.13892 	90.1515 	116.596 	-0.626074 	158.147 	360.64 	285.042 	539.805 	
40.8284 	-0.0100746 	-0.321519 	0.812327 	-1.14558 	0.00689655 	3.13878 	90.1515 	116.596 	-0.626074 	157.047 	360.64 	285.043 	539.805 	
40.9315 	-0.0100912 	-0.315428 	0.811521 	-1.16304 	0.00703125 	3.13865 	90.1515 	116.596 	-0.626074 	156.045 	360.64 	285.044 	539.805 	
41.0374 	-0.0101067 	-0.309352 	0.81061 	-1.18049 	0.00716833 	3.13851 	90.1515 	116.596 	-0.626074 	155.035 	360.64 	285.044 	539.805 	
41.1403 	-0.010121 	-0.303293 	0.809592 	-1.19794 	0.00730775 	3.13838 	90.1515 	116.596 	-0.626074 	153.93 	360.64 	285.044 	539.805 	
41.2436 	-0.0101341 	-0.297252 	0.808468 	-1.21539 	0.00744946 	3.13825 	90.1515 	116.596 	-0.626074 	152.929 	360.64 	285.045 	539.805 	
41.3468 	-0.0101461 	-0.291232 	0.80724 	-1.23284 	0.00759342 	3.13812 	90.1515 	116.596 	-0.626074 	151.921 	360.64 	285.045 	539.805 	
41.4495 	-0.0101569 	-0.285234 	0.805906 	-1.2503 	0.00773958 	3.138 	90.1515 	116.596 	-0.626074 	150.816 	360.64 	285.045 	539.805 	
41.5526 	-0.0101665 	-0.279261 	0.804468 	-1.26775 	0.00788791 	3.13787 	90.1515 	116.596 	-0.626074 	149.813 	360.64 	285.046 	539.805 	
41.6558 	-0.010175 	-0.273313 	0.802926 	-1.2852 	0.00803835 	3.13775 	90.1514 	116.597 	-0.626074 	148.808 	360.64 	285.046 	539.805 	
41.7588 	-0.0101823 	-0.267394 	0.801281 	-1.30265 	0.00819087 	3.13764 	90.1514 	116.597 	-0.626074 	147.708 	360.64 	285.046 	539.805 	
41.8617 	-0.0101884 	-0.261503 	0.799532 	-1.32011 	0.00834541 	3.13752 	90.1514 	116.597 	-0.626074 	146.701 	360.64 	285.047 	539.805 	
41.9649 	-0.0101933 	-0.255645 	0.797681 	-1.33756 	0.00850193 	3.13741 	90.1514 	116.597 	-0.626074 	145.701 	360.64 	285.047 	539.805 	
42.0682 	-0.0101971 	-0.249819 	0.795728 	-1.35501 	0.00866039 	3.1373 	90.1514 	116.597 	-0.626074 	144.699 	360.64 	285.047 	539.805 	
42.1705 	-0.0101997 	-0.244029 	0.793673 	-1.37246 	0.00882072 	3.13719 	90.1514 	116.597 	-0.626074 	143.599 	360.64 	285.048 	539.805 	
42.2737 	-0.0102011 	-0.238275 	0.791518 	-1.38992 	0.00898288 	3.13709 	90.1514 	116.597 	-0.626074 	142.59 	360.64 	285.048 	539.805 	
42.3767 	-0.0102013 	-0.23256 	0.789263 	-1.40737 	0.00914683 	3.13699 	90.1514 	116.597 	-0.626074 	141.58 	360.64 	285.048 	539.805 	
42.4801 	-0.0102003 	-0.226885 	0.786908 	-1.42482 	0.00931251 	3.13689 	90.1514 	116.597 	-0.626074 	140.483 	360.64 	285.048 	539.805 	
42.5827 	-0.0101982 	-0.221252 	0.784455 	-1.44227 	0.00947988 	3.1368 	90.1514 	116.597 	-0.626074 	139.474 	360.64 	285.048 	539.805 	
42.6859 	-0.0101948 	-0.215662 	0.781903 	-1.45973 	0.00964887 	3.1367 	90.1514 	116.597 	-0.626074 	138.477 	360.64 	285.048 	539.805 	
42.7891 	-0.0101903 	-0.210118 	0.779255 	-1.47718 	0.00981945 	3.13661 	90.1514 	116.597 	-0.626074 	137.366 	360.64 	285.049 	539.805 	
42.8921 	-0.0101846 	-0.204621 	0.77651 	-1.49463 	0.00999156 	3.13653 	90.1514 	116.597 	-0.626074 	136.363 	360.64 	285.049 	539.805 	
42.9981 	-0.0101777 	-0.199173 	0.77367 	-1.51208 	0.0101651 	3.13645 	90.1514 	116.597 	-0.626074 	135.359 	360.64 	285.049 	539.805 	
43.101 	-0.0101697 	-0.193775 	0.770735 	-1.52954 	0.0103401 	3.13637 	90.1514 	116.597 	-0.626074 	134.259 	360.64 	285.049 	539.805 	
43.2038 	-0.0101605 	-0.188429 	0.767706 	-1.54699 	0.0105165 	3.13629 	90.1514 	116.598 	-0.626074 	133.258 	360.64 	285.049 	539.805 	
43.3068 	-0.0101501 	-0.183137 	0.764584 	-1.56444 	0.0106942 	3.13621 	90.1514 	116.598 	-0.626074 	132.247 	360.64 	285.049 	539.805 	
43.4096 	-0.0101385 	-0.1779 	0.761371 	-1.58189 	0.0108732 	3.13614 	90.1514 	116.598 	-0.626074 	131.142 	360.64 	285.049 	539.805 	
43.5131 	-0.0101119 	-0.167599 	0.754672 	-1.6168 	0.0112347 	3.13601 	90.1514 	116.598 	-0.626074 	130.149 	360.64 	285.049 	539.805 	
43.6158 	-0.0100969 	-0.162538 	0.751189 	-1.63425 	0.0114171 	3.13595 	90.1514 	116.598 	-0.626074 	129.14 	360.64 	285.049 	539.805 	
43.7188 	-0.0100807 	-0.157538 	0.747618 	-1.6517 	0.0116005 	3.13589 	90.1514 	116.598 	-0.626074 	128.03 	360.64 	285.049 	539.805 	
43.822 	-0.0100634 	-0.152602 	0.743961 	-1.66915 	0.0117849 	3.13584 	90.1514 	116.598 	-0.626074 	127.027 	360.64 	285.049 	539.805 	
43.925 	-0.0100449 	-0.14773 	0.740218 	-1.68661 	0.0119703 	3.13579 	90.1514 	116.598 	-0.626074 	126.027 	360.64 	285.049 	539.805 	
44.0276 	-0.0100253 	-0.142924 	0.73639 	-1.70406 	0.0121565 	3.13574 	90.1514 	116.598 	-0.626074 	125.023 	360.64 	285.049 	539.805 	
44.1313 	-0.0100046 	-0.138186 	0.732479 	-1.72151 	0.0123436 	3.13569 	90.1514 	116.598 	-0.626074 	123.924 	360.64 	285.049 	539.805 	
44.2382 	-0.00998272 	-0.133516 	0.728487 	-1.73896 	0.0125314 	3.13565 	90.1514 	116.598 	-0.626074 	122.921 	360.64 	285.049 	539.805 	
44.341 	-0.00995975 	-0.128917 	0.724413 	-1.75641 	0.0127199 	3.13561 	90.1514 	116.598 	-0.626074 	121.81 	360.64 	285.049 	539.805 	
44.4439 	-0.00993567 	-0.12439 	0.72026 	-1.77386 	0.0129091 	3.13558 	90.1514 	116.598 	-0.626074 	120.813 	360.64 	285.049 	539.805 	
44.5471 	-0.00991049 	-0.119936 	0.716028 	-1.79131 	0.0130988 	3.13554 	90.1514 	116.599 	-0.626074 	119.804 	360.64 	285.049 	539.805 	
44.6503 	-0.00988422 	-0.115557 	0.711719 	-1.80877 	0.0132891 	3.13552 	90.1514 	116.599 	-0.626074 	118.698 	360.64 	285.049 	539.805 	
44.7533 	-0.00985686 	-0.111254 	0.707335 	-1.82622 	0.0134798 	3.13549 	90.1514 	116.599 	-0.626074 	117.696 	360.64 	285.049 	539.805 	
44.856 	-0.00982843 	-0.107027 	0.702876 	-1.84367 	0.013671 	3.13547 	90.1514 	116.611 	-0.626074 	116.696 	360.64 	285.049 	539.805 	
44.9593 	-0.00979892 	-0.102879 	0.698344 	-1.86112 	0.0138625 	3.13545 	90.1514 	116.645 	-0.626074 	115.586 	360.64 	285.049 	539.805 	
45.0621 	-0.00976835 	-0.0988112 	0.69374 	-1.87857 	0.0140543 	3.13543 	90.1514 	116.655 	-0.626074 	114.587 	360.64 	285.049 	539.805 	
45.0879 	-0.00976835 	-0.0988112 	0.69374 	-1.87857 	0.0140543 	3.13543 	90.1514 	116.656 	-0.626074 	114.393 	360.64 	285.049 	539.805 	
45.1915 	-0.00976419 	-0.095663 	0.690187 	-1.89184 	0.0143976 	3.13548 	90.1516 	116.675 	-0.626074 	113.682 	360.64 	284.82 	539.805 	
45.2995 	-0.00979773 	-0.092812 	0.694568 	-1.87403 	0.0142876 	3.13516 	90.1516 	116.681 	-0.626074 	113.539 	360.64 	282.965 	539.805 	
45.4022 	-0.00986725 	-0.0902157 	0.7034 	-1.83912 	0.014024 	3.13467 	90.1515 	116.681 	-0.626074 	113.506 	360.64 	280.981 	539.805 	
45.5049 	-0.00994128 	-0.0879292 	0.712318 	-1.80421 	0.0137433 	3.13418 	90.1515 	116.682 	-0.626074 	113.505 	360.64 	278.974 	539.805 	
45.6101 	-0.0100197 	-0.0859554 	0.721311 	-1.7693 	0.0134459 	3.13371 	90.1515 	116.682 	-0.626074 	113.504 	360.64 	276.781 	539.805 	
45.7133 	-0.0101025 	-0.0842966 	0.730366 	-1.73439 	0.013132 	3.13324 	90.1515 	116.682 	-0.626074 	113.503 	360.64 	274.79 	539.805 	
45.8157 	-0.0101895 	-0.0829549 	0.739474 	-1.69948 	0.0128022 	3.13279 	90.1516 	116.682 	-0.626074 	113.503 	360.64 	272.777 	539.805 	
45.918 	-0.0103757 	-0.0812288 	0.757803 	-1.62966 	0.0120962 	3.13192 	90.1515 	116.682 	-0.626074 	113.502 	360.64 	270.777 	539.805 	
46.0212 	-0.0104747 	-0.0808465 	0.767001 	-1.59475 	0.0117208 	3.13151 	90.1515 	116.682 	-0.626074 	113.503 	360.64 	268.579 	539.805 	
46.1239 	-0.0105774 	-0.0807855 	0.776207 	-1.55984 	0.0113312 	3.1311 	90.1515 	116.682 	-0.626074 	113.502 	360.64 	266.576 	539.805 	
46.2274 	-0.0106838 	-0.0810458 	0.785409 	-1.52493 	0.0109278 	3.13072 	90.1515 	116.682 	-0.626074 	113.502 	360.64 	264.594 	539.805 	
46.3304 	-0.0107937 	-0.0816272 	0.794597 	-1.49002 	0.010511 	3.13034 	90.1515 	116.683 	-0.626074 	113.502 	360.64 	262.365 	539.805 	
46.4373 	-0.010907 	-0.0825288 	0.803759 	-1.45512 	0.0100815 	3.12998 	90.1515 	116.683 	-0.626074 	113.502 	360.64 	260.374 	539.805 	
46.5403 	-0.0110236 	-0.0837497 	0.812884 	-1.42021 	0.00963962 	3.12964 	90.1515 	116.683 	-0.626074 	113.501 	360.64 	258.191 	539.805 	
46.6433 	-0.0111432 	-0.0852883 	0.82196 	-1.3853 	0.00918605 	3.12931 	90.1515 	116.683 	-0.626074 	113.501 	360.64 	256.171 	539.805 	
46.7463 	-0.0112657 	-0.0871426 	0.830976 	-1.3504 	0.00872131 	3.129 	90.1515 	116.683 	-0.626074 	113.501 	360.64 	254.164 	539.805 	
46.8494 	-0.0113911 	-0.0893104 	0.839923 	-1.31549 	0.00824595 	3.1287 	90.1516 	116.683 	-0.626074 	113.501 	360.64 	251.987 	539.805 	
46.9522 	-0.0115191 	-0.0917891 	0.848788 	-1.28059 	0.00776055 	3.12842 	90.1515 	116.683 	-0.626074 	113.501 	360.64 	249.962 	539.805 	
47.0556 	-0.0116497 	-0.0945757 	0.857561 	-1.24569 	0.00726569 	3.12816 	90.1515 	116.683 	-0.626074 	113.501 	360.64 	247.951 	539.805 	
47.1588 	-0.0117825 	-0.0976668 	0.866231 	-1.21078 	0.00676198 	3.12791 	90.1515 	116.683 	-0.626074 	113.501 	360.64 	245.96 	539.805 	
47.2615 	-0.0119175 	-0.101059 	0.874789 	-1.17588 	0.00625004 	3.12769 	90.1516 	116.683 	-0.626074 	113.501 	360.64 	243.774 	539.805 	
47.3645 	-0.0120546 	-0.104747 	0.883222 	-1.14098 	0.00573048 	3.12748 	90.1516 	116.683 	-0.626074 	113.501 	360.64 	241.775 	539.805 	
47.4676 	-0.0121934 	-0.108728 	0.891522 	-1.10607 	0.00520395 	3.12729 	90.1515 	116.683 	-0.626074 	113.501 	360.64 	239.764 	539.805 	
47.5706 	-0.012334 	-0.112995 	0.899678 	-1.07117 	0.00467107 	3.12711 	90.1515 	116.683 	-0.626074 	113.501 	360.64 	237.55 	539.805 	
47.6736 	-0.012476 	-0.117545 	0.90768 	-1.03627 	0.0041325 	3.12696 	90.1515 	116.683 	-0.626074 	113.501 	360.64 	235.562 	539.805 	
47.7766 	-0.0126194 	-0.122372 	0.915518 	-1.00137 	0.00358891 	3.12683 	90.1515 	116.683 	-0.626074 	113.501 	360.64 	233.535 	539.805 	
47.8799 	-0.0127639 	-0.127468 	0.923183 	-0.966466 	0.00304094 	3.12671 	90.1515 	116.683 	-0.626074 	113.501 	360.64 	231.544 	539.805 	
47.9837 	-0.0129094 	-0.13283 	0.930665 	-0.931564 	0.00248926 	3.12661 	90.1515 	116.683 	-0.626074 	113.501 	360.64 	229.359 	539.805 	
48.0865 	-0.0130557 	-0.138449 	0.937956 	-0.896663 	0.00193455 	3.12654 	90.1515 	116.683 	-0.626074 	113.501 	360.64 	227.334 	539.805 	
48.1895 	-0.0132027 	-0.144319 	0.945046 	-0.861761 	0.0013775 	3.12648 	90.1516 	116.683 	-0.626074 	113.501 	360.64 	225.317 	539.805 	
48.2977 	-0.01335 	-0.150433 	0.951927 	-0.826859 	0.000818753 	3.12644 	90.1515 	116.683 	-0.626074 	113.501 	360.64 	223.124 	539.805 	
48.4005 	-0.0134976 	-0.156784 	0.95859 	-0.791958 	0.000259015 	3.12642 	90.1515 	116.683 	-0.626074 	113.501 	360.64 	220.931 	539.805 	
48.5035 	-0.0136454 	-0.163363 	0.965027 	-0.757056 	-0.000301035 	3.12642 	90.1515 	116.683 	-0.626074 	113.501 	360.64 	218.906 	539.805 	
48.6064 	-0.013793 	-0.170163 	0.971231 	-0.722155 	-0.000860723 	3.12644 	90.1516 	116.683 	-0.626074 	113.501 	360.64 	216.905 	539.805 	
48.71 	-0.0139403 	-0.177176 	0.977194 	-0.687253 	-0.00141936 	3.12648 	90.1515 	116.683 	-0.626074 	113.501 	360.64 	214.896 	539.805 	
48.8144 	-0.0142335 	-0.191803 	0.988368 	-0.61745 	-0.00253077 	3.12662 	90.1515 	116.683 	-0.626074 	113.501 	360.64 	212.706 	539.805 	
48.9173 	-0.0143789 	-0.199401 	0.993565 	-0.582548 	-0.00308219 	3.12672 	90.1515 	116.683 	-0.626074 	113.501 	360.64 	210.675 	539.805 	
49.0207 	-0.0145233 	-0.207175 	0.998494 	-0.547646 	-0.00362985 	3.12684 	90.1515 	116.683 	-0.626074 	113.501 	360.64 	208.473 	539.805 	
49.1237 	-0.0146666 	-0.215116 	1.00315 	-0.512744 	-0.0041731 	3.12697 	90.1516 	116.683 	-0.626074 	113.501 	360.64 	206.475 	539.805 	
49.2268 	-0.0148086 	-0.223215 	1.00752 	-0.477842 	-0.00471126 	3.12713 	90.1515 	116.683 	-0.626074 	113.502 	360.64 	204.47 	539.805 	
49.3296 	-0.014949 	-0.231462 	1.01161 	-0.442939 	-0.00524368 	3.1273 	90.1515 	116.683 	-0.626074 	113.502 	360.64 	202.443 	539.805 	
49.4377 	-0.0150877 	-0.239846 	1.01541 	-0.408037 	-0.00576972 	3.12749 	90.1515 	116.683 	-0.626074 	113.502 	360.64 	200.264 	539.805 	
49.5408 	-0.0152246 	-0.248359 	1.01891 	-0.373134 	-0.00628873 	3.1277 	90.1515 	116.683 	-0.626074 	113.502 	360.64 	198.052 	539.805 	
49.6439 	-0.0153595 	-0.256988 	1.02212 	-0.338231 	-0.00680007 	3.12793 	90.1515 	116.683 	-0.626074 	113.502 	360.64 	196.033 	539.805 	
49.7468 	-0.0154921 	-0.265723 	1.02502 	-0.303327 	-0.00730314 	3.12818 	90.1515 	116.683 	-0.626074 	113.502 	360.64 	194.023 	539.805 	
49.8499 	-0.0156225 	-0.274555 	1.02762 	-0.268424 	-0.00779731 	3.12844 	90.1515 	116.682 	-0.626074 	113.502 	360.64 	192.04 	539.805 	
49.9531 	-0.0157503 	-0.283472 	1.0299 	-0.23352 	-0.00828198 	3.12872 	90.1515 	116.682 	-0.626074 	113.502 	360.64 	189.812 	539.805 	
50.0558 	-0.0158755 	-0.292464 	1.03187 	-0.198616 	-0.00875656 	3.12902 	90.1516 	116.682 	-0.626074 	113.503 	360.64 	187.815 	539.805 	
50.159 	-0.0159978 	-0.301518 	1.03353 	-0.163712 	-0.00922047 	3.12933 	90.1515 	116.682 	-0.626074 	113.503 	360.64 	185.805 	539.805 	
50.262 	-0.0161172 	-0.310625 	1.03487 	-0.128807 	-0.00967316 	3.12966 	90.1515 	116.682 	-0.626074 	113.503 	360.64 	183.597 	539.805 	
50.3649 	-0.0162335 	-0.319774 	1.03589 	-0.0939017 	-0.0101141 	3.13001 	90.1515 	116.682 	-0.626074 	113.503 	360.64 	181.579 	539.805 	
50.468 	-0.0163465 	-0.328952 	1.03659 	-0.0589965 	-0.0105426 	3.13037 	90.1515 	116.682 	-0.626074 	113.503 	360.64 	179.572 	539.805 	
50.5712 	-0.0164562 	-0.33815 	1.03698 	-0.0240908 	-0.0109584 	3.13074 	90.1515 	116.682 	-0.626074 	113.504 	360.64 	177.378 	539.805 	
50.674 	-0.0165623 	-0.347355 	1.03704 	0.0108149 	-0.0113608 	3.13113 	90.1516 	116.682 	-0.626074 	113.504 	360.64 	175.377 	539.805 	
50.777 	-0.0166648 	-0.356557 	1.03677 	0.0457212 	-0.0117493 	3.13154 	90.1515 	116.682 	-0.626074 	113.504 	360.64 	173.352 	539.805 	
50.8802 	-0.0167635 	-0.365744 	1.03619 	0.0806279 	-0.0121236 	3.13195 	90.1515 	116.682 	-0.626074 	113.505 	360.64 	171.343 	539.805 	
50.9833 	-0.0168583 	-0.374905 	1.03529 	0.115535 	-0.012483 	3.13238 	90.1515 	116.682 	-0.626074 	113.505 	360.64 	169.149 	539.805 	
51.0861 	-0.0169491 	-0.384029 	1.03407 	0.150442 	-0.0128273 	3.13282 	90.1515 	116.682 	-0.626074 	113.505 	360.64 	167.152 	539.805 	
51.189 	-0.0170357 	-0.393105 	1.03253 	0.185349 	-0.0131559 	3.13328 	90.1515 	116.682 	-0.626074 	113.505 	360.64 	165.117 	539.805 	
51.2923 	-0.0171182 	-0.402122 	1.03067 	0.220257 	-0.0134685 	3.13374 	90.1515 	116.682 	-0.626074 	113.505 	360.64 	162.926 	539.805 	
51.3983 	-0.0171963 	-0.411068 	1.0285 	0.255165 	-0.0137647 	3.13422 	90.1515 	116.682 	-0.626074 	113.506 	360.64 	160.934 	539.805 	
51.5008 	-0.01727 	-0.419934 	1.02602 	0.290073 	-0.0140441 	3.1347 	90.1515 	116.682 	-0.626074 	113.506 	360.64 	158.69 	539.805 	
51.6038 	-0.0173392 	-0.428707 	1.02324 	0.324982 	-0.0143064 	3.1352 	90.1515 	116.682 	-0.626074 	113.506 	360.64 	156.717 	539.805 	
51.707 	-0.0174037 	-0.437378 	1.02014 	0.359891 	-0.0145513 	3.1357 	90.1515 	116.682 	-0.626074 	113.507 	360.64 	154.723 	539.805 	
51.8101 	-0.0175188 	-0.45437 	1.01306 	0.429709 	-0.0149876 	3.13673 	90.1515 	116.682 	-0.626074 	113.507 	360.64 	152.687 	539.805 	
51.913 	-0.0175691 	-0.462671 	1.00908 	0.464619 	-0.0151785 	3.13726 	90.1515 	116.682 	-0.626074 	113.507 	360.64 	150.48 	539.805 	
52.0159 	-0.0176146 	-0.470827 	1.00481 	0.499528 	-0.0153509 	3.13779 	90.1515 	116.682 	-0.626074 	113.507 	360.64 	148.477 	539.805 	
52.119 	-0.0176551 	-0.47883 	1.00026 	0.534438 	-0.0155046 	3.13833 	90.1515 	116.682 	-0.626074 	113.508 	360.64 	146.495 	539.805 	
52.2221 	-0.0176907 	-0.486669 	0.995435 	0.569348 	-0.0156394 	3.13888 	90.1515 	116.682 	-0.626074 	113.508 	360.64 	144.254 	539.805 	
52.3251 	-0.0177212 	-0.494334 	0.990337 	0.604258 	-0.0157552 	3.13942 	90.1515 	116.682 	-0.626074 	113.509 	360.64 	142.254 	539.805 	
52.4282 	-0.0177467 	-0.501817 	0.984975 	0.639169 	-0.0158517 	3.13998 	90.1515 	116.682 	-0.626074 	113.509 	360.64 	140.28 	539.805 	
52.5317 	-0.0177671 	-0.509109 	0.979355 	0.674079 	-0.015929 	3.14053 	90.1515 	116.682 	-0.626074 	113.51 	360.64 	138.061 	539.805 	
52.6372 	-0.0177823 	-0.5162 	0.973484 	0.708989 	-0.0159868 	3.14109 	90.1515 	116.682 	-0.626074 	113.511 	360.64 	136.041 	539.805 	
52.74 	-0.0177924 	-0.523082 	0.967369 	0.7439 	-0.0160252 	-3.14154 	90.1515 	116.682 	-0.626074 	113.511 	360.64 	134.039 	539.805 	
52.8434 	-0.0177974 	-0.529746 	0.961018 	0.77881 	-0.016044 	-3.14098 	90.1515 	116.682 	-0.626074 	113.512 	360.64 	131.858 	539.805 	
52.9462 	-0.0177972 	-0.536184 	0.954438 	0.813721 	-0.0160433 	-3.14042 	90.1515 	116.682 	-0.626074 	113.512 	360.64 	129.823 	539.805 	
53.0493 	-0.0177919 	-0.542389 	0.947637 	0.848632 	-0.016023 	-3.13986 	90.1515 	116.682 	-0.626074 	113.513 	360.64 	127.822 	539.805 	
53.1522 	-0.0177819 	-0.548119 	0.940908 	0.882146 	-0.0159852 	-3.13932 	90.1515 	116.682 	-0.626074 	113.513 	360.64 	125.754 	539.805 	
53.2556 	-0.0177718 	-0.552097 	0.935956 	0.906235 	-0.0159469 	-3.13894 	90.1515 	116.682 	-0.626074 	113.513 	360.64 	124.406 	539.805 	
56.274 	-0.0177646 	-0.554405 	0.932966 	0.920558 	-0.0159198 	-3.13871 	90.1515 	116.682 	-0.626074 	113.513 	360.64 	123.488 	539.805 	
56.3766 	-0.0177665 	-0.554074 	0.933252 	0.919161 	-0.0159255 	-3.13873 	90.1515 	116.682 	-0.626074 	113.513 	360.64 	123.752 	539.805 	
56.4796 	-0.0177798 	-0.54941 	0.939188 	0.890534 	-0.015976 	-3.13918 	90.1515 	116.682 	-0.626074 	113.514 	360.64 	125.441 	539.805 	
56.5826 	-0.0177904 	-0.544097 	0.945546 	0.859115 	-0.0160163 	-3.13969 	90.1515 	116.682 	-0.626074 	113.513 	360.64 	127.604 	539.805 	
56.6855 	-0.0177978 	-0.537338 	0.953086 	0.820713 	-0.0160442 	-3.1403 	90.1515 	116.682 	-0.626074 	113.514 	360.64 	129.626 	539.805 	
56.7887 	-0.0177991 	-0.531595 	0.959058 	0.789294 	-0.0160493 	-3.14081 	90.1515 	116.682 	-0.626074 	113.514 	360.64 	131.621 	539.805 	
56.8918 	-0.0177951 	-0.524326 	0.966108 	0.750892 	-0.0160342 	-3.14142 	90.1515 	116.682 	-0.626074 	113.513 	360.64 	133.821 	539.805 	
56.9947 	-0.0177861 	-0.517487 	0.972271 	0.715982 	-0.0159999 	3.1412 	90.1515 	116.682 	-0.626074 	113.513 	360.64 	135.83 	539.805 	
57.0988 	-0.0177719 	-0.510437 	0.978192 	0.681071 	-0.0159461 	3.14065 	90.1515 	116.682 	-0.626074 	113.514 	360.64 	137.852 	539.805 	
57.2016 	-0.0177526 	-0.503185 	0.983863 	0.646161 	-0.0158728 	3.14009 	90.1515 	116.682 	-0.626074 	113.513 	360.64 	140.057 	539.805 	
57.3055 	-0.0177282 	-0.49574 	0.989277 	0.611251 	-0.0157802 	3.13954 	90.1515 	116.682 	-0.626074 	113.513 	360.64 	142.034 	539.805 	
57.4085 	-0.0176987 	-0.48811 	0.994428 	0.57634 	-0.0156684 	3.13899 	90.1515 	116.682 	-0.626074 	113.513 	360.64 	144.039 	539.805 	
57.5115 	-0.0176679 	-0.481093 	0.998834 	0.544921 	-0.0155515 	3.1385 	90.1515 	116.682 	-0.626074 	113.513 	360.64 	146.263 	539.805 	
57.6146 	-0.0176247 	-0.472334 	1.00392 	0.506521 	-0.0153877 	3.1379 	90.1515 	116.682 	-0.626074 	113.513 	360.64 	148.27 	539.805 	
57.7177 	-0.0175849 	-0.465027 	1.00782 	0.475102 	-0.0152369 	3.13742 	90.1515 	116.682 	-0.626074 	113.513 	360.64 	150.256 	539.805 	
57.8205 	-0.0174767 	-0.447527 	1.01603 	0.401792 	-0.0148266 	3.13632 	90.1515 	116.682 	-0.626074 	113.513 	360.64 	152.274 	539.805 	
57.9228 	-0.0174177 	-0.438993 	1.01948 	0.366883 	-0.0146031 	3.13581 	90.1515 	116.682 	-0.626074 	113.513 	360.64 	154.511 	539.805 	
58.0257 	-0.0173541 	-0.430344 	1.02263 	0.331974 	-0.0143618 	3.1353 	90.1515 	116.682 	-0.626074 	113.513 	360.64 	156.48 	539.805 	
58.129 	-0.0172859 	-0.42159 	1.02548 	0.297065 	-0.0141031 	3.1348 	90.1515 	116.682 	-0.626074 	113.513 	360.64 	158.495 	539.805 	
58.2391 	-0.0172206 	-0.413631 	1.02778 	0.265648 	-0.0138555 	3.13436 	90.1515 	116.682 	-0.626074 	113.513 	360.64 	160.711 	539.805 	
58.3386 	-0.0171438 	-0.404708 	1.03005 	0.23074 	-0.0135643 	3.13389 	90.1515 	116.682 	-0.626074 	113.513 	360.64 	162.712 	539.805 	
58.4419 	-0.0170543 	-0.394808 	1.03217 	0.192341 	-0.013225 	3.13337 	90.1515 	116.682 	-0.626074 	113.512 	360.64 	164.923 	539.805 	
58.545 	-0.0169685 	-0.385743 	1.03378 	0.157433 	-0.0128996 	3.13292 	90.1515 	116.682 	-0.626074 	113.512 	360.64 	166.921 	539.805 	
58.648 	-0.0168785 	-0.376627 	1.03506 	0.122526 	-0.0125585 	3.13247 	90.1515 	116.682 	-0.626074 	113.512 	360.64 	168.945 	539.805 	
58.7513 	-0.0167941 	-0.36839 	1.03595 	0.0911099 	-0.0122384 	3.13208 	90.1515 	116.682 	-0.626074 	113.512 	360.64 	170.944 	539.805 	
58.854 	-0.0166966 	-0.359209 	1.03663 	0.0562034 	-0.0118685 	3.13166 	90.1516 	116.682 	-0.626074 	113.512 	360.64 	173.134 	539.805 	
58.9568 	-0.0165849 	-0.34909 	1.037 	0.0178065 	-0.0114451 	3.13121 	90.1515 	116.682 	-0.626074 	113.512 	360.64 	175.157 	539.805 	
59.0601 	-0.0164902 	-0.340805 	1.03702 	-0.0136089 	-0.011086 	3.13086 	90.1515 	116.682 	-0.626074 	113.511 	360.64 	177.181 	539.805 	
59.1633 	-0.0163705 	-0.330685 	1.03669 	-0.0520053 	-0.0106323 	3.13044 	90.1515 	116.682 	-0.626074 	113.511 	360.64 	179.362 	539.805 	
59.2663 	-0.0162696 	-0.322419 	1.03613 	-0.0834201 	-0.0102494 	3.13011 	90.1515 	116.682 	-0.626074 	113.511 	360.64 	181.365 	539.805 	
59.3692 	-0.0161425 	-0.312347 	1.03509 	-0.121816 	-0.00976778 	3.12973 	90.1516 	116.682 	-0.626074 	113.511 	360.64 	183.401 	539.805 	
59.4722 	-0.0160237 	-0.30323 	1.03382 	-0.15672 	-0.0093174 	3.1294 	90.1515 	116.682 	-0.626074 	113.51 	360.64 	185.573 	539.805 	
59.5753 	-0.015902 	-0.294164 	1.03222 	-0.191625 	-0.00885567 	3.12908 	90.1516 	116.682 	-0.626074 	113.51 	360.64 	187.573 	539.805 	
59.6783 	-0.0157773 	-0.285159 	1.03031 	-0.226529 	-0.00838315 	3.12878 	90.1515 	116.682 	-0.626074 	113.51 	360.64 	189.59 	539.805 	
59.7814 	-0.01565 	-0.276226 	1.02809 	-0.261433 	-0.00790042 	3.12849 	90.1516 	116.682 	-0.626074 	113.509 	360.641 	191.608 	539.805 	
59.8848 	-0.0155202 	-0.267377 	1.02556 	-0.296336 	-0.00740806 	3.12823 	90.1515 	116.682 	-0.626074 	113.509 	360.641 	193.802 	539.805 	
59.9875 	-0.0153879 	-0.258621 	1.02272 	-0.33124 	-0.00690669 	3.12798 	90.1516 	116.682 	-0.626074 	113.509 	360.641 	195.815 	539.805 	
60.0905 	-0.0152535 	-0.24997 	1.01957 	-0.366143 	-0.0063969 	3.12775 	90.1515 	116.682 	-0.626074 	113.508 	360.641 	197.824 	539.805 	
60.1987 	-0.015117 	-0.241433 	1.01613 	-0.401046 	-0.00587931 	3.12753 	90.1515 	116.682 	-0.626074 	113.508 	360.64 	200.023 	539.805 	
60.3012 	-0.0149786 	-0.233022 	1.01239 	-0.435948 	-0.00535457 	3.12734 	90.1515 	116.682 	-0.626074 	113.508 	360.64 	202.015 	539.805 	
60.4044 	-0.0148385 	-0.224747 	1.00836 	-0.470851 	-0.0048233 	3.12716 	90.1515 	116.682 	-0.626074 	113.507 	360.641 	204.244 	539.805 	
60.5071 	-0.0146968 	-0.216618 	1.00404 	-0.505753 	-0.00428616 	3.127 	90.1515 	116.682 	-0.626074 	113.507 	360.641 	206.27 	539.805 	
60.6101 	-0.0145537 	-0.208644 	0.999441 	-0.540655 	-0.0037438 	3.12686 	90.1515 	116.682 	-0.626074 	113.507 	360.641 	208.243 	539.805 	
60.7151 	-0.0142642 	-0.193202 	0.989423 	-0.610459 	-0.00264607 	3.12664 	90.1515 	116.682 	-0.626074 	113.506 	360.641 	210.442 	539.805 	
60.8183 	-0.0141181 	-0.185753 	0.984016 	-0.645361 	-0.00209203 	3.12655 	90.1515 	116.682 	-0.626074 	113.506 	360.641 	212.465 	539.805 	
60.9215 	-0.0139713 	-0.178497 	0.978352 	-0.680262 	-0.00153544 	3.12649 	90.1515 	116.682 	-0.626074 	113.506 	360.641 	214.474 	539.805 	
61.0243 	-0.013824 	-0.171443 	0.972438 	-0.715164 	-0.000976985 	3.12645 	90.1515 	116.682 	-0.626074 	113.506 	360.641 	216.66 	539.805 	
61.1273 	-0.0136764 	-0.1646 	0.966282 	-0.750066 	-0.000417336 	3.12642 	90.1516 	116.682 	-0.626074 	113.505 	360.641 	218.665 	539.805 	
61.2308 	-0.0135286 	-0.157975 	0.959891 	-0.784967 	0.000142816 	3.12642 	90.1515 	116.682 	-0.626074 	113.505 	360.641 	220.689 	539.805 	
61.3374 	-0.0133809 	-0.151578 	0.953272 	-0.819869 	0.000702798 	3.12643 	90.1515 	116.682 	-0.626074 	113.504 	360.641 	222.893 	539.805 	
61.4406 	-0.0132335 	-0.145416 	0.946434 	-0.85477 	0.00126192 	3.12647 	90.1516 	116.682 	-0.626074 	113.504 	360.641 	224.872 	539.805 	
61.5436 	-0.0130864 	-0.139497 	0.939385 	-0.889672 	0.00181951 	3.12652 	90.1515 	116.682 	-0.626074 	113.504 	360.641 	227.102 	539.805 	
61.6467 	-0.0129399 	-0.133827 	0.932134 	-0.924574 	0.00237488 	3.12659 	90.1516 	116.682 	-0.626074 	113.503 	360.641 	229.113 	539.805 	
61.7497 	-0.0127942 	-0.128413 	0.924689 	-0.959476 	0.00292736 	3.12669 	90.1515 	116.682 	-0.626074 	113.503 	360.641 	231.093 	539.805 	
61.8527 	-0.0126494 	-0.123263 	0.91706 	-0.994378 	0.00347627 	3.1268 	90.1515 	116.682 	-0.626074 	113.503 	360.641 	233.288 	539.805 	
61.956 	-0.0125058 	-0.118382 	0.909256 	-1.02928 	0.00402095 	3.12693 	90.1515 	116.682 	-0.626074 	113.502 	360.641 	235.315 	539.805 	
62.0586 	-0.0123634 	-0.113776 	0.901286 	-1.06418 	0.00456073 	3.12708 	90.1515 	116.682 	-0.626074 	113.502 	360.641 	237.323 	539.805 	
62.1621 	-0.0122365 	-0.109871 	0.89398 	-1.09559 	0.0050418 	3.12723 	90.1516 	116.682 	-0.626074 	113.502 	360.641 	239.299 	539.805 	
62.2647 	-0.0120833 	-0.105413 	0.884889 	-1.13399 	0.00562298 	3.12743 	90.1515 	116.682 	-0.626074 	113.502 	360.641 	241.509 	539.805 	
62.3676 	-0.0119458 	-0.101666 	0.876481 	-1.16889 	0.00614415 	3.12764 	90.1515 	116.682 	-0.626074 	113.501 	360.641 	243.538 	539.805 	
62.4708 	-0.0118103 	-0.0982139 	0.867948 	-1.20379 	0.00665784 	3.12786 	90.1515 	116.683 	-0.626074 	113.501 	360.641 	245.518 	539.805 	
62.5739 	-0.011677 	-0.0950623 	0.859299 	-1.2387 	0.00716342 	3.1281 	90.1515 	116.683 	-0.626074 	113.501 	360.641 	247.713 	539.805 	
62.6766 	-0.0115459 	-0.0922144 	0.850546 	-1.2736 	0.00766027 	3.12836 	90.1515 	116.683 	-0.626074 	113.5 	360.641 	249.724 	539.805 	
62.7799 	-0.0114174 	-0.0896737 	0.841698 	-1.3085 	0.00814779 	3.12864 	90.1515 	116.683 	-0.626074 	113.499 	360.641 	251.745 	539.805 	
62.8829 	-0.0112914 	-0.0874434 	0.832767 	-1.34341 	0.00862539 	3.12893 	90.1515 	116.683 	-0.626074 	113.499 	360.641 	253.897 	539.805 	
62.9858 	-0.0111682 	-0.0855261 	0.823764 	-1.37831 	0.00909248 	3.12924 	90.1515 	116.683 	-0.626074 	113.499 	360.641 	255.931 	539.805 	
63.0888 	-0.0110479 	-0.0839242 	0.814699 	-1.41322 	0.00954852 	3.12957 	90.1515 	116.683 	-0.626074 	113.498 	360.641 	257.957 	539.805 	
63.1923 	-0.0109307 	-0.0826395 	0.805583 	-1.44813 	0.00999293 	3.12991 	90.1515 	116.683 	-0.626074 	113.498 	360.641 	259.946 	539.805 	
63.299 	-0.0108167 	-0.0816738 	0.796427 	-1.48303 	0.0104252 	3.13026 	90.1515 	116.683 	-0.626074 	113.497 	360.641 	262.114 	539.805 	
63.4016 	-0.0107061 	-0.0810283 	0.787244 	-1.51794 	0.0108447 	3.13063 	90.1516 	116.683 	-0.626074 	113.497 	360.641 	264.132 	539.805 	
63.5048 	-0.0105989 	-0.0807036 	0.778044 	-1.55285 	0.011251 	3.13102 	90.1515 	116.683 	-0.626074 	113.497 	360.641 	266.352 	539.805 	
63.6095 	-0.0104954 	-0.0807003 	0.768838 	-1.58776 	0.0116437 	3.13142 	90.1515 	116.683 	-0.626074 	113.496 	360.641 	268.317 	539.805 	
63.7136 	-0.0104054 	-0.080972 	0.760556 	-1.61918 	0.0119849 	3.13179 	90.1516 	116.683 	-0.626074 	113.496 	360.641 	270.518 	539.805 	
63.8167 	-0.0102996 	-0.0816571 	0.750453 	-1.65758 	0.0123859 	3.13226 	90.1515 	116.683 	-0.626074 	113.496 	360.641 	272.552 	539.805 	
63.9196 	-0.0101198 	-0.0838942 	0.73218 	-1.7274 	0.0130677 	3.13315 	90.1516 	116.683 	-0.626074 	113.495 	360.641 	274.548 	539.805 	
64.0228 	-0.0100443 	-0.0853158 	0.724017 	-1.75882 	0.013354 	3.13356 	90.1515 	116.683 	-0.626074 	113.495 	360.641 	276.696 	539.805 	
64.1255 	-0.00995676 	-0.0874005 	0.714107 	-1.79722 	0.0136859 	3.13408 	90.1515 	116.683 	-0.626074 	113.495 	360.641 	278.719 	539.805 	
64.2291 	-0.00988179 	-0.0896245 	0.705173 	-1.83213 	0.0139702 	3.13456 	90.1516 	116.683 	-0.626074 	113.494 	360.641 	280.736 	539.805 	
64.338 	-0.00981131 	-0.092159 	0.696322 	-1.86704 	0.0142375 	3.13506 	90.1515 	116.683 	-0.626074 	113.494 	360.641 	282.919 	539.805 	
64.4412 	-0.00975886 	-0.0943786 	0.689396 	-1.89462 	0.0144363 	3.13545 	90.1515 	116.683 	-0.626074 	113.493 	360.641 	284.572 	539.805 	
64.4666 	-0.00975886 	-0.0943786 	0.689396 	-1.89462 	0.0144363 	3.13545 	90.1515 	116.683 	-0.626074 	113.493 	360.641 	284.785 	539.805 	
64.5701 	-0.00975826 	-0.0950606 	0.689343 	-1.895 	0.0144307 	3.13549 	90.1516 	116.683 	-0.626074 	113.713 	360.641 	284.985 	539.805 	
64.6732 	-0.00979 	-0.098972 	0.69392 	-1.8779 	0.0142436 	3.1355 	90.1515 	116.683 	-0.626074 	114.638 	360.641 	285.022 	539.805 	
64.7761 	-0.00982444 	-0.103455 	0.698977 	-1.8587 	0.0140338 	3.13551 	90.1515 	116.683 	-0.626074 	115.616 	360.641 	285.042 	539.805 	
64.8793 	-0.00985465 	-0.107614 	0.703499 	-1.84125 	0.0138433 	3.13553 	90.1515 	116.683 	-0.626074 	116.617 	360.641 	285.044 	539.805 	
64.9824 	-0.00988381 	-0.111851 	0.707948 	-1.82379 	0.0136531 	3.13555 	90.1515 	116.683 	-0.626074 	117.722 	360.641 	285.046 	539.805 	
65.085 	-0.00991191 	-0.116165 	0.712322 	-1.80634 	0.0134633 	3.13557 	90.1515 	116.683 	-0.626074 	118.713 	360.641 	285.047 	539.805 	
65.1881 	-0.00993894 	-0.120555 	0.71662 	-1.78889 	0.0132739 	3.13559 	90.1515 	116.683 	-0.626074 	119.721 	360.641 	285.048 	539.805 	
65.291 	-0.00996489 	-0.125019 	0.720841 	-1.77144 	0.013085 	3.13562 	90.1515 	116.683 	-0.626074 	120.729 	360.641 	285.048 	539.805 	
65.3982 	-0.00998975 	-0.129556 	0.724983 	-1.75399 	0.0128966 	3.13565 	90.1515 	116.683 	-0.626074 	121.831 	360.641 	285.049 	539.805 	
65.501 	-0.0100135 	-0.134165 	0.729045 	-1.73654 	0.0127088 	3.13569 	90.1515 	116.683 	-0.626074 	122.833 	360.641 	285.049 	539.805 	
65.604 	-0.0100362 	-0.138844 	0.733027 	-1.71909 	0.0125217 	3.13573 	90.1515 	116.683 	-0.626074 	123.941 	360.641 	285.049 	539.805 	
65.7071 	-0.0100577 	-0.143591 	0.736926 	-1.70163 	0.0123353 	3.13577 	90.1515 	116.683 	-0.626074 	124.947 	360.641 	285.05 	539.805 	
65.8099 	-0.0100782 	-0.148406 	0.740741 	-1.68418 	0.0121496 	3.13582 	90.1515 	116.683 	-0.626074 	125.952 	360.641 	285.05 	539.805 	
65.9148 	-0.0101157 	-0.158232 	0.748118 	-1.64928 	0.0117807 	3.13592 	90.1515 	116.683 	-0.626074 	127.059 	360.641 	285.05 	539.805 	
66.0166 	-0.0101311 	-0.162737 	0.751325 	-1.63357 	0.0116159 	3.13597 	90.1515 	116.683 	-0.626074 	128.058 	360.641 	285.05 	539.805 	
66.1189 	-0.0101487 	-0.168311 	0.755147 	-1.61437 	0.0114156 	3.13603 	90.1515 	116.683 	-0.626074 	129.066 	360.641 	285.05 	539.805 	
66.2208 	-0.010162 	-0.172925 	0.758195 	-1.59867 	0.0112526 	3.13609 	90.1515 	116.683 	-0.626074 	130.067 	360.641 	285.05 	539.805 	
66.3228 	-0.0101771 	-0.178628 	0.761821 	-1.57947 	0.0110546 	3.13616 	90.1515 	116.683 	-0.626074 	131.171 	360.641 	285.05 	539.805 	
66.4261 	-0.0101883 	-0.183346 	0.764705 	-1.56376 	0.0108937 	3.13622 	90.1515 	116.683 	-0.626074 	132.177 	360.641 	285.05 	539.805 	
66.5289 	-0.0102009 	-0.189172 	0.76813 	-1.54456 	0.0106983 	3.13629 	90.1515 	116.683 	-0.626074 	133.181 	360.641 	285.05 	539.805 	
66.6373 	-0.0102101 	-0.193988 	0.770849 	-1.52886 	0.0105395 	3.13636 	90.1515 	116.683 	-0.626074 	134.283 	360.641 	285.051 	539.805 	
66.7401 	-0.01022 	-0.19993 	0.774068 	-1.50966 	0.010347 	3.13644 	90.1515 	116.683 	-0.626074 	135.282 	360.641 	285.051 	539.805 	
66.8436 	-0.0102271 	-0.204838 	0.776616 	-1.49395 	0.0101906 	3.13652 	90.1515 	116.683 	-0.626074 	136.387 	360.641 	285.051 	539.805 	
66.9463 	-0.0102339 	-0.210336 	0.779357 	-1.4765 	0.0100183 	3.1366 	90.1516 	116.683 	-0.626074 	137.389 	360.641 	285.051 	539.805 	
67.049 	-0.0102395 	-0.215882 	0.782002 	-1.45905 	0.00984738 	3.13668 	90.1515 	116.683 	-0.626074 	138.398 	360.641 	285.051 	539.805 	
67.1515 	-0.010244 	-0.221473 	0.78455 	-1.44159 	0.00967801 	3.13677 	90.1515 	116.683 	-0.626074 	139.402 	360.641 	285.051 	539.805 	
67.2545 	-0.0102472 	-0.227108 	0.786999 	-1.42414 	0.00951021 	3.13686 	90.1515 	116.683 	-0.626074 	140.506 	360.641 	285.051 	539.805 	
67.3574 	-0.0102495 	-0.233355 	0.789579 	-1.40494 	0.00932752 	3.13697 	90.1515 	116.683 	-0.626074 	141.505 	360.641 	285.051 	539.805 	
67.4606 	-0.0102502 	-0.238501 	0.791601 	-1.38924 	0.00917954 	3.13706 	90.1515 	116.683 	-0.626074 	142.514 	360.641 	285.051 	539.805 	
67.5636 	-0.0102499 	-0.244834 	0.793962 	-1.37004 	0.00900058 	3.13717 	90.1515 	116.683 	-0.626074 	143.619 	360.641 	285.051 	539.805 	
67.6666 	-0.0102486 	-0.250048 	0.795803 	-1.35433 	0.00885576 	3.13726 	90.1515 	116.683 	-0.626074 	144.619 	360.641 	285.051 	539.805 	
67.7696 	-0.0102456 	-0.25646 	0.797941 	-1.33514 	0.00868077 	3.13738 	90.1515 	116.683 	-0.626074 	145.622 	360.641 	285.051 	539.805 	
67.8726 	-0.0102418 	-0.262323 	0.799778 	-1.31768 	0.00852365 	3.13749 	90.1515 	116.683 	-0.626074 	146.724 	360.641 	285.051 	539.805 	
67.9757 	-0.0102367 	-0.268217 	0.801512 	-1.30023 	0.00836845 	3.1376 	90.1515 	116.683 	-0.626074 	147.735 	360.641 	285.051 	539.805 	
68.0786 	-0.0102311 	-0.273547 	0.802985 	-1.28452 	0.00823046 	3.1377 	90.1515 	116.683 	-0.626074 	148.735 	360.641 	285.051 	539.805 	
68.1817 	-0.0102239 	-0.279496 	0.804523 	-1.26707 	0.00807905 	3.13782 	90.1515 	116.682 	-0.626074 	149.74 	360.641 	285.051 	539.805 	
68.2848 	-0.0102145 	-0.286069 	0.806094 	-1.24787 	0.00791487 	3.13795 	90.1515 	116.682 	-0.626074 	150.841 	360.641 	285.051 	539.805 	
68.3876 	-0.0102048 	-0.29207 	0.807413 	-1.23042 	0.00776784 	3.13807 	90.1515 	116.682 	-0.626074 	151.849 	360.641 	285.051 	539.805 	
68.4911 	-0.0101939 	-0.298093 	0.808627 	-1.21297 	0.00762295 	3.13819 	90.1515 	116.682 	-0.626074 	152.846 	360.641 	285.051 	539.805 	
68.5988 	-0.0101818 	-0.304136 	0.809736 	-1.19552 	0.00748027 	3.13832 	90.1515 	116.682 	-0.626074 	153.95 	360.641 	285.051 	539.805 	
68.7016 	-0.0101686 	-0.310198 	0.810739 	-1.17806 	0.00733983 	3.13845 	90.1515 	116.682 	-0.626074 	154.958 	360.641 	285.051 	539.805 	
68.805 	-0.0101543 	-0.316276 	0.811636 	-1.16061 	0.00720167 	3.13858 	90.1515 	116.682 	-0.626074 	156.062 	360.641 	285.051 	539.805 	
68.9105 	-0.0101239 	-0.327864 	0.813047 	-1.12745 	0.0069456 	3.13884 	90.1515 	116.682 	-0.626074 	157.072 	360.641 	285.051 	539.805 	
69.0137 	-0.0101044 	-0.334592 	0.813689 	-1.10825 	0.00680131 	3.13899 	90.1515 	116.682 	-0.626074 	158.172 	360.641 	285.051 	539.805 	
69.1166 	-0.0100874 	-0.340105 	0.814117 	-1.09255 	0.00668545 	3.13912 	90.1515 	116.682 	-0.626074 	159.18 	360.641 	285.051 	539.805 	
69.2198 	-0.0100675 	-0.346237 	0.814492 	-1.0751 	0.00655907 	3.13926 	90.1515 	116.682 	-0.626074 	160.175 	360.641 	285.051 	539.805 	
69.3223 	-0.0100465 	-0.352376 	0.814759 	-1.05764 	0.00643522 	3.13941 	90.1515 	116.682 	-0.626074 	161.186 	360.641 	285.051 	539.805 	
69.4258 	-0.0100243 	-0.358517 	0.81492 	-1.04019 	0.00631393 	3.13956 	90.1515 	116.682 	-0.626074 	162.29 	360.641 	285.051 	539.805 	
69.5288 	-0.0100011 	-0.364661 	0.814973 	-1.02274 	0.00619523 	3.13971 	90.1515 	116.682 	-0.626074 	163.288 	360.641 	285.051 	539.805 	
69.6318 	-0.00997671 	-0.370805 	0.814919 	-1.00529 	0.00607917 	3.13986 	90.1515 	116.682 	-0.626074 	164.295 	360.641 	285.051 	539.805 	
69.7375 	-0.00995127 	-0.376947 	0.814757 	-0.987833 	0.00596578 	3.14001 	90.1515 	116.682 	-0.626074 	165.403 	360.641 	285.051 	539.805 	
69.8408 	-0.00992475 	-0.383085 	0.814489 	-0.970381 	0.00585508 	3.14017 	90.1515 	116.682 	-0.626074 	166.406 	360.641 	285.051 	539.805 	
69.9437 	-0.00989715 	-0.389218 	0.814113 	-0.952928 	0.00574713 	3.14033 	90.1515 	116.682 	-0.626074 	167.509 	360.641 	285.051 	539.805 	
70.0468 	-0.00986849 	-0.395343 	0.813631 	-0.935476 	0.00564194 	3.14049 	90.1515 	116.682 	-0.626074 	168.51 	360.641 	285.051 	539.805 	
70.1499 	-0.00983877 	-0.401459 	0.813041 	-0.918024 	0.00553956 	3.14065 	90.1515 	116.681 	-0.626074 	169.518 	360.641 	285.051 	539.805 	
70.253 	-0.00980799 	-0.407563 	0.812345 	-0.900571 	0.00544 	3.14081 	90.1515 	116.681 	-0.626074 	170.526 	360.641 	285.051 	539.805 	
70.3562 	-0.00977618 	-0.413654 	0.811543 	-0.883119 	0.00534331 	3.14098 	90.1515 	116.681 	-0.626074 	171.629 	360.641 	285.051 	539.805 	
70.459 	-0.00974334 	-0.419731 	0.810634 	-0.865666 	0.00524951 	3.14114 	90.1515 	116.681 	-0.626074 	172.63 	360.641 	285.051 	539.805 	
70.5618 	-0.00970948 	-0.425791 	0.809619 	-0.848214 	0.00515864 	3.14131 	90.1515 	116.681 	-0.626074 	173.635 	360.641 	285.051 	539.805 	
70.6648 	-0.00967106 	-0.432434 	0.808381 	-0.829016 	0.00506208 	3.1415 	90.1515 	116.681 	-0.626074 	174.744 	360.641 	285.051 	539.805 	
70.7682 	-0.00963509 	-0.438453 	0.807145 	-0.811564 	0.00497742 	-3.14152 	90.1515 	116.681 	-0.626074 	175.741 	360.641 	285.051 	539.805 	
70.8711 	-0.00960188 	-0.44385 	0.805943 	-0.795857 	0.0049038 	-3.14136 	90.1515 	116.681 	-0.626074 	176.744 	360.641 	285.051 	539.805 	
70.9743 	-0.00956021 	-0.45042 	0.804359 	-0.776659 	0.00481715 	-3.14117 	90.1515 	116.681 	-0.626074 	177.849 	360.641 	285.051 	539.805 	
71.077 	-0.00952524 	-0.455773 	0.80297 	-0.760952 	0.00474899 	-3.14101 	90.1515 	116.681 	-0.626074 	178.855 	360.641 	285.051 	539.805 	
71.1801 	-0.00948549 	-0.461693 	0.801327 	-0.743499 	0.00467619 	-3.14084 	90.1515 	116.681 	-0.626074 	179.855 	360.641 	285.051 	539.805 	
71.2831 	-0.00944479 	-0.467584 	0.799582 	-0.726047 	0.00460648 	-3.14066 	90.1515 	116.681 	-0.626074 	180.859 	360.641 	285.051 	539.805 	
71.386 	-0.00939896 	-0.474027 	0.797543 	-0.706849 	0.0045334 	-3.14046 	90.1515 	116.681 	-0.626074 	181.96 	360.641 	285.051 	539.805 	
71.4893 	-0.00936063 	-0.479269 	0.795784 	-0.691142 	0.00447643 	-3.1403 	90.1515 	116.681 	-0.626074 	182.966 	360.641 	285.051 	539.805 	
71.5924 	-0.00931279 	-0.485638 	0.793521 	-0.671944 	0.00441028 	-3.1401 	90.1515 	116.681 	-0.626074 	183.962 	360.641 	285.051 	539.805 	
71.6994 	-0.00926837 	-0.491389 	0.791359 	-0.654491 	0.00435347 	-3.13992 	90.1515 	116.68 	-0.626074 	185.073 	360.641 	285.051 	539.805 	
71.8019 	-0.00922307 	-0.497101 	0.789097 	-0.637039 	0.00429986 	-3.13973 	90.1515 	116.68 	-0.626074 	186.072 	360.641 	285.051 	539.805 	
71.9048 	-0.00918157 	-0.502208 	0.786976 	-0.621332 	0.00425435 	-3.13957 	90.1515 	116.68 	-0.626074 	187.175 	360.641 	285.051 	539.805 	
72.0114 	-0.00912991 	-0.508403 	0.784275 	-0.602134 	0.00420228 	-3.13936 	90.1515 	116.68 	-0.626074 	188.177 	360.641 	285.051 	539.805 	
72.1141 	-0.00908689 	-0.513432 	0.781977 	-0.586426 	0.00416258 	-3.1392 	90.1515 	116.68 	-0.626074 	189.285 	360.641 	285.051 	539.805 	
72.2171 	-0.00898893 	-0.524475 	0.776589 	-0.551521 	0.00408382 	-3.13882 	90.1515 	116.68 	-0.626074 	190.277 	360.641 	285.051 	539.805 	
72.3198 	-0.00893876 	-0.529925 	0.773752 	-0.534069 	0.00404936 	-3.13863 	90.1515 	116.68 	-0.626074 	191.287 	360.641 	285.051 	539.805 	
72.4232 	-0.00888781 	-0.535324 	0.77082 	-0.516616 	0.00401817 	-3.13844 	90.1515 	116.68 	-0.626074 	192.288 	360.641 	285.051 	539.805 	
72.5261 	-0.0088361 	-0.540671 	0.767794 	-0.499164 	0.00399028 	-3.13826 	90.1515 	116.68 	-0.626074 	193.387 	360.641 	285.051 	539.805 	
72.6292 	-0.00878366 	-0.545964 	0.764675 	-0.481711 	0.00396569 	-3.13807 	90.1515 	116.68 	-0.626074 	194.388 	360.641 	285.051 	539.805 	
72.7372 	-0.00873048 	-0.551203 	0.761464 	-0.464259 	0.00394442 	-3.13788 	90.1515 	116.68 	-0.626074 	195.49 	360.641 	285.051 	539.805 	
72.8401 	-0.00867659 	-0.556384 	0.758163 	-0.446806 	0.00392647 	-3.13769 	90.1515 	116.68 	-0.626074 	196.494 	360.641 	285.051 	539.805 	
72.9432 	-0.00862201 	-0.561507 	0.754771 	-0.429353 	0.00391184 	-3.1375 	90.1515 	116.68 	-0.626074 	197.495 	360.641 	285.051 	539.805 	
73.0462 	-0.00856674 	-0.56657 	0.751291 	-0.411901 	0.00390053 	-3.1373 	90.1515 	116.68 	-0.626074 	198.591 	360.641 	285.051 	539.805 	
73.1494 	-0.00851082 	-0.571571 	0.747722 	-0.394448 	0.00389256 	-3.13711 	90.1515 	116.68 	-0.626074 	199.597 	360.641 	285.051 	539.805 	
73.2521 	-0.00845425 	-0.576509 	0.744067 	-0.376996 	0.00388792 	-3.13692 	90.1515 	116.68 	-0.626074 	200.594 	360.641 	285.051 	539.805 	
73.3554 	-0.00839706 	-0.581383 	0.740326 	-0.359543 	0.00388662 	-3.13673 	90.1515 	116.68 	-0.626074 	201.698 	360.641 	285.051 	539.805 	
73.4584 	-0.00833925 	-0.586191 	0.736501 	-0.342091 	0.00388866 	-3.13654 	90.1515 	116.679 	-0.626074 	202.701 	360.641 	285.05 	539.805 	
73.5614 	-0.00828086 	-0.590931 	0.732593 	-0.324638 	0.00389402 	-3.13635 	90.1515 	116.679 	-0.626074 	203.701 	360.641 	285.05 	539.805 	
73.6643 	-0.00822189 	-0.595603 	0.728602 	-0.307185 	0.00390273 	-3.13616 	90.1515 	116.679 	-0.626074 	204.804 	360.641 	285.05 	539.805 	
73.7673 	-0.00816236 	-0.600203 	0.72453 	-0.289733 	0.00391476 	-3.13597 	90.1515 	116.679 	-0.626074 	205.8 	360.641 	285.05 	539.805 	
73.8705 	-0.00810229 	-0.604733 	0.720379 	-0.27228 	0.00393012 	-3.13578 	90.1515 	116.679 	-0.626074 	206.802 	360.641 	285.05 	539.805 	
73.9734 	-0.00803562 	-0.60963 	0.715722 	-0.253083 	0.00395085 	-3.13557 	90.1515 	116.679 	-0.626074 	207.805 	360.641 	285.05 	539.805 	
74.0765 	-0.00798062 	-0.61357 	0.711843 	-0.237375 	0.0039708 	-3.1354 	90.1515 	116.679 	-0.626074 	208.903 	360.641 	285.05 	539.805 	
74.1796 	-0.00791905 	-0.617876 	0.70746 	-0.219923 	0.00399611 	-3.13521 	90.1515 	116.679 	-0.626074 	209.91 	360.641 	285.05 	539.805 	
74.2826 	-0.00785701 	-0.622104 	0.703003 	-0.20247 	0.00402472 	-3.13502 	90.1515 	116.679 	-0.626074 	210.909 	360.641 	285.05 	539.805 	
74.3855 	-0.00778826 	-0.626665 	0.698016 	-0.183272 	0.00406 	-3.13481 	90.1515 	116.679 	-0.626074 	212.01 	360.641 	285.05 	539.805 	
74.4886 	-0.00773163 	-0.630325 	0.693871 	-0.167565 	0.00409182 	-3.13464 	90.1515 	116.679 	-0.626074 	213.012 	360.641 	285.049 	539.805 	
74.5917 	-0.00766196 	-0.634709 	0.688727 	-0.148367 	0.00413431 	-3.13444 	90.1515 	116.679 	-0.626074 	214.012 	360.641 	285.049 	539.805 	
74.6987 	-0.00759822 	-0.638608 	0.683979 	-0.130915 	0.00417636 	-3.13425 	90.1515 	116.679 	-0.626074 	215.113 	360.641 	285.049 	539.805 	
74.8015 	-0.00753412 	-0.642423 	0.679164 	-0.113462 	0.00422166 	-3.13406 	90.1515 	116.679 	-0.626074 	216.114 	360.641 	285.049 	539.805 	
74.9055 	-0.00747613 	-0.645785 	0.674774 	-0.0977551 	0.00426519 	-3.1339 	90.1515 	116.679 	-0.626074 	217.216 	360.641 	285.049 	539.805 	
75.0118 	-0.00741138 	-0.649439 	0.669835 	-0.0803025 	0.00431662 	-3.13371 	90.1515 	116.679 	-0.626074 	218.215 	360.641 	285.049 	539.805 	
75.1144 	-0.00728097 	-0.656485 	0.659769 	-0.0453974 	0.00442908 	-3.13335 	90.1515 	116.679 	-0.626074 	219.309 	360.641 	285.049 	539.805 	
75.2178 	-0.00721536 	-0.659875 	0.654645 	-0.0279448 	0.00449007 	-3.13317 	90.1515 	116.678 	-0.626074 	220.308 	360.641 	285.049 	539.805 	
75.3207 	-0.00714949 	-0.663175 	0.649463 	-0.0104924 	0.00455422 	-3.13299 	90.1515 	116.678 	-0.626074 	221.311 	360.641 	285.049 	539.805 	
75.4236 	-0.0070834 	-0.666384 	0.644224 	0.00696014 	0.0046215 	-3.13281 	90.1515 	116.678 	-0.626074 	222.314 	360.641 	285.048 	539.805 	
75.5266 	-0.00701709 	-0.669502 	0.63893 	0.0244126 	0.00469189 	-3.13263 	90.1515 	116.678 	-0.626074 	223.417 	360.641 	285.048 	539.805 	
75.6297 	-0.00695059 	-0.672526 	0.633582 	0.0418651 	0.00476537 	-3.13245 	90.1515 	116.678 	-0.626074 	224.41 	360.641 	285.048 	539.805 	
75.7376 	-0.00688393 	-0.675457 	0.628182 	0.0593174 	0.00484191 	-3.13228 	90.1515 	116.678 	-0.626074 	225.51 	360.641 	285.048 	539.805 	
75.8407 	-0.00681712 	-0.678293 	0.622732 	0.0767699 	0.00492151 	-3.1321 	90.1515 	116.678 	-0.626074 	226.506 	360.641 	285.048 	539.805 	
75.9436 	-0.00675018 	-0.681033 	0.617234 	0.0942224 	0.00500412 	-3.13193 	90.1515 	116.678 	-0.626074 	227.512 	360.641 	285.048 	539.805 	
76.0467 	-0.00668313 	-0.683677 	0.611688 	0.111675 	0.00508973 	-3.13176 	90.1515 	116.678 	-0.626074 	228.61 	360.641 	285.048 	539.805 	
76.1497 	-0.00661599 	-0.686224 	0.606097 	0.129127 	0.00517831 	-3.13159 	90.1515 	116.678 	-0.626074 	229.61 	360.641 	285.048 	539.805 	
76.2528 	-0.00654879 	-0.688673 	0.600462 	0.14658 	0.00526983 	-3.13142 	90.1515 	116.678 	-0.626074 	230.609 	360.641 	285.047 	539.805 	
76.3558 	-0.00648154 	-0.691023 	0.594786 	0.164032 	0.00536427 	-3.13126 	90.1515 	116.678 	-0.626074 	231.712 	360.641 	285.047 	539.805 	
76.4588 	-0.00641426 	-0.693274 	0.589069 	0.181485 	0.00546159 	-3.13109 	90.1515 	116.677 	-0.626074 	232.706 	360.641 	285.047 	539.805 	
76.5618 	-0.00634698 	-0.695424 	0.583314 	0.198937 	0.00556176 	-3.13093 	90.1515 	116.677 	-0.626074 	233.714 	360.641 	285.047 	539.805 	
76.6649 	-0.00627971 	-0.697474 	0.577522 	0.21639 	0.00566477 	-3.13077 	90.1515 	116.676 	-0.626074 	234.804 	360.641 	285.047 	539.805 	
76.768 	-0.00621248 	-0.699422 	0.571696 	0.233842 	0.00577056 	-3.13061 	90.1515 	116.666 	-0.626074 	235.812 	360.641 	285.047 	539.805 	
76.8709 	-0.0061453 	-0.701269 	0.565836 	0.251294 	0.00587912 	-3.13045 	90.1515 	116.665 	-0.626074 	236.809 	360.641 	285.047 	539.805 	
76.9737 	-0.0060782 	-0.703013 	0.559945 	0.268747 	0.00599041 	-3.1303 	90.1515 	116.665 	-0.626074 	237.808 	360.641 	285.046 	539.805 	
77.0766 	-0.00601119 	-0.704653 	0.554025 	0.286199 	0.00610439 	-3.13014 	90.1515 	116.665 	-0.626074 	238.908 	360.641 	285.046 	539.805 	
77.1801 	-0.00594431 	-0.70619 	0.548076 	0.303651 	0.00622104 	-3.12999 	90.1515 	116.665 	-0.626074 	239.901 	360.641 	285.046 	539.805 	
77.2829 	-0.00587756 	-0.707623 	0.542102 	0.321104 	0.0063403 	-3.12984 	90.1515 	116.665 	-0.625977 	240.903 	360.641 	285.045 	539.805 	
77.3859 	-0.00581096 	-0.708952 	0.536103 	0.338556 	0.00646216 	-3.1297 	90.1515 	116.665 	-0.625977 	242 	360.641 	285.044 	539.805 	
77.4891 	-0.00574455 	-0.710176 	0.530083 	0.356008 	0.00658657 	-3.12955 	90.1515 	116.665 	-0.626074 	242.999 	360.641 	285.044 	539.805 	
77.5922 	-0.00567172 	-0.7114 	0.523437 	0.375206 	0.00672632 	-3.12939 	90.1515 	116.665 	-0.625977 	244.008 	360.641 	285.043 	539.805 	
77.699 	-0.00561234 	-0.712307 	0.517982 	0.390913 	0.00684288 	-3.12927 	90.1515 	116.665 	-0.625977 	245.103 	360.641 	285.043 	539.805 	
77.8017 	-0.00554002 	-0.713299 	0.511297 	0.410111 	0.00698803 	-3.12912 	90.1515 	116.665 	-0.626074 	246.1 	360.641 	285.042 	539.805 	
77.9049 	-0.00548108 	-0.714014 	0.505814 	0.425818 	0.00710894 	-3.12899 	90.1515 	116.665 	-0.625977 	247.2 	360.641 	285.041 	539.805 	
78.0102 	-0.00540935 	-0.714772 	0.499099 	0.445016 	0.00725931 	-3.12885 	90.1515 	116.665 	-0.625977 	248.199 	360.641 	285.04 	539.805 	
78.1136 	-0.00535093 	-0.715296 	0.493594 	0.460723 	0.00738442 	-3.12873 	90.1515 	116.665 	-0.625977 	249.189 	360.641 	285.037 	539.805 	
78.2166 	-0.00522206 	-0.716151 	0.481337 	0.495627 	0.00766897 	-3.12847 	90.1515 	116.665 	-0.625977 	250.298 	360.641 	285.031 	539.805 	
78.3199 	-0.00515815 	-0.716417 	0.475199 	0.51308 	0.00781454 	-3.12835 	90.1515 	116.665 	-0.625977 	251.296 	360.641 	285.029 	539.805 	
