RISC-NYUAD/HeavyPayloadDrone/projects/kinova-ros/devel/lib/ne_kinova_demo/VulcanTrajectory/Vulcan1_Vicon_y19m11d13h19min19.csv
time (NSec) 	Kinova Tip Position (t_x) 	t_y 	t_z 	Kinova Tip Angle (theta_x) 	Kinova Tip Angle (theta_y) 	Kinova Tip Angle (theta_z) 	Kinova Joint Angle (j1) 	(j2) 	(j3) 	(j4) 	Kinova Joint Angle (j5) 	(j6) 	(j7)
2.75518 	-0.00383036 	-0.485763 	-0.243215 	1.76538 	0.0102515 	-3.10831 	90.0095 	62.3263 	-0.550781 	268.825 	360.766 	285.035 	539.184 	
2.77419 	-0.00383036 	-0.485763 	-0.243215 	1.76538 	0.0102515 	-3.10831 	90.0095 	62.3263 	-0.550781 	268.825 	360.766 	285.035 	539.184 	
2.87661 	-0.0038306 	-0.485937 	-0.243052 	1.76505 	0.0102515 	-3.12018 	90.0095 	62.3264 	-0.550781 	268.825 	360.766 	285.035 	539.383 	
2.97871 	-0.0038306 	-0.485937 	-0.243052 	1.76505 	0.0102515 	-3.12542 	90.0095 	62.3264 	-0.550781 	268.825 	360.766 	285.035 	539.747 	
3.08187 	-0.0038306 	-0.485937 	-0.243052 	1.76505 	0.0102515 	-3.12542 	90.0095 	62.3264 	-0.550781 	268.825 	360.766 	285.035 	539.771 	
3.18446 	-0.0038306 	-0.485937 	-0.243052 	1.76505 	0.0102515 	-3.12542 	90.0095 	62.3264 	-0.550781 	268.825 	360.766 	285.035 	539.777 	
3.28733 	-0.0038306 	-0.485937 	-0.243052 	1.76505 	0.0102515 	-3.12542 	90.0095 	62.3264 	-0.550781 	268.825 	360.766 	285.035 	539.781 	
3.3643 	-0.0038306 	-0.485937 	-0.243052 	1.76505 	0.0102515 	-3.12542 	90.0095 	62.3264 	-0.550781 	268.825 	360.766 	285.035 	539.783 	
3.46685 	-0.00386572 	-0.493295 	-0.237782 	1.74794 	0.0101559 	-3.12547 	90.0095 	62.4795 	-0.550781 	268.531 	360.766 	285.035 	539.785 	
3.56944 	-0.0039391 	-0.507844 	-0.226721 	1.71304 	0.00995606 	-3.12558 	90.0095 	63.2854 	-0.550781 	267.65 	360.766 	285.035 	539.787 	
3.67361 	-0.0040129 	-0.522112 	-0.215211 	1.67813 	0.00975899 	-3.12569 	90.0095 	64.2463 	-0.550781 	266.67 	360.766 	285.035 	539.788 	
3.77525 	-0.00408708 	-0.536083 	-0.20326 	1.64323 	0.00956473 	-3.1258 	90.0095 	65.2313 	-0.550781 	265.671 	360.766 	285.035 	539.789 	
3.87761 	-0.0041616 	-0.549745 	-0.190878 	1.60832 	0.00937336 	-3.12592 	90.0095 	66.3195 	-0.550781 	264.576 	360.766 	285.035 	539.79 	
3.98084 	-0.00423643 	-0.563081 	-0.178073 	1.57342 	0.00918492 	-3.12604 	90.0095 	67.3148 	-0.550781 	263.573 	360.766 	285.035 	539.79 	
4.0834 	-0.00431152 	-0.576079 	-0.164854 	1.53851 	0.00899948 	-3.12617 	90.0095 	68.2937 	-0.550781 	262.587 	360.766 	285.035 	539.791 	
4.1856 	-0.00438685 	-0.588726 	-0.151233 	1.50361 	0.00881709 	-3.1263 	90.0095 	69.3745 	-0.550781 	261.592 	360.766 	285.035 	539.791 	
4.28772 	-0.00446238 	-0.601008 	-0.137219 	1.4687 	0.00863781 	-3.12643 	90.0095 	70.3518 	-0.550781 	260.517 	360.766 	285.035 	539.792 	
4.3894 	-0.00453807 	-0.612912 	-0.122823 	1.4338 	0.00846169 	-3.12656 	90.0095 	71.3412 	-0.550781 	259.526 	360.766 	285.035 	539.792 	
4.49264 	-0.00461389 	-0.624425 	-0.108057 	1.39889 	0.00828878 	-3.1267 	90.0095 	72.3262 	-0.550781 	258.53 	360.766 	285.035 	539.793 	
4.59525 	-0.00468979 	-0.635537 	-0.0929313 	1.36399 	0.00811912 	-3.12684 	90.0095 	73.4148 	-0.550781 	257.538 	360.766 	285.035 	539.793 	
4.69738 	-0.00476576 	-0.646235 	-0.0774596 	1.32908 	0.00795274 	-3.12698 	90.0095 	74.4058 	-0.550781 	256.442 	360.766 	285.035 	539.793 	
4.79942 	-0.00484175 	-0.656507 	-0.0616539 	1.29418 	0.00778971 	-3.12713 	90.0095 	75.3927 	-0.550781 	255.454 	360.766 	285.035 	539.793 	
4.90154 	-0.00491772 	-0.666343 	-0.0455269 	1.25927 	0.00763005 	-3.12727 	90.0095 	76.3925 	-0.550781 	254.455 	360.766 	285.035 	539.793 	
5.00469 	-0.00499365 	-0.675733 	-0.0290922 	1.22437 	0.00747381 	-3.12742 	90.0095 	77.3644 	-0.550781 	253.466 	360.766 	285.035 	539.793 	
5.10751 	-0.00506951 	-0.684666 	-0.0123632 	1.18946 	0.007321 	-3.12758 	90.0095 	78.4584 	-0.550781 	252.376 	360.766 	285.035 	539.793 	
5.20956 	-0.00514525 	-0.693133 	0.00464582 	1.15456 	0.00717167 	-3.12773 	90.0095 	79.4322 	-0.550781 	251.378 	360.766 	285.035 	539.794 	
5.31216 	-0.00522085 	-0.701124 	0.021921 	1.11965 	0.00702584 	-3.12789 	90.0095 	80.4298 	-0.550781 	250.383 	360.766 	285.035 	539.794 	
5.41426 	-0.00529627 	-0.708632 	0.0394472 	1.08475 	0.00688354 	-3.12805 	90.0095 	81.4132 	-0.550781 	249.392 	360.766 	285.035 	539.794 	
5.51762 	-0.00537149 	-0.715647 	0.05721 	1.04984 	0.00674479 	-3.12821 	90.0095 	82.496 	-0.550781 	248.303 	360.766 	285.035 	539.794 	
5.62082 	-0.00544647 	-0.722162 	0.0751942 	1.01494 	0.00660962 	-3.12837 	90.0095 	83.4867 	-0.550781 	247.305 	360.766 	285.035 	539.794 	
5.7225 	-0.00552118 	-0.72817 	0.093384 	0.980035 	0.00647803 	-3.12854 	90.0095 	84.4891 	-0.550781 	246.318 	360.766 	285.035 	539.794 	
5.82478 	-0.0055956 	-0.733664 	0.111764 	0.945129 	0.00635004 	-3.1287 	90.0095 	85.4861 	-0.550781 	245.32 	360.766 	285.035 	539.794 	
5.92678 	-0.00566969 	-0.738638 	0.130319 	0.910224 	0.00622568 	-3.12887 	90.0095 	86.5679 	-0.550781 	244.226 	360.766 	285.035 	539.794 	
6.02889 	-0.00574343 	-0.743087 	0.149032 	0.875319 	0.00610495 	-3.12904 	90.0095 	87.5645 	-0.550781 	243.232 	360.766 	285.035 	539.794 	
6.13071 	-0.00580947 	-0.746636 	0.165995 	0.843904 	0.0059994 	-3.1292 	90.0095 	88.5477 	-0.550781 	242.24 	360.766 	285.035 	539.794 	
6.23288 	-0.00588246 	-0.750072 	0.184963 	0.808999 	0.00588559 	-3.12937 	90.0095 	89.5386 	-0.550781 	241.253 	360.766 	285.035 	539.794 	
6.33857 	-0.00596225 	-0.753228 	0.205956 	0.770603 	0.00576462 	-3.12956 	90.0095 	90.6356 	-0.550781 	240.144 	360.766 	285.035 	539.794 	
6.4412 	-0.0060343 	-0.755527 	0.225138 	0.735699 	0.00565848 	-3.12974 	90.0095 	91.6184 	-0.550781 	239.163 	360.766 	285.035 	539.794 	
6.54462 	-0.00610586 	-0.75728 	0.244395 	0.700793 	0.00555599 	-3.12992 	90.0095 	92.6198 	-0.550781 	238.161 	360.766 	285.035 	539.794 	
6.64697 	-0.00617691 	-0.758485 	0.26371 	0.665888 	0.00545715 	-3.1301 	90.0095 	93.7025 	-0.550781 	237.069 	360.766 	285.035 	539.794 	
6.74942 	-0.00624743 	-0.759139 	0.283067 	0.630982 	0.00536195 	-3.13027 	90.0095 	94.6959 	-0.550781 	236.079 	360.766 	285.035 	539.794 	
6.85123 	-0.0063174 	-0.759241 	0.302448 	0.596078 	0.00527039 	-3.13045 	90.0095 	95.6894 	-0.550781 	235.082 	360.766 	285.035 	539.794 	
6.9536 	-0.00638678 	-0.75879 	0.321837 	0.561172 	0.00518247 	-3.13064 	90.0095 	96.6977 	-0.550781 	234.08 	360.766 	285.035 	539.794 	
7.05663 	-0.00652372 	-0.756232 	0.360568 	0.491362 	0.00501747 	-3.131 	90.0094 	97.7809 	-0.550781 	232.99 	360.766 	285.035 	539.794 	
7.15932 	-0.00659123 	-0.754125 	0.379876 	0.456456 	0.00494036 	-3.13118 	90.0095 	98.7884 	-0.550781 	232 	360.766 	285.035 	539.794 	
7.26119 	-0.00665809 	-0.751468 	0.399123 	0.421551 	0.00486683 	-3.13137 	90.0095 	99.7667 	-0.550781 	231.001 	360.766 	285.035 	539.794 	
7.36256 	-0.00672426 	-0.748262 	0.418291 	0.386645 	0.00479686 	-3.13155 	90.0095 	100.786 	-0.550781 	229.989 	360.766 	285.035 	539.794 	
7.46584 	-0.00678973 	-0.744512 	0.437365 	0.35174 	0.00473044 	-3.13174 	90.0095 	101.867 	-0.550781 	228.909 	360.766 	285.035 	539.794 	
7.56813 	-0.00685449 	-0.740219 	0.456326 	0.316835 	0.00466753 	-3.13192 	90.0095 	102.87 	-0.550781 	227.904 	360.766 	285.035 	539.794 	
7.67394 	-0.00691852 	-0.735388 	0.475159 	0.281929 	0.00460811 	-3.13211 	90.0095 	103.865 	-0.550781 	226.912 	360.766 	285.035 	539.794 	
7.77567 	-0.0069818 	-0.730022 	0.493846 	0.247024 	0.00455217 	-3.13229 	90.0095 	104.86 	-0.550781 	225.912 	360.766 	285.035 	539.794 	
7.87753 	-0.00704431 	-0.724127 	0.512372 	0.212118 	0.00449967 	-3.13248 	90.0095 	105.976 	-0.550781 	224.801 	360.766 	285.035 	539.794 	
7.98117 	-0.00710605 	-0.717707 	0.530719 	0.177213 	0.00445059 	-3.13266 	90.0095 	106.966 	-0.550781 	223.813 	360.766 	285.035 	539.794 	
8.08332 	-0.007167 	-0.710769 	0.548872 	0.142307 	0.0044049 	-3.13285 	90.0094 	107.979 	-0.550781 	222.804 	360.766 	285.036 	539.794 	
8.18551 	-0.00722715 	-0.703319 	0.566815 	0.107402 	0.00436257 	-3.13303 	90.0095 	109.068 	-0.550781 	221.815 	360.766 	285.036 	539.794 	
8.28717 	-0.00728648 	-0.695364 	0.584532 	0.0724967 	0.00432356 	-3.13322 	90.0095 	110.078 	-0.550781 	220.721 	360.766 	285.036 	539.794 	
8.38932 	-0.00734498 	-0.686911 	0.602008 	0.0375912 	0.00428785 	-3.1334 	90.0095 	111.077 	-0.550781 	219.719 	360.766 	285.036 	539.794 	
8.49183 	-0.00740265 	-0.677968 	0.619227 	0.00268561 	0.0042554 	-3.13359 	90.0095 	112.086 	-0.550781 	218.724 	360.766 	285.036 	539.795 	
8.59454 	-0.00745948 	-0.668543 	0.636175 	-0.0322199 	0.00422618 	-3.13377 	90.0095 	113.079 	-0.550781 	217.722 	360.766 	285.036 	539.795 	
8.69673 	-0.00751545 	-0.658646 	0.652837 	-0.0671256 	0.00420015 	-3.13396 	90.0095 	114.196 	-0.550879 	216.627 	360.766 	285.037 	539.795 	
8.79881 	-0.00757055 	-0.648285 	0.669198 	-0.102031 	0.00417727 	-3.13414 	90.0095 	115.184 	-0.550879 	215.624 	360.766 	285.037 	539.795 	
8.90069 	-0.00762498 	-0.637614 	0.685022 	-0.136588 	0.00415703 	-3.13433 	90.0095 	116.079 	-0.550879 	214.614 	360.766 	285.037 	539.795 	
9.00396 	-0.00768776 	-0.633103 	0.690641 	-0.155451 	0.00411825 	-3.13451 	90.0095 	116.324 	-0.550879 	213.592 	360.766 	285.038 	539.795 	
9.10656 	-0.00775095 	-0.629089 	0.695292 	-0.172903 	0.00408079 	-3.1347 	90.0095 	116.354 	-0.550879 	212.504 	360.766 	285.038 	539.795 	
9.20894 	-0.00781373 	-0.624994 	0.699872 	-0.190356 	0.0040466 	-3.13489 	90.0095 	116.354 	-0.550879 	211.527 	360.766 	285.038 	539.795 	
9.31094 	-0.00787608 	-0.62082 	0.70438 	-0.207808 	0.0040157 	-3.13508 	90.0095 	116.354 	-0.550879 	210.52 	360.766 	285.038 	539.795 	
9.41283 	-0.00793797 	-0.616567 	0.708815 	-0.225261 	0.0039881 	-3.13527 	90.0096 	116.355 	-0.550879 	209.496 	360.766 	285.038 	539.795 	
9.51615 	-0.0079994 	-0.612238 	0.713174 	-0.242713 	0.0039638 	-3.13545 	90.0095 	116.355 	-0.550879 	208.499 	360.766 	285.038 	539.795 	
9.61859 	-0.00806033 	-0.607834 	0.717458 	-0.260166 	0.00394282 	-3.13564 	90.0096 	116.355 	-0.550879 	207.419 	360.766 	285.038 	539.795 	
9.72068 	-0.00812076 	-0.603355 	0.721664 	-0.277619 	0.00392515 	-3.13584 	90.0095 	116.355 	-0.550879 	206.416 	360.766 	285.038 	539.795 	
9.82259 	-0.00818067 	-0.598803 	0.725791 	-0.295071 	0.0039108 	-3.13603 	90.0095 	116.355 	-0.550879 	205.405 	360.766 	285.038 	539.795 	
9.92493 	-0.00824003 	-0.594181 	0.729838 	-0.312524 	0.00389979 	-3.13622 	90.0095 	116.355 	-0.550879 	204.395 	360.766 	285.038 	539.795 	
10.0278 	-0.00829882 	-0.589488 	0.733803 	-0.329976 	0.00389211 	-3.13641 	90.0095 	116.355 	-0.550879 	203.311 	360.766 	285.038 	539.795 	
10.1298 	-0.00835704 	-0.584727 	0.737686 	-0.347429 	0.00388776 	-3.1366 	90.0095 	116.355 	-0.550879 	202.31 	360.766 	285.038 	539.795 	
10.2316 	-0.00840893 	-0.580385 	0.74111 	-0.363136 	0.0038867 	-3.13677 	90.0095 	116.355 	-0.550879 	201.297 	360.766 	285.038 	539.795 	
10.3372 	-0.008466 	-0.575497 	0.744833 	-0.380589 	0.00388869 	-3.13696 	90.0095 	116.355 	-0.550879 	200.292 	360.766 	285.038 	539.795 	
10.4389 	-0.00852804 	-0.570047 	0.748829 	-0.399787 	0.00389472 	-3.13717 	90.0095 	116.355 	-0.550879 	199.195 	360.766 	285.038 	539.795 	
10.5418 	-0.00858376 	-0.565027 	0.752371 	-0.417239 	0.00390372 	-3.13736 	90.0095 	116.355 	-0.550879 	198.195 	360.766 	285.038 	539.795 	
10.644 	-0.00863882 	-0.559945 	0.755824 	-0.434692 	0.00391604 	-3.13755 	90.0096 	116.356 	-0.550879 	197.183 	360.766 	285.039 	539.795 	
10.7461 	-0.00869319 	-0.554804 	0.759188 	-0.452144 	0.00393169 	-3.13774 	90.0095 	116.355 	-0.550879 	196.084 	360.766 	285.039 	539.795 	
10.8498 	-0.00874687 	-0.549605 	0.762462 	-0.469597 	0.00395066 	-3.13793 	90.0095 	116.355 	-0.550879 	195.094 	360.766 	285.039 	539.795 	
10.9525 	-0.00885205 	-0.53904 	0.768735 	-0.504502 	0.00399854 	-3.13831 	90.0095 	116.356 	-0.550879 	194.072 	360.766 	285.039 	539.795 	
11.0553 	-0.00890352 	-0.533676 	0.771733 	-0.521955 	0.00402744 	-3.1385 	90.0095 	116.356 	-0.550879 	193.075 	360.766 	285.039 	539.795 	
11.158 	-0.00895423 	-0.528262 	0.774636 	-0.539407 	0.00405963 	-3.13869 	90.0096 	116.356 	-0.550879 	191.991 	360.766 	285.039 	539.795 	
11.2599 	-0.00900417 	-0.522797 	0.777444 	-0.55686 	0.0040951 	-3.13888 	90.0095 	116.355 	-0.550879 	191.006 	360.766 	285.039 	539.795 	
11.3615 	-0.0090533 	-0.517284 	0.780157 	-0.574312 	0.00413385 	-3.13907 	90.0096 	116.356 	-0.550879 	189.972 	360.766 	285.04 	539.795 	
11.464 	-0.00910163 	-0.511725 	0.782773 	-0.591765 	0.00417586 	-3.13925 	90.0095 	116.356 	-0.550879 	188.967 	360.766 	285.04 	539.795 	
11.5669 	-0.00914913 	-0.506121 	0.785291 	-0.609217 	0.00422111 	-3.13944 	90.0095 	116.356 	-0.550879 	187.878 	360.766 	285.04 	539.795 	
11.6691 	-0.0091958 	-0.500474 	0.787712 	-0.62667 	0.0042696 	-3.13962 	90.0095 	116.356 	-0.550879 	186.877 	360.766 	285.04 	539.795 	
11.7729 	-0.00924161 	-0.494785 	0.790033 	-0.644122 	0.00432131 	-3.13981 	90.0095 	116.356 	-0.550879 	185.878 	360.766 	285.04 	539.795 	
11.8747 	-0.00928655 	-0.489057 	0.792255 	-0.661575 	0.00437622 	-3.13999 	90.0095 	116.356 	-0.550879 	184.868 	360.766 	285.04 	539.795 	
11.978 	-0.00933062 	-0.483291 	0.794376 	-0.679027 	0.00443432 	-3.14017 	90.0095 	116.356 	-0.550879 	183.749 	360.766 	285.04 	539.795 	
12.0805 	-0.00937378 	-0.477488 	0.796396 	-0.69648 	0.00449558 	-3.14035 	90.0095 	116.356 	-0.550879 	182.762 	360.766 	285.04 	539.795 	
12.1819 	-0.00941186 	-0.472237 	0.798128 	-0.712187 	0.00455342 	-3.14052 	90.0095 	116.356 	-0.550879 	181.747 	360.766 	285.04 	539.795 	
12.2838 	-0.00945329 	-0.466371 	0.799955 	-0.72964 	0.00462066 	-3.14069 	90.0095 	116.356 	-0.550879 	180.75 	360.766 	285.04 	539.795 	
12.3861 	-0.0094978 	-0.459882 	0.801846 	-0.748837 	0.00469821 	-3.14089 	90.0096 	116.356 	-0.550879 	179.658 	360.766 	285.04 	539.795 	
12.4887 	-0.00953726 	-0.453953 	0.803457 	-0.76629 	0.00477196 	-3.14107 	90.0095 	116.356 	-0.550879 	178.651 	360.766 	285.041 	539.795 	
12.5917 	-0.00957576 	-0.447997 	0.804964 	-0.783742 	0.00484877 	-3.14124 	90.0096 	116.357 	-0.550879 	177.645 	360.766 	285.041 	539.795 	
12.6946 	-0.0096133 	-0.442015 	0.806367 	-0.801195 	0.00492862 	-3.14141 	90.0095 	116.357 	-0.550879 	176.651 	360.766 	285.041 	539.795 	
12.797 	-0.00964986 	-0.43601 	0.807665 	-0.818647 	0.0050115 	-3.14159 	90.0096 	116.357 	-0.550879 	175.539 	360.766 	285.041 	539.795 	
12.8989 	-0.00968542 	-0.429982 	0.808858 	-0.8361 	0.00509737 	3.14143 	90.0095 	116.358 	-0.550879 	174.541 	360.766 	285.041 	539.795 	
13.002 	-0.00971999 	-0.423935 	0.809946 	-0.853552 	0.0051862 	3.14126 	90.0095 	116.364 	-0.550879 	173.53 	360.766 	285.041 	539.795 	
13.1048 	-0.00975354 	-0.41787 	0.810928 	-0.871005 	0.00527797 	3.14109 	90.0096 	116.384 	-0.550879 	172.527 	360.766 	285.041 	539.795 	
13.2075 	-0.00978607 	-0.411789 	0.811804 	-0.888457 	0.00537266 	3.14092 	90.0095 	116.387 	-0.550879 	171.422 	360.766 	285.041 	539.795 	
13.3091 	-0.00981756 	-0.405693 	0.812574 	-0.905909 	0.00547023 	3.14076 	90.0096 	116.388 	-0.550879 	170.429 	360.766 	285.041 	539.795 	
13.4111 	-0.00984801 	-0.399585 	0.813238 	-0.923362 	0.00557065 	3.1406 	90.0095 	116.388 	-0.550879 	169.418 	360.766 	285.041 	539.795 	
13.514 	-0.00987741 	-0.393466 	0.813794 	-0.940814 	0.0056739 	3.14044 	90.0096 	116.389 	-0.550879 	168.415 	360.766 	285.041 	539.795 	
13.6171 	-0.00990575 	-0.387339 	0.814244 	-0.958266 	0.00577994 	3.14028 	90.0095 	116.39 	-0.550879 	167.313 	360.766 	285.041 	539.795 	
13.7192 	-0.00993302 	-0.381204 	0.814587 	-0.975719 	0.00588873 	3.14012 	90.0095 	116.39 	-0.550879 	166.31 	360.766 	285.041 	539.795 	
13.8213 	-0.00995921 	-0.375065 	0.814823 	-0.993171 	0.00600026 	3.13997 	90.0095 	116.391 	-0.550879 	165.303 	360.766 	285.041 	539.795 	
13.9232 	-0.00998432 	-0.368922 	0.814951 	-1.01062 	0.00611447 	3.13981 	90.0095 	116.392 	-0.550879 	164.3 	360.766 	285.041 	539.795 	
14.0261 	-0.0100083 	-0.362778 	0.814972 	-1.02808 	0.00623134 	3.13966 	90.0096 	116.406 	-0.550879 	163.299 	360.766 	285.041 	539.795 	
14.1286 	-0.0100312 	-0.356634 	0.814886 	-1.04553 	0.00635084 	3.13951 	90.0095 	116.41 	-0.550879 	162.198 	360.766 	285.041 	539.795 	
14.2307 	-0.0100531 	-0.350493 	0.814693 	-1.06298 	0.00647292 	3.13936 	90.0096 	116.417 	-0.550879 	161.187 	360.766 	285.041 	539.795 	
14.333 	-0.0100717 	-0.34497 	0.814428 	-1.07869 	0.00658497 	3.13923 	90.0096 	116.427 	-0.550879 	160.19 	360.766 	285.041 	539.795 	
14.4383 	-0.0100933 	-0.338226 	0.813986 	-1.09789 	0.00672468 	3.13908 	90.0096 	116.432 	-0.550879 	159.075 	360.766 	285.041 	539.795 	
14.5413 	-0.0101118 	-0.332103 	0.813471 	-1.11534 	0.00685429 	3.13894 	90.0096 	116.433 	-0.550879 	158.066 	360.766 	285.041 	539.795 	
14.6442 	-0.0101291 	-0.32599 	0.81285 	-1.13279 	0.00698633 	3.1388 	90.0096 	116.434 	-0.550879 	157.076 	360.766 	285.041 	539.795 	
14.7469 	-0.0101452 	-0.319889 	0.812122 	-1.15024 	0.00712076 	3.13866 	90.0096 	116.435 	-0.550879 	155.966 	360.766 	285.042 	539.795 	
14.8491 	-0.0101603 	-0.313802 	0.811288 	-1.1677 	0.00725754 	3.13853 	90.0096 	116.437 	-0.550879 	154.972 	360.766 	285.042 	539.795 	
14.9507 	-0.0101742 	-0.30773 	0.810348 	-1.18515 	0.00739663 	3.1384 	90.0096 	116.444 	-0.550879 	153.956 	360.766 	285.042 	539.795 	
15.053 	-0.0101985 	-0.295641 	0.808151 	-1.22005 	0.00768157 	3.13814 	90.0096 	116.445 	-0.550879 	152.94 	360.766 	285.042 	539.795 	
15.1555 	-0.0102089 	-0.289626 	0.806894 	-1.2375 	0.00782733 	3.13802 	90.0096 	116.447 	-0.550879 	151.952 	360.766 	285.042 	539.795 	
15.2574 	-0.0102181 	-0.283635 	0.805533 	-1.25496 	0.00797523 	3.1379 	90.0096 	116.45 	-0.550879 	150.855 	360.766 	285.042 	539.795 	
15.3591 	-0.0102262 	-0.277668 	0.804067 	-1.27241 	0.00812522 	3.13778 	90.0096 	116.473 	-0.550879 	149.833 	360.766 	285.042 	539.795 	
15.4608 	-0.0102332 	-0.271728 	0.802497 	-1.28986 	0.00827725 	3.13766 	90.0096 	116.481 	-0.550879 	148.829 	360.766 	285.042 	539.795 	
15.5638 	-0.0102389 	-0.265816 	0.800824 	-1.30731 	0.00843128 	3.13755 	90.0096 	116.483 	-0.550879 	147.834 	360.766 	285.042 	539.795 	
15.6667 	-0.0102435 	-0.259934 	0.799048 	-1.32477 	0.00858727 	3.13744 	90.0096 	116.483 	-0.550879 	146.736 	360.766 	285.042 	539.795 	
15.7688 	-0.0102469 	-0.254084 	0.79717 	-1.34222 	0.00874516 	3.13733 	90.0096 	116.485 	-0.550879 	145.732 	360.766 	285.042 	539.795 	
15.8728 	-0.0102492 	-0.248268 	0.795189 	-1.35967 	0.0089049 	3.13723 	90.0096 	116.491 	-0.550879 	144.728 	360.766 	285.042 	539.795 	
15.9746 	-0.0102502 	-0.242487 	0.793108 	-1.37712 	0.00906645 	3.13713 	90.0096 	116.493 	-0.550879 	143.731 	360.766 	285.042 	539.795 	
16.0779 	-0.0102501 	-0.236743 	0.790926 	-1.39458 	0.00922976 	3.13703 	90.0096 	116.495 	-0.550879 	142.615 	360.766 	285.042 	539.795 	
16.1804 	-0.0102488 	-0.231038 	0.788644 	-1.41203 	0.00939477 	3.13693 	90.0096 	116.503 	-0.550879 	141.606 	360.766 	285.042 	539.795 	
16.2822 	-0.0102464 	-0.225374 	0.786263 	-1.42948 	0.00956145 	3.13684 	90.0096 	116.524 	-0.550879 	140.598 	360.766 	285.042 	539.795 	
16.384 	-0.0102428 	-0.219753 	0.783783 	-1.44693 	0.00972973 	3.13675 	90.0096 	116.531 	-0.550879 	139.597 	360.766 	285.042 	539.795 	
16.4857 	-0.0102379 	-0.214175 	0.781206 	-1.46439 	0.00989957 	3.13666 	90.0096 	116.533 	-0.550879 	138.597 	360.766 	285.042 	539.795 	
16.5887 	-0.010232 	-0.208644 	0.778531 	-1.48184 	0.0100709 	3.13657 	90.0096 	116.534 	-0.550879 	137.506 	360.766 	285.042 	539.795 	
16.6918 	-0.0102256 	-0.203706 	0.776042 	-1.49755 	0.0102264 	3.1365 	90.0096 	116.541 	-0.550879 	136.494 	360.766 	285.042 	539.795 	
16.7938 	-0.0102174 	-0.198266 	0.773186 	-1.515 	0.0104004 	3.13642 	90.0096 	116.542 	-0.550879 	135.496 	360.766 	285.042 	539.795 	
16.8955 	-0.0102071 	-0.19234 	0.769935 	-1.5342 	0.0105934 	3.13634 	90.0096 	116.547 	-0.550879 	134.491 	360.766 	285.042 	539.795 	
16.9974 	-0.0101964 	-0.187009 	0.766881 	-1.55165 	0.0107703 	3.13626 	90.0096 	116.565 	-0.550879 	133.384 	360.766 	285.042 	539.795 	
17.0998 	-0.0101846 	-0.181731 	0.763735 	-1.5691 	0.0109484 	3.1362 	90.0096 	116.578 	-0.550879 	132.377 	360.766 	285.042 	539.795 	
17.2023 	-0.0101717 	-0.17651 	0.760497 	-1.58655 	0.0111276 	3.13613 	90.0096 	116.58 	-0.550879 	131.371 	360.766 	285.042 	539.795 	
17.3044 	-0.0101576 	-0.171345 	0.757169 	-1.60401 	0.011308 	3.13607 	90.0096 	116.581 	-0.550879 	130.376 	360.766 	285.042 	539.795 	
17.4067 	-0.0101424 	-0.16624 	0.753751 	-1.62146 	0.0114895 	3.13601 	90.0096 	116.583 	-0.550879 	129.266 	360.766 	285.042 	539.795 	
17.509 	-0.010126 	-0.161194 	0.750244 	-1.63891 	0.0116719 	3.13595 	90.0096 	116.587 	-0.550879 	128.265 	360.766 	285.042 	539.795 	
17.6118 	-0.0101084 	-0.156212 	0.74665 	-1.65636 	0.0118554 	3.1359 	90.0096 	116.591 	-0.550879 	127.264 	360.766 	285.042 	539.795 	
17.7146 	-0.0100898 	-0.151292 	0.74297 	-1.67381 	0.0120397 	3.13584 	90.0096 	116.594 	-0.550879 	126.256 	360.766 	285.042 	539.795 	
17.8173 	-0.01007 	-0.146438 	0.739204 	-1.69127 	0.0122249 	3.1358 	90.0096 	116.614 	-0.550879 	125.157 	360.766 	285.042 	539.795 	
17.9193 	-0.0100491 	-0.14165 	0.735354 	-1.70872 	0.0124109 	3.13575 	90.0096 	116.621 	-0.550879 	124.144 	360.766 	285.042 	539.795 	
18.0217 	-0.0100271 	-0.13693 	0.731421 	-1.72617 	0.0125976 	3.13571 	90.0096 	116.623 	-0.550977 	123.142 	360.766 	285.042 	539.795 	
18.1251 	-0.010004 	-0.132279 	0.727407 	-1.74362 	0.0127851 	3.13568 	90.0096 	116.625 	-0.550977 	122.142 	360.766 	285.042 	539.795 	
18.2285 	-0.0099798 	-0.1277 	0.723312 	-1.76107 	0.0129731 	3.13564 	90.0096 	116.628 	-0.550977 	121.033 	360.766 	285.042 	539.795 	
18.3305 	-0.00995449 	-0.123192 	0.719137 	-1.77852 	0.0131617 	3.13561 	90.0096 	116.629 	-0.550977 	120.037 	360.766 	285.042 	539.795 	
18.4326 	-0.00992811 	-0.118758 	0.714885 	-1.79597 	0.0133508 	3.13558 	90.0096 	116.631 	-0.550977 	119.032 	360.766 	285.042 	539.795 	
18.5378 	-0.00990064 	-0.114398 	0.710556 	-1.81343 	0.0135404 	3.13556 	90.0096 	116.632 	-0.550977 	117.918 	360.766 	285.042 	539.795 	
18.6415 	-0.00987211 	-0.110115 	0.706151 	-1.83088 	0.0137304 	3.13554 	90.0096 	116.638 	-0.550977 	116.924 	360.766 	285.042 	539.795 	
18.7433 	-0.00984252 	-0.10591 	0.701673 	-1.84833 	0.0139207 	3.13552 	90.0096 	116.64 	-0.550977 	115.913 	360.766 	285.042 	539.795 	
18.845 	-0.00981188 	-0.101783 	0.697121 	-1.86578 	0.0141112 	3.13551 	90.0096 	116.65 	-0.550977 	114.911 	360.766 	285.042 	539.795 	
18.8574 	-0.0097802 	-0.0977366 	0.692499 	-1.88323 	0.0143021 	3.13549 	90.0096 	116.654 	-0.550977 	114.709 	360.766 	285.042 	539.795 	
18.9606 	-0.0097574 	-0.0949522 	0.689221 	-1.89545 	0.0144357 	3.13549 	90.0096 	116.667 	-0.550977 	113.861 	360.766 	285.042 	539.795 	
19.0635 	-0.00975477 	-0.0946365 	0.688844 	-1.89685 	0.014451 	3.13549 	90.0096 	116.671 	-0.550977 	113.551 	360.766 	285.042 	539.795 	
19.1655 	-0.00975477 	-0.0946365 	0.688844 	-1.89685 	0.014451 	3.13549 	90.0096 	116.671 	-0.550977 	113.528 	360.766 	285.042 	539.795 	
19.2674 	-0.00975477 	-0.0946365 	0.688844 	-1.89685 	0.014451 	3.13549 	90.0096 	116.672 	-0.550977 	113.526 	360.766 	285.042 	539.795 	
19.3695 	-0.00975477 	-0.0946365 	0.688844 	-1.89685 	0.014451 	3.13549 	90.0096 	116.672 	-0.550977 	113.526 	360.766 	285.042 	539.795 	
19.4753 	-0.00975477 	-0.0946365 	0.688844 	-1.89685 	0.014451 	3.13549 	90.0096 	116.672 	-0.550977 	113.526 	360.766 	285.042 	539.795 	
19.5776 	-0.00975477 	-0.0946365 	0.688844 	-1.89685 	0.014451 	3.13549 	90.0096 	116.672 	-0.550977 	113.526 	360.766 	285.042 	539.795 	
41.0767 	-0.00975477 	-0.0946365 	0.688844 	-1.89685 	0.014451 	3.13549 	90.0096 	116.672 	-0.551074 	113.526 	360.766 	285.042 	539.795 	
41.085 	-0.00975477 	-0.0946365 	0.688844 	-1.89685 	0.014451 	3.13549 	90.0096 	116.672 	-0.551074 	113.526 	360.766 	285.042 	539.795 	
41.1869 	-0.00975806 	-0.0950312 	0.689315 	-1.8951 	0.0144319 	3.13549 	90.0096 	116.672 	-0.551074 	113.661 	360.766 	285.042 	539.795 	
41.2896 	-0.00978981 	-0.0989421 	0.693893 	-1.878 	0.0142448 	3.1355 	90.0096 	116.673 	-0.551074 	114.441 	360.766 	285.042 	539.795 	
41.3922 	-0.00982118 	-0.103013 	0.698494 	-1.86055 	0.0140541 	3.13551 	90.0096 	116.673 	-0.551074 	115.413 	360.766 	285.042 	539.795 	
41.495 	-0.00985151 	-0.107163 	0.703024 	-1.84309 	0.0138635 	3.13552 	90.0096 	116.673 	-0.551074 	116.407 	360.766 	285.042 	539.795 	
41.5966 	-0.00988078 	-0.111392 	0.70748 	-1.82564 	0.0136733 	3.13554 	90.0095 	116.673 	-0.551074 	117.513 	360.766 	285.042 	539.795 	
41.6982 	-0.00990899 	-0.115698 	0.711862 	-1.80819 	0.0134835 	3.13557 	90.0096 	116.673 	-0.551074 	118.521 	360.766 	285.042 	539.795 	
41.8008 	-0.00993614 	-0.12008 	0.716169 	-1.79074 	0.013294 	3.13559 	90.0096 	116.673 	-0.551074 	119.524 	360.766 	285.042 	539.795 	
41.9035 	-0.0099622 	-0.124537 	0.720398 	-1.77329 	0.0131051 	3.13562 	90.0096 	116.673 	-0.551074 	120.52 	360.766 	285.042 	539.795 	
42.0066 	-0.00998718 	-0.129066 	0.724549 	-1.75584 	0.0129166 	3.13565 	90.0096 	116.673 	-0.551074 	121.53 	360.766 	285.042 	539.795 	
42.1085 	-0.0100111 	-0.133667 	0.72862 	-1.73838 	0.0127288 	3.13569 	90.0096 	116.673 	-0.551074 	122.64 	360.766 	285.042 	539.795 	
42.2103 	-0.0100361 	-0.13881 	0.733004 	-1.71919 	0.0125229 	3.13573 	90.0095 	116.673 	-0.551074 	123.641 	360.766 	285.042 	539.795 	
42.313 	-0.0100555 	-0.143079 	0.736518 	-1.70348 	0.012355 	3.13577 	90.0096 	116.673 	-0.551074 	124.649 	360.766 	285.042 	539.795 	
42.4157 	-0.0100761 	-0.147887 	0.740342 	-1.68603 	0.0121693 	3.13581 	90.0096 	116.673 	-0.551074 	125.644 	360.766 	285.042 	539.795 	
42.5183 	-0.0100955 	-0.152761 	0.744083 	-1.66858 	0.0119843 	3.13586 	90.0096 	116.673 	-0.551074 	126.752 	360.766 	285.042 	539.795 	
42.6203 	-0.0101138 	-0.1577 	0.747737 	-1.65113 	0.0118003 	3.13591 	90.0096 	116.673 	-0.551074 	127.749 	360.766 	285.042 	539.795 	
42.7223 	-0.0101327 	-0.163205 	0.751657 	-1.63193 	0.0115988 	3.13597 	90.0095 	116.673 	-0.551074 	128.756 	360.766 	285.042 	539.795 	
42.8249 	-0.0101486 	-0.168275 	0.755129 	-1.61448 	0.0114168 	3.13603 	90.0096 	116.673 	-0.551074 	129.755 	360.766 	285.042 	539.795 	
42.9281 	-0.0101634 	-0.173404 	0.758511 	-1.59702 	0.0112357 	3.13609 	90.0096 	116.673 	-0.551074 	130.87 	360.766 	285.042 	539.795 	
43.0304 	-0.0101757 	-0.17807 	0.761478 	-1.58132 	0.0110737 	3.13615 	90.0095 	116.673 	-0.551074 	131.871 	360.766 	285.042 	539.795 	
43.1324 	-0.0101883 	-0.183309 	0.764689 	-1.56386 	0.0108948 	3.13622 	90.0096 	116.673 	-0.551074 	132.869 	360.766 	285.042 	539.795 	
43.2369 	-0.0101997 	-0.188603 	0.767807 	-1.54641 	0.0107171 	3.13629 	90.0095 	116.673 	-0.551074 	133.875 	360.766 	285.042 	539.795 	
43.3391 	-0.01021 	-0.19395 	0.770833 	-1.52896 	0.0105406 	3.13636 	90.0095 	116.673 	-0.551074 	134.995 	360.766 	285.042 	539.795 	
43.4416 	-0.01022 	-0.199893 	0.774053 	-1.50976 	0.0103481 	3.13644 	90.0096 	116.673 	-0.551074 	135.987 	360.766 	285.042 	539.795 	
43.5434 	-0.0102278 	-0.205347 	0.776881 	-1.49231 	0.0101744 	3.13652 	90.0095 	116.673 	-0.551074 	136.997 	360.766 	285.042 	539.795 	
43.647 	-0.0102345 	-0.210851 	0.779613 	-1.47486 	0.0100022 	3.13661 	90.0096 	116.672 	-0.551074 	137.997 	360.766 	285.042 	539.795 	
43.7486 	-0.0102443 	-0.221996 	0.784787 	-1.43995 	0.00966223 	3.13678 	90.0096 	116.672 	-0.551074 	139.124 	360.766 	285.042 	539.795 	
43.8505 	-0.0102472 	-0.227069 	0.786987 	-1.42424 	0.00951127 	3.13686 	90.0096 	116.672 	-0.551074 	140.113 	360.766 	285.042 	539.795 	
43.9527 	-0.0102493 	-0.232746 	0.789339 	-1.40679 	0.00934509 	3.13696 	90.0096 	116.672 	-0.551074 	141.114 	360.766 	285.042 	539.795 	
44.0553 	-0.0102503 	-0.239036 	0.791811 	-1.38759 	0.00916423 	3.13707 	90.0096 	116.672 	-0.551074 	142.119 	360.766 	285.042 	539.795 	
44.1572 	-0.0102499 	-0.244795 	0.793952 	-1.37014 	0.00900161 	3.13717 	90.0096 	116.672 	-0.551074 	143.205 	360.766 	285.042 	539.795 	
44.2591 	-0.0102484 	-0.25059 	0.795994 	-1.35269 	0.00884078 	3.13727 	90.0096 	116.672 	-0.551074 	144.211 	360.766 	285.042 	539.795 	
44.3618 	-0.0102457 	-0.25642 	0.797933 	-1.33524 	0.00868178 	3.13738 	90.0096 	116.672 	-0.551074 	145.211 	360.766 	285.042 	539.795 	
44.4645 	-0.0102418 	-0.262283 	0.799771 	-1.31779 	0.00852464 	3.13748 	90.0096 	116.672 	-0.551074 	146.226 	360.766 	285.042 	539.795 	
44.5674 	-0.0102373 	-0.267586 	0.801337 	-1.30208 	0.00838487 	3.13758 	90.0095 	116.672 	-0.551074 	147.326 	360.766 	285.042 	539.795 	
44.6692 	-0.0102312 	-0.273507 	0.802979 	-1.28463 	0.00823143 	3.1377 	90.0095 	116.672 	-0.551074 	148.331 	360.766 	285.042 	539.795 	
44.7727 	-0.0102239 	-0.279455 	0.804518 	-1.26717 	0.00808001 	3.13782 	90.0096 	116.672 	-0.551074 	149.33 	360.766 	285.042 	539.795 	
44.8754 	-0.0102146 	-0.286028 	0.80609 	-1.24798 	0.00791582 	3.13795 	90.0095 	116.672 	-0.551074 	150.338 	360.766 	285.042 	539.795 	
44.9784 	-0.0102049 	-0.292029 	0.807409 	-1.23052 	0.00776877 	3.13807 	90.0096 	116.671 	-0.551074 	151.449 	360.766 	285.042 	539.795 	
45.0803 	-0.010194 	-0.298052 	0.808624 	-1.21307 	0.00762388 	3.13819 	90.0095 	116.671 	-0.551074 	152.462 	360.766 	285.042 	539.795 	
45.1825 	-0.0101819 	-0.304095 	0.809733 	-1.19562 	0.00748118 	3.13832 	90.0096 	116.671 	-0.551074 	153.458 	360.766 	285.042 	539.795 	
45.2842 	-0.0101687 	-0.310157 	0.810737 	-1.17817 	0.00734072 	3.13845 	90.0096 	116.671 	-0.551074 	154.456 	360.766 	285.042 	539.795 	
45.3873 	-0.0101559 	-0.315627 	0.81155 	-1.16246 	0.00721626 	3.13857 	90.0096 	116.671 	-0.551074 	155.563 	360.766 	285.042 	539.795 	
45.4898 	-0.0101405 	-0.321718 	0.812352 	-1.14501 	0.00708018 	3.1387 	90.0095 	116.671 	-0.551074 	156.552 	360.766 	285.042 	539.795 	
45.5918 	-0.010124 	-0.327823 	0.813048 	-1.12755 	0.00694646 	3.13884 	90.0095 	116.671 	-0.551074 	157.566 	360.766 	285.042 	539.795 	
45.6942 	-0.0101045 	-0.334551 	0.81369 	-1.10836 	0.00680215 	3.13899 	90.0096 	116.671 	-0.551074 	158.568 	360.766 	285.042 	539.795 	
45.7962 	-0.0100856 	-0.340677 	0.814161 	-1.0909 	0.00667353 	3.13913 	90.0096 	116.671 	-0.551074 	159.576 	360.766 	285.042 	539.795 	
45.8987 	-0.0100656 	-0.34681 	0.814526 	-1.07345 	0.00654739 	3.13928 	90.0096 	116.671 	-0.551074 	160.682 	360.766 	285.042 	539.795 	
46.0018 	-0.0100445 	-0.352949 	0.814783 	-1.056 	0.00642378 	3.13942 	90.0096 	116.671 	-0.551074 	161.689 	360.766 	285.042 	539.795 	
46.1037 	-0.0100245 	-0.358477 	0.814923 	-1.04029 	0.00631472 	3.13956 	90.0096 	116.671 	-0.551074 	162.684 	360.766 	285.042 	539.795 	
46.2057 	-0.00999886 	-0.365235 	0.814977 	-1.0211 	0.00618428 	3.13972 	90.0096 	116.671 	-0.551074 	163.691 	360.766 	285.042 	539.795 	
46.308 	-0.0099769 	-0.370765 	0.814924 	-1.00539 	0.00607993 	3.13986 	90.0096 	116.67 	-0.551074 	164.798 	360.766 	285.042 	539.795 	
46.4112 	-0.00995147 	-0.376907 	0.814763 	-0.987936 	0.00596652 	3.14001 	90.0096 	116.67 	-0.551074 	165.803 	360.766 	285.042 	539.795 	
46.5138 	-0.00992224 	-0.383659 	0.814463 	-0.968738 	0.00584489 	3.14018 	90.0096 	116.67 	-0.551074 	166.798 	360.766 	285.042 	539.795 	
46.6158 	-0.00989454 	-0.389791 	0.814077 	-0.951286 	0.00573719 	3.14034 	90.0096 	116.67 	-0.551074 	167.813 	360.766 	285.042 	539.795 	
46.7183 	-0.00986578 	-0.395915 	0.813585 	-0.933833 	0.00563227 	3.1405 	90.0096 	116.67 	-0.551074 	168.912 	360.766 	285.042 	539.795 	
46.8202 	-0.00983596 	-0.40203 	0.812985 	-0.916381 	0.00553014 	3.14066 	90.0096 	116.67 	-0.551074 	169.923 	360.766 	285.042 	539.795 	
46.923 	-0.00980509 	-0.408133 	0.812279 	-0.898928 	0.00543086 	3.14083 	90.0096 	116.67 	-0.551074 	170.918 	360.766 	285.042 	539.795 	
47.0258 	-0.00977318 	-0.414223 	0.811467 	-0.881476 	0.00533444 	3.14099 	90.0096 	116.67 	-0.551074 	171.919 	360.766 	285.042 	539.795 	
47.128 	-0.00974358 	-0.419692 	0.810645 	-0.865769 	0.00525013 	3.14114 	90.0096 	116.67 	-0.551074 	173.027 	360.766 	285.042 	539.795 	
47.2299 	-0.00970973 	-0.425752 	0.809631 	-0.848316 	0.00515924 	3.14131 	90.0096 	116.67 	-0.551074 	174.037 	360.766 	285.042 	539.795 	
47.3322 	-0.00967132 	-0.432396 	0.808394 	-0.829119 	0.00506266 	3.1415 	90.0096 	116.67 	-0.551074 	175.043 	360.766 	285.042 	539.795 	
47.4417 	-0.00963535 	-0.438414 	0.807158 	-0.811666 	0.00497799 	-3.14152 	90.0096 	116.67 	-0.551074 	176.15 	360.766 	285.042 	539.795 	
47.5438 	-0.0095984 	-0.44441 	0.805818 	-0.794214 	0.00489632 	-3.14135 	90.0096 	116.67 	-0.551074 	177.152 	360.766 	285.042 	539.795 	
47.6462 	-0.00956048 	-0.450382 	0.804374 	-0.776761 	0.00481768 	-3.14117 	90.0096 	116.67 	-0.551074 	178.154 	360.766 	285.042 	539.795 	
47.7495 	-0.00952159 	-0.456328 	0.802825 	-0.759309 	0.00474209 	-3.141 	90.0096 	116.67 	-0.551074 	179.267 	360.766 	285.042 	539.795 	
47.8521 	-0.00944508 	-0.467546 	0.799598 	-0.726149 	0.00460696 	-3.14066 	90.0096 	116.669 	-0.551074 	180.267 	360.766 	285.042 	539.795 	
47.9548 	-0.00939925 	-0.47399 	0.79756 	-0.706951 	0.00453386 	-3.14046 	90.0096 	116.669 	-0.551074 	181.261 	360.766 	285.042 	539.795 	
48.0569 	-0.00935662 	-0.479813 	0.7956 	-0.689499 	0.0044707 	-3.14028 	90.0096 	116.669 	-0.551074 	182.267 	360.766 	285.042 	539.795 	
48.1585 	-0.0093131 	-0.485601 	0.79354 	-0.672046 	0.0044107 	-3.1401 	90.0096 	116.669 	-0.551074 	183.359 	360.766 	285.042 	539.795 	
48.26 	-0.00926868 	-0.491353 	0.791378 	-0.654594 	0.00435387 	-3.13992 	90.0095 	116.669 	-0.551074 	184.361 	360.766 	285.042 	539.795 	
48.3629 	-0.00922339 	-0.497065 	0.789116 	-0.637141 	0.00430024 	-3.13973 	90.0096 	116.669 	-0.551074 	185.364 	360.766 	285.042 	539.795 	
48.4658 	-0.00917723 	-0.502738 	0.786755 	-0.619689 	0.00424982 	-3.13955 	90.0095 	116.669 	-0.551074 	186.355 	360.766 	285.042 	539.795 	
48.5677 	-0.00913023 	-0.508368 	0.784296 	-0.602236 	0.00420262 	-3.13936 	90.0096 	116.669 	-0.551074 	187.463 	360.766 	285.042 	539.795 	
48.6701 	-0.00908722 	-0.513398 	0.781998 	-0.586529 	0.00416291 	-3.1392 	90.0096 	116.669 	-0.551074 	188.472 	360.766 	285.042 	539.795 	
48.7738 	-0.00903865 	-0.518943 	0.779353 	-0.569076 	0.00412188 	-3.13901 	90.0096 	116.669 	-0.551074 	189.477 	360.766 	285.042 	539.795 	
48.8762 	-0.00898429 	-0.524989 	0.776332 	-0.549878 	0.00408052 	-3.1388 	90.0096 	116.669 	-0.551074 	190.478 	360.766 	285.042 	539.795 	
48.9794 	-0.00893404 	-0.530434 	0.773486 	-0.532426 	0.00404636 	-3.13862 	90.0095 	116.668 	-0.551074 	191.591 	360.766 	285.042 	539.795 	
49.0816 	-0.00888302 	-0.535828 	0.770545 	-0.514974 	0.00401548 	-3.13843 	90.0096 	116.668 	-0.551074 	192.596 	360.766 	285.042 	539.795 	
49.1835 	-0.00883125 	-0.54117 	0.76751 	-0.497521 	0.00398791 	-3.13824 	90.0096 	116.668 	-0.551074 	193.596 	360.766 	285.042 	539.795 	
49.2855 	-0.00877873 	-0.546458 	0.764383 	-0.480068 	0.00396363 	-3.13805 	90.0096 	116.668 	-0.551074 	194.584 	360.766 	285.042 	539.795 	
49.3885 	-0.00872548 	-0.551691 	0.761163 	-0.462616 	0.00394267 	-3.13786 	90.0096 	116.668 	-0.551074 	195.682 	360.766 	285.042 	539.795 	
49.4919 	-0.00867695 	-0.556352 	0.758188 	-0.446909 	0.00392664 	-3.13769 	90.0096 	116.668 	-0.551074 	196.689 	360.766 	285.042 	539.795 	
49.5942 	-0.00862237 	-0.561476 	0.754797 	-0.429456 	0.00391199 	-3.1375 	90.0096 	116.668 	-0.551074 	197.691 	360.766 	285.042 	539.795 	
49.6961 	-0.00856155 	-0.567042 	0.750965 	-0.410258 	0.00389972 	-3.13729 	90.0095 	116.658 	-0.551074 	198.69 	360.766 	285.042 	539.795 	
49.7984 	-0.00850557 	-0.572038 	0.747388 	-0.392806 	0.00389206 	-3.1371 	90.0096 	116.656 	-0.551074 	199.788 	360.766 	285.042 	539.795 	
49.9009 	-0.00844894 	-0.57697 	0.743725 	-0.375353 	0.00388774 	-3.1369 	90.0096 	116.656 	-0.551074 	200.791 	360.766 	285.042 	539.795 	
50.0044 	-0.00839169 	-0.581838 	0.739976 	-0.357901 	0.00388675 	-3.13671 	90.0096 	116.656 	-0.551074 	201.783 	360.766 	285.042 	539.795 	
50.1061 	-0.00833383 	-0.58664 	0.736143 	-0.340448 	0.0038891 	-3.13652 	90.0096 	116.655 	-0.551074 	202.799 	360.766 	285.042 	539.795 	
50.2084 	-0.00827537 	-0.591373 	0.732227 	-0.322995 	0.00389478 	-3.13633 	90.0096 	116.655 	-0.551074 	203.895 	360.766 	285.042 	539.795 	
50.3105 	-0.00822228 	-0.595575 	0.728632 	-0.307288 	0.00390275 	-3.13616 	90.0096 	116.655 	-0.551074 	204.902 	360.766 	285.042 	539.795 	
50.4132 	-0.00816275 	-0.600176 	0.724561 	-0.289835 	0.00391476 	-3.13597 	90.0095 	116.655 	-0.551074 	205.902 	360.766 	285.042 	539.795 	
50.516 	-0.00809665 	-0.605155 	0.719991 	-0.270638 	0.00393182 	-3.13576 	90.0096 	116.655 	-0.551074 	206.903 	360.766 	285.042 	539.795 	
50.6176 	-0.00803602 	-0.609604 	0.715754 	-0.253185 	0.00395081 	-3.13557 	90.0095 	116.655 	-0.551074 	208.005 	360.766 	285.042 	539.795 	
50.7196 	-0.00797489 	-0.613979 	0.71144 	-0.235732 	0.00397312 	-3.13538 	90.0095 	116.655 	-0.551074 	209.002 	360.766 	285.042 	539.795 	
50.8218 	-0.00791327 	-0.618277 	0.70705 	-0.21828 	0.00399874 	-3.13519 	90.0096 	116.655 	-0.551074 	209.999 	360.766 	285.042 	539.795 	
50.9251 	-0.00785119 	-0.622499 	0.702586 	-0.200827 	0.00402767 	-3.135 	90.0095 	116.655 	-0.551074 	211.006 	360.766 	285.042 	539.795 	
51.0285 	-0.00778867 	-0.626641 	0.698049 	-0.183375 	0.00405988 	-3.13481 	90.0096 	116.655 	-0.551074 	212.099 	360.766 	285.042 	539.795 	
51.1306 	-0.00772572 	-0.630704 	0.69344 	-0.165922 	0.00409538 	-3.13462 	90.0095 	116.655 	-0.551074 	213.1 	360.766 	285.042 	539.795 	
51.2326 	-0.00766873 	-0.634292 	0.689232 	-0.150215 	0.00413013 	-3.13446 	90.0096 	116.655 	-0.551074 	214.111 	360.766 	285.042 	539.795 	
51.3403 	-0.00759864 	-0.638586 	0.684014 	-0.131017 	0.00417619 	-3.13425 	90.0096 	116.655 	-0.550977 	215.219 	360.766 	285.041 	539.795 	
51.4437 	-0.00753453 	-0.642402 	0.679199 	-0.113565 	0.00422146 	-3.13406 	90.0095 	116.655 	-0.551074 	216.212 	360.766 	285.041 	539.795 	
51.5454 	-0.00747008 	-0.646133 	0.674318 	-0.096112 	0.00426998 	-3.13388 	90.0096 	116.654 	-0.551074 	217.21 	360.766 	285.041 	539.795 	
51.6484 	-0.0074053 	-0.649779 	0.669373 	-0.0786597 	0.00432171 	-3.1337 	90.0095 	116.654 	-0.550977 	218.313 	360.766 	285.041 	539.795 	
51.7503 	-0.00734022 	-0.653338 	0.664364 	-0.0612071 	0.00437664 	-3.13351 	90.0096 	116.654 	-0.550977 	219.319 	360.766 	285.041 	539.796 	
51.8526 	-0.00721578 	-0.659857 	0.654681 	-0.0280474 	0.00448979 	-3.13317 	90.0095 	116.654 	-0.550977 	220.326 	360.766 	285.041 	539.796 	
51.9549 	-0.00714991 	-0.663157 	0.649499 	-0.0105949 	0.00455391 	-3.13299 	90.0096 	116.654 	-0.550977 	221.323 	360.766 	285.041 	539.796 	
52.0569 	-0.0070772 	-0.666683 	0.643734 	0.00860294 	0.00462807 	-3.13279 	90.0096 	116.654 	-0.550977 	222.321 	360.766 	285.041 	539.796 	
52.1587 	-0.00701087 	-0.669792 	0.638435 	0.0260555 	0.00469875 	-3.13261 	90.0095 	116.654 	-0.550977 	223.408 	360.766 	285.041 	539.796 	
52.2606 	-0.00694436 	-0.672808 	0.633082 	0.0435079 	0.00477252 	-3.13244 	90.0096 	116.654 	-0.550977 	224.407 	360.766 	285.041 	539.796 	
52.3632 	-0.00687768 	-0.67573 	0.627677 	0.0609602 	0.00484936 	-3.13226 	90.0095 	116.654 	-0.550977 	225.402 	360.766 	285.041 	539.796 	
52.4656 	-0.00681085 	-0.678557 	0.622223 	0.0784127 	0.00492924 	-3.13209 	90.0096 	116.654 	-0.550977 	226.408 	360.766 	285.04 	539.796 	
52.5674 	-0.0067439 	-0.681288 	0.616719 	0.0958652 	0.00501213 	-3.13192 	90.0096 	116.654 	-0.550977 	227.51 	360.766 	285.04 	539.796 	
52.6693 	-0.00667684 	-0.683923 	0.611169 	0.113318 	0.00509802 	-3.13175 	90.0095 	116.654 	-0.550977 	228.507 	360.766 	285.04 	539.796 	
52.7729 	-0.00661641 	-0.686212 	0.606136 	0.129025 	0.00517786 	-3.13159 	90.0095 	116.654 	-0.550977 	229.503 	360.766 	285.04 	539.796 	
52.8756 	-0.00654249 	-0.688901 	0.599936 	0.148222 	0.00527868 	-3.13141 	90.0095 	116.654 	-0.550977 	230.509 	360.766 	285.04 	539.796 	
52.9791 	-0.00647523 	-0.691242 	0.594255 	0.165675 	0.00537338 	-3.13124 	90.0095 	116.654 	-0.550977 	231.603 	360.766 	285.04 	539.796 	
53.0816 	-0.00640795 	-0.693483 	0.588535 	0.183127 	0.00547097 	-3.13108 	90.0096 	116.654 	-0.550977 	232.619 	360.766 	285.04 	539.796 	
53.1834 	-0.00634067 	-0.695624 	0.582776 	0.20058 	0.00557142 	-3.13092 	90.0095 	116.654 	-0.550977 	233.609 	360.766 	285.04 	539.796 	
53.2856 	-0.0062734 	-0.697664 	0.576981 	0.218032 	0.00567469 	-3.13075 	90.0095 	116.654 	-0.550977 	234.602 	360.766 	285.039 	539.796 	
53.3884 	-0.00620617 	-0.699603 	0.571151 	0.235485 	0.00578075 	-3.1306 	90.0095 	116.654 	-0.550977 	235.696 	360.766 	285.039 	539.796 	
53.491 	-0.00614571 	-0.701261 	0.565876 	0.251192 	0.00587856 	-3.13045 	90.0096 	116.654 	-0.550977 	236.698 	360.766 	285.039 	539.796 	
53.5932 	-0.00607861 	-0.703006 	0.559985 	0.268644 	0.00598983 	-3.1303 	90.0095 	116.654 	-0.550977 	237.699 	360.766 	285.039 	539.796 	
53.6952 	-0.00600491 	-0.704806 	0.553471 	0.287842 	0.00611534 	-3.13013 	90.0096 	116.654 	-0.550977 	238.702 	360.766 	285.038 	539.796 	
53.7974 	-0.00593804 	-0.706333 	0.54752 	0.305294 	0.00623223 	-3.12998 	90.0096 	116.654 	-0.550977 	239.704 	360.766 	285.038 	539.796 	
53.9003 	-0.0058713 	-0.707756 	0.541543 	0.322747 	0.00635174 	-3.12983 	90.0095 	116.654 	-0.550977 	240.8 	360.766 	285.038 	539.796 	
54.0031 	-0.00580472 	-0.709075 	0.535543 	0.340199 	0.00647384 	-3.12968 	90.0095 	116.654 	-0.550977 	241.805 	360.766 	285.038 	539.796 	
54.1052 	-0.00573832 	-0.710289 	0.52952 	0.357651 	0.00659849 	-3.12954 	90.0095 	116.654 	-0.550977 	242.804 	360.766 	285.038 	539.796 	
54.2075 	-0.00567874 	-0.711291 	0.524082 	0.373358 	0.00671282 	-3.12941 	90.0095 	116.654 	-0.550977 	243.791 	360.766 	285.038 	539.796 	
54.3098 	-0.00561274 	-0.712305 	0.518023 	0.390811 	0.0068422 	-3.12927 	90.0095 	116.654 	-0.550977 	244.902 	360.766 	285.038 	539.796 	
54.4136 	-0.00554042 	-0.713298 	0.511338 	0.410008 	0.00698733 	-3.12912 	90.0095 	116.654 	-0.550977 	245.891 	360.766 	285.038 	539.796 	
54.5157 	-0.00547494 	-0.714088 	0.505245 	0.427461 	0.00712178 	-3.12898 	90.0095 	116.654 	-0.550977 	246.896 	360.766 	285.038 	539.796 	
54.6178 	-0.00540974 	-0.714773 	0.499139 	0.444913 	0.00725858 	-3.12885 	90.0096 	116.654 	-0.550977 	247.988 	360.766 	285.038 	539.796 	
54.7202 	-0.00534485 	-0.71535 	0.493023 	0.462365 	0.00739768 	-3.12872 	90.0096 	116.654 	-0.550977 	248.987 	360.766 	285.037 	539.796 	
54.8223 	-0.00528027 	-0.715821 	0.486897 	0.479818 	0.00753906 	-3.12859 	90.0096 	116.654 	-0.550977 	249.99 	360.766 	285.037 	539.796 	
54.9253 	-0.00521604 	-0.716185 	0.480764 	0.49727 	0.00768266 	-3.12846 	90.0095 	116.654 	-0.550977 	250.985 	360.766 	285.037 	539.796 	
55.0294 	-0.00515216 	-0.716441 	0.474625 	0.514723 	0.00782844 	-3.12834 	90.0095 	116.654 	-0.550977 	252.089 	360.766 	285.037 	539.796 	
55.1312 	-0.005095 	-0.716581 	0.469098 	0.53043 	0.00796147 	-3.12823 	90.0095 	116.654 	-0.550977 	253.089 	360.766 	285.037 	539.796 	
55.233 	-0.00503186 	-0.716634 	0.462954 	0.547882 	0.00811126 	-3.12811 	90.0095 	116.654 	-0.550977 	254.088 	360.766 	285.037 	539.796 	
55.3421 	-0.00496288 	-0.716568 	0.456196 	0.567079 	0.0082784 	-3.12798 	90.0096 	116.654 	-0.550977 	255.192 	360.766 	285.037 	539.796 	
55.4444 	-0.00490064 	-0.716396 	0.450055 	0.584532 	0.00843245 	-3.12787 	90.0096 	116.654 	-0.550977 	256.189 	360.766 	285.037 	539.796 	
55.547 	-0.00483885 	-0.716117 	0.443917 	0.601984 	0.00858845 	-3.12776 	90.0095 	116.654 	-0.550977 	257.178 	360.766 	285.037 	539.796 	
55.6486 	-0.00477753 	-0.71573 	0.437786 	0.619437 	0.00874635 	-3.12765 	90.0095 	116.654 	-0.550977 	258.289 	360.766 	285.037 	539.796 	
55.7512 	-0.00471671 	-0.715237 	0.431661 	0.636889 	0.0089061 	-3.12755 	90.0096 	116.654 	-0.550977 	259.286 	360.766 	285.037 	539.796 	
55.8537 	-0.00460257 	-0.714005 	0.420054 	0.670049 	0.00921458 	-3.12735 	90.0096 	116.654 	-0.550977 	260.282 	360.766 	285.037 	539.796 	
55.9561 	-0.00453738 	-0.713116 	0.413354 	0.689246 	0.00939602 	-3.12725 	90.0096 	116.654 	-0.550977 	261.284 	360.766 	285.037 	539.796 	
56.0582 	-0.00447872 	-0.712197 	0.407279 	0.706699 	0.00956271 	-3.12715 	90.0096 	116.654 	-0.550977 	262.37 	360.766 	285.036 	539.796 	
56.1596 	-0.00442063 	-0.711171 	0.401222 	0.724151 	0.009731 	-3.12706 	90.0096 	116.654 	-0.550977 	263.366 	360.766 	285.036 	539.796 	
56.2614 	-0.00436315 	-0.710041 	0.395183 	0.741603 	0.00990085 	-3.12698 	90.0096 	116.654 	-0.550977 	264.366 	360.766 	285.036 	539.796 	
56.364 	-0.00430629 	-0.708804 	0.389164 	0.759056 	0.0100722 	-3.12689 	90.0096 	116.654 	-0.550977 	265.368 	360.766 	285.036 	539.796 	
56.467 	-0.00425006 	-0.707463 	0.383169 	0.776508 	0.010245 	-3.12681 	90.0096 	116.654 	-0.550977 	266.363 	360.766 	285.036 	539.796 	
56.5689 	-0.00419449 	-0.706018 	0.377197 	0.793961 	0.0104192 	-3.12673 	90.0095 	116.654 	-0.550977 	267.462 	360.766 	285.036 	539.796 	
56.6732 	-0.00414504 	-0.704628 	0.371845 	0.809668 	0.0105772 	-3.12666 	90.0096 	116.654 	-0.550977 	268.459 	360.766 	285.036 	539.796 	
56.7755 	-0.00409076 	-0.702985 	0.365925 	0.827121 	0.0107539 	-3.12659 	90.0096 	116.654 	-0.550977 	269.45 	360.766 	285.036 	539.796 	
56.8786 	-0.00403186 	-0.701059 	0.359447 	0.846319 	0.0109497 	-3.12651 	90.0096 	116.654 	-0.550977 	270.549 	360.766 	285.036 	539.796 	
56.9814 	-0.00397907 	-0.699201 	0.353591 	0.863771 	0.011129 	-3.12645 	90.0095 	116.654 	-0.550977 	271.552 	360.766 	285.036 	539.796 	
57.0834 	-0.00392701 	-0.69724 	0.347768 	0.881224 	0.0113094 	-3.12638 	90.0096 	116.654 	-0.550977 	272.552 	360.766 	285.036 	539.796 	
57.1855 	-0.00387571 	-0.695179 	0.34198 	0.898676 	0.0114908 	-3.12632 	90.0096 	116.654 	-0.550977 	273.547 	360.766 	285.036 	539.796 	
57.2878 	-0.00382517 	-0.693016 	0.336229 	0.916129 	0.0116733 	-3.12627 	90.0096 	116.654 	-0.550977 	274.534 	360.766 	285.036 	539.796 	
57.3909 	-0.00377542 	-0.690754 	0.330517 	0.933582 	0.0118568 	-3.12621 	90.0096 	116.654 	-0.550977 	275.63 	360.766 	285.036 	539.796 	
57.4939 	-0.00373132 	-0.688632 	0.325411 	0.949289 	0.0120227 	-3.12617 	90.0096 	116.654 	-0.550977 	276.627 	360.766 	285.036 	539.796 	
57.5958 	-0.0036831 	-0.686182 	0.319777 	0.966742 	0.0122078 	-3.12612 	90.0096 	116.654 	-0.550977 	277.63 	360.766 	285.036 	539.796 	
57.6979 	-0.0036357 	-0.683633 	0.314186 	0.984195 	0.0123937 	-3.12608 	90.0095 	116.654 	-0.550977 	278.722 	360.766 	285.036 	539.796 	
57.8003 	-0.00358454 	-0.680717 	0.308089 	1.00339 	0.0125991 	-3.12603 	90.0095 	116.654 	-0.550977 	279.713 	360.766 	285.036 	539.796 	
57.9032 	-0.00353892 	-0.677965 	0.302596 	1.02085 	0.0127866 	-3.12599 	90.0096 	116.654 	-0.550977 	280.711 	360.766 	285.036 	539.796 	
58.006 	-0.00349418 	-0.675118 	0.297151 	1.0383 	0.0129746 	-3.12596 	90.0096 	116.654 	-0.550977 	281.706 	360.766 	285.036 	539.796 	
58.1084 	-0.00345032 	-0.672176 	0.291757 	1.05575 	0.0131632 	-3.12593 	90.0095 	116.654 	-0.550977 	282.809 	360.766 	285.036 	539.796 	
58.2107 	-0.00340735 	-0.669141 	0.286416 	1.0732 	0.0133524 	-3.1259 	90.0096 	116.654 	-0.550977 	283.8 	360.766 	285.036 	539.796 	
58.3134 	-0.00336946 	-0.666329 	0.281654 	1.08891 	0.013523 	-3.12588 	90.0096 	116.654 	-0.550977 	284.794 	360.766 	285.035 	539.796 	
58.4162 	-0.00332417 	-0.662792 	0.275895 	1.10811 	0.0137319 	-3.12586 	90.0096 	116.654 	-0.550977 	285.789 	360.766 	285.035 	539.796 	
58.5193 	-0.00328397 	-0.659481 	0.27072 	1.12556 	0.0139223 	-3.12584 	90.0095 	116.654 	-0.550977 	286.89 	360.766 	285.035 	539.796 	
58.621 	-0.00324472 	-0.65608 	0.265602 	1.14302 	0.0141129 	-3.12582 	90.0096 	116.654 	-0.550977 	287.895 	360.766 	285.035 	539.796 	
58.723 	-0.00320644 	-0.652591 	0.260546 	1.16047 	0.0143037 	-3.12581 	90.0096 	116.654 	-0.550977 	288.882 	360.766 	285.035 	539.796 	
58.8262 	-0.00316912 	-0.649013 	0.255551 	1.17792 	0.0144947 	-3.12581 	90.0095 	116.654 	-0.550977 	289.878 	360.766 	285.035 	539.796 	
58.9291 	-0.00313279 	-0.645349 	0.250618 	1.19538 	0.0146858 	-3.1258 	90.0095 	116.654 	-0.550977 	290.974 	360.766 	285.035 	539.796 	
59.0323 	-0.00309745 	-0.6416 	0.245751 	1.21283 	0.0148769 	-3.1258 	90.0096 	116.654 	-0.550977 	291.969 	360.766 	285.035 	539.796 	
59.1383 	-0.0030665 	-0.638153 	0.241427 	1.22854 	0.0150489 	-3.1258 	90.0096 	116.654 	-0.550977 	292.969 	360.766 	285.035 	539.796 	
59.2413 	-0.0030298 	-0.633849 	0.236216 	1.24774 	0.0152591 	-3.12581 	90.0095 	116.655 	-0.550977 	294.078 	360.766 	285.035 	539.796 	
59.3442 	-0.0029975 	-0.62985 	0.231552 	1.26519 	0.01545 	-3.12582 	90.0095 	116.655 	-0.550977 	295.065 	360.766 	285.035 	539.796 	
59.4463 	-0.00296625 	-0.62577 	0.226958 	1.28264 	0.0156407 	-3.12583 	90.0096 	116.655 	-0.550977 	296.06 	360.766 	285.035 	539.796 	
59.548 	-0.00293603 	-0.62161 	0.222436 	1.3001 	0.0158312 	-3.12584 	90.0096 	116.655 	-0.550977 	297.148 	360.766 	285.035 	539.796 	
59.6499 	-0.00290687 	-0.617372 	0.217987 	1.31755 	0.0160214 	-3.12586 	90.0096 	116.655 	-0.550977 	298.149 	360.766 	285.035 	539.796 	
59.752 	-0.00285175 	-0.608667 	0.209315 	1.35246 	0.0164007 	-3.12591 	90.0096 	116.655 	-0.550977 	299.156 	360.766 	285.035 	539.796 	
59.8547 	-0.00282835 	-0.604652 	0.205513 	1.36817 	0.0165707 	-3.12594 	90.0095 	116.655 	-0.550977 	300.146 	360.766 	285.035 	539.796 	
59.9576 	-0.00280338 	-0.600121 	0.201363 	1.38562 	0.0167592 	-3.12597 	90.0095 	116.655 	-0.550977 	301.144 	360.766 	285.035 	539.796 	
60.0595 	-0.00277718 	-0.595055 	0.196889 	1.40482 	0.0169658 	-3.12601 	90.0095 	116.655 	-0.550977 	302.236 	360.766 	285.035 	539.796 	
60.1614 	-0.00275452 	-0.590375 	0.192908 	1.42227 	0.017153 	-3.12605 	90.0096 	116.655 	-0.550977 	303.222 	360.766 	285.035 	539.796 	
60.2633 	-0.00273297 	-0.585627 	0.189009 	1.43973 	0.0173395 	-3.12609 	90.0096 	116.655 	-0.550977 	304.228 	360.766 	285.035 	539.796 	
60.366 	-0.00271253 	-0.580811 	0.185193 	1.45718 	0.0175252 	-3.12613 	90.0096 	116.655 	-0.550977 	305.218 	360.766 	285.035 	539.796 	
60.4689 	-0.00269321 	-0.57593 	0.181462 	1.47464 	0.01771 	-3.12618 	90.0095 	116.655 	-0.550977 	306.31 	360.766 	285.035 	539.796 	
60.5734 	-0.00267503 	-0.570984 	0.177817 	1.49209 	0.0178941 	-3.12623 	90.0096 	116.655 	-0.550977 	307.31 	360.766 	285.035 	539.796 	
60.6752 	-0.00265963 	-0.566479 	0.17461 	1.5078 	0.0180589 	-3.12628 	90.0096 	116.655 	-0.550977 	308.302 	360.766 	285.035 	539.796 	
60.7784 	-0.0026436 	-0.561414 	0.171131 	1.52525 	0.0182411 	-3.12634 	90.0095 	116.655 	-0.550977 	309.398 	360.766 	285.035 	539.796 	
60.8811 	-0.00262729 	-0.555775 	0.167407 	1.54445 	0.0184403 	-3.12641 	90.0096 	116.655 	-0.550977 	310.401 	360.766 	285.035 	539.796 	
60.9841 	-0.00261366 	-0.550587 	0.164115 	1.56191 	0.0186202 	-3.12647 	90.0096 	116.655 	-0.550977 	311.392 	360.766 	285.035 	539.796 	
61.086 	-0.00260119 	-0.545342 	0.160915 	1.57936 	0.018799 	-3.12654 	90.0096 	116.655 	-0.550977 	312.397 	360.766 	285.035 	539.796 	
61.1881 	-0.00258988 	-0.540042 	0.157807 	1.59682 	0.0189766 	-3.12661 	90.0096 	116.656 	-0.550977 	313.489 	360.766 	285.035 	539.796 	
61.2912 	-0.00257972 	-0.534688 	0.154791 	1.61427 	0.0191529 	-3.12669 	90.0095 	116.656 	-0.550977 	314.478 	360.766 	285.035 	539.796 	
61.3941 	-0.00257073 	-0.529283 	0.15187 	1.63173 	0.019328 	-3.12676 	90.0095 	116.656 	-0.550977 	315.48 	360.766 	285.035 	539.796 	
61.4108 	-0.00257073 	-0.529283 	0.15187 	1.63173 	0.019328 	-3.12676 	90.0095 	116.656 	-0.550977 	315.676 	360.766 	285.035 	539.796 	
61.5133 	-0.00256513 	-0.52547 	0.149881 	1.64394 	0.0194497 	-3.12682 	90.0095 	116.656 	-0.550977 	316.197 	360.766 	285.035 	539.796 	
61.6165 	-0.00256513 	-0.52547 	0.149881 	1.64394 	0.0194497 	-3.12682 	90.0095 	116.656 	-0.550977 	316.267 	360.766 	285.035 	539.796 	
61.7193 	-0.00256513 	-0.52547 	0.149881 	1.64394 	0.0194497 	-3.12682 	90.0095 	116.656 	-0.550977 	316.269 	360.766 	285.035 	539.796 	
61.8216 	-0.00256513 	-0.52547 	0.149881 	1.64394 	0.0194497 	-3.12682 	90.0095 	116.656 	-0.550977 	316.269 	360.766 	285.035 	539.796 	
61.9236 	-0.00256513 	-0.52547 	0.149881 	1.64394 	0.0194497 	-3.12682 	90.0096 	116.656 	-0.550977 	316.27 	360.766 	285.035 	539.796 	
