RISC-NYUAD/HeavyPayloadDrone/projects/kinova-ros/devel/lib/ne_kinova_demo/VulcanTrajectory/Vulcan1_Vicon_y19m11d14h15min4.csv
time (NSec) 	Kinova Tip Position (t_x) 	t_y 	t_z 	Kinova Tip Angle (theta_x) 	Kinova Tip Angle (theta_y) 	Kinova Tip Angle (theta_z) 	Kinova Joint Angle (j1) 	(j2) 	(j3) 	(j4) 	Kinova Joint Angle (j5) 	(j6) 	(j7)
0.0253727 	-0.00382993 	-0.485722 	-0.24323 	1.76551 	0.010253 	-3.10831 	90.0527 	63.1248 	-0.619238 	268.867 	360.844 	285.227 	539.185 	
0.0456867 	-0.00382993 	-0.485722 	-0.24323 	1.76551 	0.010253 	-3.10831 	90.0528 	63.1253 	-0.619434 	268.867 	360.844 	285.227 	539.185 	
0.0884187 	-0.00383138 	-0.486011 	-0.243024 	1.76482 	0.0102489 	-3.10866 	90.0527 	63.128 	-0.619336 	268.867 	360.844 	285.227 	539.186 	
0.190491 	-0.00381493 	-0.486901 	-0.241233 	1.7654 	0.0103148 	-3.11668 	90.0528 	63.3812 	-0.619531 	269.08 	360.844 	285.227 	539.417 	
0.292938 	-0.00376783 	-0.490098 	-0.234831 	1.76539 	0.0105086 	-3.12535 	90.0528 	64.2762 	-0.619434 	269.91 	360.844 	285.227 	539.683 	
0.395567 	-0.00372142 	-0.493184 	-0.228375 	1.76539 	0.0107033 	-3.1253 	90.0529 	65.3456 	-0.619043 	270.987 	360.844 	285.227 	539.693 	
0.498688 	-0.00367573 	-0.496157 	-0.221866 	1.76539 	0.0108989 	-3.12525 	90.0527 	66.3438 	-0.619434 	271.976 	360.844 	285.227 	539.696 	
0.601452 	-0.00363075 	-0.499015 	-0.215306 	1.76539 	0.0110953 	-3.12521 	90.0527 	67.3185 	-0.619531 	272.975 	360.844 	285.227 	539.697 	
0.703931 	-0.00358652 	-0.501759 	-0.208697 	1.76539 	0.0112924 	-3.12517 	90.0528 	68.3194 	-0.619336 	273.969 	360.844 	285.227 	539.698 	
0.806866 	-0.00354304 	-0.504386 	-0.202042 	1.76539 	0.0114901 	-3.12513 	90.0529 	69.4404 	-0.619238 	275.065 	360.844 	285.227 	539.699 	
0.909675 	-0.00350033 	-0.506898 	-0.195341 	1.76539 	0.0116885 	-3.1251 	90.0528 	70.467 	-0.619336 	276.073 	360.844 	285.227 	539.7 	
1.01233 	-0.00345839 	-0.509291 	-0.188598 	1.76539 	0.0118874 	-3.12507 	90.0527 	71.4621 	-0.619434 	277.072 	360.844 	285.227 	539.7 	
1.11482 	-0.00341725 	-0.511567 	-0.181814 	1.76539 	0.0120868 	-3.12505 	90.0528 	72.4702 	-0.619434 	278.069 	360.844 	285.227 	539.701 	
1.2185 	-0.00337691 	-0.513724 	-0.174991 	1.76539 	0.0122866 	-3.12502 	90.0528 	73.5834 	-0.619434 	279.168 	360.844 	285.227 	539.701 	
1.3214 	-0.00333738 	-0.515762 	-0.168132 	1.76539 	0.0124868 	-3.125 	90.0529 	74.5713 	-0.619336 	280.182 	360.844 	285.227 	539.702 	
1.42392 	-0.00329869 	-0.517679 	-0.161238 	1.76539 	0.0126872 	-3.12499 	90.053 	75.5826 	-0.61875 	281.18 	360.844 	285.227 	539.702 	
1.52679 	-0.00326083 	-0.519477 	-0.154311 	1.76539 	0.0128879 	-3.12498 	90.053 	76.6741 	-0.618945 	282.278 	360.844 	285.227 	539.702 	
1.62962 	-0.00322383 	-0.521152 	-0.147355 	1.76539 	0.0130888 	-3.12497 	90.0528 	77.6819 	-0.619238 	283.272 	360.844 	285.227 	539.702 	
1.73207 	-0.00318769 	-0.522707 	-0.14037 	1.76539 	0.0132898 	-3.12496 	90.0525 	78.7014 	-0.619629 	284.283 	360.844 	285.227 	539.702 	
1.83495 	-0.00315242 	-0.524138 	-0.133359 	1.76539 	0.0134908 	-3.12496 	90.0526 	79.7139 	-0.619434 	285.282 	360.844 	285.227 	539.703 	
1.94135 	-0.00311804 	-0.525448 	-0.126324 	1.76539 	0.0136919 	-3.12496 	90.0528 	80.7951 	-0.619336 	286.379 	360.844 	285.227 	539.703 	
2.04382 	-0.00308455 	-0.526634 	-0.119268 	1.76539 	0.0138929 	-3.12497 	90.0529 	81.7747 	-0.619043 	287.385 	360.844 	285.227 	539.703 	
2.14668 	-0.00305197 	-0.527697 	-0.112191 	1.76539 	0.0140937 	-3.12498 	90.053 	82.8884 	-0.619043 	288.478 	360.844 	285.227 	539.703 	
2.25259 	-0.0030203 	-0.528637 	-0.105098 	1.76539 	0.0142944 	-3.12499 	90.0529 	83.865 	-0.619043 	289.474 	360.844 	285.227 	539.703 	
2.35681 	-0.00298956 	-0.529452 	-0.0979889 	1.76539 	0.0144948 	-3.12501 	90.0529 	84.9514 	-0.619043 	290.578 	360.844 	285.227 	539.703 	
2.45882 	-0.00295976 	-0.530144 	-0.0908666 	1.76539 	0.0146948 	-3.12503 	90.0529 	85.9618 	-0.619141 	291.578 	360.844 	285.227 	539.703 	
2.56163 	-0.00290298 	-0.531153 	-0.0765915 	1.76539 	0.0150938 	-3.12508 	90.0526 	86.9849 	-0.619531 	292.579 	360.844 	285.227 	539.703 	
2.66365 	-0.00287603 	-0.53147 	-0.069443 	1.7654 	0.0152926 	-3.12511 	90.0526 	87.9932 	-0.619629 	293.589 	360.844 	285.227 	539.704 	
2.76571 	-0.00285005 	-0.531663 	-0.06229 	1.7654 	0.0154909 	-3.12514 	90.0528 	89.096 	-0.619531 	294.583 	360.844 	285.227 	539.704 	
2.86773 	-0.00282504 	-0.531731 	-0.0551347 	1.7654 	0.0156885 	-3.12518 	90.0528 	90.0874 	-0.619336 	295.676 	360.844 	285.227 	539.704 	
2.97461 	-0.00280102 	-0.531674 	-0.0479793 	1.7654 	0.0158854 	-3.12522 	90.0529 	91.1013 	-0.619141 	296.677 	360.844 	285.227 	539.704 	
3.07648 	-0.00277799 	-0.531492 	-0.040826 	1.7654 	0.0160816 	-3.12526 	90.0528 	92.1791 	-0.619141 	297.783 	360.844 	285.227 	539.704 	
3.17857 	-0.00275596 	-0.531185 	-0.0336768 	1.7654 	0.016277 	-3.12531 	90.0529 	93.1879 	-0.619238 	298.779 	360.844 	285.227 	539.704 	
3.2805 	-0.00273493 	-0.530754 	-0.0265343 	1.7654 	0.0164716 	-3.12536 	90.0528 	94.1867 	-0.619043 	299.777 	360.844 	285.227 	539.704 	
3.38252 	-0.00271492 	-0.530198 	-0.0194003 	1.7654 	0.0166652 	-3.12541 	90.0529 	95.1653 	-0.619336 	300.781 	360.844 	285.227 	539.704 	
3.48473 	-0.00269592 	-0.529518 	-0.0122771 	1.7654 	0.0168579 	-3.12547 	90.0528 	96.1703 	-0.619336 	301.78 	360.844 	285.227 	539.704 	
3.58651 	-0.00267795 	-0.528713 	-0.00516681 	1.7654 	0.0170495 	-3.12553 	90.0527 	97.2565 	-0.619238 	302.884 	360.844 	285.227 	539.704 	
3.68857 	-0.00266101 	-0.527784 	0.00192839 	1.76541 	0.0172401 	-3.1256 	90.0528 	98.2751 	-0.619238 	303.883 	360.844 	285.227 	539.704 	
3.79064 	-0.0026451 	-0.526732 	0.00900608 	1.76541 	0.0174295 	-3.12566 	90.0527 	99.3097 	-0.619336 	304.884 	360.844 	285.227 	539.704 	
3.8926 	-0.00263023 	-0.525556 	0.0160646 	1.76541 	0.0176176 	-3.12573 	90.0528 	100.322 	-0.619238 	305.886 	360.844 	285.227 	539.704 	
3.99483 	-0.00261641 	-0.524257 	0.0231013 	1.76541 	0.0178046 	-3.12581 	90.0528 	101.258 	-0.619238 	306.88 	360.844 	285.227 	539.704 	
4.09758 	-0.00260363 	-0.522836 	0.0301144 	1.76541 	0.0179902 	-3.12589 	90.0527 	102.388 	-0.619531 	307.987 	360.844 	285.227 	539.704 	
4.19954 	-0.0025919 	-0.521293 	0.0371016 	1.76541 	0.0181744 	-3.12597 	90.0528 	103.362 	-0.619238 	308.978 	360.844 	285.227 	539.704 	
4.30302 	-0.00258123 	-0.519627 	0.0440608 	1.76541 	0.0183572 	-3.12605 	90.0528 	104.337 	-0.619434 	309.982 	360.844 	285.227 	539.705 	
4.40575 	-0.00257162 	-0.517841 	0.0509898 	1.76542 	0.0185385 	-3.12614 	90.0529 	105.439 	-0.619141 	310.977 	360.844 	285.226 	539.705 	
4.50754 	-0.00256307 	-0.515934 	0.0578866 	1.76542 	0.0187182 	-3.12623 	90.0528 	106.466 	-0.619434 	312.081 	360.844 	285.227 	539.705 	
4.60985 	-0.00255559 	-0.513907 	0.0647492 	1.76542 	0.0188964 	-3.12632 	90.0528 	107.503 	-0.619141 	313.082 	360.844 	285.227 	539.705 	
4.71304 	-0.00254917 	-0.51176 	0.0715753 	1.76542 	0.0190729 	-3.12642 	90.0527 	108.487 	-0.619336 	314.093 	360.844 	285.227 	539.705 	
4.81586 	-0.00254382 	-0.509495 	0.0783628 	1.76542 	0.0192477 	-3.12652 	90.0526 	109.574 	-0.619434 	315.08 	360.844 	285.227 	539.705 	
4.91938 	-0.00253954 	-0.507111 	0.0851098 	1.76543 	0.0194207 	-3.12662 	90.0528 	110.552 	-0.619238 	316.184 	360.844 	285.227 	539.705 	
5.02208 	-0.00253633 	-0.50461 	0.0918142 	1.76543 	0.0195919 	-3.12672 	90.0529 	111.542 	-0.619336 	317.096 	360.844 	285.227 	539.705 	
5.12525 	-0.00253817 	-0.505635 	0.0998389 	1.75438 	0.0196514 	-3.12678 	90.0529 	112.538 	-0.619238 	317.31 	360.844 	285.227 	539.705 	
5.22802 	-0.00254235 	-0.508623 	0.10869 	1.73693 	0.0196472 	-3.1268 	90.0528 	113.66 	-0.619434 	317.355 	360.844 	285.227 	539.705 	
5.33122 	-0.0025463 	-0.511457 	0.117592 	1.71948 	0.0196434 	-3.12683 	90.0528 	114.643 	-0.619336 	317.369 	360.844 	285.227 	539.705 	
5.43441 	-0.00255004 	-0.514135 	0.126542 	1.70203 	0.01964 	-3.12685 	90.0528 	115.661 	-0.619336 	317.383 	360.844 	285.227 	539.705 	
5.47172 	-0.00255356 	-0.516656 	0.135538 	1.68457 	0.019637 	-3.12688 	90.0529 	116.06 	-0.619238 	317.385 	360.844 	285.227 	539.705 	
5.57532 	-0.00255949 	-0.521277 	0.143925 	1.66223 	0.0195488 	-3.12685 	90.0528 	116.852 	-0.619336 	317.168 	360.844 	285.226 	539.705 	
5.67833 	-0.00256858 	-0.527873 	0.151283 	1.63605 	0.0193744 	-3.12678 	90.0529 	117.556 	-0.619238 	316.256 	360.844 	285.227 	539.705 	
5.78088 	-0.00257726 	-0.533291 	0.154181 	1.6186 	0.0191998 	-3.12671 	90.0529 	117.638 	-0.619434 	315.28 	360.844 	285.227 	539.705 	
5.88274 	-0.00258711 	-0.538657 	0.157173 	1.60114 	0.0190238 	-3.12663 	90.0529 	117.659 	-0.618945 	314.284 	360.844 	285.227 	539.705 	
5.98499 	-0.00259811 	-0.543971 	0.160258 	1.58369 	0.0188465 	-3.12656 	90.0528 	117.678 	-0.619531 	313.266 	360.844 	285.226 	539.705 	
6.08793 	-0.00261028 	-0.549229 	0.163436 	1.56623 	0.0186681 	-3.12649 	90.053 	117.697 	-0.618945 	312.176 	360.844 	285.227 	539.705 	
6.1909 	-0.00262359 	-0.554431 	0.166705 	1.54878 	0.0184884 	-3.12643 	90.0529 	117.706 	-0.619336 	311.17 	360.844 	285.226 	539.705 	
6.29299 	-0.00263805 	-0.559576 	0.170064 	1.53132 	0.0183077 	-3.12636 	90.0528 	117.713 	-0.619336 	310.174 	360.844 	285.227 	539.705 	
6.39595 	-0.00265366 	-0.564661 	0.173512 	1.51387 	0.0181259 	-3.12631 	90.0528 	117.715 	-0.619434 	309.159 	360.844 	285.227 	539.705 	
6.49912 	-0.00267041 	-0.569685 	0.177049 	1.49642 	0.0179431 	-3.12625 	90.0529 	117.72 	-0.619434 	308.059 	360.844 	285.227 	539.706 	
6.60229 	-0.00268829 	-0.574647 	0.180673 	1.47896 	0.0177593 	-3.1262 	90.0528 	117.727 	-0.619434 	307.057 	360.844 	285.227 	539.706 	
6.70483 	-0.00270731 	-0.579545 	0.184383 	1.46151 	0.0175747 	-3.12615 	90.0529 	117.73 	-0.619141 	306.046 	360.844 	285.227 	539.706 	
6.80816 	-0.00272744 	-0.584377 	0.188178 	1.44405 	0.0173892 	-3.1261 	90.0529 	117.729 	-0.619336 	304.938 	360.844 	285.227 	539.706 	
6.91118 	-0.00274869 	-0.589142 	0.192056 	1.4266 	0.0172029 	-3.12606 	90.0528 	117.742 	-0.619336 	303.944 	360.844 	285.227 	539.706 	
7.01408 	-0.00277106 	-0.593839 	0.196017 	1.40914 	0.017016 	-3.12602 	90.0528 	117.742 	-0.619531 	302.931 	360.844 	285.227 	539.706 	
7.11673 	-0.00279453 	-0.598466 	0.20006 	1.39169 	0.0168283 	-3.12598 	90.0528 	117.743 	-0.619434 	301.822 	360.844 	285.227 	539.706 	
7.22024 	-0.00281909 	-0.603022 	0.204182 	1.37424 	0.0166401 	-3.12595 	90.0528 	117.741 	-0.619434 	300.828 	360.844 	285.227 	539.706 	
7.32178 	-0.00284475 	-0.607505 	0.208384 	1.35678 	0.0164513 	-3.12592 	90.0528 	117.748 	-0.619531 	299.823 	360.844 	285.227 	539.706 	
7.42421 	-0.00287148 	-0.611914 	0.212663 	1.33933 	0.016262 	-3.12589 	90.0528 	117.758 	-0.619336 	298.827 	360.844 	285.227 	539.706 	
7.52724 	-0.00289929 	-0.616247 	0.217018 	1.32188 	0.0160723 	-3.12587 	90.0528 	117.763 	-0.619434 	297.714 	360.844 	285.226 	539.706 	
7.63026 	-0.00292817 	-0.620504 	0.221449 	1.30442 	0.0158822 	-3.12585 	90.0529 	117.774 	-0.619336 	296.715 	360.844 	285.227 	539.706 	
7.73288 	-0.0029581 	-0.624683 	0.225953 	1.28697 	0.0156918 	-3.12583 	90.0528 	117.773 	-0.619336 	295.712 	360.844 	285.227 	539.706 	
7.84176 	-0.00298908 	-0.628783 	0.230529 	1.26952 	0.0155011 	-3.12582 	90.0529 	117.774 	-0.619336 	294.602 	360.844 	285.227 	539.706 	
7.94397 	-0.00302435 	-0.6332 	0.235644 	1.25032 	0.0152911 	-3.12581 	90.0528 	117.774 	-0.619336 	293.6 	360.844 	285.227 	539.706 	
8.04644 	-0.00305414 	-0.63674 	0.239892 	1.23461 	0.0151192 	-3.1258 	90.0529 	117.774 	-0.619434 	292.592 	360.844 	285.226 	539.706 	
8.15095 	-0.00312327 	-0.644365 	0.249528 	1.1997 	0.014737 	-3.1258 	90.0527 	117.787 	-0.619531 	291.489 	360.844 	285.226 	539.706 	
8.25405 	-0.00315933 	-0.64805 	0.254444 	1.18225 	0.0145459 	-3.1258 	90.0529 	117.792 	-0.619238 	290.471 	360.844 	285.227 	539.706 	
8.35684 	-0.00319639 	-0.651649 	0.259424 	1.1648 	0.0143549 	-3.12581 	90.0524 	117.794 	-0.619922 	289.366 	360.844 	285.226 	539.706 	
8.45876 	-0.00323441 	-0.655161 	0.264466 	1.14734 	0.014164 	-3.12582 	90.0527 	117.794 	-0.619141 	288.365 	360.844 	285.226 	539.706 	
8.56089 	-0.0032734 	-0.658584 	0.269568 	1.12989 	0.0139733 	-3.12583 	90.053 	117.794 	-0.619238 	287.368 	360.844 	285.226 	539.706 	
8.66285 	-0.00331334 	-0.661917 	0.274729 	1.11244 	0.0137829 	-3.12585 	90.0528 	117.791 	-0.619434 	286.369 	360.844 	285.226 	539.706 	
8.76502 	-0.00335422 	-0.66516 	0.279948 	1.09498 	0.0135929 	-3.12587 	90.0528 	117.794 	-0.619531 	285.365 	360.844 	285.226 	539.706 	
8.86788 	-0.00339603 	-0.668311 	0.285222 	1.07753 	0.0134032 	-3.12589 	90.0527 	117.859 	-0.619434 	284.236 	360.844 	285.227 	539.706 	
8.97522 	-0.00343875 	-0.67137 	0.290551 	1.06008 	0.0132139 	-3.12592 	90.0526 	117.813 	-0.619727 	283.251 	360.844 	285.224 	539.706 	
9.0778 	-0.00348237 	-0.674335 	0.295932 	1.04262 	0.0130252 	-3.12595 	90.0522 	117.823 	-0.620117 	282.138 	360.844 	285.224 	539.706 	
9.18001 	-0.00352688 	-0.677206 	0.301364 	1.02517 	0.0128369 	-3.12598 	90.0529 	117.752 	-0.619238 	281.134 	360.844 	285.191 	539.706 	
9.28282 	-0.00357226 	-0.679981 	0.306845 	1.00772 	0.0126494 	-3.12602 	90.0526 	117.826 	-0.619727 	280.123 	360.844 	285.183 	539.706 	
9.38491 	-0.0036185 	-0.682661 	0.312374 	0.990265 	0.0124624 	-3.12606 	90.0529 	117.829 	-0.619238 	279.144 	360.844 	285.185 	539.706 	
9.48681 	-0.00366559 	-0.685243 	0.317949 	0.972813 	0.0122762 	-3.1261 	90.0529 	117.954 	-0.619336 	278.002 	360.844 	285.226 	539.706 	
9.58909 	-0.00371351 	-0.687728 	0.323568 	0.95536 	0.0120908 	-3.12615 	90.0529 	117.847 	-0.619434 	277.027 	360.844 	285.208 	539.706 	
9.69111 	-0.00376224 	-0.690115 	0.32923 	0.937907 	0.0119062 	-3.1262 	90.052 	117.824 	-0.619922 	276.03 	360.844 	285.206 	539.706 	
9.79427 	-0.00381178 	-0.692402 	0.334932 	0.920455 	0.0117225 	-3.12625 	90.0528 	117.833 	-0.619531 	275.017 	360.844 	285.207 	539.706 	
9.89739 	-0.00386211 	-0.694589 	0.340674 	0.903002 	0.0115397 	-3.12631 	90.0526 	117.836 	-0.619824 	273.917 	360.844 	285.207 	539.706 	
10.0001 	-0.00391321 	-0.696676 	0.346452 	0.885549 	0.011358 	-3.12637 	90.0526 	117.837 	-0.619629 	272.905 	360.844 	285.207 	539.706 	
10.1031 	-0.00396506 	-0.698662 	0.352267 	0.868096 	0.0111773 	-3.12643 	90.0526 	117.838 	-0.619629 	271.903 	360.844 	285.207 	539.706 	
10.206 	-0.00401765 	-0.700546 	0.358114 	0.850644 	0.0109978 	-3.1265 	90.0527 	117.839 	-0.619629 	270.899 	360.844 	285.207 	539.706 	
10.3094 	-0.00407097 	-0.702327 	0.363995 	0.833191 	0.0108194 	-3.12656 	90.0526 	117.839 	-0.619531 	269.802 	360.844 	285.207 	539.706 	
10.4121 	-0.004125 	-0.704006 	0.369905 	0.815739 	0.0106422 	-3.12664 	90.0529 	117.842 	-0.619336 	268.792 	360.844 	285.207 	539.706 	
10.5151 	-0.00417971 	-0.705581 	0.375843 	0.798287 	0.0104663 	-3.12671 	90.0527 	117.841 	-0.619629 	267.799 	360.844 	285.206 	539.706 	
10.6181 	-0.00423511 	-0.707052 	0.381808 	0.780834 	0.0102917 	-3.12679 	90.0528 	117.842 	-0.619531 	266.695 	360.844 	285.206 	539.706 	
10.7218 	-0.00429116 	-0.708419 	0.387798 	0.763381 	0.0101185 	-3.12687 	90.0527 	117.846 	-0.619531 	265.69 	360.844 	285.206 	539.706 	
10.8244 	-0.00434785 	-0.709681 	0.393811 	0.745929 	0.0099468 	-3.12695 	90.0527 	117.852 	-0.619629 	264.683 	360.844 	285.207 	539.706 	
10.927 	-0.00440517 	-0.710838 	0.399845 	0.728477 	0.00977655 	-3.12704 	90.0527 	117.853 	-0.619531 	263.58 	360.844 	285.206 	539.706 	
11.0295 	-0.00446309 	-0.71189 	0.405899 	0.711024 	0.00960784 	-3.12713 	90.0527 	117.853 	-0.619531 	262.587 	360.844 	285.206 	539.706 	
11.1319 	-0.0045216 	-0.712835 	0.411969 	0.693572 	0.00944073 	-3.12722 	90.0526 	117.855 	-0.619531 	261.572 	360.844 	285.206 	539.707 	
11.2342 	-0.00458068 	-0.713675 	0.418055 	0.676119 	0.00927526 	-3.12732 	90.0525 	117.855 	-0.619727 	260.58 	360.844 	285.206 	539.706 	
11.3402 	-0.00464032 	-0.714408 	0.424155 	0.658667 	0.00911148 	-3.12742 	90.0526 	117.856 	-0.619629 	259.475 	360.844 	285.206 	539.706 	
11.4432 	-0.00470048 	-0.715035 	0.430267 	0.641214 	0.00894945 	-3.12752 	90.0526 	117.856 	-0.619531 	258.47 	360.844 	285.205 	539.706 	
11.5462 	-0.00476117 	-0.715555 	0.436389 	0.623762 	0.00878921 	-3.12762 	90.0526 	117.857 	-0.619727 	257.471 	360.844 	285.204 	539.707 	
11.6494 	-0.00482235 	-0.715968 	0.442519 	0.60631 	0.00863081 	-3.12773 	90.0527 	117.862 	-0.619531 	256.364 	360.844 	285.204 	539.706 	
11.7531 	-0.00488402 	-0.716274 	0.448655 	0.588857 	0.0084743 	-3.12784 	90.0526 	117.865 	-0.619531 	255.371 	360.844 	285.203 	539.707 	
11.857 	-0.00494614 	-0.716473 	0.454796 	0.571405 	0.00831974 	-3.12795 	90.0526 	117.873 	-0.619531 	254.266 	360.844 	285.199 	539.706 	
11.9592 	-0.00507169 	-0.716549 	0.467083 	0.5365 	0.0080166 	-3.12819 	90.0527 	117.879 	-0.619434 	253.252 	360.844 	285.199 	539.707 	
12.0609 	-0.00513508 	-0.716426 	0.473226 	0.519048 	0.00786813 	-3.12831 	90.0527 	117.879 	-0.619434 	252.254 	360.844 	285.196 	539.707 	
12.1629 	-0.00519885 	-0.716195 	0.479365 	0.501595 	0.00772178 	-3.12843 	90.0526 	117.88 	-0.619531 	251.262 	360.844 	285.194 	539.707 	
12.265 	-0.00526299 	-0.715858 	0.4855 	0.484143 	0.00757761 	-3.12855 	90.0527 	117.88 	-0.619531 	250.255 	360.844 	285.193 	539.707 	
12.367 	-0.00532747 	-0.715414 	0.491628 	0.46669 	0.00743563 	-3.12868 	90.0527 	117.88 	-0.619531 	249.159 	360.844 	285.192 	539.707 	
12.475 	-0.00539228 	-0.714863 	0.497746 	0.449238 	0.00729592 	-3.12881 	90.0525 	117.881 	-0.619629 	248.155 	360.844 	285.19 	539.706 	
12.577 	-0.0054574 	-0.714205 	0.503855 	0.431786 	0.0071585 	-3.12894 	90.0527 	117.881 	-0.619434 	247.058 	360.844 	285.187 	539.707 	
12.679 	-0.0055228 	-0.713441 	0.509951 	0.414334 	0.00702342 	-3.12908 	90.0526 	117.88 	-0.619629 	246.065 	360.844 	285.18 	539.707 	
12.7811 	-0.00558846 	-0.71257 	0.516033 	0.396881 	0.00689072 	-3.12922 	90.0527 	117.883 	-0.619531 	245.051 	360.844 	285.178 	539.707 	
12.883 	-0.00565437 	-0.711593 	0.522099 	0.379429 	0.00676045 	-3.12936 	90.0527 	117.883 	-0.619531 	244.048 	360.844 	285.174 	539.707 	
12.9856 	-0.00572051 	-0.710511 	0.528146 	0.361977 	0.00663263 	-3.1295 	90.0527 	117.883 	-0.619531 	243.055 	360.844 	285.163 	539.707 	
13.0881 	-0.00578686 	-0.709323 	0.534174 	0.344524 	0.00650732 	-3.12964 	90.0526 	117.883 	-0.619531 	241.954 	360.844 	285.158 	539.707 	
13.1912 	-0.00585338 	-0.70803 	0.540181 	0.327072 	0.00638454 	-3.12979 	90.0526 	117.884 	-0.619629 	240.938 	360.844 	285.157 	539.707 	
13.2943 	-0.00592008 	-0.706633 	0.546163 	0.309619 	0.00626433 	-3.12994 	90.0527 	117.884 	-0.619434 	239.946 	360.844 	285.154 	539.707 	
13.3972 	-0.00598691 	-0.705131 	0.552121 	0.292167 	0.00614674 	-3.13009 	90.0526 	117.884 	-0.619531 	238.851 	360.844 	285.149 	539.707 	
13.5006 	-0.00605388 	-0.703526 	0.558051 	0.274714 	0.00603179 	-3.13024 	90.0526 	117.887 	-0.619531 	237.846 	360.844 	285.147 	539.707 	
13.6032 	-0.00612094 	-0.701817 	0.563953 	0.257262 	0.00591953 	-3.1304 	90.0528 	117.889 	-0.619531 	236.837 	360.844 	285.146 	539.707 	
13.7063 	-0.00618809 	-0.700005 	0.569823 	0.23981 	0.00580999 	-3.13055 	90.0527 	117.889 	-0.619531 	235.841 	360.844 	285.144 	539.707 	
13.8096 	-0.00625531 	-0.698092 	0.575661 	0.222357 	0.00570319 	-3.13071 	90.0527 	117.889 	-0.619531 	234.747 	360.844 	285.142 	539.707 	
13.9123 	-0.00632256 	-0.696077 	0.581465 	0.204905 	0.00559918 	-3.13087 	90.0527 	117.889 	-0.619434 	233.734 	360.844 	285.14 	539.707 	
14.0152 	-0.00638984 	-0.69396 	0.587233 	0.187453 	0.00549798 	-3.13103 	90.0527 	117.886 	-0.619629 	232.746 	360.844 	285.139 	539.707 	
14.1185 	-0.00645712 	-0.691744 	0.592963 	0.17 	0.00539962 	-3.1312 	90.0526 	117.89 	-0.619531 	231.641 	360.844 	285.137 	539.707 	
14.2214 	-0.00652438 	-0.689427 	0.598654 	0.152548 	0.00530414 	-3.13136 	90.0524 	117.906 	-0.619531 	230.623 	360.844 	285.133 	539.707 	
14.3244 	-0.0065916 	-0.687012 	0.604303 	0.135095 	0.00521157 	-3.13153 	90.0528 	117.907 	-0.619434 	229.645 	360.844 	285.13 	539.707 	
14.4275 	-0.00665876 	-0.684499 	0.609909 	0.117643 	0.00512192 	-3.1317 	90.0528 	117.903 	-0.619434 	228.551 	360.844 	285.127 	539.707 	
14.5312 	-0.00672585 	-0.681888 	0.61547 	0.10019 	0.00503524 	-3.13187 	90.0525 	117.911 	-0.619531 	227.541 	360.844 	285.125 	539.707 	
14.6344 	-0.00679283 	-0.67918 	0.620985 	0.0827381 	0.00495154 	-3.13204 	90.0528 	117.914 	-0.619434 	226.536 	360.844 	285.122 	539.707 	
14.7404 	-0.00685969 	-0.676376 	0.626452 	0.0652855 	0.00487086 	-3.13222 	90.0527 	117.913 	-0.619434 	225.438 	360.844 	285.119 	539.707 	
14.8432 	-0.00692641 	-0.673478 	0.631869 	0.047833 	0.00479321 	-3.13239 	90.0526 	117.913 	-0.619434 	224.436 	360.844 	285.118 	539.707 	
14.9472 	-0.00699296 	-0.670485 	0.637235 	0.0303805 	0.00471862 	-3.13257 	90.0525 	117.914 	-0.619434 	223.339 	360.844 	285.116 	539.707 	
15.0524 	-0.00705934 	-0.6674 	0.642548 	0.0129282 	0.00464711 	-3.13274 	90.0525 	117.913 	-0.619434 	222.346 	360.844 	285.113 	539.707 	
15.1552 	-0.00719146 	-0.660952 	0.653007 	-0.0219768 	0.00451343 	-3.1331 	90.0453 	117.913 	-0.619727 	221.339 	360.844 	285.109 	539.707 	
15.2586 	-0.00719146 	-0.660952 	0.653007 	-0.0219768 	0.00451343 	-3.1331 	90.1026 	117.915 	-0.618359 	220.228 	360.844 	285.104 	539.707 	
15.3617 	-0.00732261 	-0.654144 	0.663236 	-0.0568819 	0.00439232 	-3.13346 	90.0589 	117.914 	-0.619531 	219.244 	360.844 	285.093 	539.707 	
15.4643 	-0.00738777 	-0.650606 	0.668259 	-0.0743344 	0.00433653 	-3.13365 	90.0621 	117.914 	-0.61875 	218.241 	360.844 	285.086 	539.707 	
15.5673 	-0.00745263 	-0.646982 	0.67322 	-0.0917869 	0.00428394 	-3.13383 	90.0892 	117.918 	-0.619238 	217.129 	360.844 	285.076 	539.707 	
15.6752 	-0.00751717 	-0.643272 	0.678117 	-0.109239 	0.00423457 	-3.13402 	90.0408 	117.917 	-0.619141 	216.143 	360.844 	285.068 	539.707 	
15.7771 	-0.00758137 	-0.639477 	0.682949 	-0.126692 	0.00418842 	-3.1342 	90.1871 	117.915 	-0.617969 	215.048 	360.843 	285.062 	539.707 	
15.8793 	-0.0076452 	-0.635598 	0.687713 	-0.144144 	0.00414552 	-3.13439 	90.1339 	117.917 	-0.61875 	214.035 	360.843 	285.06 	539.707 	
15.9812 	-0.00770865 	-0.631636 	0.692409 	-0.161597 	0.00410588 	-3.13457 	90.1004 	117.917 	-0.618848 	213.046 	360.843 	285.054 	539.707 	
16.0833 	-0.00777171 	-0.627593 	0.697035 	-0.17905 	0.0040695 	-3.13476 	90.0837 	117.921 	-0.618652 	212.033 	360.843 	285.052 	539.707 	
16.1871 	-0.00783434 	-0.62347 	0.70159 	-0.196502 	0.00403641 	-3.13495 	90.0837 	117.914 	-0.618848 	211.052 	360.843 	285.046 	539.707 	
16.2894 	-0.00789654 	-0.619268 	0.706073 	-0.213955 	0.0040066 	-3.13514 	90.0867 	117.914 	-0.61875 	209.959 	360.843 	285.042 	539.707 	
16.3926 	-0.00795828 	-0.614989 	0.710481 	-0.231407 	0.0039801 	-3.13533 	90.0877 	117.919 	-0.618555 	208.941 	360.843 	285.039 	539.707 	
16.4952 	-0.00801954 	-0.610633 	0.714814 	-0.24886 	0.0039569 	-3.13552 	90.0879 	117.918 	-0.618652 	207.944 	360.843 	285.038 	539.707 	
16.5973 	-0.00808031 	-0.606202 	0.71907 	-0.266312 	0.00393702 	-3.13571 	90.0881 	117.92 	-0.618652 	206.843 	360.843 	285.027 	539.707 	
16.6995 	-0.00814056 	-0.601698 	0.723248 	-0.283765 	0.00392045 	-3.1359 	90.0881 	117.919 	-0.618652 	205.853 	360.843 	285.012 	539.707 	
16.8026 	-0.00820028 	-0.597121 	0.727347 	-0.301217 	0.00390721 	-3.13609 	90.088 	117.919 	-0.618652 	204.859 	360.843 	285.001 	539.707 	
16.9057 	-0.00825946 	-0.592473 	0.731366 	-0.31867 	0.00389731 	-3.13628 	90.089 	117.919 	-0.618555 	203.855 	360.843 	284.998 	539.707 	
17.0084 	-0.00831806 	-0.587756 	0.735302 	-0.336123 	0.00389073 	-3.13647 	90.0892 	117.921 	-0.618555 	202.743 	360.843 	284.995 	539.707 	
17.1118 	-0.00837608 	-0.582971 	0.739156 	-0.353575 	0.00388749 	-3.13666 	90.0889 	117.916 	-0.618652 	201.764 	360.843 	284.994 	539.707 	
17.2148 	-0.0084335 	-0.57812 	0.742926 	-0.371028 	0.00388758 	-3.13685 	90.0891 	117.916 	-0.618555 	200.753 	360.843 	284.991 	539.707 	
17.3179 	-0.00849029 	-0.573203 	0.74661 	-0.38848 	0.00389101 	-3.13704 	90.0893 	117.917 	-0.618555 	199.656 	360.843 	284.99 	539.707 	
17.4204 	-0.00854645 	-0.568223 	0.750208 	-0.405933 	0.00389778 	-3.13724 	90.0892 	117.916 	-0.618555 	198.651 	360.843 	284.988 	539.707 	
17.5231 	-0.00860195 	-0.563181 	0.753719 	-0.423386 	0.00390788 	-3.13743 	90.0893 	117.916 	-0.618555 	197.663 	360.843 	284.987 	539.707 	
17.6254 	-0.00865678 	-0.558078 	0.757141 	-0.440838 	0.0039213 	-3.13762 	90.0893 	117.916 	-0.618555 	196.667 	360.843 	284.986 	539.707 	
17.7284 	-0.00871092 	-0.552917 	0.760474 	-0.458291 	0.00393805 	-3.13781 	90.0892 	117.916 	-0.618555 	195.568 	360.843 	284.984 	539.707 	
17.8311 	-0.00876435 	-0.547698 	0.763716 	-0.475743 	0.00395813 	-3.138 	90.0892 	117.916 	-0.618652 	194.567 	360.843 	284.982 	539.707 	
17.9334 	-0.00881707 	-0.542423 	0.766866 	-0.493196 	0.00398151 	-3.13819 	90.0892 	117.916 	-0.618555 	193.561 	360.843 	284.979 	539.707 	
18.0402 	-0.00886904 	-0.537094 	0.769924 	-0.510648 	0.00400821 	-3.13838 	90.0892 	117.916 	-0.618555 	192.468 	360.843 	284.967 	539.707 	
18.1429 	-0.00892026 	-0.531712 	0.772888 	-0.528101 	0.0040382 	-3.13857 	90.0892 	117.915 	-0.618555 	191.481 	360.843 	284.944 	539.707 	
18.2456 	-0.00897072 	-0.52628 	0.775758 	-0.545553 	0.00407148 	-3.13875 	90.0892 	117.915 	-0.618555 	190.467 	360.843 	284.94 	539.707 	
18.3482 	-0.00902038 	-0.520798 	0.778533 	-0.563006 	0.00410804 	-3.13894 	90.0892 	117.915 	-0.618555 	189.37 	360.843 	284.935 	539.707 	
18.4516 	-0.0091173 	-0.509694 	0.783793 	-0.597911 	0.00419095 	-3.13931 	90.0892 	117.915 	-0.618555 	188.373 	360.843 	284.933 	539.707 	
18.5546 	-0.00916453 	-0.504074 	0.786277 	-0.615363 	0.00423728 	-3.1395 	90.0892 	117.914 	-0.618555 	187.394 	360.843 	284.931 	539.707 	
18.6582 	-0.00921091 	-0.498412 	0.788662 	-0.632816 	0.00428684 	-3.13968 	90.0893 	117.914 	-0.618555 	186.5 	360.843 	284.93 	539.707 	
18.7601 	-0.00925643 	-0.492709 	0.790949 	-0.650269 	0.00433961 	-3.13987 	90.0891 	117.913 	-0.618457 	185.293 	360.843 	284.93 	539.707 	
18.8623 	-0.00930108 	-0.486968 	0.793135 	-0.667721 	0.00439558 	-3.14005 	90.0891 	117.913 	-0.618457 	184.286 	360.843 	284.927 	539.707 	
18.9644 	-0.00934485 	-0.481188 	0.795221 	-0.685174 	0.00445473 	-3.14023 	90.0893 	117.913 	-0.618555 	183.289 	360.843 	284.924 	539.707 	
19.0662 	-0.00938771 	-0.475374 	0.797206 	-0.702626 	0.00451704 	-3.14041 	90.09 	117.913 	-0.618359 	182.291 	360.843 	284.923 	539.707 	
19.1683 	-0.00942967 	-0.469525 	0.799089 	-0.720079 	0.0045825 	-3.14059 	90.09 	117.912 	-0.618457 	181.201 	360.843 	284.921 	539.707 	
19.2744 	-0.0094707 	-0.463645 	0.800869 	-0.737531 	0.00465108 	-3.14077 	90.0899 	117.912 	-0.618457 	180.203 	360.843 	284.918 	539.707 	
19.3764 	-0.0095108 	-0.457735 	0.802547 	-0.754983 	0.00472277 	-3.14095 	90.0901 	117.912 	-0.618457 	179.201 	360.843 	284.917 	539.707 	
19.4783 	-0.00954994 	-0.451796 	0.804121 	-0.772436 	0.00479753 	-3.14112 	90.0902 	117.911 	-0.618457 	178.117 	360.843 	284.915 	539.707 	
19.5802 	-0.00958813 	-0.44583 	0.805592 	-0.789889 	0.00487535 	-3.1413 	90.0901 	117.91 	-0.618457 	177.122 	360.843 	284.914 	539.707 	
19.6823 	-0.00962534 	-0.43984 	0.806958 	-0.807341 	0.00495621 	-3.14147 	90.0898 	117.91 	-0.618359 	176.112 	360.843 	284.913 	539.707 	
19.7843 	-0.00966156 	-0.433827 	0.808219 	-0.824794 	0.00504008 	3.14154 	90.0903 	117.909 	-0.618457 	175.13 	360.843 	284.91 	539.707 	
19.8863 	-0.0096968 	-0.427792 	0.809375 	-0.842246 	0.00512693 	3.14137 	90.0903 	117.909 	-0.618555 	174.125 	360.843 	284.907 	539.707 	
19.9885 	-0.00973102 	-0.421739 	0.810426 	-0.859698 	0.00521674 	3.1412 	90.09 	117.907 	-0.618359 	173.029 	360.843 	284.904 	539.707 	
20.0914 	-0.00976423 	-0.415668 	0.811371 	-0.877151 	0.00530948 	3.14104 	90.0902 	117.904 	-0.618359 	172.038 	360.843 	284.898 	539.707 	
20.1934 	-0.00979642 	-0.409581 	0.81221 	-0.894603 	0.00540513 	3.14087 	90.0902 	117.903 	-0.618555 	171.04 	360.843 	284.887 	539.707 	
20.2963 	-0.00982757 	-0.403481 	0.812942 	-0.912055 	0.00550364 	3.14071 	90.0901 	117.904 	-0.618359 	170.042 	360.843 	284.875 	539.707 	
20.3983 	-0.00985767 	-0.397369 	0.813568 	-0.929508 	0.005605 	3.14054 	90.0901 	117.897 	-0.618359 	168.944 	360.843 	284.865 	539.707 	
20.5003 	-0.00988672 	-0.391247 	0.814087 	-0.94696 	0.00570918 	3.14038 	90.0902 	117.887 	-0.618457 	167.947 	360.843 	284.86 	539.707 	
20.602 	-0.0099147 	-0.385116 	0.814499 	-0.964413 	0.00581613 	3.14023 	90.0902 	117.881 	-0.618359 	166.966 	360.843 	284.857 	539.707 	
20.7041 	-0.00994161 	-0.37898 	0.814804 	-0.981865 	0.00592583 	3.14007 	90.0901 	117.878 	-0.618457 	165.953 	360.843 	284.853 	539.707 	
20.8065 	-0.00996744 	-0.372839 	0.815002 	-0.999318 	0.00603825 	3.13991 	90.0904 	117.868 	-0.618457 	164.964 	360.843 	284.85 	539.707 	
20.9085 	-0.00999219 	-0.366695 	0.815093 	-1.01677 	0.00615334 	3.13976 	90.0901 	117.86 	-0.618359 	163.869 	360.843 	284.848 	539.707 	
21.0117 	-0.0100158 	-0.360551 	0.815076 	-1.03422 	0.00627108 	3.13961 	90.09 	117.854 	-0.618262 	162.887 	360.843 	284.846 	539.707 	
21.1134 	-0.0100384 	-0.354408 	0.814953 	-1.05167 	0.00639143 	3.13946 	90.0907 	117.853 	-0.618457 	161.882 	360.843 	284.844 	539.707 	
21.2155 	-0.0100598 	-0.348269 	0.814722 	-1.06913 	0.00651436 	3.13932 	90.0904 	117.85 	-0.618359 	160.887 	360.843 	284.842 	539.707 	
21.3174 	-0.0100801 	-0.342134 	0.814384 	-1.08658 	0.00663982 	3.13917 	90.0898 	117.85 	-0.618066 	159.791 	360.843 	284.841 	539.707 	
21.4194 	-0.0100993 	-0.336006 	0.813939 	-1.10403 	0.00676778 	3.13903 	90.0906 	117.851 	-0.618457 	158.779 	360.843 	284.837 	539.707 	
21.5214 	-0.0101174 	-0.329886 	0.813387 	-1.12148 	0.00689819 	3.13889 	90.0905 	117.847 	-0.618262 	157.798 	360.843 	284.834 	539.707 	
21.6234 	-0.0101343 	-0.323778 	0.812728 	-1.13894 	0.00703102 	3.13875 	90.0904 	117.841 	-0.618359 	156.807 	360.843 	284.833 	539.707 	
21.7254 	-0.0101501 	-0.317681 	0.811963 	-1.15639 	0.00716624 	3.13862 	90.0905 	117.832 	-0.618359 	155.805 	360.843 	284.832 	539.707 	
21.8273 	-0.0101648 	-0.311599 	0.811091 	-1.17384 	0.00730378 	3.13849 	90.0905 	117.832 	-0.618262 	154.718 	360.843 	284.832 	539.707 	
21.9299 	-0.0101783 	-0.305533 	0.810114 	-1.19129 	0.00744363 	3.13836 	90.0905 	117.832 	-0.618457 	153.721 	360.843 	284.829 	539.707 	
22.032 	-0.0101906 	-0.299485 	0.809031 	-1.20875 	0.00758573 	3.13823 	90.0903 	117.831 	-0.618164 	152.725 	360.843 	284.828 	539.707 	
22.1349 	-0.0102018 	-0.293457 	0.807842 	-1.2262 	0.00773003 	3.1381 	90.0906 	117.831 	-0.618359 	151.713 	360.843 	284.827 	539.707 	
22.2412 	-0.0102119 	-0.287451 	0.806549 	-1.24365 	0.0078765 	3.13798 	90.0906 	117.831 	-0.618457 	150.629 	360.843 	284.825 	539.707 	
22.3435 	-0.0102207 	-0.281468 	0.80515 	-1.2611 	0.00802509 	3.13786 	90.0903 	117.831 	-0.618066 	149.635 	360.843 	284.823 	539.707 	
22.4475 	-0.0102284 	-0.27551 	0.803648 	-1.27856 	0.00817576 	3.13774 	90.0905 	117.83 	-0.618359 	148.538 	360.843 	284.821 	539.707 	
22.5517 	-0.010235 	-0.26958 	0.802042 	-1.29601 	0.00832845 	3.13763 	90.0904 	117.826 	-0.618164 	147.55 	360.843 	284.818 	539.707 	
22.6547 	-0.0102403 	-0.263678 	0.800332 	-1.31346 	0.00848313 	3.13751 	90.0904 	117.826 	-0.618164 	146.547 	360.843 	284.816 	539.707 	
22.7575 	-0.0102476 	-0.251969 	0.796606 	-1.34836 	0.00879825 	3.1373 	90.0904 	117.824 	-0.618262 	145.456 	360.843 	284.814 	539.707 	
22.8597 	-0.0102494 	-0.246165 	0.79459 	-1.36582 	0.00895859 	3.13719 	90.0904 	117.822 	-0.618066 	144.443 	360.843 	284.809 	539.707 	
22.9618 	-0.0102501 	-0.240397 	0.792473 	-1.38327 	0.00912072 	3.13709 	90.0905 	117.813 	-0.618359 	143.466 	360.843 	284.808 	539.707 	
23.0645 	-0.0102496 	-0.234667 	0.790256 	-1.40072 	0.0092846 	3.13699 	90.0903 	117.813 	-0.618164 	142.457 	360.843 	284.807 	539.707 	
23.1676 	-0.0102479 	-0.228976 	0.787939 	-1.41817 	0.00945016 	3.1369 	90.0907 	117.811 	-0.618359 	141.356 	360.843 	284.806 	539.707 	
23.2744 	-0.0102451 	-0.223327 	0.785523 	-1.43563 	0.00961737 	3.13681 	90.0906 	117.81 	-0.618262 	140.364 	360.843 	284.805 	539.707 	
23.3764 	-0.010241 	-0.217721 	0.783009 	-1.45308 	0.00978617 	3.13672 	90.0906 	117.792 	-0.618262 	139.381 	360.843 	284.804 	539.707 	
23.4785 	-0.0102359 	-0.212159 	0.780397 	-1.47053 	0.00995651 	3.13663 	90.0907 	117.785 	-0.618359 	138.275 	360.843 	284.804 	539.707 	
23.5811 	-0.0102295 	-0.206644 	0.777689 	-1.48798 	0.0101283 	3.13655 	90.0906 	117.784 	-0.618359 	137.29 	360.843 	284.804 	539.707 	
23.6841 	-0.010222 	-0.201177 	0.774885 	-1.50544 	0.0103016 	3.13647 	90.0905 	117.785 	-0.617871 	136.281 	360.843 	284.804 	539.707 	
23.7867 	-0.0102133 	-0.19576 	0.771985 	-1.52289 	0.0104762 	3.13639 	90.0907 	117.785 	-0.618359 	135.285 	360.843 	284.803 	539.707 	
23.8897 	-0.0102034 	-0.190394 	0.768992 	-1.54034 	0.0106522 	3.13631 	90.0907 	117.784 	-0.618359 	134.198 	360.843 	284.803 	539.707 	
23.9927 	-0.0101924 	-0.185081 	0.765906 	-1.55779 	0.0108294 	3.13624 	90.0905 	117.784 	-0.617969 	133.199 	360.843 	284.803 	539.707 	
24.0947 	-0.0101802 	-0.179823 	0.762727 	-1.57525 	0.0110079 	3.13617 	90.0905 	117.783 	-0.618164 	132.197 	360.843 	284.803 	539.707 	
24.1979 	-0.0101669 	-0.174622 	0.759457 	-1.5927 	0.0111875 	3.13611 	90.0905 	117.775 	-0.618359 	131.11 	360.843 	284.803 	539.707 	
24.3006 	-0.0101524 	-0.169478 	0.756097 	-1.61015 	0.0113683 	3.13605 	90.0905 	117.773 	-0.617969 	130.118 	360.843 	284.803 	539.707 	
24.4026 	-0.0101368 	-0.164393 	0.752648 	-1.6276 	0.0115501 	3.13599 	90.0906 	117.774 	-0.618262 	129.105 	360.843 	284.803 	539.707 	
24.505 	-0.01012 	-0.15937 	0.74911 	-1.64506 	0.0117329 	3.13593 	90.0906 	117.771 	-0.618262 	128.123 	360.843 	284.803 	539.707 	
24.6079 	-0.0101021 	-0.154409 	0.745486 	-1.66251 	0.0119166 	3.13588 	90.0905 	117.767 	-0.618066 	127.032 	360.843 	284.803 	539.707 	
24.7114 	-0.0100831 	-0.149512 	0.741775 	-1.67996 	0.0121013 	3.13583 	90.0905 	117.764 	-0.618164 	126.025 	360.843 	284.803 	539.707 	
24.8139 	-0.010063 	-0.144681 	0.73798 	-1.69741 	0.0122867 	3.13578 	90.0906 	117.758 	-0.618164 	125.027 	360.843 	284.802 	539.707 	
24.9161 	-0.0100417 	-0.139917 	0.7341 	-1.71486 	0.0124729 	3.13574 	90.0906 	117.756 	-0.618262 	124.032 	360.843 	284.802 	539.707 	
25.0187 	-0.0100193 	-0.135222 	0.730139 	-1.73231 	0.0126599 	3.1357 	90.0905 	117.71 	-0.618262 	122.966 	360.843 	284.802 	539.707 	
25.1216 	-0.00999586 	-0.130596 	0.726096 	-1.74977 	0.0128475 	3.13566 	90.0905 	117.712 	-0.618262 	121.95 	360.843 	284.802 	539.707 	
25.2247 	-0.00997129 	-0.126041 	0.721973 	-1.76722 	0.0130358 	3.13563 	90.0905 	117.708 	-0.618066 	120.941 	360.843 	284.802 	539.707 	
25.3281 	-0.00994562 	-0.121559 	0.717771 	-1.78467 	0.0132245 	3.1356 	90.0905 	117.698 	-0.617969 	119.848 	360.843 	284.802 	539.707 	
25.4309 	-0.00991888 	-0.117151 	0.713491 	-1.80212 	0.0134138 	3.13557 	90.0905 	117.689 	-0.618164 	118.854 	360.843 	284.802 	539.707 	
25.5339 	-0.00989106 	-0.112819 	0.709135 	-1.81957 	0.0136035 	3.13555 	90.0906 	117.691 	-0.618164 	117.858 	360.843 	284.802 	539.707 	
25.6417 	-0.00986217 	-0.108563 	0.704704 	-1.83702 	0.0137936 	3.13553 	90.0905 	117.69 	-0.617969 	116.762 	360.843 	284.802 	539.707 	
25.7438 	-0.00983223 	-0.104385 	0.7002 	-1.85448 	0.013984 	3.13551 	90.0906 	117.691 	-0.618262 	115.761 	360.843 	284.802 	539.707 	
25.8476 	-0.00980125 	-0.100286 	0.695623 	-1.87193 	0.0141746 	3.1355 	90.0905 	117.689 	-0.618164 	114.685 	360.843 	284.802 	539.707 	
25.8726 	-0.00976987 	-0.0963476 	0.69107 	-1.88903 	0.0143617 	3.13549 	90.0906 	117.69 	-0.618164 	114.485 	360.843 	284.802 	539.707 	
25.9747 	-0.00977317 	-0.0938505 	0.691323 	-1.88695 	0.0143808 	3.13535 	90.0906 	117.684 	-0.618066 	113.902 	360.843 	284.449 	539.707 	
26.0777 	-0.0098389 	-0.0912172 	0.699857 	-1.85309 	0.0141315 	3.13486 	90.0906 	117.685 	-0.618359 	113.734 	360.843 	282.684 	539.707 	
26.1796 	-0.00991113 	-0.0888065 	0.708742 	-1.81817 	0.0138576 	3.13438 	90.0906 	117.685 	-0.618066 	113.709 	360.843 	280.47 	539.707 	
26.2817 	-0.00998782 	-0.0867073 	0.717706 	-1.78326 	0.0135668 	3.1339 	90.0905 	117.682 	-0.618066 	113.706 	360.843 	278.467 	539.707 	
26.3846 	-0.0100689 	-0.0849222 	0.726737 	-1.74835 	0.0132595 	3.13343 	90.0906 	117.682 	-0.618262 	113.692 	360.843 	276.47 	539.707 	
26.487 	-0.0101542 	-0.0834535 	0.735826 	-1.71344 	0.012936 	3.13297 	90.0906 	117.679 	-0.618164 	113.679 	360.843 	274.473 	539.707 	
26.5898 	-0.0102436 	-0.0823028 	0.74496 	-1.67853 	0.0125968 	3.13253 	90.0906 	117.679 	-0.618359 	113.671 	360.843 	272.271 	539.707 	
26.693 	-0.0103372 	-0.0814716 	0.754128 	-1.64362 	0.0122422 	3.13209 	90.0906 	117.671 	-0.618164 	113.67 	360.843 	270.261 	539.707 	
26.7959 	-0.0104346 	-0.0809609 	0.76332 	-1.60871 	0.0118727 	3.13167 	90.0906 	117.67 	-0.617871 	113.669 	360.843 	268.272 	539.707 	
26.8989 	-0.0105359 	-0.0807714 	0.772524 	-1.5738 	0.0114887 	3.13126 	90.0906 	117.677 	-0.618164 	113.666 	360.843 	266.076 	539.707 	
27.0016 	-0.0106408 	-0.0809032 	0.78173 	-1.5389 	0.0110908 	3.13087 	90.0906 	117.666 	-0.617969 	113.666 	360.843 	264.046 	539.707 	
27.1042 	-0.0107494 	-0.0813561 	0.790925 	-1.50399 	0.0106793 	3.13049 	90.0906 	117.647 	-0.617969 	113.667 	360.843 	262.048 	539.707 	
27.2072 	-0.0108613 	-0.0821298 	0.800098 	-1.46908 	0.0102548 	3.13012 	90.0906 	117.643 	-0.617871 	113.666 	360.843 	260.075 	539.707 	
27.3096 	-0.0109766 	-0.0832231 	0.809239 	-1.43417 	0.0098178 	3.12977 	90.0906 	117.65 	-0.618066 	113.661 	360.843 	257.873 	539.707 	
27.4123 	-0.011095 	-0.0846348 	0.818336 	-1.39926 	0.00936885 	3.12944 	90.0906 	117.653 	-0.618359 	113.661 	360.843 	255.858 	539.707 	
27.5152 	-0.0112164 	-0.0863631 	0.827378 	-1.36436 	0.00890851 	3.12912 	90.0906 	117.643 	-0.617773 	113.662 	360.843 	253.872 	539.707 	
27.6182 	-0.0113406 	-0.0884058 	0.836353 	-1.32946 	0.00843733 	3.12882 	90.0906 	117.645 	-0.618262 	113.661 	360.843 	251.878 	539.707 	
27.7215 	-0.0114676 	-0.0907605 	0.845252 	-1.29455 	0.00795588 	3.12853 	90.0906 	117.643 	-0.617773 	113.661 	360.843 	249.686 	539.707 	
27.8239 	-0.0115972 	-0.0934244 	0.854063 	-1.25965 	0.00746473 	3.12826 	90.0907 	117.651 	-0.618262 	113.659 	360.843 	247.663 	539.707 	
27.9268 	-0.0117291 	-0.0963941 	0.862776 	-1.22474 	0.00696449 	3.12801 	90.0905 	117.648 	-0.617969 	113.66 	360.843 	245.67 	539.707 	
28.0301 	-0.0118633 	-0.0996661 	0.87138 	-1.18984 	0.00645577 	3.12778 	90.0906 	117.648 	-0.617871 	113.658 	360.843 	243.491 	539.707 	
28.1329 	-0.0119995 	-0.103236 	0.879864 	-1.15494 	0.00593917 	3.12756 	90.0906 	117.647 	-0.617871 	113.658 	360.843 	241.477 	539.707 	
28.2411 	-0.0121377 	-0.107101 	0.888219 	-1.12004 	0.00541535 	3.12736 	90.0906 	117.644 	-0.617383 	113.657 	360.843 	239.272 	539.707 	
28.3439 	-0.0122776 	-0.111254 	0.896434 	-1.08513 	0.00488494 	3.12718 	90.091 	117.646 	-0.619238 	113.657 	360.843 	237.296 	539.707 	
28.4471 	-0.012419 	-0.115692 	0.904498 	-1.05023 	0.00434857 	3.12702 	90.0909 	117.648 	-0.618164 	113.657 	360.843 	235.282 	539.707 	
28.551 	-0.0125619 	-0.120408 	0.912403 	-1.01533 	0.0038069 	3.12688 	90.0909 	117.65 	-0.618262 	113.657 	360.843 	233.083 	539.707 	
28.6539 	-0.012706 	-0.125398 	0.920138 	-0.980427 	0.0032606 	3.12675 	90.0908 	117.65 	-0.618164 	113.657 	360.843 	231.088 	539.707 	
28.7578 	-0.0128511 	-0.130654 	0.927695 	-0.945525 	0.00271033 	3.12665 	90.0908 	117.651 	-0.617871 	113.656 	360.843 	229.1 	539.707 	
28.8599 	-0.0131438 	-0.141942 	0.942235 	-0.875722 	0.00160056 	3.1265 	90.0908 	117.653 	-0.618262 	113.654 	360.843 	226.927 	539.707 	
28.9618 	-0.013291 	-0.147959 	0.9492 	-0.84082 	0.00104241 	3.12645 	90.0909 	117.652 	-0.618359 	113.655 	360.843 	224.916 	539.707 	
29.0638 	-0.0134386 	-0.154216 	0.955951 	-0.805918 	0.000482987 	3.12643 	90.091 	117.651 	-0.618359 	113.654 	360.843 	222.915 	539.707 	
29.1659 	-0.0135863 	-0.160705 	0.96248 	-0.771017 	-7.70228e-05 	3.12642 	90.091 	117.653 	-0.618457 	113.653 	360.843 	220.934 	539.707 	
29.2677 	-0.013734 	-0.167417 	0.968778 	-0.736115 	-0.000636934 	3.12643 	90.0908 	117.65 	-0.617578 	113.654 	360.843 	218.937 	539.707 	
29.3748 	-0.0138814 	-0.174346 	0.974839 	-0.701214 	-0.00119608 	3.12646 	90.0909 	117.656 	-0.618066 	113.649 	360.843 	216.743 	539.707 	
29.4768 	-0.0140285 	-0.181482 	0.980653 	-0.666312 	-0.00175375 	3.12652 	90.0908 	117.654 	-0.617773 	113.647 	360.843 	214.753 	539.707 	
29.5787 	-0.014175 	-0.188816 	0.986215 	-0.63141 	-0.0023093 	3.12659 	90.0909 	117.651 	-0.617969 	113.647 	360.843 	212.55 	539.707 	
29.6822 	-0.0143208 	-0.19634 	0.991518 	-0.596508 	-0.00286204 	3.12668 	90.0908 	117.653 	-0.617773 	113.644 	360.843 	210.575 	539.707 	
29.785 	-0.0144657 	-0.204044 	0.996555 	-0.561607 	-0.00341128 	3.12679 	90.0909 	117.652 	-0.618066 	113.641 	360.843 	208.569 	539.707 	
29.888 	-0.0146095 	-0.21192 	1.00132 	-0.526705 	-0.00395638 	3.12691 	90.0909 	117.667 	-0.617969 	113.632 	360.843 	206.587 	539.707 	
29.9919 	-0.014752 	-0.219957 	1.00581 	-0.491803 	-0.00449665 	3.12706 	90.0908 	117.658 	-0.61709 	113.632 	360.843 	204.386 	539.707 	
30.094 	-0.014893 	-0.228146 	1.01001 	-0.4569 	-0.00503144 	3.12723 	90.0909 	117.671 	-0.617969 	113.627 	360.843 	202.398 	539.707 	
30.197 	-0.0150324 	-0.236477 	1.01393 	-0.421997 	-0.00556011 	3.12741 	90.0908 	117.669 	-0.617676 	113.628 	360.843 	200.391 	539.707 	
30.2988 	-0.0151701 	-0.244939 	1.01755 	-0.387095 	-0.00608201 	3.12762 	90.0907 	117.671 	-0.616992 	113.626 	360.843 	198.209 	539.707 	
30.4019 	-0.0153058 	-0.253523 	1.02087 	-0.352192 	-0.00659649 	3.12784 	90.0909 	117.676 	-0.618359 	113.625 	360.843 	196.214 	539.707 	
30.5049 	-0.0154394 	-0.262217 	1.0239 	-0.317289 	-0.00710294 	3.12808 	90.091 	117.677 	-0.617578 	113.626 	360.843 	194.217 	539.707 	
30.6081 	-0.0155706 	-0.271012 	1.02661 	-0.282385 	-0.00760075 	3.12833 	90.0909 	117.678 	-0.617285 	113.625 	360.843 	192.242 	539.707 	
30.7116 	-0.0156995 	-0.279896 	1.02902 	-0.247481 	-0.00808929 	3.12861 	90.0909 	117.68 	-0.617871 	113.625 	360.843 	190.031 	539.707 	
30.8143 	-0.0158257 	-0.288859 	1.03112 	-0.212578 	-0.00856797 	3.1289 	90.0909 	117.678 	-0.617481 	113.625 	360.843 	188.043 	539.707 	
30.9174 	-0.0159492 	-0.29789 	1.03291 	-0.177673 	-0.00903623 	3.12921 	90.091 	117.681 	-0.617871 	113.624 	360.843 	186.049 	539.707 	
31.0203 	-0.0160698 	-0.306977 	1.03437 	-0.142769 	-0.00949347 	3.12953 	90.091 	117.681 	-0.617676 	113.622 	360.843 	183.848 	539.707 	
31.123 	-0.0161874 	-0.31611 	1.03552 	-0.107864 	-0.00993915 	3.12987 	90.0909 	117.681 	-0.617285 	113.622 	360.843 	181.86 	539.707 	
31.2262 	-0.0163017 	-0.325278 	1.03635 	-0.0729585 	-0.0103727 	3.13022 	90.091 	117.683 	-0.617773 	113.621 	360.843 	179.869 	539.707 	
31.3291 	-0.0164127 	-0.334469 	1.03686 	-0.0380532 	-0.0107937 	3.13059 	90.091 	117.683 	-0.617969 	113.621 	360.843 	177.677 	539.707 	
31.432 	-0.0165203 	-0.343673 	1.03705 	-0.00314733 	-0.0112014 	3.13098 	90.0909 	117.683 	-0.617676 	113.619 	360.843 	175.662 	539.707 	
31.5399 	-0.0166242 	-0.352877 	1.03692 	0.0317586 	-0.0115956 	3.13137 	90.0911 	117.688 	-0.617969 	113.617 	360.843 	173.503 	539.707 	
31.6419 	-0.0167245 	-0.362071 	1.03646 	0.0666651 	-0.0119756 	3.13179 	90.091 	117.688 	-0.617773 	113.617 	360.843 	171.511 	539.707 	
31.744 	-0.0168208 	-0.371244 	1.03569 	0.101572 	-0.012341 	3.13221 	90.0911 	117.688 	-0.617773 	113.617 	360.843 	169.509 	539.707 	
31.8474 	-0.0169132 	-0.380385 	1.03459 	0.136479 	-0.0126914 	3.13265 	90.091 	117.688 	-0.617676 	113.614 	360.843 	167.505 	539.707 	
31.9551 	-0.0170016 	-0.389481 	1.03318 	0.171386 	-0.0130264 	3.1331 	90.0911 	117.69 	-0.617969 	113.613 	360.843 	165.342 	539.707 	
32.059 	-0.0170857 	-0.398523 	1.03145 	0.206294 	-0.0133454 	3.13356 	90.091 	117.692 	-0.617676 	113.612 	360.843 	163.151 	539.707 	
32.1614 	-0.017241 	-0.416398 	1.02705 	0.27611 	-0.0139344 	3.13451 	90.0912 	117.693 	-0.617871 	113.61 	360.843 	161.149 	539.707 	
32.264 	-0.017312 	-0.42521 	1.02439 	0.311018 	-0.0142036 	3.135 	90.0911 	117.691 	-0.617773 	113.61 	360.843 	159.133 	539.707 	
32.3668 	-0.0173785 	-0.433923 	1.02142 	0.345927 	-0.0144555 	3.1355 	90.091 	117.693 	-0.617578 	113.606 	360.843 	157.179 	539.707 	
32.4749 	-0.0174403 	-0.442527 	1.01814 	0.380836 	-0.0146898 	3.13601 	90.0911 	117.693 	-0.617773 	113.604 	360.843 	154.968 	539.707 	
32.5771 	-0.0174973 	-0.451012 	1.01457 	0.415745 	-0.0149062 	3.13653 	90.0909 	117.693 	-0.617578 	113.603 	360.843 	152.972 	539.707 	
32.68 	-0.0175496 	-0.459367 	1.01071 	0.450655 	-0.0151044 	3.13705 	90.0912 	117.694 	-0.617871 	113.593 	360.843 	150.793 	539.707 	
32.7819 	-0.017597 	-0.467583 	1.00655 	0.485564 	-0.0152842 	3.13758 	90.0913 	117.694 	-0.617969 	113.587 	360.843 	148.81 	539.707 	
32.8842 	-0.0176395 	-0.475648 	1.00212 	0.520474 	-0.0154454 	3.13812 	90.0911 	117.697 	-0.617578 	113.58 	360.843 	146.819 	539.707 	
32.9872 	-0.0176771 	-0.483553 	0.997398 	0.555384 	-0.0155878 	3.13866 	90.0912 	117.696 	-0.617871 	113.578 	360.843 	144.837 	539.707 	
33.0901 	-0.0177096 	-0.491289 	0.992408 	0.590294 	-0.0157112 	3.1392 	90.091 	117.694 	-0.617481 	113.577 	360.843 	142.62 	539.707 	
33.1918 	-0.0177371 	-0.498847 	0.987151 	0.625204 	-0.0158154 	3.13975 	90.0912 	117.704 	-0.617969 	113.573 	360.843 	140.656 	539.707 	
33.294 	-0.0177595 	-0.506216 	0.981633 	0.660115 	-0.0159004 	3.14031 	90.0909 	117.702 	-0.617481 	113.572 	360.843 	138.628 	539.707 	
33.3959 	-0.0177768 	-0.513388 	0.975862 	0.695025 	-0.015966 	3.14086 	90.0913 	117.712 	-0.617871 	113.569 	360.843 	136.676 	539.707 	
33.498 	-0.017789 	-0.520355 	0.969844 	0.729936 	-0.0160122 	3.14142 	90.0909 	117.716 	-0.617871 	113.567 	360.843 	134.692 	539.707 	
33.6002 	-0.017796 	-0.527107 	0.963586 	0.764846 	-0.0160388 	-3.1412 	90.091 	117.716 	-0.617578 	113.569 	360.843 	132.464 	539.707 	
33.7033 	-0.0177979 	-0.533636 	0.957097 	0.799757 	-0.0160459 	-3.14064 	90.0912 	117.719 	-0.618066 	113.566 	360.843 	130.498 	539.707 	
33.8065 	-0.0177946 	-0.539936 	0.950383 	0.834667 	-0.0160335 	-3.14008 	90.0911 	117.723 	-0.617676 	113.564 	360.843 	128.498 	539.707 	
33.9093 	-0.0177862 	-0.545997 	0.943454 	0.869578 	-0.0160015 	-3.13952 	90.091 	117.722 	-0.617578 	113.564 	360.843 	126.348 	539.707 	
34.0124 	-0.0177756 	-0.550727 	0.937689 	0.897856 	-0.0159613 	-3.13907 	90.0911 	117.723 	-0.617871 	113.551 	360.843 	124.904 	539.707 	
75.2669 	-0.0177646 	-0.554405 	0.932966 	0.920558 	-0.0159198 	-3.13871 	90.0952 	117.757 	-0.617285 	113.479 	360.843 	123.775 	539.708 	
75.3743 	-0.0177723 	-0.552217 	0.935656 	0.907641 	-0.0159474 	-3.13891 	90.0952 	117.754 	-0.617481 	113.479 	360.843 	124.206 	539.708 	
75.4773 	-0.0177862 	-0.546483 	0.942741 	0.873079 	-0.0160004 	-3.13946 	90.0951 	117.749 	-0.617188 	113.479 	360.843 	126 	539.708 	
75.5793 	-0.0177952 	-0.540446 	0.949691 	0.838169 	-0.0160344 	-3.14002 	90.0952 	117.751 	-0.617383 	113.478 	360.843 	128.005 	539.708 	
75.682 	-0.0177991 	-0.53417 	0.956426 	0.803258 	-0.016049 	-3.14058 	90.095 	117.751 	-0.617188 	113.477 	360.843 	130.212 	539.708 	
75.7845 	-0.0177977 	-0.527663 	0.962938 	0.768348 	-0.016044 	-3.14114 	90.0951 	117.752 	-0.617285 	113.477 	360.843 	132.187 	539.708 	
75.8875 	-0.0177913 	-0.520933 	0.96922 	0.733437 	-0.0160195 	3.14148 	90.0951 	117.751 	-0.617188 	113.478 	360.843 	134.17 	539.708 	
75.9901 	-0.0177796 	-0.513988 	0.975262 	0.698527 	-0.0159754 	3.14092 	90.0951 	117.751 	-0.617481 	113.478 	360.843 	136.173 	539.708 	
76.0926 	-0.0177629 	-0.506836 	0.981059 	0.663616 	-0.0159119 	3.14037 	90.095 	117.752 	-0.616992 	113.477 	360.843 	138.399 	539.708 	
76.1954 	-0.017741 	-0.499486 	0.986602 	0.628706 	-0.0158289 	3.13981 	90.0951 	117.75 	-0.617383 	113.478 	360.843 	140.366 	539.708 	
76.2985 	-0.0177141 	-0.491947 	0.991886 	0.593795 	-0.0157267 	3.13926 	90.095 	117.74 	-0.617188 	113.481 	360.843 	142.345 	539.708 	
76.4016 	-0.0176821 	-0.484229 	0.996903 	0.558885 	-0.0156054 	3.13872 	90.0955 	117.76 	-0.617481 	113.476 	360.843 	144.577 	539.708 	
76.5043 	-0.017645 	-0.47634 	1.00165 	0.523975 	-0.015465 	3.13817 	90.0948 	117.737 	-0.616797 	113.479 	360.843 	146.54 	539.708 	
76.6073 	-0.0176031 	-0.46829 	1.00611 	0.489066 	-0.0153058 	3.13764 	90.0951 	117.738 	-0.61709 	113.48 	360.843 	148.538 	539.708 	
76.7104 	-0.0175561 	-0.460089 	1.0103 	0.454156 	-0.0151279 	3.1371 	90.0952 	117.74 	-0.617481 	113.479 	360.843 	150.519 	539.708 	
76.8125 	-0.0175044 	-0.451748 	1.01419 	0.419246 	-0.0149316 	3.13658 	90.0952 	117.745 	-0.617188 	113.477 	360.843 	152.748 	539.708 	
76.9155 	-0.0174478 	-0.443275 	1.01779 	0.384337 	-0.0147171 	3.13606 	90.0952 	117.723 	-0.617188 	113.481 	360.843 	154.718 	539.708 	
77.0186 	-0.0173865 	-0.434683 	1.0211 	0.349428 	-0.0144847 	3.13555 	90.0951 	117.733 	-0.617285 	113.482 	360.843 	156.72 	539.708 	
77.1224 	-0.0173206 	-0.42598 	1.0241 	0.31452 	-0.0142346 	3.13505 	90.0952 	117.736 	-0.617285 	113.48 	360.843 	158.906 	539.708 	
77.2255 	-0.01725 	-0.417178 	1.02679 	0.279611 	-0.0139672 	3.13456 	90.0951 	117.736 	-0.617188 	113.481 	360.843 	160.916 	539.708 	
77.3287 	-0.017175 	-0.408287 	1.02918 	0.244703 	-0.0136828 	3.13408 	90.0952 	117.733 	-0.617285 	113.482 	360.843 	162.89 	539.708 	
77.4317 	-0.0170956 	-0.399318 	1.03125 	0.209795 	-0.0133817 	3.1336 	90.0951 	117.73 	-0.617188 	113.483 	360.843 	165.072 	539.708 	
77.5348 	-0.0170119 	-0.390282 	1.03302 	0.174887 	-0.0130643 	3.13314 	90.095 	117.731 	-0.616895 	113.482 	360.843 	167.076 	539.708 	
77.6407 	-0.016924 	-0.381191 	1.03446 	0.13998 	-0.012731 	3.13269 	90.0952 	117.733 	-0.617383 	113.481 	360.843 	169.068 	539.708 	
77.7436 	-0.016832 	-0.372054 	1.03559 	0.105073 	-0.0123821 	3.13225 	90.095 	117.73 	-0.616895 	113.482 	360.843 	171.243 	539.708 	
77.8473 	-0.016736 	-0.362884 	1.03639 	0.0701659 	-0.0120182 	3.13183 	90.0951 	117.729 	-0.61709 	113.484 	360.843 	173.25 	539.708 	
77.9512 	-0.0166362 	-0.353692 	1.03688 	0.0352596 	-0.0116397 	3.13142 	90.0952 	117.731 	-0.617481 	113.483 	360.843 	175.448 	539.708 	
78.0552 	-0.0165326 	-0.344488 	1.03704 	0.000353338 	-0.0112469 	3.13102 	90.0949 	117.734 	-0.616504 	113.482 	360.843 	177.43 	539.708 	
78.1572 	-0.0164254 	-0.335284 	1.03689 	-0.0345523 	-0.0108405 	3.13063 	90.0951 	117.726 	-0.616699 	113.484 	360.843 	179.397 	539.708 	
78.2592 	-0.0162007 	-0.31692 	1.03561 	-0.104363 	-0.00998854 	3.1299 	90.0953 	117.732 	-0.617578 	113.484 	360.843 	181.415 	539.708 	
78.3612 	-0.0160835 	-0.307783 	1.0345 	-0.139268 	-0.00954404 	3.12956 	90.095 	117.766 	-0.616406 	113.482 	360.843 	183.624 	539.708 	
78.4632 	-0.0159632 	-0.29869 	1.03306 	-0.174173 	-0.00908792 	3.12924 	90.095 	117.578 	-0.616992 	113.536 	360.843 	185.49 	539.708 	
78.5652 	-0.01584 	-0.289653 	1.03131 	-0.209077 	-0.00862072 	3.12893 	90.0951 	117.596 	-0.61709 	113.534 	360.843 	187.533 	539.708 	
78.6679 	-0.015714 	-0.280683 	1.02924 	-0.243981 	-0.00814302 	3.12863 	90.095 	117.673 	-0.616602 	113.528 	360.843 	189.595 	539.708 	
78.7756 	-0.0155854 	-0.271791 	1.02686 	-0.278885 	-0.00765541 	3.12836 	90.0951 	117.673 	-0.616699 	113.53 	360.843 	191.734 	539.708 	
78.8782 	-0.0154543 	-0.262986 	1.02418 	-0.313788 	-0.00715847 	3.1281 	90.0951 	117.683 	-0.616895 	113.53 	360.843 	193.769 	539.708 	
78.9817 	-0.015321 	-0.254281 	1.02118 	-0.348691 	-0.0066528 	3.12786 	90.0951 	117.696 	-0.616699 	113.526 	360.843 	195.953 	539.708 	
79.0844 	-0.0151855 	-0.245686 	1.01789 	-0.383594 	-0.00613904 	3.12764 	90.0952 	117.678 	-0.616797 	113.531 	360.843 	197.9 	539.708 	
79.1875 	-0.015048 	-0.237211 	1.0143 	-0.418497 	-0.0056178 	3.12743 	90.0951 	117.679 	-0.616797 	113.532 	360.843 	199.908 	539.708 	
79.2902 	-0.0149087 	-0.228867 	1.01041 	-0.4534 	-0.00508971 	3.12724 	90.095 	117.68 	-0.616309 	113.531 	360.843 	201.917 	539.708 	
79.3922 	-0.0147678 	-0.220664 	1.00623 	-0.488302 	-0.00455543 	3.12708 	90.095 	117.683 	-0.616895 	113.53 	360.843 	204.107 	539.708 	
79.4954 	-0.0146254 	-0.212611 	1.00178 	-0.523204 	-0.00401559 	3.12693 	90.0951 	117.686 	-0.616699 	113.53 	360.843 	206.092 	539.708 	
79.5986 	-0.0144818 	-0.204718 	0.997038 	-0.558106 	-0.00347087 	3.1268 	90.0951 	117.683 	-0.616797 	113.531 	360.843 	208.079 	539.708 	
79.7014 	-0.014337 	-0.196996 	0.992028 	-0.593008 	-0.00292192 	3.12668 	90.0952 	117.692 	-0.61709 	113.529 	360.843 	210.124 	539.708 	
79.8043 	-0.0141912 	-0.189454 	0.986752 	-0.62791 	-0.00236941 	3.12659 	90.0951 	117.692 	-0.616992 	113.528 	360.843 	212.287 	539.708 	
79.9073 	-0.0140448 	-0.1821 	0.981215 	-0.662812 	-0.00181401 	3.12652 	90.0952 	117.678 	-0.61709 	113.533 	360.843 	214.25 	539.708 	
80.0096 	-0.0138977 	-0.174944 	0.975426 	-0.697713 	-0.0012564 	3.12647 	90.0951 	117.678 	-0.616992 	113.533 	360.843 	216.234 	539.708 	
80.1123 	-0.0137502 	-0.167994 	0.96939 	-0.732615 	-0.000697269 	3.12643 	90.0948 	117.679 	-0.615918 	113.533 	360.843 	218.435 	539.708 	
80.2141 	-0.0136025 	-0.16126 	0.963115 	-0.767516 	-0.000137281 	3.12642 	90.095 	117.676 	-0.616895 	113.533 	360.843 	220.418 	539.708 	
80.3164 	-0.0134548 	-0.154748 	0.956609 	-0.802418 	0.000422868 	3.12642 	90.0951 	117.68 	-0.617481 	113.533 	360.843 	222.43 	539.708 	
80.4194 	-0.0133072 	-0.148468 	0.94988 	-0.83732 	0.000982509 	3.12645 	90.0951 	117.678 	-0.617383 	113.533 	360.843 	224.422 	539.708 	
80.5222 	-0.0131599 	-0.142426 	0.942935 	-0.872221 	0.00154095 	3.12649 	90.0953 	117.683 	-0.617188 	113.534 	360.843 	226.619 	539.708 	
80.6256 	-0.0130131 	-0.13663 	0.935784 	-0.907123 	0.00209751 	3.12655 	90.0951 	117.672 	-0.616602 	113.536 	360.843 	228.596 	539.708 	
80.7285 	-0.012867 	-0.131087 	0.928435 	-0.942025 	0.00265152 	3.12664 	90.0953 	117.669 	-0.617969 	113.536 	360.843 	230.597 	539.708 	
80.8319 	-0.0127217 	-0.125804 	0.920897 	-0.976926 	0.0032023 	3.12674 	90.0952 	117.65 	-0.617481 	113.537 	360.843 	232.601 	539.708 	
80.9344 	-0.0125775 	-0.120788 	0.913179 	-1.01183 	0.00374919 	3.12686 	90.0952 	117.648 	-0.617188 	113.537 	360.843 	234.778 	539.708 	
81.0422 	-0.0124344 	-0.116044 	0.905291 	-1.04673 	0.0042915 	3.127 	90.0954 	117.653 	-0.616895 	113.537 	360.843 	236.775 	539.708 	
81.1441 	-0.0122928 	-0.111578 	0.897242 	-1.08163 	0.00482858 	3.12716 	90.0954 	117.651 	-0.617383 	113.537 	360.843 	238.967 	539.708 	
81.2472 	-0.0121527 	-0.107396 	0.889042 	-1.11654 	0.00535978 	3.12734 	90.0955 	117.639 	-0.61709 	113.539 	360.843 	240.972 	539.708 	
81.3522 	-0.0120143 	-0.103502 	0.880701 	-1.15144 	0.00588447 	3.12753 	90.0956 	117.65 	-0.617383 	113.538 	360.843 	243.158 	539.708 	
81.4555 	-0.0118778 	-0.0999025 	0.872229 	-1.18634 	0.00640197 	3.12775 	90.0951 	117.639 	-0.616309 	113.541 	360.843 	245.138 	539.708 	
81.557 	-0.0116112 	-0.0936001 	0.854935 	-1.25615 	0.00741298 	3.12823 	90.0955 	117.645 	-0.617969 	113.54 	360.843 	247.137 	539.708 	
81.6591 	-0.0114813 	-0.0909055 	0.846133 	-1.29105 	0.00790524 	3.1285 	90.0954 	117.636 	-0.617676 	113.543 	360.843 	249.143 	539.708 	
81.7615 	-0.011354 	-0.0885196 	0.837242 	-1.32595 	0.00838787 	3.12878 	90.0957 	117.648 	-0.617188 	113.542 	360.843 	251.136 	539.708 	
81.8641 	-0.0112294 	-0.0864455 	0.828274 	-1.36086 	0.00886028 	3.12908 	90.0957 	117.651 	-0.616992 	113.543 	360.843 	253.32 	539.708 	
81.9661 	-0.0111077 	-0.0846856 	0.819238 	-1.39576 	0.00932191 	3.1294 	90.096 	117.652 	-0.617285 	113.544 	360.843 	255.307 	539.708 	
82.068 	-0.0109889 	-0.0832421 	0.810146 	-1.43067 	0.00977222 	3.12973 	90.0958 	117.644 	-0.616895 	113.546 	360.843 	257.335 	539.708 	
82.1751 	-0.0108733 	-0.0821167 	0.801009 	-1.46558 	0.0102106 	3.13008 	90.0957 	117.65 	-0.617285 	113.546 	360.843 	259.529 	539.708 	
82.2785 	-0.010761 	-0.081311 	0.791839 	-1.50049 	0.0106366 	3.13045 	90.0957 	117.651 	-0.616895 	113.546 	360.843 	261.501 	539.708 	
82.3811 	-0.0106521 	-0.0808258 	0.782645 	-1.5354 	0.0110496 	3.13083 	90.0955 	117.638 	-0.616895 	113.549 	360.843 	263.518 	539.708 	
82.4834 	-0.0105467 	-0.0806618 	0.773441 	-1.5703 	0.0114491 	3.13122 	90.0956 	117.558 	-0.617481 	113.569 	360.843 	265.747 	539.708 	
82.5863 	-0.010445 	-0.0808191 	0.764236 	-1.60521 	0.0118347 	3.13162 	90.0953 	117.571 	-0.617285 	113.579 	360.843 	267.725 	539.708 	
82.6897 	-0.0103471 	-0.0812976 	0.755042 	-1.64012 	0.0122058 	3.13204 	90.0956 	117.64 	-0.617773 	113.577 	360.843 	269.706 	539.708 	
82.7925 	-0.0102531 	-0.0820967 	0.745871 	-1.67503 	0.0125621 	3.13248 	90.0956 	117.646 	-0.616992 	113.578 	360.843 	271.91 	539.708 	
82.8953 	-0.0101632 	-0.0832154 	0.736733 	-1.70994 	0.0129031 	3.13292 	90.0953 	117.591 	-0.617188 	113.584 	360.843 	273.942 	539.708 	
82.9983 	-0.0100774 	-0.0846523 	0.727639 	-1.74485 	0.0132284 	3.13338 	90.0956 	117.615 	-0.617188 	113.582 	360.843 	275.918 	539.708 	
83.1014 	-0.0099959 	-0.0864057 	0.718601 	-1.77976 	0.0135375 	3.13384 	90.0957 	117.658 	-0.617676 	113.579 	360.843 	277.886 	539.708 	
83.2043 	-0.00992624 	-0.0882527 	0.710524 	-1.81118 	0.0138017 	3.13427 	90.094 	117.581 	-0.61709 	113.584 	360.843 	280.156 	539.708 	
83.3076 	-0.00984598 	-0.0908531 	0.700737 	-1.84958 	0.014106 	3.13481 	90.0954 	117.629 	-0.616699 	113.585 	360.843 	282.132 	539.708 	
83.4105 	-0.00977844 	-0.0935133 	0.692019 	-1.88415 	0.0143621 	3.1353 	90.0958 	117.529 	-0.617481 	113.59 	360.843 	283.991 	539.708 	
83.4371 	-0.00977844 	-0.0935133 	0.692019 	-1.88415 	0.0143621 	3.1353 	90.0956 	117.585 	-0.616895 	113.585 	360.843 	284.277 	539.708 	
83.5402 	-0.00975498 	-0.094665 	0.688875 	-1.89673 	0.0144497 	3.13549 	90.0956 	117.616 	-0.617481 	113.805 	360.843 	284.57 	539.708 	
83.6434 	-0.00978362 	-0.0981666 	0.692994 	-1.88138 	0.0142817 	3.1355 	90.0956 	117.644 	-0.617383 	114.734 	360.843 	284.592 	539.708 	
83.7472 	-0.00981519 	-0.102222 	0.697609 	-1.86392 	0.0140909 	3.13551 	90.0954 	117.643 	-0.616797 	115.73 	360.843 	284.597 	539.708 	
83.852 	-0.00984572 	-0.106357 	0.702153 	-1.84647 	0.0139004 	3.13552 	90.0955 	117.64 	-0.617188 	116.826 	360.843 	284.6 	539.708 	
83.9553 	-0.00990361 	-0.114862 	0.71102 	-1.81157 	0.0135202 	3.13556 	90.0956 	117.637 	-0.617481 	117.837 	360.843 	284.605 	539.708 	
84.0581 	-0.00993096 	-0.119229 	0.715341 	-1.79412 	0.0133306 	3.13559 	90.0955 	117.637 	-0.616992 	118.829 	360.843 	284.607 	539.708 	
84.1615 	-0.00995724 	-0.123671 	0.719585 	-1.77667 	0.0131416 	3.13561 	90.0954 	117.637 	-0.616992 	119.929 	360.843 	284.608 	539.708 	
84.2644 	-0.00998242 	-0.128187 	0.723751 	-1.75921 	0.012953 	3.13564 	90.0955 	117.639 	-0.617285 	120.921 	360.843 	284.609 	539.708 	
84.3673 	-0.0100065 	-0.132774 	0.727838 	-1.74176 	0.012765 	3.13568 	90.0954 	117.639 	-0.616992 	121.912 	360.843 	284.609 	539.708 	
84.4754 	-0.0100295 	-0.137432 	0.731843 	-1.72431 	0.0125777 	3.13572 	90.0954 	117.639 	-0.61709 	123.011 	360.843 	284.61 	539.708 	
84.5779 	-0.0100514 	-0.14216 	0.735767 	-1.70686 	0.012391 	3.13576 	90.0955 	117.642 	-0.61709 	123.988 	360.843 	284.61 	539.708 	
84.6801 	-0.0100722 	-0.146955 	0.739608 	-1.68941 	0.0122051 	3.1358 	90.0956 	117.642 	-0.617481 	125.004 	360.843 	284.611 	539.708 	
84.7833 	-0.0100918 	-0.151816 	0.743365 	-1.67196 	0.01202 	3.13585 	90.0953 	117.641 	-0.617188 	126.096 	360.843 	284.611 	539.708 	
84.8864 	-0.0101104 	-0.156742 	0.747036 	-1.65451 	0.0118358 	3.1359 	90.0954 	117.643 	-0.616895 	127.091 	360.843 	284.612 	539.708 	
84.9896 	-0.0101278 	-0.161732 	0.750621 	-1.63705 	0.0116524 	3.13595 	90.0954 	117.643 	-0.617285 	128.095 	360.843 	284.613 	539.708 	
85.0925 	-0.010144 	-0.166783 	0.754118 	-1.6196 	0.0114701 	3.13601 	90.0954 	117.643 	-0.617188 	129.193 	360.843 	284.613 	539.708 	
85.1952 	-0.0101591 	-0.171895 	0.757527 	-1.60215 	0.0112887 	3.13607 	90.0954 	117.644 	-0.617188 	130.191 	360.843 	284.613 	539.708 	
85.2981 	-0.0101731 	-0.177066 	0.760845 	-1.5847 	0.0111084 	3.13614 	90.0954 	117.647 	-0.61709 	131.177 	360.843 	284.613 	539.708 	
85.4017 	-0.0101859 	-0.182294 	0.764074 	-1.56724 	0.0109293 	3.1362 	90.0954 	117.647 	-0.617188 	132.28 	360.843 	284.613 	539.708 	
85.5042 	-0.0101976 	-0.187577 	0.76721 	-1.54979 	0.0107514 	3.13627 	90.0955 	117.648 	-0.617383 	133.27 	360.843 	284.613 	539.708 	
85.6073 	-0.0102081 	-0.192914 	0.770254 	-1.53234 	0.0105747 	3.13635 	90.0953 	117.648 	-0.617188 	134.267 	360.843 	284.613 	539.708 	
85.7103 	-0.0102175 	-0.198304 	0.773204 	-1.51489 	0.0103993 	3.13642 	90.0955 	117.655 	-0.617285 	135.264 	360.843 	284.613 	539.708 	
85.8132 	-0.0102256 	-0.203744 	0.776059 	-1.49743 	0.0102252 	3.1365 	90.0954 	117.66 	-0.617285 	136.359 	360.843 	284.614 	539.708 	
85.9163 	-0.0102327 	-0.209233 	0.77882 	-1.47998 	0.0100526 	3.13658 	90.0954 	117.662 	-0.617188 	137.354 	360.843 	284.616 	539.708 	
86.0194 	-0.0102385 	-0.21477 	0.781483 	-1.46253 	0.00988138 	3.13667 	90.0954 	117.668 	-0.617285 	138.361 	360.843 	284.617 	539.708 	
86.1221 	-0.0102432 	-0.220352 	0.78405 	-1.44508 	0.0097117 	3.13676 	90.0956 	117.67 	-0.617383 	139.44 	360.843 	284.619 	539.708 	
86.2252 	-0.0102467 	-0.225978 	0.78652 	-1.42762 	0.00954359 	3.13685 	90.0953 	117.671 	-0.616992 	140.449 	360.843 	284.621 	539.708 	
86.3282 	-0.010249 	-0.231647 	0.78889 	-1.41017 	0.00937709 	3.13694 	90.0953 	117.671 	-0.61709 	141.437 	360.843 	284.623 	539.708 	
86.4319 	-0.0102502 	-0.237355 	0.791161 	-1.39272 	0.00921225 	3.13704 	90.0956 	117.676 	-0.617578 	142.536 	360.843 	284.625 	539.708 	
86.5345 	-0.0102502 	-0.243103 	0.793333 	-1.37527 	0.00904913 	3.13714 	90.0955 	117.678 	-0.617383 	143.541 	360.843 	284.629 	539.708 	
86.6415 	-0.010249 	-0.248888 	0.795403 	-1.35781 	0.00888777 	3.13724 	90.0955 	117.686 	-0.61709 	144.63 	360.843 	284.634 	539.708 	
86.7441 	-0.0102466 	-0.254708 	0.797373 	-1.34036 	0.00872822 	3.13734 	90.0955 	117.687 	-0.617285 	145.622 	360.843 	284.636 	539.708 	
86.848 	-0.0102431 	-0.260561 	0.79924 	-1.32291 	0.00857053 	3.13745 	90.0954 	117.687 	-0.61709 	146.623 	360.843 	284.638 	539.708 	
86.9532 	-0.0102383 	-0.266446 	0.801005 	-1.30546 	0.00841476 	3.13756 	90.0955 	117.688 	-0.617285 	147.714 	360.843 	284.639 	539.708 	
87.056 	-0.0102325 	-0.272361 	0.802668 	-1.288 	0.00826093 	3.13768 	90.0955 	117.69 	-0.617188 	148.711 	360.843 	284.64 	539.708 	
87.1582 	-0.0102172 	-0.284274 	0.805681 	-1.2531 	0.00795935 	3.13791 	90.0955 	117.692 	-0.61709 	149.7 	360.843 	284.641 	539.708 	
87.2612 	-0.0102078 	-0.290268 	0.807031 	-1.23565 	0.00781168 	3.13803 	90.0956 	117.692 	-0.617676 	150.804 	360.843 	284.648 	539.708 	
87.3639 	-0.0101973 	-0.296285 	0.808276 	-1.21819 	0.00766615 	3.13816 	90.0955 	117.692 	-0.617285 	151.797 	360.843 	284.651 	539.708 	
87.4664 	-0.0101856 	-0.302322 	0.809417 	-1.20074 	0.0075228 	3.13828 	90.0956 	117.694 	-0.617188 	152.8 	360.843 	284.655 	539.708 	
87.5689 	-0.0101727 	-0.308378 	0.810451 	-1.18329 	0.00738168 	3.13841 	90.0955 	117.695 	-0.617383 	153.793 	360.843 	284.656 	539.708 	
87.6752 	-0.0101587 	-0.314452 	0.81138 	-1.16584 	0.00724283 	3.13854 	90.0955 	117.696 	-0.617285 	154.879 	360.843 	284.656 	539.708 	
87.7769 	-0.0101436 	-0.320541 	0.812203 	-1.14838 	0.0071063 	3.13868 	90.0955 	117.698 	-0.617383 	155.886 	360.843 	284.657 	539.708 	
87.8789 	-0.0101273 	-0.326643 	0.812919 	-1.13093 	0.00697212 	3.13881 	90.0954 	117.704 	-0.617285 	156.891 	360.843 	284.658 	539.708 	
87.9811 	-0.0101098 	-0.332757 	0.813529 	-1.11348 	0.00684033 	3.13895 	90.0956 	117.707 	-0.617383 	157.975 	360.843 	284.659 	539.708 	
88.0842 	-0.0100913 	-0.33888 	0.814032 	-1.09603 	0.00671099 	3.13909 	90.0955 	117.709 	-0.617383 	158.966 	360.843 	284.659 	539.708 	
88.187 	-0.0100716 	-0.345011 	0.814428 	-1.07858 	0.00658412 	3.13924 	90.0954 	117.71 	-0.617285 	159.967 	360.843 	284.659 	539.708 	
88.2902 	-0.0100508 	-0.351149 	0.814717 	-1.06112 	0.00645976 	3.13938 	90.0956 	117.712 	-0.617481 	160.964 	360.843 	284.661 	539.708 	
88.393 	-0.0100288 	-0.35729 	0.814898 	-1.04367 	0.00633795 	3.13953 	90.0953 	117.715 	-0.61709 	162.045 	360.843 	284.661 	539.708 	
88.4954 	-0.0100058 	-0.363434 	0.814973 	-1.02622 	0.00621874 	3.13968 	90.0955 	117.732 	-0.617285 	163.043 	360.843 	284.663 	539.708 	
88.5981 	-0.00998168 	-0.369578 	0.81494 	-1.00877 	0.00610215 	3.13983 	90.0956 	117.735 	-0.617285 	164.045 	360.843 	284.663 	539.708 	
88.7007 	-0.00995646 	-0.37572 	0.8148 	-0.991314 	0.00598822 	3.13998 	90.0955 	117.74 	-0.617285 	165.149 	360.843 	284.664 	539.708 	
88.8032 	-0.00993015 	-0.38186 	0.814553 	-0.973861 	0.00587698 	3.14014 	90.0956 	117.74 	-0.617383 	166.142 	360.843 	284.665 	539.708 	
88.9063 	-0.00990276 	-0.387993 	0.814199 	-0.956409 	0.00576848 	3.1403 	90.0955 	117.742 	-0.617383 	167.134 	360.843 	284.666 	539.708 	
89.009 	-0.00987431 	-0.39412 	0.813738 	-0.938956 	0.00566274 	3.14045 	90.0952 	117.741 	-0.617188 	168.141 	360.843 	284.667 	539.708 	
89.1114 	-0.0098448 	-0.400238 	0.81317 	-0.921504 	0.00555979 	3.14062 	90.0955 	117.741 	-0.617285 	169.233 	360.843 	284.669 	539.708 	
89.2139 	-0.00981424 	-0.406345 	0.812495 	-0.904052 	0.00545967 	3.14078 	90.0953 	117.742 	-0.617285 	170.245 	360.843 	284.673 	539.708 	
89.3173 	-0.00978263 	-0.412439 	0.811714 	-0.886599 	0.00536241 	3.14094 	90.0953 	117.75 	-0.617383 	171.229 	360.843 	284.674 	539.708 	
89.4202 	-0.00974999 	-0.418519 	0.810826 	-0.869147 	0.00526803 	3.14111 	90.0954 	117.753 	-0.617383 	172.21 	360.843 	284.677 	539.708 	
89.523 	-0.00971633 	-0.424582 	0.809833 	-0.851694 	0.00517657 	3.14128 	90.0954 	117.755 	-0.617481 	173.32 	360.843 	284.681 	539.708 	
89.626 	-0.00968166 	-0.430627 	0.808734 	-0.834242 	0.00508804 	3.14145 	90.0953 	117.761 	-0.617285 	174.317 	360.843 	284.688 	539.708 	
89.7293 	-0.00964599 	-0.436652 	0.807529 	-0.816789 	0.00500249 	-3.14157 	90.0954 	117.762 	-0.617383 	175.311 	360.843 	284.694 	539.708 	
89.8321 	-0.00960933 	-0.442654 	0.80622 	-0.799337 	0.00491994 	-3.1414 	90.0955 	117.767 	-0.617481 	176.403 	360.843 	284.699 	539.708 	
89.941 	-0.00957169 	-0.448633 	0.804806 	-0.781885 	0.00484041 	-3.14122 	90.0954 	117.774 	-0.617383 	177.504 	360.843 	284.702 	539.708 	
90.0431 	-0.00953308 	-0.454587 	0.803288 	-0.764432 	0.00476392 	-3.14105 	90.0952 	117.777 	-0.617285 	178.508 	360.843 	284.709 	539.708 	
90.1463 	-0.00949352 	-0.460513 	0.801666 	-0.74698 	0.0046905 	-3.14087 	90.0955 	117.78 	-0.617383 	179.493 	360.843 	284.719 	539.708 	
90.2519 	-0.00941157 	-0.472276 	0.798113 	-0.712075 	0.00455296 	-3.14051 	90.0952 	117.78 	-0.617383 	180.604 	360.843 	284.723 	539.708 	
90.3549 	-0.00936921 	-0.478109 	0.796183 	-0.694622 	0.00448887 	-3.14033 	90.0954 	117.795 	-0.617383 	181.579 	360.843 	284.725 	539.708 	
90.4589 	-0.00932594 	-0.483908 	0.794152 	-0.677169 	0.00442794 	-3.14015 	90.0953 	117.795 	-0.617383 	182.588 	360.843 	284.727 	539.708 	
90.5611 	-0.00928179 	-0.48967 	0.79202 	-0.659717 	0.00437018 	-3.13997 	90.0954 	117.798 	-0.617383 	183.7 	360.843 	284.729 	539.708 	
90.6639 	-0.00923675 	-0.495394 	0.789788 	-0.642265 	0.00431561 	-3.13979 	90.0956 	117.799 	-0.617383 	184.686 	360.843 	284.73 	539.708 	
90.7659 	-0.00919085 	-0.501078 	0.787456 	-0.624812 	0.00426425 	-3.1396 	90.0954 	117.799 	-0.617383 	185.686 	360.843 	284.731 	539.708 	
90.8694 	-0.00914409 	-0.50672 	0.785025 	-0.60736 	0.0042161 	-3.13942 	90.0955 	117.8 	-0.617383 	186.672 	360.843 	284.735 	539.708 	
90.9748 	-0.0090965 	-0.51232 	0.782496 	-0.589907 	0.00417119 	-3.13923 	90.0954 	117.8 	-0.617383 	187.771 	360.843 	284.737 	539.708 	
91.0769 	-0.00904809 	-0.517874 	0.77987 	-0.572454 	0.00412953 	-3.13905 	90.0954 	117.8 	-0.617481 	188.769 	360.843 	284.737 	539.708 	
91.1791 	-0.00899886 	-0.523382 	0.777147 	-0.555002 	0.00409113 	-3.13886 	90.0954 	117.8 	-0.617383 	189.758 	360.843 	284.738 	539.708 	
91.2822 	-0.00894885 	-0.528841 	0.774328 	-0.537549 	0.00405601 	-3.13867 	90.0954 	117.8 	-0.617285 	190.872 	360.843 	284.739 	539.708 	
91.3849 	-0.00889806 	-0.534251 	0.771415 	-0.520097 	0.00402417 	-3.13848 	90.0951 	117.801 	-0.617383 	191.863 	360.843 	284.742 	539.708 	
91.488 	-0.0088465 	-0.539608 	0.768408 	-0.502644 	0.00399562 	-3.13829 	90.0958 	117.802 	-0.617383 	192.864 	360.843 	284.744 	539.708 	
91.5911 	-0.0087942 	-0.544912 	0.765307 	-0.485192 	0.00397037 	-3.1381 	90.0958 	117.803 	-0.617383 	193.949 	360.843 	284.746 	539.708 	
91.6941 	-0.00874116 	-0.550162 	0.762115 	-0.467739 	0.00394844 	-3.13791 	90.0954 	117.803 	-0.617383 	194.959 	360.843 	284.75 	539.708 	
91.7973 	-0.00868742 	-0.555355 	0.758831 	-0.450287 	0.00392982 	-3.13772 	90.0956 	117.807 	-0.617481 	195.944 	360.843 	284.753 	539.708 	
91.9003 	-0.00863297 	-0.560489 	0.755458 	-0.432834 	0.00391453 	-3.13753 	90.0954 	117.812 	-0.617383 	196.944 	360.843 	284.756 	539.708 	
92.003 	-0.00857784 	-0.565564 	0.751995 	-0.415381 	0.00390256 	-3.13734 	90.0954 	117.814 	-0.617383 	198.045 	360.843 	284.758 	539.708 	
92.1061 	-0.00852205 	-0.570578 	0.748444 	-0.397929 	0.00389392 	-3.13715 	90.0953 	117.817 	-0.617383 	199.046 	360.843 	284.763 	539.708 	
92.2092 	-0.00846561 	-0.575529 	0.744806 	-0.380476 	0.00388862 	-3.13696 	90.0954 	117.82 	-0.617481 	200.035 	360.843 	284.774 	539.708 	
92.3119 	-0.00840854 	-0.580416 	0.741082 	-0.363024 	0.00388665 	-3.13677 	90.0953 	117.82 	-0.617383 	201.148 	360.843 	284.779 	539.708 	
92.4152 	-0.00835085 	-0.585237 	0.737274 	-0.345571 	0.00388802 	-3.13658 	90.0954 	117.821 	-0.617578 	202.144 	360.843 	284.784 	539.708 	
92.5183 	-0.00829257 	-0.589991 	0.733382 	-0.328119 	0.00389273 	-3.13639 	90.0958 	117.822 	-0.617481 	203.129 	360.843 	284.79 	539.708 	
92.6208 	-0.00823371 	-0.594676 	0.729408 	-0.310666 	0.00390076 	-3.1362 	90.0955 	117.823 	-0.617481 	204.23 	360.843 	284.795 	539.708 	
92.7228 	-0.00817429 	-0.599292 	0.725352 	-0.293213 	0.00391213 	-3.13601 	90.0953 	117.824 	-0.617481 	205.223 	360.843 	284.797 	539.708 	
92.8249 	-0.00811433 	-0.603835 	0.721216 	-0.275761 	0.00392683 	-3.13581 	90.0955 	117.824 	-0.617481 	206.233 	360.843 	284.798 	539.708 	
92.9282 	-0.00805385 	-0.608306 	0.717002 	-0.258308 	0.00394485 	-3.13562 	90.0955 	117.825 	-0.617481 	207.235 	360.843 	284.8 	539.708 	
93.0314 	-0.00799286 	-0.612702 	0.712711 	-0.240856 	0.00396619 	-3.13543 	90.0955 	117.827 	-0.617481 	208.334 	360.843 	284.802 	539.708 	
93.134 	-0.00793138 	-0.617023 	0.708343 	-0.223403 	0.00399084 	-3.13524 	90.0954 	117.831 	-0.617481 	209.323 	360.843 	284.805 	539.708 	
93.241 	-0.00786944 	-0.621267 	0.703901 	-0.205951 	0.0040188 	-3.13506 	90.0954 	117.832 	-0.617481 	210.415 	360.843 	284.807 	539.708 	
93.3439 	-0.00780705 	-0.625433 	0.699385 	-0.188498 	0.00405005 	-3.13487 	90.0955 	117.832 	-0.617481 	211.433 	360.843 	284.809 	539.708 	
93.446 	-0.00774423 	-0.62952 	0.694797 	-0.171046 	0.00408458 	-3.13468 	90.0953 	117.833 	-0.617481 	212.413 	360.843 	284.811 	539.708 	
93.5511 	-0.00768099 	-0.633525 	0.690139 	-0.153593 	0.00412239 	-3.13449 	90.0954 	117.833 	-0.617481 	213.521 	360.843 	284.813 	539.708 	
93.656 	-0.00755337 	-0.64129 	0.680616 	-0.118688 	0.0042078 	-3.13412 	90.0954 	117.833 	-0.617481 	214.523 	360.843 	284.818 	539.708 	
93.7577 	-0.00748902 	-0.645046 	0.675754 	-0.101235 	0.00425536 	-3.13393 	90.0956 	117.833 	-0.617481 	215.515 	360.843 	284.82 	539.708 	
93.8597 	-0.00742433 	-0.648717 	0.670828 	-0.0837828 	0.00430615 	-3.13375 	90.0956 	117.834 	-0.617481 	216.515 	360.843 	284.822 	539.708 	
93.9618 	-0.00735934 	-0.652302 	0.665838 	-0.0663305 	0.00436015 	-3.13357 	90.0955 	117.834 	-0.617481 	217.62 	360.843 	284.824 	539.708 	
94.0638 	-0.00729405 	-0.655798 	0.660786 	-0.048878 	0.00441733 	-3.13338 	90.0954 	117.835 	-0.617481 	218.615 	360.843 	284.834 	539.708 	
94.1658 	-0.00722848 	-0.659206 	0.655674 	-0.0314254 	0.0044777 	-3.1332 	90.0956 	117.835 	-0.617481 	219.606 	360.843 	284.837 	539.708 	
94.2685 	-0.00716266 	-0.662525 	0.650504 	-0.0139729 	0.00454122 	-3.13302 	90.0955 	117.836 	-0.617481 	220.601 	360.843 	284.841 	539.708 	
94.3749 	-0.00709661 	-0.665752 	0.645276 	0.00347963 	0.00460787 	-3.13284 	90.0954 	117.836 	-0.617481 	221.707 	360.843 	284.846 	539.708 	
94.4769 	-0.00703035 	-0.668888 	0.639993 	0.0209321 	0.00467764 	-3.13267 	90.0955 	117.835 	-0.617481 	222.717 	360.843 	284.851 	539.708 	
94.5787 	-0.00696389 	-0.671931 	0.634656 	0.0383846 	0.00475051 	-3.13249 	90.0954 	117.837 	-0.617481 	223.706 	360.843 	284.86 	539.708 	
94.6817 	-0.00689725 	-0.674881 	0.629266 	0.0558371 	0.00482645 	-3.13231 	90.0954 	117.838 	-0.617578 	224.82 	360.843 	284.862 	539.708 	
94.7837 	-0.00683047 	-0.677736 	0.623826 	0.0732896 	0.00490543 	-3.13214 	90.0955 	117.843 	-0.617578 	225.819 	360.843 	284.87 	539.708 	
94.8861 	-0.00676355 	-0.680495 	0.618337 	0.0907419 	0.00498745 	-3.13197 	90.0958 	117.843 	-0.617481 	226.816 	360.843 	284.872 	539.708 	
94.9889 	-0.00669652 	-0.683159 	0.6128 	0.108194 	0.00507246 	-3.1318 	90.0954 	117.844 	-0.617481 	227.808 	360.843 	284.873 	539.708 	
95.0919 	-0.0066294 	-0.685725 	0.607218 	0.125647 	0.00516045 	-3.13163 	90.0955 	117.844 	-0.617578 	228.913 	360.843 	284.875 	539.708 	
95.1949 	-0.00656221 	-0.688194 	0.601592 	0.143099 	0.00525139 	-3.13146 	90.0954 	117.844 	-0.617481 	229.901 	360.843 	284.879 	539.708 	
95.2977 	-0.00649496 	-0.690563 	0.595924 	0.160551 	0.00534524 	-3.13129 	90.0954 	117.844 	-0.617481 	230.919 	360.843 	284.881 	539.708 	
95.3998 	-0.00642769 	-0.692834 	0.590215 	0.178004 	0.00544199 	-3.13113 	90.0952 	117.844 	-0.617676 	231.916 	360.843 	284.885 	539.708 	
95.5019 	-0.00636041 	-0.695005 	0.584468 	0.195456 	0.0055416 	-3.13096 	90.0954 	117.844 	-0.617578 	233.014 	360.843 	284.894 	539.708 	
95.6051 	-0.00629313 	-0.697075 	0.578683 	0.212909 	0.00564404 	-3.1308 	90.0953 	117.844 	-0.617578 	234.013 	360.843 	284.902 	539.708 	
95.708 	-0.00622589 	-0.699043 	0.572863 	0.230361 	0.00574928 	-3.13064 	90.0954 	117.844 	-0.617578 	235.022 	360.843 	284.923 	539.708 	
95.8112 	-0.0061587 	-0.70091 	0.56701 	0.247814 	0.00585729 	-3.13048 	90.0955 	117.845 	-0.617481 	236.015 	360.843 	284.935 	539.708 	
95.9141 	-0.00609158 	-0.702675 	0.561125 	0.265266 	0.00596804 	-3.13033 	90.0953 	117.845 	-0.617578 	237.115 	360.843 	284.942 	539.708 	
96.0172 	-0.00602456 	-0.704336 	0.55521 	0.282719 	0.00608149 	-3.13017 	90.0955 	117.845 	-0.617481 	238.123 	360.843 	284.944 	539.708 	
96.12 	-0.00595764 	-0.705894 	0.549267 	0.300171 	0.0061976 	-3.13002 	90.0954 	117.845 	-0.617578 	239.112 	360.843 	284.945 	539.708 	
96.2242 	-0.00589086 	-0.707348 	0.543298 	0.317623 	0.00631635 	-3.12987 	90.0955 	117.844 	-0.617578 	240.225 	360.843 	284.946 	539.708 	
96.326 	-0.00582424 	-0.708697 	0.537304 	0.335076 	0.00643769 	-3.12973 	90.0954 	117.848 	-0.617578 	241.217 	360.843 	284.949 	539.708 	
96.4291 	-0.00575779 	-0.709942 	0.531288 	0.352528 	0.00656159 	-3.12958 	90.0954 	117.848 	-0.617578 	242.22 	360.843 	284.949 	539.708 	
96.5317 	-0.00569153 	-0.711081 	0.525251 	0.369981 	0.00668802 	-3.12944 	90.0956 	117.848 	-0.617481 	243.319 	360.843 	284.95 	539.708 	
96.634 	-0.00562549 	-0.712115 	0.519194 	0.387433 	0.00681692 	-3.1293 	90.0954 	117.848 	-0.617578 	244.322 	360.843 	284.95 	539.708 	
96.7411 	-0.00555968 	-0.713043 	0.513121 	0.404885 	0.00694827 	-3.12916 	90.0955 	117.848 	-0.617578 	245.335 	360.843 	284.951 	539.708 	
96.8439 	-0.00549413 	-0.713865 	0.507033 	0.422337 	0.00708202 	-3.12902 	90.0955 	117.848 	-0.617578 	246.44 	360.843 	284.953 	539.708 	
96.9469 	-0.00542885 	-0.714581 	0.500931 	0.43979 	0.00721814 	-3.12889 	90.0954 	117.848 	-0.617676 	247.432 	360.843 	284.958 	539.708 	
97.0518 	-0.00536386 	-0.71519 	0.494817 	0.457242 	0.00735657 	-3.12875 	90.0956 	117.848 	-0.617383 	248.544 	360.843 	284.961 	539.708 	
97.1547 	-0.00523485 	-0.716087 	0.482563 	0.492147 	0.00764024 	-3.1285 	90.0955 	117.848 	-0.617578 	249.546 	360.843 	284.964 	539.708 	
97.2577 	-0.00517087 	-0.716375 	0.476426 	0.509599 	0.00778538 	-3.12837 	90.0953 	117.848 	-0.617676 	250.541 	360.843 	284.983 	539.708 	
97.3599 	-0.00510726 	-0.716556 	0.470284 	0.527052 	0.00793267 	-3.12825 	90.0954 	117.849 	-0.617578 	251.535 	360.843 	284.998 	539.708 	
97.462 	-0.00504404 	-0.71663 	0.464141 	0.544504 	0.00808207 	-3.12813 	90.0955 	117.849 	-0.617676 	252.645 	360.843 	285.004 	539.708 	
97.5638 	-0.00498124 	-0.716596 	0.457997 	0.561957 	0.00823352 	-3.12802 	90.0953 	117.849 	-0.617676 	253.643 	360.843 	285.006 	539.708 	
97.6669 	-0.00491886 	-0.716455 	0.451855 	0.579409 	0.00838699 	-3.1279 	90.0955 	117.849 	-0.617578 	254.641 	360.843 	285.009 	539.708 	
97.7747 	-0.00485694 	-0.716207 	0.445716 	0.596861 	0.00854242 	-3.12779 	90.0954 	117.849 	-0.617578 	255.759 	360.843 	285.011 	539.708 	
97.8767 	-0.00479548 	-0.715852 	0.439583 	0.614314 	0.00869976 	-3.12768 	90.0954 	117.848 	-0.617578 	256.754 	360.843 	285.014 	539.708 	
97.979 	-0.00473451 	-0.71539 	0.433456 	0.631766 	0.00885898 	-3.12758 	90.0954 	117.849 	-0.617676 	257.761 	360.843 	285.016 	539.708 	
98.0817 	-0.00467405 	-0.714821 	0.427339 	0.649218 	0.00902002 	-3.12747 	90.0954 	117.848 	-0.617578 	258.863 	360.843 	285.018 	539.708 	
98.1849 	-0.00461411 	-0.714146 	0.421232 	0.666671 	0.00918283 	-3.12737 	90.0955 	117.849 	-0.617578 	259.852 	360.843 	285.024 	539.708 	
98.2881 	-0.00455471 	-0.713363 	0.415138 	0.684123 	0.00934736 	-3.12728 	90.0954 	117.849 	-0.617481 	260.852 	360.843 	285.036 	539.708 	
98.3906 	-0.00449588 	-0.712475 	0.409059 	0.701575 	0.00951357 	-3.12718 	90.0954 	117.849 	-0.617676 	261.863 	360.843 	285.041 	539.708 	
98.4927 	-0.00443762 	-0.711481 	0.402996 	0.719028 	0.0096814 	-3.12709 	90.0955 	117.848 	-0.617578 	262.975 	360.843 	285.046 	539.708 	
98.5949 	-0.00437996 	-0.710381 	0.396952 	0.73648 	0.00985079 	-3.127 	90.0954 	117.848 	-0.617676 	263.975 	360.843 	285.055 	539.708 	
98.698 	-0.00432292 	-0.709175 	0.390927 	0.753933 	0.0100217 	-3.12692 	90.0953 	117.848 	-0.617676 	264.976 	360.843 	285.063 	539.708 	
98.801 	-0.0042665 	-0.707865 	0.384925 	0.771385 	0.0101941 	-3.12683 	90.0954 	117.848 	-0.617773 	265.978 	360.843 	285.066 	539.708 	
98.904 	-0.00421074 	-0.70645 	0.378946 	0.788838 	0.0103679 	-3.12675 	90.0954 	117.848 	-0.617676 	267.078 	360.843 	285.067 	539.708 	
99.007 	-0.00415564 	-0.704931 	0.372993 	0.80629 	0.0105431 	-3.12668 	90.0953 	117.848 	-0.617871 	268.076 	360.843 	285.068 	539.708 	
99.11 	-0.00410122 	-0.703309 	0.367067 	0.823743 	0.0107195 	-3.1266 	90.0954 	117.847 	-0.617773 	269.083 	360.843 	285.07 	539.708 	
99.2127 	-0.0040475 	-0.701583 	0.36117 	0.841196 	0.0108973 	-3.12653 	90.0954 	117.846 	-0.617578 	270.185 	360.843 	285.072 	539.708 	
99.3157 	-0.00399449 	-0.699754 	0.355305 	0.858648 	0.0110762 	-3.12647 	90.0953 	117.846 	-0.617773 	271.193 	360.843 	285.073 	539.708 	
99.419 	-0.00394222 	-0.697824 	0.349472 	0.876101 	0.0112562 	-3.1264 	90.0954 	117.846 	-0.617773 	272.199 	360.843 	285.075 	539.708 	
99.5217 	-0.0038907 	-0.695791 	0.343674 	0.893553 	0.0114374 	-3.12634 	90.0954 	117.846 	-0.617578 	273.3 	360.843 	285.08 	539.708 	
99.6238 	-0.00383994 	-0.693658 	0.337912 	0.911006 	0.0116196 	-3.12628 	90.0954 	117.845 	-0.617871 	274.298 	360.843 	285.081 	539.708 	
99.7257 	-0.00378995 	-0.691425 	0.332189 	0.928459 	0.0118028 	-3.12623 	90.0954 	117.845 	-0.617676 	275.294 	360.843 	285.082 	539.708 	
99.8277 	-0.00374076 	-0.689092 	0.326505 	0.945911 	0.0119869 	-3.12618 	90.0953 	117.845 	-0.617871 	276.308 	360.843 	285.083 	539.708 	
99.9311 	-0.00369238 	-0.686661 	0.320863 	0.963364 	0.0121719 	-3.12613 	90.0954 	117.845 	-0.617676 	277.315 	360.843 	285.085 	539.708 	
100.034 	-0.00364482 	-0.684131 	0.315264 	0.980817 	0.0123576 	-3.12608 	90.0954 	117.844 	-0.617773 	278.419 	360.843 	285.088 	539.708 	
100.14 	-0.0035981 	-0.681504 	0.30971 	0.99827 	0.0125442 	-3.12604 	90.0953 	117.843 	-0.617773 	279.422 	360.843 	285.09 	539.708 	
100.243 	-0.00355224 	-0.67878 	0.304202 	1.01572 	0.0127314 	-3.126 	90.0954 	117.84 	-0.617676 	280.53 	360.843 	285.091 	539.708 	
100.348 	-0.00350723 	-0.675961 	0.298743 	1.03318 	0.0129193 	-3.12597 	90.0954 	117.835 	-0.617871 	281.525 	360.843 	285.094 	539.708 	
100.452 	-0.00346311 	-0.673047 	0.293335 	1.05063 	0.0131078 	-3.12594 	90.0955 	117.833 	-0.617676 	282.628 	360.843 	285.101 	539.708 	
100.556 	-0.00337756 	-0.666937 	0.282674 	1.08553 	0.0134862 	-3.12588 	90.0953 	117.837 	-0.617871 	283.625 	360.843 	285.123 	539.708 	
100.659 	-0.00333616 	-0.663744 	0.277425 	1.10299 	0.0136761 	-3.12586 	90.0954 	117.835 	-0.617676 	284.637 	360.843 	285.129 	539.708 	
100.761 	-0.00329569 	-0.660459 	0.272232 	1.12044 	0.0138663 	-3.12584 	90.0954 	117.835 	-0.617773 	285.639 	360.843 	285.134 	539.708 	
100.863 	-0.00325616 	-0.657085 	0.267098 	1.13789 	0.0140569 	-3.12583 	90.0954 	117.835 	-0.617871 	286.736 	360.843 	285.138 	539.708 	
100.965 	-0.00321759 	-0.653621 	0.262023 	1.15535 	0.0142476 	-3.12582 	90.0955 	117.833 	-0.617578 	287.751 	360.843 	285.138 	539.708 	
101.068 	-0.00317999 	-0.650069 	0.25701 	1.1728 	0.0144386 	-3.12581 	90.0954 	117.832 	-0.617773 	288.756 	360.843 	285.139 	539.708 	
101.175 	-0.00314337 	-0.646431 	0.252059 	1.19025 	0.0146296 	-3.1258 	90.0955 	117.832 	-0.617383 	289.849 	360.843 	285.14 	539.708 	
101.277 	-0.00310774 	-0.642706 	0.247173 	1.20771 	0.0148207 	-3.1258 	90.0954 	117.831 	-0.617871 	290.858 	360.843 	285.141 	539.708 	
101.38 	-0.00307311 	-0.638897 	0.242352 	1.22516 	0.0150119 	-3.1258 	90.0952 	117.831 	-0.618164 	291.859 	360.843 	285.141 	539.708 	
101.483 	-0.00303949 	-0.635004 	0.237599 	1.24261 	0.015203 	-3.12581 	90.0953 	117.83 	-0.618066 	292.967 	360.843 	285.141 	539.708 	
101.586 	-0.0030069 	-0.631029 	0.232914 	1.26007 	0.0153939 	-3.12581 	90.0953 	117.83 	-0.617871 	293.97 	360.843 	285.142 	539.708 	
101.689 	-0.00297533 	-0.626973 	0.228299 	1.27752 	0.0155847 	-3.12583 	90.0953 	117.83 	-0.617871 	294.967 	360.843 	285.142 	539.708 	
101.792 	-0.00294481 	-0.622836 	0.223756 	1.29497 	0.0157753 	-3.12584 	90.0954 	117.828 	-0.617773 	296.084 	360.843 	285.142 	539.708 	
101.895 	-0.00291534 	-0.618621 	0.219286 	1.31243 	0.0159656 	-3.12586 	90.0953 	117.827 	-0.617871 	297.085 	360.843 	285.142 	539.708 	
101.998 	-0.00288693 	-0.614329 	0.21489 	1.32988 	0.0161555 	-3.12588 	90.0952 	117.827 	-0.617969 	298.081 	360.843 	285.143 	539.708 	
102.101 	-0.00285959 	-0.609961 	0.210569 	1.34733 	0.0163451 	-3.1259 	90.0953 	117.826 	-0.617969 	299.094 	360.843 	285.144 	539.708 	
102.204 	-0.00283333 	-0.605518 	0.206325 	1.36479 	0.0165342 	-3.12593 	90.0954 	117.822 	-0.617773 	300.202 	360.843 	285.144 	539.708 	
102.307 	-0.00280815 	-0.601001 	0.20216 	1.38224 	0.0167227 	-3.12596 	90.0956 	117.815 	-0.617676 	301.208 	360.843 	285.145 	539.708 	
102.41 	-0.00278407 	-0.596412 	0.198074 	1.3997 	0.0169107 	-3.126 	90.0953 	117.805 	-0.617676 	302.209 	360.843 	285.151 	539.708 	
102.513 	-0.00276108 	-0.591753 	0.194069 	1.41715 	0.0170981 	-3.12604 	90.0954 	117.793 	-0.617773 	303.316 	360.843 	285.152 	539.708 	
102.616 	-0.0027392 	-0.587025 	0.190145 	1.4346 	0.0172848 	-3.12608 	90.0954 	117.794 	-0.617969 	304.313 	360.843 	285.155 	539.708 	
102.719 	-0.00271844 	-0.582229 	0.186305 	1.45206 	0.0174707 	-3.12612 	90.0949 	117.791 	-0.618262 	305.317 	360.843 	285.155 	539.708 	
102.821 	-0.00269879 	-0.577366 	0.182549 	1.46951 	0.0176558 	-3.12617 	90.0951 	117.794 	-0.617969 	306.328 	360.843 	285.158 	539.708 	
102.924 	-0.00268028 	-0.572439 	0.178879 	1.48697 	0.0178401 	-3.12622 	90.0953 	117.791 	-0.618066 	307.429 	360.843 	285.158 	539.708 	
103.027 	-0.00266289 	-0.567449 	0.175295 	1.50442 	0.0180234 	-3.12627 	90.0953 	117.79 	-0.617969 	308.429 	360.843 	285.158 	539.708 	
103.13 	-0.00264664 	-0.562396 	0.171798 	1.52187 	0.0182058 	-3.12633 	90.0955 	117.789 	-0.617481 	309.436 	360.843 	285.158 	539.708 	
103.233 	-0.00263154 	-0.557284 	0.168391 	1.53933 	0.0183872 	-3.12639 	90.0953 	117.789 	-0.617871 	310.529 	360.843 	285.159 	539.708 	
103.34 	-0.00261758 	-0.552112 	0.165073 	1.55678 	0.0185675 	-3.12645 	90.0952 	117.783 	-0.617969 	311.549 	360.843 	285.159 	539.708 	
103.443 	-0.00260477 	-0.546884 	0.161846 	1.57424 	0.0187466 	-3.12652 	90.0952 	117.78 	-0.617871 	312.549 	360.843 	285.159 	539.708 	
103.547 	-0.00259311 	-0.5416 	0.15871 	1.59169 	0.0189246 	-3.12659 	90.0952 	117.78 	-0.618164 	313.649 	360.843 	285.159 	539.708 	
103.653 	-0.00258262 	-0.536262 	0.155668 	1.60915 	0.0191013 	-3.12666 	90.0952 	117.78 	-0.618066 	314.761 	360.843 	285.159 	539.708 	
103.756 	-0.00257328 	-0.530872 	0.152719 	1.6266 	0.0192767 	-3.12674 	90.0952 	117.779 	-0.618164 	315.758 	360.843 	285.159 	539.708 	
103.781 	-0.00256511 	-0.525431 	0.149864 	1.64406 	0.0194507 	-3.12682 	90.0954 	117.78 	-0.617676 	315.975 	360.843 	285.159 	539.708 	
103.883 	-0.0025665 	-0.525528 	0.145982 	1.64861 	0.0194087 	-3.11841 	90.0953 	117.452 	-0.618066 	316.19 	360.843 	285.161 	539.595 	
103.986 	-0.00257177 	-0.52869 	0.139563 	1.6486 	0.0192358 	-3.10958 	90.0951 	116.541 	-0.617773 	315.452 	360.843 	285.162 	539.292 	
104.089 	-0.00257812 	-0.531738 	0.133089 	1.6486 	0.0190612 	-3.10948 	90.0954 	115.537 	-0.617773 	314.497 	360.843 	285.165 	539.265 	
104.192 	-0.00258554 	-0.534674 	0.126563 	1.6486 	0.0188848 	-3.10938 	90.0954 	114.432 	-0.617383 	313.411 	360.843 	285.169 	539.261 	
104.295 	-0.00259403 	-0.537494 	0.119987 	1.6486 	0.0187067 	-3.10929 	90.0954 	113.43 	-0.618066 	312.415 	360.843 	285.17 	539.257 	
104.397 	-0.0026036 	-0.5402 	0.113362 	1.64859 	0.0185271 	-3.1092 	90.0957 	112.476 	-0.617383 	311.408 	360.843 	285.172 	539.255 	
104.499 	-0.00261423 	-0.54279 	0.106692 	1.64859 	0.0183459 	-3.10911 	90.0952 	111.503 	-0.618066 	310.41 	360.843 	285.173 	539.253 	
104.602 	-0.00262593 	-0.545263 	0.0999772 	1.64859 	0.0181632 	-3.10902 	90.0953 	110.362 	-0.617285 	309.309 	360.843 	285.173 	539.251 	
104.705 	-0.00263869 	-0.547618 	0.0932202 	1.64859 	0.017979 	-3.10894 	90.0953 	109.398 	-0.617871 	308.315 	360.843 	285.173 	539.25 	
104.808 	-0.00265251 	-0.549855 	0.0864231 	1.64859 	0.0177935 	-3.10887 	90.0952 	108.397 	-0.618066 	307.31 	360.843 	285.173 	539.248 	
104.91 	-0.00266738 	-0.551973 	0.0795882 	1.64859 	0.0176067 	-3.10879 	90.0944 	107.421 	-0.618066 	306.31 	360.843 	285.174 	539.247 	
105.013 	-0.0026833 	-0.553972 	0.0727173 	1.64858 	0.0174186 	-3.10872 	90.094 	106.317 	-0.618457 	305.206 	360.843 	285.174 	539.246 	
105.115 	-0.00270026 	-0.55585 	0.0658127 	1.64858 	0.0172293 	-3.10865 	90.0951 	105.317 	-0.618066 	304.211 	360.843 	285.174 	539.244 	
105.22 	-0.00271826 	-0.557607 	0.0588761 	1.64858 	0.0170388 	-3.10859 	90.0953 	104.308 	-0.618262 	303.21 	360.843 	285.174 	539.243 	
105.322 	-0.00273729 	-0.559244 	0.0519101 	1.64858 	0.0168473 	-3.10853 	90.0952 	103.182 	-0.617969 	302.109 	360.843 	285.174 	539.241 	
105.425 	-0.00275735 	-0.560758 	0.0449165 	1.64858 	0.0166547 	-3.10847 	90.0948 	102.19 	-0.618457 	301.1 	360.843 	285.174 	539.238 	
105.528 	-0.00277844 	-0.56215 	0.0378976 	1.64858 	0.0164611 	-3.10842 	90.0951 	101.172 	-0.618066 	300.109 	360.843 	285.174 	539.235 	
105.631 	-0.00280053 	-0.563419 	0.0308554 	1.64858 	0.0162666 	-3.10836 	90.0951 	100.1 	-0.617969 	299.111 	360.843 	285.174 	539.232 	
105.734 	-0.00282364 	-0.564565 	0.0237921 	1.64858 	0.0160712 	-3.10832 	90.0956 	99.1356 	-0.617969 	298.007 	360.843 	285.175 	539.228 	
105.841 	-0.00284774 	-0.565588 	0.01671 	1.64857 	0.0158751 	-3.10827 	90.0956 	98.0366 	-0.617481 	297.012 	360.843 	285.175 	539.224 	
105.944 	-0.00287284 	-0.566487 	0.00961107 	1.64857 	0.0156782 	-3.10823 	90.0953 	97.0464 	-0.617578 	295.903 	360.843 	285.175 	539.221 	
106.048 	-0.00289893 	-0.567262 	0.00249753 	1.64857 	0.0154806 	-3.1082 	90.0953 	96.0283 	-0.617871 	294.9 	360.843 	285.175 	539.22 	
106.151 	-0.00292599 	-0.567912 	-0.00462846 	1.64857 	0.0152824 	-3.10816 	90.0951 	94.9487 	-0.618066 	293.906 	360.843 	285.175 	539.219 	
106.257 	-0.00295402 	-0.568439 	-0.0117646 	1.64857 	0.0150837 	-3.10813 	90.095 	93.9266 	-0.618164 	292.809 	360.843 	285.175 	539.218 	
106.359 	-0.00301296 	-0.569117 	-0.0260593 	1.64857 	0.0146847 	-3.10808 	90.095 	92.9363 	-0.618555 	291.802 	360.843 	285.175 	539.217 	
106.461 	-0.00304385 	-0.569269 	-0.0332133 	1.64857 	0.0144847 	-3.10806 	90.095 	91.8335 	-0.618262 	290.807 	360.843 	285.175 	539.217 	
106.562 	-0.00307568 	-0.569296 	-0.0403689 	1.64857 	0.0142843 	-3.10804 	90.0952 	90.8426 	-0.617969 	289.715 	360.843 	285.176 	539.216 	
106.664 	-0.00310843 	-0.569198 	-0.0475238 	1.64857 	0.0140837 	-3.10803 	90.0953 	89.8318 	-0.618066 	288.711 	360.843 	285.176 	539.216 	
106.766 	-0.00314209 	-0.568975 	-0.0546761 	1.64857 	0.0138828 	-3.10802 	90.0949 	88.8181 	-0.617969 	287.708 	360.843 	285.176 	539.216 	
106.875 	-0.00317665 	-0.568628 	-0.0618232 	1.64857 	0.0136819 	-3.10802 	90.0953 	87.7475 	-0.617773 	286.614 	360.843 	285.176 	539.215 	
106.976 	-0.00321211 	-0.568156 	-0.0689632 	1.64857 	0.0134808 	-3.10801 	90.0952 	86.7149 	-0.618164 	285.606 	360.843 	285.176 	539.215 	
107.079 	-0.00324845 	-0.567559 	-0.0760939 	1.64857 	0.0132798 	-3.10802 	90.0949 	85.6938 	-0.617871 	284.612 	360.843 	285.176 	539.215 	
107.181 	-0.00328567 	-0.566838 	-0.0832131 	1.64857 	0.0130788 	-3.10802 	90.0949 	84.6305 	-0.618262 	283.514 	360.843 	285.176 	539.215 	
107.284 	-0.00332374 	-0.565993 	-0.0903187 	1.64857 	0.0128779 	-3.10803 	90.095 	83.6492 	-0.618164 	282.501 	360.843 	285.176 	539.215 	
107.385 	-0.00336266 	-0.565024 	-0.0974084 	1.64857 	0.0126772 	-3.10804 	90.0951 	82.6583 	-0.617871 	281.507 	360.843 	285.176 	539.214 	
107.488 	-0.00340242 	-0.563931 	-0.10448 	1.64857 	0.0124767 	-3.10805 	90.0951 	81.6274 	-0.618066 	280.507 	360.843 	285.176 	539.214 	
107.591 	-0.003443 	-0.562715 	-0.111532 	1.64857 	0.0122765 	-3.10807 	90.0951 	80.5523 	-0.618262 	279.509 	360.843 	285.176 	539.214 	
107.694 	-0.0034844 	-0.561376 	-0.118561 	1.64857 	0.0120767 	-3.1081 	90.0951 	79.5279 	-0.618555 	278.407 	360.843 	285.176 	539.214 	
107.797 	-0.00352659 	-0.559915 	-0.125566 	1.64857 	0.0118773 	-3.10812 	90.0953 	78.5365 	-0.618066 	277.402 	360.843 	285.176 	539.213 	
107.9 	-0.00356958 	-0.558332 	-0.132544 	1.64857 	0.0116783 	-3.10815 	90.0952 	77.5081 	-0.618164 	276.407 	360.843 	285.176 	539.213 	
108.002 	-0.00361333 	-0.556627 	-0.139493 	1.64857 	0.0114799 	-3.10818 	90.0951 	76.4159 	-0.618066 	275.306 	360.843 	285.176 	539.213 	
108.105 	-0.00365785 	-0.554801 	-0.146412 	1.64857 	0.0112821 	-3.10822 	90.0953 	75.3691 	-0.617773 	274.309 	360.843 	285.176 	539.213 	
108.208 	-0.00370311 	-0.552854 	-0.153298 	1.64857 	0.011085 	-3.10826 	90.0953 	74.4195 	-0.617871 	273.294 	360.843 	285.176 	539.213 	
108.31 	-0.00374911 	-0.550788 	-0.160149 	1.64857 	0.0108886 	-3.1083 	90.0954 	73.3327 	-0.617578 	272.304 	360.843 	285.176 	539.213 	
108.413 	-0.00379582 	-0.548602 	-0.166962 	1.64857 	0.0106929 	-3.10835 	90.0952 	72.3486 	-0.617969 	271.204 	360.843 	285.179 	539.213 	
108.516 	-0.00384324 	-0.546298 	-0.173737 	1.64857 	0.0104981 	-3.1084 	90.0951 	71.3562 	-0.618262 	270.194 	360.843 	285.189 	539.212 	
108.617 	-0.00388897 	-0.543657 	-0.180581 	1.64927 	0.010312 	-3.10845 	90.0954 	70.2744 	-0.617969 	269.331 	360.843 	285.189 	539.212 	
108.72 	-0.00390283 	-0.537931 	-0.188866 	1.65939 	0.0102321 	-3.10846 	90.0954 	69.3155 	-0.618066 	268.971 	360.843 	285.19 	539.211 	
108.823 	-0.0038914 	-0.529745 	-0.198183 	1.67685 	0.0102344 	-3.10843 	90.0953 	68.1878 	-0.618262 	268.905 	360.843 	285.192 	539.211 	
108.926 	-0.00387975 	-0.521398 	-0.207356 	1.6943 	0.0102372 	-3.10841 	90.0954 	67.1326 	-0.618262 	268.898 	360.843 	285.192 	539.211 	
109.029 	-0.00386787 	-0.512891 	-0.216382 	1.71175 	0.0102404 	-3.10838 	90.0952 	66.141 	-0.618066 	268.886 	360.843 	285.194 	539.211 	
109.132 	-0.00385577 	-0.504229 	-0.225259 	1.72921 	0.0102441 	-3.10836 	90.095 	65.0566 	-0.618262 	268.879 	360.843 	285.198 	539.21 	
109.241 	-0.00384346 	-0.495413 	-0.233982 	1.74666 	0.0102481 	-3.10834 	90.0949 	64.0003 	-0.618457 	268.878 	360.843 	285.199 	539.21 	
