RISC-NYUAD/HeavyPayloadDrone/projects/kinova-ros/devel/lib/ne_kinova_demo/VulcanTrajectory/Vulcan1_Vicon_y19m11d13h18min55.csv
time (NSec) 	Kinova Tip Position (t_x) 	t_y 	t_z 	Kinova Tip Angle (theta_x) 	Kinova Tip Angle (theta_y) 	Kinova Tip Angle (theta_z) 	Kinova Joint Angle (j1) 	(j2) 	(j3) 	(j4) 	Kinova Joint Angle (j5) 	(j6) 	(j7)
1.75767 	-0.00382885 	-0.485827 	-0.243207 	1.76559 	0.0102576 	-3.10796 	90.1569 	62.3618 	-0.591113 	268.847 	360.634 	284.635 	539.161 	
1.78212 	-0.00382885 	-0.485827 	-0.243207 	1.76559 	0.0102576 	-3.10796 	90.1569 	62.3619 	-0.591113 	268.847 	360.634 	284.635 	539.161 	
1.88749 	-0.00382262 	-0.486646 	-0.241981 	1.76491 	0.0102848 	-3.11215 	90.1569 	62.4339 	-0.591113 	268.937 	360.634 	284.635 	539.187 	
1.98945 	-0.00379894 	-0.488267 	-0.238791 	1.76491 	0.0103815 	-3.12084 	90.1569 	62.7762 	-0.591113 	269.322 	360.634 	284.635 	539.547 	
2.09163 	-0.00377542 	-0.48986 	-0.235587 	1.76491 	0.0104784 	-3.12536 	90.1569 	63.2329 	-0.591113 	269.799 	360.634 	284.635 	539.741 	
2.1934 	-0.00375208 	-0.491426 	-0.232368 	1.7649 	0.0105756 	-3.12533 	90.157 	63.7924 	-0.591016 	270.346 	360.634 	284.635 	539.776 	
2.29547 	-0.00372892 	-0.492963 	-0.229136 	1.7649 	0.010673 	-3.12531 	90.1568 	64.2783 	-0.591113 	270.849 	360.634 	284.635 	539.786 	
2.39754 	-0.00370593 	-0.494471 	-0.225891 	1.7649 	0.0107706 	-3.12528 	90.1566 	64.7938 	-0.591113 	271.347 	360.634 	284.635 	539.788 	
2.49953 	-0.00368313 	-0.495952 	-0.222632 	1.76489 	0.0108684 	-3.12526 	90.1567 	65.266 	-0.591113 	271.846 	360.634 	284.635 	539.79 	
2.60133 	-0.0036605 	-0.497404 	-0.219361 	1.76489 	0.0109664 	-3.12524 	90.1567 	65.7863 	-0.591113 	272.345 	360.634 	284.635 	539.79 	
2.70363 	-0.00363805 	-0.498827 	-0.216077 	1.76489 	0.0110646 	-3.12522 	90.1567 	66.3199 	-0.591113 	272.893 	360.634 	284.635 	539.791 	
2.80551 	-0.0036158 	-0.500222 	-0.212781 	1.76488 	0.0111629 	-3.1252 	90.1566 	66.8321 	-0.591113 	273.397 	360.634 	284.635 	539.791 	
2.90769 	-0.00359372 	-0.501588 	-0.209473 	1.76488 	0.0112615 	-3.12518 	90.1567 	67.3197 	-0.591113 	273.897 	360.634 	284.635 	539.792 	
3.00965 	-0.00357183 	-0.502925 	-0.206154 	1.76488 	0.0113602 	-3.12516 	90.1567 	67.8181 	-0.591113 	274.397 	360.634 	284.635 	539.792 	
3.11173 	-0.00355013 	-0.504233 	-0.202822 	1.76487 	0.0114591 	-3.12514 	90.1567 	68.3277 	-0.591113 	274.896 	360.634 	284.635 	539.792 	
3.21355 	-0.00352863 	-0.505511 	-0.19948 	1.76487 	0.0115581 	-3.12512 	90.1566 	68.8609 	-0.591113 	275.448 	360.634 	284.635 	539.792 	
3.31547 	-0.00350731 	-0.506761 	-0.196126 	1.76486 	0.0116573 	-3.12511 	90.1567 	69.375 	-0.591113 	275.943 	360.634 	284.635 	539.792 	
3.41761 	-0.00348619 	-0.507981 	-0.192761 	1.76486 	0.0117566 	-3.12509 	90.1567 	69.8512 	-0.591113 	276.448 	360.634 	284.635 	539.793 	
3.51995 	-0.00346527 	-0.509172 	-0.189387 	1.76486 	0.011856 	-3.12508 	90.1566 	70.3746 	-0.591113 	276.944 	360.634 	284.635 	539.793 	
3.62768 	-0.00344454 	-0.510334 	-0.186001 	1.76485 	0.0119556 	-3.12506 	90.1566 	70.8987 	-0.591113 	277.499 	360.634 	284.635 	539.793 	
3.73075 	-0.00342401 	-0.511465 	-0.182606 	1.76485 	0.0120553 	-3.12505 	90.1568 	71.3699 	-0.591113 	277.942 	360.634 	284.635 	539.793 	
3.83456 	-0.00340368 	-0.512567 	-0.179201 	1.76485 	0.0121551 	-3.12504 	90.1568 	71.9443 	-0.591113 	278.546 	360.634 	284.635 	539.793 	
3.93864 	-0.00336363 	-0.514682 	-0.172363 	1.76484 	0.0123549 	-3.12502 	90.1567 	72.4591 	-0.591113 	279.041 	360.634 	284.635 	539.793 	
4.04254 	-0.00334391 	-0.515695 	-0.168931 	1.76484 	0.012455 	-3.12501 	90.1567 	72.9925 	-0.591113 	279.596 	360.634 	284.635 	539.793 	
4.14458 	-0.0033244 	-0.516677 	-0.165489 	1.76483 	0.0125551 	-3.125 	90.1567 	73.5057 	-0.591113 	280.093 	360.634 	284.635 	539.793 	
4.24664 	-0.00330509 	-0.51763 	-0.16204 	1.76483 	0.0126554 	-3.12499 	90.1567 	74.0002 	-0.591113 	280.597 	360.634 	284.635 	539.793 	
4.34856 	-0.003286 	-0.518552 	-0.158582 	1.76483 	0.0127556 	-3.12498 	90.1567 	74.4866 	-0.591113 	281.092 	360.634 	284.635 	539.793 	
4.45056 	-0.00326711 	-0.519444 	-0.155116 	1.76482 	0.012856 	-3.12498 	90.1566 	75.0046 	-0.591113 	281.59 	360.634 	284.635 	539.793 	
4.5525 	-0.00324844 	-0.520306 	-0.151642 	1.76482 	0.0129563 	-3.12497 	90.1567 	75.5379 	-0.591113 	282.146 	360.634 	284.635 	539.793 	
4.65457 	-0.00322999 	-0.521138 	-0.148162 	1.76482 	0.0130568 	-3.12497 	90.1567 	76.0589 	-0.591113 	282.643 	360.634 	284.635 	539.793 	
4.75654 	-0.00321174 	-0.521939 	-0.144674 	1.76481 	0.0131572 	-3.12497 	90.1566 	76.5261 	-0.591113 	283.142 	360.634 	284.635 	539.794 	
4.85853 	-0.00319371 	-0.522709 	-0.141179 	1.76481 	0.0132577 	-3.12496 	90.1566 	77.0517 	-0.591113 	283.638 	360.634 	284.635 	539.794 	
4.96046 	-0.00317591 	-0.52345 	-0.137678 	1.76481 	0.0133582 	-3.12496 	90.1566 	77.5276 	-0.591113 	284.148 	360.634 	284.635 	539.794 	
5.06255 	-0.00315832 	-0.524159 	-0.13417 	1.7648 	0.0134587 	-3.12496 	90.1567 	78.0971 	-0.591113 	284.695 	360.634 	284.635 	539.794 	
5.16454 	-0.00314095 	-0.524838 	-0.130656 	1.7648 	0.0135591 	-3.12496 	90.1567 	78.5784 	-0.591113 	285.192 	360.634 	284.635 	539.794 	
5.26695 	-0.0031238 	-0.525486 	-0.127137 	1.7648 	0.0136596 	-3.12496 	90.1566 	79.0815 	-0.591113 	285.691 	360.634 	284.635 	539.794 	
5.37012 	-0.00310688 	-0.526104 	-0.123612 	1.76479 	0.0137601 	-3.12497 	90.1566 	79.5857 	-0.591113 	286.196 	360.634 	284.635 	539.794 	
5.47307 	-0.00309018 	-0.526691 	-0.120081 	1.76479 	0.0138606 	-3.12497 	90.1566 	80.1278 	-0.591113 	286.741 	360.634 	284.635 	539.794 	
5.57605 	-0.00307371 	-0.527246 	-0.116546 	1.76479 	0.013961 	-3.12497 	90.1567 	80.6422 	-0.591113 	287.244 	360.634 	284.635 	539.794 	
5.67916 	-0.00305746 	-0.527771 	-0.113006 	1.76479 	0.0140614 	-3.12498 	90.1567 	81.1192 	-0.591113 	287.746 	360.634 	284.635 	539.794 	
5.78236 	-0.00304144 	-0.528266 	-0.109462 	1.76478 	0.0141617 	-3.12498 	90.1566 	81.6372 	-0.591113 	288.243 	360.634 	284.635 	539.794 	
5.88817 	-0.00302565 	-0.528729 	-0.105913 	1.76478 	0.014262 	-3.12499 	90.1566 	82.166 	-0.591113 	288.796 	360.634 	284.635 	539.794 	
5.99146 	-0.00301009 	-0.529161 	-0.102361 	1.76478 	0.0143622 	-3.125 	90.1567 	82.6917 	-0.591113 	289.291 	360.634 	284.635 	539.794 	
6.09418 	-0.00299477 	-0.529562 	-0.0988045 	1.76477 	0.0144624 	-3.12501 	90.1567 	83.2116 	-0.591113 	289.844 	360.634 	284.635 	539.794 	
6.19709 	-0.00297967 	-0.529932 	-0.0952451 	1.76477 	0.0145625 	-3.12501 	90.1567 	83.7325 	-0.591113 	290.338 	360.634 	284.635 	539.794 	
6.29993 	-0.00296482 	-0.530271 	-0.0916826 	1.76477 	0.0146625 	-3.12502 	90.1566 	84.2179 	-0.591113 	290.843 	360.634 	284.635 	539.794 	
6.40344 	-0.00295019 	-0.530579 	-0.0881171 	1.76476 	0.0147624 	-3.12504 	90.1566 	84.7802 	-0.591113 	291.391 	360.634 	284.635 	539.794 	
6.50632 	-0.00293438 	-0.530882 	-0.0841924 	1.76476 	0.0148721 	-3.12505 	90.1566 	85.2705 	-0.591113 	291.889 	360.634 	284.635 	539.794 	
6.60832 	-0.00292025 	-0.531124 	-0.080622 	1.76476 	0.0149718 	-3.12506 	90.1567 	85.7688 	-0.591113 	292.39 	360.634 	284.635 	539.794 	
6.71132 	-0.00290774 	-0.531316 	-0.077407 	1.76475 	0.0150615 	-3.12507 	90.1567 	86.2794 	-0.591113 	292.89 	360.634 	284.635 	539.794 	
6.81456 	-0.00289272 	-0.531516 	-0.0734756 	1.76475 	0.0151709 	-3.12509 	90.1567 	86.8209 	-0.591113 	293.439 	360.634 	284.635 	539.794 	
6.91748 	-0.00287931 	-0.531665 	-0.0699001 	1.76475 	0.0152702 	-3.1251 	90.1566 	87.3308 	-0.591113 	293.941 	360.634 	284.635 	539.794 	
7.02041 	-0.00286745 	-0.531772 	-0.0666812 	1.76474 	0.0153595 	-3.12512 	90.1566 	87.8083 	-0.591113 	294.444 	360.634 	284.635 	539.794 	
7.13128 	-0.00285451 	-0.531862 	-0.0631038 	1.76474 	0.0154585 	-3.12514 	90.1567 	88.3803 	-0.591113 	294.99 	360.634 	284.635 	539.794 	
7.23414 	-0.00284181 	-0.53192 	-0.0595257 	1.76474 	0.0155575 	-3.12515 	90.1567 	88.9126 	-0.591113 	295.544 	360.634 	284.635 	539.794 	
7.33694 	-0.00282811 	-0.531948 	-0.0555895 	1.76474 	0.0156661 	-3.12517 	90.1567 	89.4337 	-0.591113 	296.038 	360.634 	284.635 	539.794 	
7.44124 	-0.00281593 	-0.531941 	-0.052011 	1.76473 	0.0157646 	-3.12519 	90.1566 	89.9072 	-0.591113 	296.542 	360.634 	284.635 	539.794 	
7.54516 	-0.00280517 	-0.531908 	-0.0487905 	1.76473 	0.0158532 	-3.12521 	90.1566 	90.4766 	-0.591113 	297.091 	360.634 	284.635 	539.794 	
7.64772 	-0.00278198 	-0.531744 	-0.0416354 	1.76472 	0.0160495 	-3.12526 	90.1566 	90.9631 	-0.591113 	297.597 	360.634 	284.635 	539.794 	
7.75016 	-0.00277076 	-0.531615 	-0.0380592 	1.76472 	0.0161473 	-3.12528 	90.1566 	91.4756 	-0.591113 	298.09 	360.634 	284.635 	539.794 	
7.85284 	-0.00275979 	-0.531455 	-0.0344843 	1.76472 	0.0162449 	-3.1253 	90.1566 	92.0188 	-0.591113 	298.643 	360.634 	284.635 	539.794 	
7.95613 	-0.00274907 	-0.531264 	-0.0309109 	1.76472 	0.0163424 	-3.12533 	90.1566 	92.5194 	-0.591113 	299.14 	360.634 	284.635 	539.794 	
8.05925 	-0.0027386 	-0.531042 	-0.0273394 	1.76471 	0.0164396 	-3.12535 	90.1566 	93.0187 	-0.591113 	299.64 	360.634 	284.635 	539.794 	
8.16222 	-0.00272838 	-0.530788 	-0.02377 	1.76471 	0.0165366 	-3.12538 	90.1566 	93.5224 	-0.591113 	300.141 	360.634 	284.635 	539.794 	
8.26506 	-0.00271842 	-0.530503 	-0.0202029 	1.76471 	0.0166333 	-3.12541 	90.1566 	94.078 	-0.591113 	300.692 	360.634 	284.635 	539.794 	
8.36822 	-0.00270871 	-0.530187 	-0.0166384 	1.7647 	0.0167298 	-3.12543 	90.1566 	94.5654 	-0.591113 	301.188 	360.634 	284.635 	539.794 	
8.47113 	-0.00269926 	-0.52984 	-0.0130769 	1.7647 	0.0168261 	-3.12546 	90.1566 	95.0802 	-0.591113 	301.689 	360.634 	284.635 	539.794 	
8.57447 	-0.00269006 	-0.529462 	-0.00951851 	1.7647 	0.0169221 	-3.12549 	90.1566 	95.6174 	-0.591113 	302.242 	360.634 	284.635 	539.794 	
8.67703 	-0.00268112 	-0.529053 	-0.00596354 	1.7647 	0.0170178 	-3.12552 	90.1566 	96.1355 	-0.591113 	302.741 	360.634 	284.635 	539.794 	
8.78044 	-0.00267244 	-0.528613 	-0.00241225 	1.76469 	0.0171133 	-3.12555 	90.1567 	96.6163 	-0.591113 	303.239 	360.634 	284.635 	539.794 	
8.88836 	-0.00266401 	-0.528142 	0.00113498 	1.76469 	0.0172085 	-3.12559 	90.1567 	97.1806 	-0.591113 	303.787 	360.634 	284.635 	539.794 	
8.99141 	-0.00265584 	-0.52764 	0.00467798 	1.76469 	0.0173034 	-3.12562 	90.1566 	97.6703 	-0.591113 	304.291 	360.634 	284.635 	539.794 	
9.09404 	-0.00264793 	-0.527107 	0.0082164 	1.76469 	0.017398 	-3.12565 	90.1566 	98.2331 	-0.591113 	304.834 	360.634 	284.635 	539.794 	
9.19722 	-0.00264028 	-0.526543 	0.01175 	1.76468 	0.0174923 	-3.12569 	90.1566 	98.7266 	-0.591113 	305.339 	360.634 	284.635 	539.794 	
9.30044 	-0.00263289 	-0.525949 	0.0152787 	1.76468 	0.0175863 	-3.12572 	90.1566 	99.2229 	-0.591113 	305.838 	360.634 	284.635 	539.794 	
9.40337 	-0.00262576 	-0.525324 	0.018802 	1.76468 	0.01768 	-3.12576 	90.1566 	99.7788 	-0.591113 	306.337 	360.634 	284.635 	539.794 	
9.50655 	-0.00261822 	-0.5246 	0.0226711 	1.76468 	0.0177827 	-3.1258 	90.1566 	100.28 	-0.591113 	306.889 	360.634 	284.635 	539.794 	
9.60943 	-0.00261228 	-0.523981 	0.0258314 	1.76467 	0.0178665 	-3.12584 	90.1566 	100.788 	-0.591113 	307.386 	360.634 	284.635 	539.794 	
9.7125 	-0.00260594 	-0.523264 	0.0293371 	1.76467 	0.0179592 	-3.12587 	90.1566 	101.278 	-0.591113 	307.887 	360.634 	284.635 	539.794 	
9.81537 	-0.00259985 	-0.522516 	0.0328364 	1.76467 	0.0180516 	-3.12591 	90.1566 	101.84 	-0.591113 	308.435 	360.634 	284.635 	539.794 	
9.91868 	-0.00259404 	-0.521737 	0.0363289 	1.76467 	0.0181436 	-3.12595 	90.1566 	102.326 	-0.591113 	308.937 	360.634 	284.635 	539.794 	
10.0221 	-0.00258794 	-0.520846 	0.0401627 	1.76466 	0.0182444 	-3.126 	90.1567 	102.845 	-0.591113 	309.435 	360.634 	284.635 	539.794 	
10.1255 	-0.00258267 	-0.520004 	0.0436405 	1.76466 	0.0183357 	-3.12604 	90.1567 	103.382 	-0.591113 	309.988 	360.634 	284.635 	539.794 	
10.2286 	-0.00257767 	-0.519131 	0.0471107 	1.76466 	0.0184266 	-3.12608 	90.1567 	103.892 	-0.591113 	310.488 	360.634 	284.635 	539.794 	
10.3313 	-0.00257293 	-0.518228 	0.0505732 	1.76466 	0.0185171 	-3.12613 	90.1566 	104.384 	-0.591113 	310.994 	360.634 	284.635 	539.794 	
10.4342 	-0.0025689 	-0.51739 	0.0536825 	1.76465 	0.0185982 	-3.12617 	90.1566 	104.947 	-0.591113 	311.533 	360.634 	284.635 	539.794 	
10.5372 	-0.00256426 	-0.516332 	0.0574738 	1.76465 	0.018697 	-3.12622 	90.1566 	105.445 	-0.591113 	312.038 	360.634 	284.635 	539.794 	
10.6399 	-0.00256032 	-0.515339 	0.0609114 	1.76465 	0.0187863 	-3.12626 	90.1567 	105.939 	-0.591113 	312.538 	360.634 	284.635 	539.794 	
10.7427 	-0.002557 	-0.514419 	0.0639978 	1.76465 	0.0188664 	-3.12631 	90.1566 	106.499 	-0.591113 	313.039 	360.634 	284.635 	539.794 	
10.8469 	-0.0025504 	-0.51229 	0.0708297 	1.76464 	0.0190431 	-3.1264 	90.1566 	107.002 	-0.591113 	313.585 	360.634 	284.635 	539.794 	
10.9506 	-0.0025475 	-0.51118 	0.0742316 	1.76464 	0.0191308 	-3.12645 	90.1566 	107.505 	-0.591113 	314.088 	360.634 	284.635 	539.794 	
11.0531 	-0.00254486 	-0.510041 	0.0776235 	1.76464 	0.0192181 	-3.1265 	90.1566 	108.047 	-0.591113 	314.589 	360.634 	284.635 	539.794 	
11.1562 	-0.0025425 	-0.508872 	0.0810054 	1.76463 	0.019305 	-3.12655 	90.1566 	108.56 	-0.591113 	315.134 	360.634 	284.635 	539.794 	
11.2593 	-0.0025404 	-0.507674 	0.084377 	1.76463 	0.0193914 	-3.1266 	90.1567 	109.051 	-0.591113 	315.641 	360.634 	284.635 	539.794 	
11.3624 	-0.0025384 	-0.506322 	0.0880734 	1.76463 	0.019486 	-3.12666 	90.1567 	109.564 	-0.591113 	316.133 	360.634 	284.635 	539.794 	
11.4653 	-0.002537 	-0.505189 	0.0910881 	1.76463 	0.0195629 	-3.12671 	90.1567 	110.107 	-0.591113 	316.686 	360.634 	284.635 	539.794 	
11.5684 	-0.00253571 	-0.503903 	0.0944271 	1.76463 	0.0196479 	-3.12676 	90.1567 	110.611 	-0.591113 	317.167 	360.634 	284.635 	539.794 	
11.6713 	-0.00253762 	-0.505234 	0.0987445 	1.7566 	0.0196526 	-3.12678 	90.1567 	111.107 	-0.591113 	317.306 	360.634 	284.635 	539.794 	
11.774 	-0.00253975 	-0.506758 	0.10316 	1.74787 	0.0196504 	-3.12679 	90.1567 	111.67 	-0.591113 	317.32 	360.634 	284.635 	539.794 	
11.8774 	-0.00254182 	-0.508242 	0.10759 	1.73914 	0.0196483 	-3.1268 	90.1567 	112.16 	-0.591113 	317.32 	360.634 	284.635 	539.794 	
11.9806 	-0.00254384 	-0.509688 	0.112031 	1.73042 	0.0196463 	-3.12681 	90.1566 	112.662 	-0.591113 	317.321 	360.634 	284.635 	539.794 	
12.0883 	-0.0025458 	-0.511096 	0.116486 	1.72169 	0.0196445 	-3.12682 	90.1567 	113.21 	-0.591113 	317.322 	360.634 	284.635 	539.794 	
12.1915 	-0.00254771 	-0.512464 	0.120952 	1.71296 	0.0196427 	-3.12684 	90.1567 	113.714 	-0.591113 	317.322 	360.634 	284.635 	539.794 	
12.2945 	-0.00254957 	-0.513793 	0.12543 	1.70424 	0.019641 	-3.12685 	90.1567 	114.265 	-0.591113 	317.324 	360.634 	284.635 	539.794 	
12.3974 	-0.00255137 	-0.515083 	0.12992 	1.69551 	0.0196394 	-3.12686 	90.1567 	114.761 	-0.591113 	317.325 	360.634 	284.635 	539.794 	
12.5008 	-0.00255312 	-0.516334 	0.134421 	1.68678 	0.019638 	-3.12687 	90.1567 	115.263 	-0.591113 	317.326 	360.634 	284.635 	539.794 	
12.5251 	-0.00255312 	-0.516334 	0.134421 	1.68678 	0.019638 	-3.12687 	90.1567 	115.414 	-0.591113 	317.327 	360.634 	284.635 	539.794 	
12.6298 	-0.00255366 	-0.517647 	0.138893 	1.67806 	0.019638 	-3.12689 	90.1567 	115.864 	-0.591113 	317.24 	360.634 	284.613 	539.794 	
12.7323 	-0.00252748 	-0.521289 	0.1424 	1.6695 	0.0196701 	-3.12703 	90.1567 	116.36 	-0.591113 	316.865 	360.634 	284.26 	539.794 	
12.8352 	-0.00250364 	-0.524485 	0.145135 	1.6627 	0.0196989 	-3.12716 	90.1567 	116.593 	-0.591113 	316.342 	360.634 	283.658 	539.794 	
12.9413 	-0.00247361 	-0.527376 	0.144439 	1.66217 	0.0197338 	-3.1273 	90.1566 	116.601 	-0.591113 	315.844 	360.634 	283.215 	539.794 	
13.0442 	-0.00242301 	-0.532273 	0.142826 	1.66218 	0.019791 	-3.12755 	90.1566 	116.602 	-0.591113 	315.291 	360.634 	282.687 	539.794 	
13.1469 	-0.00239711 	-0.534861 	0.142009 	1.66218 	0.0198195 	-3.12768 	90.1566 	116.602 	-0.591113 	314.799 	360.634 	282.109 	539.794 	
13.249 	-0.00237171 	-0.537456 	0.141215 	1.66218 	0.0198468 	-3.12781 	90.1566 	116.602 	-0.591113 	314.298 	360.634 	281.653 	539.795 	
13.3523 	-0.00234683 	-0.540057 	0.140444 	1.66218 	0.019873 	-3.12794 	90.1567 	116.603 	-0.591113 	313.799 	360.634 	281.193 	539.795 	
13.4552 	-0.00232245 	-0.542666 	0.139696 	1.66218 	0.019898 	-3.12807 	90.1567 	116.603 	-0.591113 	313.251 	360.634 	280.558 	539.795 	
13.5579 	-0.00229858 	-0.54528 	0.13897 	1.66218 	0.0199219 	-3.1282 	90.1567 	116.603 	-0.591113 	312.753 	360.634 	280.09 	539.795 	
13.6614 	-0.00227523 	-0.547901 	0.138267 	1.66218 	0.0199447 	-3.12834 	90.1567 	116.603 	-0.591113 	312.258 	360.634 	279.646 	539.795 	
13.7644 	-0.00225239 	-0.550528 	0.137587 	1.66218 	0.0199662 	-3.12847 	90.1566 	116.603 	-0.591113 	311.709 	360.634 	279.024 	539.795 	
13.8673 	-0.00223007 	-0.553161 	0.13693 	1.66218 	0.0199866 	-3.1286 	90.1567 	116.603 	-0.591113 	311.213 	360.634 	278.531 	539.795 	
13.9705 	-0.00220826 	-0.5558 	0.136296 	1.66218 	0.0200059 	-3.12873 	90.1566 	116.603 	-0.591113 	310.711 	360.634 	278.098 	539.795 	
14.0733 	-0.00218698 	-0.558444 	0.135685 	1.66218 	0.020024 	-3.12887 	90.1566 	116.603 	-0.591113 	310.218 	360.634 	277.538 	539.795 	
14.1763 	-0.00216622 	-0.561093 	0.135097 	1.66218 	0.020041 	-3.129 	90.1566 	116.603 	-0.591113 	309.667 	360.634 	276.968 	539.795 	
14.2797 	-0.00214598 	-0.563747 	0.134533 	1.66218 	0.0200568 	-3.12913 	90.1566 	116.603 	-0.591113 	309.169 	360.634 	276.542 	539.795 	
14.3831 	-0.00212627 	-0.566406 	0.133991 	1.66218 	0.0200714 	-3.12927 	90.1566 	116.603 	-0.591113 	308.667 	360.634 	276.004 	539.795 	
14.4884 	-0.00210708 	-0.56907 	0.133473 	1.66219 	0.0200849 	-3.1294 	90.1566 	116.603 	-0.591113 	308.123 	360.634 	275.415 	539.795 	
14.5913 	-0.00208843 	-0.571738 	0.132978 	1.66219 	0.0200971 	-3.12953 	90.1566 	116.603 	-0.591113 	307.628 	360.634 	274.978 	539.795 	
14.6945 	-0.0020703 	-0.57441 	0.132506 	1.66219 	0.0201083 	-3.12967 	90.1566 	116.603 	-0.591113 	307.076 	360.634 	274.396 	539.795 	
14.7973 	-0.0020527 	-0.577087 	0.132057 	1.66219 	0.0201183 	-3.1298 	90.1567 	116.603 	-0.591113 	306.582 	360.634 	273.853 	539.795 	
14.9005 	-0.00203563 	-0.579767 	0.131632 	1.66219 	0.0201271 	-3.12993 	90.1566 	116.603 	-0.591113 	306.08 	360.634 	273.417 	539.795 	
15.0033 	-0.00201748 	-0.582719 	0.131191 	1.66219 	0.0201354 	-3.13008 	90.1566 	116.603 	-0.591113 	305.583 	360.634 	272.932 	539.795 	
15.1065 	-0.0020031 	-0.585138 	0.130852 	1.66219 	0.0201412 	-3.1302 	90.1566 	116.603 	-0.591113 	305.033 	360.634 	272.303 	539.795 	
15.2094 	-0.00198612 	-0.588097 	0.130463 	1.66219 	0.0201469 	-3.13035 	90.1566 	116.603 	-0.591113 	304.536 	360.634 	271.863 	539.795 	
15.3128 	-0.00197271 	-0.590522 	0.130166 	1.66219 	0.0201506 	-3.13047 	90.1566 	116.603 	-0.591113 	304.038 	360.634 	271.38 	539.795 	
15.4155 	-0.00195692 	-0.593488 	0.129828 	1.66219 	0.0201538 	-3.13062 	90.1566 	116.603 	-0.591113 	303.493 	360.634 	270.748 	539.795 	
15.5186 	-0.00194448 	-0.595917 	0.129574 	1.6622 	0.0201554 	-3.13074 	90.1566 	116.603 	-0.591113 	302.994 	360.634 	270.299 	539.795 	
15.6219 	-0.00192987 	-0.598888 	0.129288 	1.6622 	0.020156 	-3.13088 	90.1566 	116.603 	-0.591113 	302.492 	360.634 	269.843 	539.795 	
15.7293 	-0.00191716 	-0.601591 	0.129053 	1.6622 	0.0201553 	-3.13102 	90.1566 	116.603 	-0.591113 	301.946 	360.634 	269.215 	539.795 	
15.8327 	-0.00190499 	-0.604297 	0.128842 	1.6622 	0.0201535 	-3.13115 	90.1566 	116.603 	-0.591113 	301.449 	360.634 	268.743 	539.795 	
15.936 	-0.0018945 	-0.606733 	0.128672 	1.6622 	0.0201509 	-3.13127 	90.1566 	116.603 	-0.591113 	300.906 	360.634 	268.249 	539.795 	
16.0413 	-0.00188228 	-0.609713 	0.12849 	1.6622 	0.0201463 	-3.13142 	90.1566 	116.603 	-0.591113 	300.405 	360.634 	267.667 	539.795 	
16.1461 	-0.00187277 	-0.612152 	0.128363 	1.6622 	0.0201416 	-3.13154 	90.1566 	116.602 	-0.591113 	299.854 	360.634 	267.134 	539.795 	
16.249 	-0.00185323 	-0.617575 	0.128148 	1.6622 	0.0201276 	-3.13181 	90.1566 	116.602 	-0.591113 	299.36 	360.634 	266.692 	539.795 	
16.3524 	-0.00184341 	-0.620559 	0.12807 	1.66221 	0.020118 	-3.13196 	90.1567 	116.602 	-0.591113 	298.86 	360.634 	266.14 	539.795 	
16.4552 	-0.00183587 	-0.623001 	0.128028 	1.66221 	0.020109 	-3.13208 	90.1567 	116.602 	-0.591113 	298.314 	360.634 	265.577 	539.795 	
16.5583 	-0.00182802 	-0.625715 	0.128004 	1.66221 	0.020098 	-3.13221 	90.1567 	116.602 	-0.591113 	297.813 	360.634 	265.14 	539.795 	
16.6613 	-0.00182071 	-0.628429 	0.128003 	1.66221 	0.0200858 	-3.13234 	90.1566 	116.602 	-0.591113 	297.317 	360.634 	264.591 	539.795 	
16.7644 	-0.00181395 	-0.631143 	0.128026 	1.66221 	0.0200724 	-3.13248 	90.1566 	116.602 	-0.591113 	296.767 	360.634 	264.01 	539.795 	
16.8673 	-0.00180775 	-0.633856 	0.128072 	1.66221 	0.0200579 	-3.13261 	90.1566 	116.602 	-0.591113 	296.275 	360.634 	263.58 	539.795 	
16.9704 	-0.00180209 	-0.636569 	0.128142 	1.66221 	0.0200421 	-3.13274 	90.1566 	116.602 	-0.591113 	295.771 	360.634 	263.057 	539.795 	
17.0735 	-0.00179699 	-0.639281 	0.128236 	1.66221 	0.0200253 	-3.13288 	90.1566 	116.602 	-0.591113 	295.272 	360.634 	262.504 	539.795 	
17.1764 	-0.00179243 	-0.641992 	0.128354 	1.66221 	0.0200073 	-3.13301 	90.1566 	116.602 	-0.591113 	294.726 	360.634 	262.03 	539.795 	
17.2796 	-0.00178843 	-0.644702 	0.128495 	1.66222 	0.0199881 	-3.13314 	90.1566 	116.602 	-0.591113 	294.226 	360.634 	261.516 	539.795 	
17.3828 	-0.00178498 	-0.647411 	0.12866 	1.66222 	0.0199677 	-3.13327 	90.1566 	116.602 	-0.591113 	293.733 	360.634 	260.95 	539.795 	
17.4885 	-0.00178209 	-0.650118 	0.128848 	1.66222 	0.0199462 	-3.13341 	90.1566 	116.602 	-0.591113 	293.182 	360.634 	260.471 	539.795 	
17.5916 	-0.00177974 	-0.652824 	0.12906 	1.66222 	0.0199236 	-3.13354 	90.1566 	116.602 	-0.591113 	292.685 	360.634 	259.981 	539.795 	
17.6945 	-0.00177795 	-0.655527 	0.129296 	1.66222 	0.0198998 	-3.13367 	90.1566 	116.602 	-0.591113 	292.137 	360.634 	259.357 	539.795 	
17.7973 	-0.00177671 	-0.658229 	0.129555 	1.66222 	0.0198748 	-3.1338 	90.1566 	116.602 	-0.591113 	291.641 	360.634 	258.908 	539.795 	
17.9006 	-0.00177603 	-0.660928 	0.129838 	1.66222 	0.0198487 	-3.13393 	90.1566 	116.602 	-0.591113 	291.145 	360.634 	258.435 	539.795 	
18.0035 	-0.0017759 	-0.663624 	0.130144 	1.66222 	0.0198215 	-3.13406 	90.1566 	116.602 	-0.591113 	290.642 	360.634 	257.857 	539.795 	
18.1067 	-0.00177632 	-0.666318 	0.130474 	1.66223 	0.0197931 	-3.13419 	90.1566 	116.602 	-0.591113 	290.096 	360.634 	257.344 	539.795 	
18.2094 	-0.0017773 	-0.669009 	0.130827 	1.66223 	0.0197636 	-3.13433 	90.1566 	116.602 	-0.591113 	289.597 	360.634 	256.895 	539.795 	
18.3124 	-0.00177882 	-0.671696 	0.131204 	1.66223 	0.0197329 	-3.13446 	90.1566 	116.602 	-0.591113 	289.099 	360.634 	256.328 	539.795 	
18.4157 	-0.0017809 	-0.674381 	0.131604 	1.66223 	0.0197011 	-3.13459 	90.1566 	116.602 	-0.591113 	288.555 	360.634 	255.79 	539.795 	
18.5186 	-0.00178353 	-0.677061 	0.132027 	1.66223 	0.0196682 	-3.13472 	90.1566 	116.602 	-0.591113 	288.054 	360.634 	255.337 	539.795 	
18.6219 	-0.00178671 	-0.679738 	0.132473 	1.66224 	0.0196341 	-3.13485 	90.1566 	116.602 	-0.591113 	287.558 	360.634 	254.774 	539.795 	
18.7298 	-0.00179045 	-0.68241 	0.132943 	1.66224 	0.019599 	-3.13498 	90.1566 	116.602 	-0.591113 	287.013 	360.634 	254.219 	539.795 	
18.8323 	-0.00179519 	-0.685346 	0.133486 	1.66224 	0.019559 	-3.13512 	90.1566 	116.602 	-0.591113 	286.511 	360.634 	253.787 	539.795 	
18.9376 	-0.00179957 	-0.687743 	0.133952 	1.66225 	0.0195252 	-3.13523 	90.1566 	116.602 	-0.591113 	285.962 	360.634 	253.19 	539.795 	
19.0415 	-0.00180553 	-0.690668 	0.134546 	1.66225 	0.0194827 	-3.13537 	90.1566 	116.602 	-0.591113 	285.467 	360.634 	252.66 	539.795 	
19.1445 	-0.0018109 	-0.693057 	0.135053 	1.66226 	0.019447 	-3.13549 	90.1566 	116.602 	-0.591113 	284.918 	360.634 	252.182 	539.795 	
19.2471 	-0.00182444 	-0.698351 	0.136248 	1.66226 	0.0193643 	-3.13574 	90.1566 	116.602 	-0.591113 	284.421 	360.634 	251.639 	539.795 	
19.3505 	-0.00183203 	-0.70099 	0.13688 	1.66227 	0.0193213 	-3.13587 	90.1566 	116.602 	-0.591113 	283.924 	360.634 	251.101 	539.795 	
19.4533 	-0.00184017 	-0.703624 	0.137534 	1.66227 	0.0192771 	-3.136 	90.1566 	116.602 	-0.591113 	283.422 	360.634 	250.679 	539.795 	
19.5566 	-0.00184886 	-0.706252 	0.138212 	1.66228 	0.0192319 	-3.13612 	90.1566 	116.602 	-0.591113 	282.88 	360.634 	250.119 	539.795 	
19.6595 	-0.0018581 	-0.708873 	0.138913 	1.66228 	0.0191856 	-3.13625 	90.1566 	116.602 	-0.591113 	282.379 	360.634 	249.561 	539.795 	
19.7623 	-0.00186788 	-0.711489 	0.139636 	1.66228 	0.0191382 	-3.13638 	90.1566 	116.602 	-0.591113 	281.878 	360.634 	249.12 	539.795 	
19.8655 	-0.00187821 	-0.714097 	0.140382 	1.66229 	0.0190897 	-3.1365 	90.1566 	116.602 	-0.591113 	281.335 	360.634 	248.561 	539.795 	
19.9685 	-0.00188909 	-0.7167 	0.141152 	1.66229 	0.0190401 	-3.13663 	90.1566 	116.602 	-0.591113 	280.834 	360.634 	248.001 	539.795 	
20.0715 	-0.00190051 	-0.719296 	0.141943 	1.66229 	0.0189894 	-3.13675 	90.1566 	116.602 	-0.591113 	280.341 	360.634 	247.56 	539.795 	
20.1747 	-0.00191247 	-0.721884 	0.142757 	1.6623 	0.0189376 	-3.13687 	90.1566 	116.602 	-0.591113 	279.79 	360.634 	247.031 	539.795 	
20.2776 	-0.00192498 	-0.724465 	0.143594 	1.6623 	0.0188848 	-3.137 	90.1566 	116.602 	-0.591113 	279.29 	360.634 	246.465 	539.795 	
20.3806 	-0.00193803 	-0.727039 	0.144454 	1.66231 	0.0188308 	-3.13712 	90.1566 	116.602 	-0.591113 	278.797 	360.634 	246.003 	539.795 	
20.4884 	-0.00195162 	-0.729605 	0.145335 	1.66231 	0.0187759 	-3.13724 	90.1566 	116.602 	-0.591113 	278.252 	360.634 	245.498 	539.795 	
20.5914 	-0.00196575 	-0.732164 	0.14624 	1.66231 	0.0187198 	-3.13736 	90.1566 	116.602 	-0.591113 	277.744 	360.634 	244.923 	539.795 	
20.6945 	-0.00198042 	-0.734715 	0.147166 	1.66232 	0.0186627 	-3.13748 	90.1566 	116.602 	-0.591113 	277.202 	360.634 	244.391 	539.795 	
20.7975 	-0.00199563 	-0.737257 	0.148114 	1.66232 	0.0186045 	-3.1376 	90.1566 	116.602 	-0.591113 	276.701 	360.634 	243.935 	539.795 	
20.9005 	-0.00201137 	-0.739791 	0.149085 	1.66233 	0.0185453 	-3.13773 	90.1566 	116.602 	-0.591113 	276.204 	360.634 	243.382 	539.795 	
21.0035 	-0.00202765 	-0.742316 	0.150078 	1.66233 	0.0184851 	-3.13784 	90.1566 	116.602 	-0.591113 	275.709 	360.634 	242.866 	539.795 	
21.1068 	-0.00204446 	-0.744833 	0.151093 	1.66233 	0.0184237 	-3.13796 	90.1566 	116.602 	-0.591113 	275.158 	360.634 	242.385 	539.795 	
21.2096 	-0.00206181 	-0.747341 	0.152129 	1.66234 	0.0183614 	-3.13808 	90.1566 	116.602 	-0.591113 	274.659 	360.634 	241.832 	539.795 	
21.3126 	-0.00207969 	-0.749839 	0.153188 	1.66234 	0.018298 	-3.1382 	90.1566 	116.602 	-0.591113 	274.162 	360.634 	241.306 	539.795 	
21.4159 	-0.00209809 	-0.752329 	0.154268 	1.66235 	0.0182336 	-3.13832 	90.1566 	116.602 	-0.591113 	273.617 	360.634 	240.832 	539.795 	
21.5184 	-0.00211703 	-0.754808 	0.15537 	1.66235 	0.0181682 	-3.13844 	90.1566 	116.602 	-0.591113 	273.113 	360.634 	240.295 	539.795 	
21.6216 	-0.00213649 	-0.757278 	0.156494 	1.66235 	0.0181017 	-3.13855 	90.1566 	116.602 	-0.591113 	272.622 	360.634 	239.762 	539.795 	
21.7287 	-0.00215851 	-0.759984 	0.157755 	1.66236 	0.0180275 	-3.13868 	90.1566 	116.602 	-0.591113 	272.071 	360.634 	239.278 	539.795 	
21.8315 	-0.00217908 	-0.762433 	0.158923 	1.66236 	0.0179589 	-3.13879 	90.1566 	116.602 	-0.591113 	271.573 	360.634 	238.75 	539.795 	
21.9347 	-0.00219803 	-0.764628 	0.159993 	1.66236 	0.0178963 	-3.1389 	90.1566 	116.602 	-0.591113 	271.024 	360.634 	238.152 	539.795 	
22.0375 	-0.00222178 	-0.7673 	0.161324 	1.66237 	0.0178187 	-3.13902 	90.1566 	116.602 	-0.591113 	270.525 	360.634 	237.719 	539.795 	
22.1422 	-0.00224391 	-0.769717 	0.162557 	1.66237 	0.0177472 	-3.13914 	90.1566 	116.602 	-0.591113 	270.027 	360.634 	237.217 	539.795 	
22.2458 	-0.00228738 	-0.77428 	0.164956 	1.66238 	0.0176085 	-3.13935 	90.1566 	116.602 	-0.591113 	269.478 	360.634 	236.611 	539.795 	
22.3484 	-0.002311 	-0.776666 	0.166249 	1.66238 	0.0175341 	-3.13946 	90.1566 	116.602 	-0.591113 	268.99 	360.634 	236.174 	539.795 	
22.4514 	-0.00233514 	-0.77904 	0.167563 	1.66239 	0.0174587 	-3.13957 	90.1566 	116.602 	-0.591113 	268.485 	360.634 	235.682 	539.795 	
22.5544 	-0.00235979 	-0.781403 	0.168897 	1.66239 	0.0173824 	-3.13968 	90.1566 	116.602 	-0.591113 	267.939 	360.634 	235.056 	539.795 	
22.6574 	-0.00238495 	-0.783754 	0.170252 	1.6624 	0.0173051 	-3.13979 	90.1566 	116.602 	-0.591113 	267.436 	360.634 	234.6 	539.795 	
22.7602 	-0.00241062 	-0.786093 	0.171628 	1.6624 	0.0172268 	-3.1399 	90.1566 	116.602 	-0.591113 	266.95 	360.634 	234.125 	539.795 	
22.8635 	-0.00243679 	-0.78842 	0.173024 	1.6624 	0.0171476 	-3.14001 	90.1566 	116.602 	-0.591113 	266.443 	360.634 	233.572 	539.795 	
22.9663 	-0.00246346 	-0.790734 	0.17444 	1.66241 	0.0170675 	-3.14012 	90.1566 	116.601 	-0.591113 	265.901 	360.634 	233.03 	539.795 	
23.0694 	-0.00249064 	-0.793036 	0.175876 	1.66241 	0.0169864 	-3.14022 	90.1566 	116.601 	-0.591113 	265.395 	360.634 	232.578 	539.795 	
23.1728 	-0.00251831 	-0.795326 	0.177332 	1.66241 	0.0169044 	-3.14033 	90.1566 	116.601 	-0.591113 	264.906 	360.634 	232.026 	539.795 	
23.2755 	-0.00254648 	-0.797603 	0.178808 	1.66242 	0.0168215 	-3.14043 	90.1566 	116.601 	-0.591113 	264.357 	360.634 	231.471 	539.795 	
23.3788 	-0.00257514 	-0.799867 	0.180304 	1.66242 	0.0167376 	-3.14054 	90.1566 	116.601 	-0.591113 	263.854 	360.634 	231.026 	539.795 	
23.4816 	-0.0026043 	-0.802117 	0.18182 	1.66243 	0.0166529 	-3.14064 	90.1566 	116.601 	-0.591113 	263.356 	360.634 	230.485 	539.795 	
23.5885 	-0.00263395 	-0.804354 	0.183355 	1.66243 	0.0165672 	-3.14075 	90.1566 	116.601 	-0.591113 	262.807 	360.634 	229.918 	539.795 	
23.6912 	-0.00266408 	-0.806578 	0.18491 	1.66243 	0.0164807 	-3.14085 	90.1566 	116.601 	-0.591113 	262.319 	360.634 	229.486 	539.795 	
23.7946 	-0.0026947 	-0.808788 	0.186484 	1.66244 	0.0163932 	-3.14095 	90.1566 	116.601 	-0.591113 	261.763 	360.634 	228.942 	539.795 	
23.8974 	-0.00272581 	-0.810985 	0.188077 	1.66244 	0.0163049 	-3.14105 	90.1566 	116.601 	-0.591113 	261.268 	360.634 	228.352 	539.795 	
24.0003 	-0.00275739 	-0.813167 	0.18969 	1.66244 	0.0162157 	-3.14115 	90.1566 	116.601 	-0.591113 	260.763 	360.634 	227.924 	539.795 	
24.1035 	-0.00278946 	-0.815335 	0.191321 	1.66245 	0.0161256 	-3.14125 	90.1566 	116.601 	-0.591113 	260.274 	360.634 	227.401 	539.795 	
24.2064 	-0.002822 	-0.817489 	0.192971 	1.66245 	0.0160347 	-3.14135 	90.1566 	116.601 	-0.591113 	259.718 	360.634 	226.813 	539.795 	
24.3096 	-0.00285501 	-0.819629 	0.19464 	1.66245 	0.0159429 	-3.14145 	90.1566 	116.601 	-0.591113 	259.229 	360.634 	226.367 	539.795 	
24.4126 	-0.00288849 	-0.821753 	0.196328 	1.66246 	0.0158503 	-3.14154 	90.1566 	116.601 	-0.591113 	258.721 	360.634 	225.86 	539.795 	
24.5156 	-0.00292245 	-0.823863 	0.198034 	1.66246 	0.0157568 	3.14155 	90.1566 	116.601 	-0.591113 	258.177 	360.634 	225.255 	539.795 	
24.6185 	-0.00295687 	-0.825958 	0.199758 	1.66247 	0.0156625 	3.14145 	90.1566 	116.601 	-0.591113 	257.679 	360.634 	224.801 	539.795 	
24.722 	-0.00299175 	-0.828038 	0.201501 	1.66247 	0.0155674 	3.14136 	90.1566 	116.601 	-0.591113 	257.18 	360.634 	224.311 	539.795 	
24.8289 	-0.00303065 	-0.830308 	0.203438 	1.66247 	0.0154618 	3.14125 	90.1566 	116.601 	-0.591113 	256.628 	360.634 	223.711 	539.795 	
24.9316 	-0.0030665 	-0.832356 	0.205219 	1.66248 	0.0153649 	3.14116 	90.1566 	116.601 	-0.591113 	256.129 	360.634 	223.241 	539.795 	
25.0343 	-0.00309916 	-0.834186 	0.206837 	1.66248 	0.015277 	3.14108 	90.1566 	116.601 	-0.591113 	255.591 	360.634 	222.771 	539.795 	
25.1402 	-0.00313958 	-0.836405 	0.208835 	1.66248 	0.0151687 	3.14098 	90.1566 	116.601 	-0.591113 	255.082 	360.634 	222.161 	539.795 	
25.2431 	-0.00321067 	-0.840193 	0.212336 	1.66248 	0.0149794 	3.14081 	90.1566 	116.601 	-0.591113 	254.596 	360.634 	221.683 	539.795 	
25.3464 	-0.00324873 	-0.842163 	0.214203 	1.66248 	0.0148787 	3.14072 	90.1566 	116.601 	-0.591113 	254.039 	360.634 	221.177 	539.795 	
25.4494 	-0.00328723 	-0.844117 	0.216088 	1.66248 	0.0147772 	3.14063 	90.1566 	116.601 	-0.591113 	253.547 	360.634 	220.621 	539.795 	
25.5525 	-0.00332617 	-0.846055 	0.21799 	1.66248 	0.0146749 	3.14055 	90.1566 	116.601 	-0.591113 	253.041 	360.634 	220.124 	539.795 	
25.6554 	-0.00336555 	-0.847975 	0.219908 	1.66248 	0.0145719 	3.14046 	90.1566 	116.601 	-0.591113 	252.501 	360.634 	219.623 	539.795 	
25.7582 	-0.00340536 	-0.849879 	0.221843 	1.66248 	0.0144681 	3.14037 	90.1566 	116.601 	-0.591113 	251.995 	360.634 	219.072 	539.795 	
25.8614 	-0.0034456 	-0.851766 	0.223795 	1.66248 	0.0143636 	3.14029 	90.1566 	116.601 	-0.591113 	251.495 	360.634 	218.563 	539.795 	
25.9645 	-0.00348626 	-0.853636 	0.225763 	1.66248 	0.0142583 	3.14021 	90.1566 	116.601 	-0.591113 	250.957 	360.634 	218.125 	539.795 	
26.0673 	-0.00352735 	-0.855488 	0.227747 	1.66249 	0.0141524 	3.14013 	90.1566 	116.601 	-0.591113 	250.456 	360.634 	217.531 	539.795 	
26.1703 	-0.00356886 	-0.857323 	0.229748 	1.66249 	0.0140457 	3.14004 	90.1566 	116.601 	-0.591113 	249.953 	360.634 	217.012 	539.795 	
26.2738 	-0.00361078 	-0.859141 	0.231764 	1.66249 	0.0139383 	3.13996 	90.1566 	116.601 	-0.591113 	249.451 	360.634 	216.575 	539.795 	
26.3764 	-0.00365312 	-0.860941 	0.233796 	1.66249 	0.0138302 	3.13988 	90.1566 	116.601 	-0.591113 	248.912 	360.634 	215.985 	539.795 	
26.4799 	-0.00369587 	-0.862723 	0.235844 	1.66249 	0.0137215 	3.13981 	90.1566 	116.601 	-0.591113 	248.408 	360.634 	215.458 	539.795 	
26.5883 	-0.00373902 	-0.864487 	0.237907 	1.66249 	0.013612 	3.13973 	90.1566 	116.601 	-0.591113 	247.866 	360.634 	214.966 	539.795 	
26.6915 	-0.00378259 	-0.866233 	0.239986 	1.66249 	0.0135019 	3.13965 	90.1566 	116.601 	-0.591113 	247.354 	360.634 	214.447 	539.795 	
26.7946 	-0.00382655 	-0.867961 	0.242079 	1.66249 	0.0133912 	3.13958 	90.1566 	116.601 	-0.591113 	246.817 	360.634 	213.904 	539.795 	
26.8976 	-0.0038709 	-0.86967 	0.244188 	1.66249 	0.0132797 	3.1395 	90.1566 	116.601 	-0.591113 	246.313 	360.634 	213.409 	539.795 	
27.0006 	-0.00391566 	-0.871361 	0.246312 	1.66249 	0.0131676 	3.13943 	90.1566 	116.6 	-0.591113 	245.816 	360.634 	212.905 	539.795 	
27.1039 	-0.0039608 	-0.873034 	0.24845 	1.66249 	0.0130549 	3.13936 	90.1566 	116.6 	-0.591113 	245.312 	360.634 	212.355 	539.795 	
27.2064 	-0.00400633 	-0.874688 	0.250603 	1.66249 	0.0129416 	3.13929 	90.1566 	116.6 	-0.591113 	244.77 	360.634 	211.847 	539.795 	
27.3094 	-0.00405224 	-0.876323 	0.25277 	1.66249 	0.0128276 	3.13921 	90.1566 	116.6 	-0.591113 	244.274 	360.634 	211.362 	539.795 	
27.4127 	-0.00409854 	-0.877938 	0.254951 	1.6625 	0.012713 	3.13915 	90.1566 	116.6 	-0.591113 	243.772 	360.634 	210.815 	539.795 	
27.5156 	-0.00414521 	-0.879535 	0.257146 	1.6625 	0.0125979 	3.13908 	90.1566 	116.6 	-0.591113 	243.224 	360.634 	210.293 	539.795 	
27.619 	-0.00419225 	-0.881113 	0.259355 	1.6625 	0.0124821 	3.13901 	90.1566 	116.6 	-0.591113 	242.716 	360.634 	209.819 	539.795 	
27.7218 	-0.00423966 	-0.882671 	0.261578 	1.6625 	0.0123657 	3.13894 	90.1566 	116.6 	-0.591113 	242.235 	360.634 	209.265 	539.795 	
27.8282 	-0.00428744 	-0.88421 	0.263815 	1.6625 	0.0122488 	3.13888 	90.1566 	116.6 	-0.591113 	241.673 	360.634 	208.727 	539.795 	
27.9304 	-0.00433558 	-0.885729 	0.266064 	1.6625 	0.0121313 	3.13881 	90.1566 	116.6 	-0.591113 	241.181 	360.634 	208.274 	539.795 	
28.0332 	-0.00438408 	-0.887228 	0.268327 	1.6625 	0.0120133 	3.13875 	90.1566 	116.6 	-0.591113 	240.674 	360.634 	207.72 	539.795 	
28.1362 	-0.00443293 	-0.888708 	0.270603 	1.6625 	0.0118946 	3.13869 	90.1566 	116.6 	-0.591113 	240.138 	360.634 	207.17 	539.795 	
28.2392 	-0.00448214 	-0.890168 	0.272892 	1.6625 	0.0117755 	3.13863 	90.1566 	116.6 	-0.591113 	239.631 	360.634 	206.726 	539.795 	
28.3428 	-0.00458159 	-0.893027 	0.277507 	1.6625 	0.0115356 	3.13851 	90.1566 	116.6 	-0.591113 	239.137 	360.634 	206.176 	539.795 	
28.4465 	-0.00463182 	-0.894426 	0.279833 	1.6625 	0.0114149 	3.13845 	90.1566 	116.6 	-0.591113 	238.58 	360.634 	205.612 	539.795 	
28.5495 	-0.00468239 	-0.895805 	0.282171 	1.6625 	0.0112937 	3.13839 	90.1566 	116.6 	-0.591113 	238.083 	360.634 	205.169 	539.795 	
28.6521 	-0.0047333 	-0.897164 	0.284521 	1.6625 	0.011172 	3.13833 	90.1566 	116.6 	-0.591113 	237.595 	360.634 	204.636 	539.795 	
28.7555 	-0.00478453 	-0.898502 	0.286883 	1.6625 	0.0110498 	3.13828 	90.1566 	116.6 	-0.591113 	237.04 	360.634 	204.063 	539.795 	
28.8585 	-0.00483609 	-0.899819 	0.289256 	1.6625 	0.0109271 	3.13822 	90.1566 	116.6 	-0.591113 	236.541 	360.634 	203.608 	539.795 	
28.9616 	-0.00488796 	-0.901116 	0.291641 	1.6625 	0.010804 	3.13817 	90.1566 	116.6 	-0.591113 	236.03 	360.634 	203.086 	539.795 	
29.0647 	-0.00494016 	-0.902391 	0.294037 	1.6625 	0.0106804 	3.13812 	90.1566 	116.6 	-0.591113 	235.501 	360.634 	202.556 	539.795 	
29.1676 	-0.00499266 	-0.903646 	0.296444 	1.66251 	0.0105563 	3.13807 	90.1566 	116.6 	-0.591113 	234.991 	360.634 	202.052 	539.795 	
29.2706 	-0.00504548 	-0.90488 	0.298862 	1.66251 	0.0104318 	3.13802 	90.1566 	116.6 	-0.591113 	234.497 	360.634 	201.552 	539.795 	
29.3734 	-0.0050986 	-0.906092 	0.301291 	1.66251 	0.0103069 	3.13797 	90.1566 	116.6 	-0.591113 	233.991 	360.634 	201.007 	539.795 	
29.4767 	-0.00515202 	-0.907283 	0.30373 	1.66251 	0.0101816 	3.13792 	90.1566 	116.6 	-0.591113 	233.454 	360.634 	200.495 	539.795 	
29.5797 	-0.00520573 	-0.908453 	0.30618 	1.66251 	0.0100558 	3.13788 	90.1566 	116.6 	-0.591113 	232.951 	360.634 	200.012 	539.795 	
29.6886 	-0.00525974 	-0.909602 	0.308639 	1.66251 	0.00992968 	3.13783 	90.1566 	116.6 	-0.591113 	232.4 	360.634 	199.401 	539.795 	
29.7915 	-0.00531404 	-0.910729 	0.311109 	1.66251 	0.00980315 	3.13779 	90.1566 	116.6 	-0.591113 	231.893 	360.634 	198.935 	539.795 	
29.8944 	-0.00536862 	-0.911834 	0.313588 	1.66251 	0.00967624 	3.13774 	90.1566 	116.6 	-0.591113 	231.347 	360.634 	198.482 	539.795 	
29.9976 	-0.00542348 	-0.912918 	0.316077 	1.66251 	0.00954895 	3.1377 	90.1566 	116.6 	-0.591113 	230.854 	360.634 	197.859 	539.795 	
30.1007 	-0.00547861 	-0.91398 	0.318575 	1.66251 	0.0094213 	3.13766 	90.1566 	116.6 	-0.591113 	230.347 	360.634 	197.379 	539.795 	
30.2037 	-0.00553402 	-0.91502 	0.321082 	1.66251 	0.0092933 	3.13762 	90.1566 	116.6 	-0.591113 	229.856 	360.634 	196.926 	539.795 	
30.3067 	-0.00558969 	-0.916038 	0.323599 	1.66251 	0.00916495 	3.13758 	90.1566 	116.6 	-0.591113 	229.295 	360.634 	196.313 	539.795 	
30.4096 	-0.00564563 	-0.917034 	0.326124 	1.66251 	0.00903628 	3.13755 	90.1566 	116.6 	-0.591113 	228.811 	360.634 	195.818 	539.795 	
30.5128 	-0.00570183 	-0.918008 	0.328657 	1.66251 	0.00890728 	3.13751 	90.1566 	116.6 	-0.591113 	228.308 	360.634 	195.365 	539.795 	
30.6159 	-0.00575828 	-0.91896 	0.3312 	1.66251 	0.00877797 	3.13747 	90.1566 	116.6 	-0.591113 	227.764 	360.634 	194.773 	539.795 	
30.719 	-0.00581498 	-0.91989 	0.33375 	1.66251 	0.00864836 	3.13744 	90.1566 	116.6 	-0.591113 	227.25 	360.634 	194.265 	539.795 	
30.8219 	-0.00587193 	-0.920797 	0.336308 	1.66251 	0.00851845 	3.13741 	90.1566 	116.6 	-0.591113 	226.766 	360.634 	193.815 	539.795 	
30.9288 	-0.00593485 	-0.921769 	0.339131 	1.66251 	0.00837522 	3.13737 	90.1566 	116.6 	-0.591113 	226.213 	360.634 	193.22 	539.795 	
31.0315 	-0.0059923 	-0.92263 	0.341706 	1.66251 	0.00824473 	3.13734 	90.1566 	116.6 	-0.591113 	225.714 	360.634 	192.708 	539.795 	
31.1349 	-0.0060442 	-0.923385 	0.344029 	1.66251 	0.00812706 	3.13731 	90.1566 	116.6 	-0.591113 	225.159 	360.634 	192.26 	539.795 	
31.2402 	-0.00610208 	-0.924202 	0.346618 	1.66251 	0.00799608 	3.13729 	90.1566 	116.6 	-0.591113 	224.658 	360.634 	191.688 	539.795 	
31.3447 	-0.0061602 	-0.924997 	0.349213 	1.66251 	0.00786486 	3.13726 	90.1566 	116.6 	-0.591113 	224.119 	360.634 	191.163 	539.795 	
31.4475 	-0.00627707 	-0.926519 	0.354424 	1.66251 	0.00760172 	3.13721 	90.1566 	116.6 	-0.591113 	223.612 	360.634 	190.66 	539.795 	
31.5506 	-0.00633583 	-0.927245 	0.35704 	1.66251 	0.00746982 	3.13718 	90.1566 	116.6 	-0.591113 	223.117 	360.634 	190.144 	539.795 	
31.6536 	-0.00639479 	-0.927949 	0.359661 	1.66251 	0.00733773 	3.13716 	90.1566 	116.6 	-0.591113 	222.603 	360.634 	189.602 	539.795 	
31.757 	-0.00645395 	-0.92863 	0.362289 	1.66252 	0.00720543 	3.13714 	90.1566 	116.6 	-0.591113 	222.07 	360.634 	189.102 	539.795 	
31.8596 	-0.00651331 	-0.929288 	0.364922 	1.66252 	0.00707296 	3.13712 	90.1566 	116.6 	-0.591113 	221.57 	360.634 	188.62 	539.795 	
31.9627 	-0.00657287 	-0.929923 	0.367562 	1.66252 	0.00694031 	3.1371 	90.1566 	116.6 	-0.591113 	221.074 	360.634 	188.056 	539.795 	
32.0656 	-0.00663261 	-0.930535 	0.370206 	1.66252 	0.0068075 	3.13708 	90.1566 	116.6 	-0.591113 	220.51 	360.634 	187.553 	539.795 	
32.1685 	-0.00669254 	-0.931123 	0.372856 	1.66252 	0.00667454 	3.13706 	90.1566 	116.6 	-0.591113 	220.019 	360.634 	187.073 	539.795 	
32.2717 	-0.00675264 	-0.931689 	0.375511 	1.66252 	0.00654143 	3.13705 	90.1566 	116.6 	-0.591113 	219.518 	360.634 	186.509 	539.795 	
32.3747 	-0.00681292 	-0.932231 	0.37817 	1.66252 	0.00640819 	3.13703 	90.1566 	116.599 	-0.591113 	218.969 	360.634 	186.029 	539.795 	
32.4775 	-0.00687337 	-0.93275 	0.380835 	1.66252 	0.00627483 	3.13702 	90.1566 	116.599 	-0.591113 	218.468 	360.634 	185.518 	539.795 	
32.5809 	-0.00693398 	-0.933246 	0.383504 	1.66252 	0.00614135 	3.13701 	90.1566 	116.599 	-0.591113 	217.965 	360.634 	184.965 	539.795 	
32.6887 	-0.00699476 	-0.933719 	0.386177 	1.66252 	0.00600777 	3.137 	90.1566 	116.599 	-0.591113 	217.428 	360.634 	184.437 	539.795 	
32.7917 	-0.00705568 	-0.934168 	0.388853 	1.66252 	0.00587411 	3.13699 	90.1566 	116.599 	-0.591113 	216.92 	360.634 	183.983 	539.795 	
32.8948 	-0.00711677 	-0.934594 	0.391534 	1.66252 	0.00574036 	3.13698 	90.1566 	116.599 	-0.591113 	216.372 	360.634 	183.415 	539.795 	
32.9975 	-0.007178 	-0.934996 	0.394219 	1.66252 	0.00560653 	3.13697 	90.1566 	116.599 	-0.591113 	215.861 	360.634 	182.87 	539.795 	
33.1004 	-0.00723937 	-0.935375 	0.396906 	1.66252 	0.00547265 	3.13696 	90.1566 	116.599 	-0.591113 	215.378 	360.634 	182.416 	539.795 	
33.2035 	-0.00730087 	-0.935731 	0.399597 	1.66252 	0.00533872 	3.13696 	90.1566 	116.599 	-0.591113 	214.87 	360.634 	181.874 	539.795 	
33.3068 	-0.00736252 	-0.936063 	0.402291 	1.66252 	0.00520474 	3.13695 	90.1566 	116.599 	-0.591113 	214.33 	360.634 	181.319 	539.795 	
33.4099 	-0.00742428 	-0.936371 	0.404988 	1.66252 	0.00507073 	3.13695 	90.1566 	116.599 	-0.591113 	213.817 	360.634 	180.867 	539.795 	
33.5128 	-0.00748618 	-0.936656 	0.407688 	1.66252 	0.00493671 	3.13695 	90.1566 	116.599 	-0.591113 	213.324 	360.634 	180.332 	539.795 	
33.6159 	-0.00754819 	-0.936917 	0.410389 	1.66252 	0.00480267 	3.13695 	90.1566 	116.599 	-0.591113 	212.775 	360.634 	179.76 	539.795 	
33.7189 	-0.00761031 	-0.937155 	0.413093 	1.66252 	0.00466863 	3.13695 	90.1566 	116.599 	-0.591113 	212.276 	360.634 	179.313 	539.795 	
33.8219 	-0.00767255 	-0.937369 	0.415799 	1.66252 	0.0045346 	3.13695 	90.1566 	116.599 	-0.591113 	211.776 	360.634 	178.801 	539.795 	
33.9297 	-0.00773488 	-0.937559 	0.418507 	1.66252 	0.00440059 	3.13695 	90.1566 	116.599 	-0.591113 	211.22 	360.634 	178.207 	539.795 	
34.0326 	-0.00780357 	-0.937742 	0.421487 	1.66252 	0.00425322 	3.13696 	90.1566 	116.599 	-0.591113 	210.73 	360.634 	177.761 	539.795 	
34.138 	-0.00785985 	-0.937869 	0.423927 	1.66252 	0.00413268 	3.13696 	90.1566 	116.599 	-0.591113 	210.175 	360.634 	177.2 	539.795 	
34.2404 	-0.00792874 	-0.938 	0.42691 	1.66252 	0.0039854 	3.13697 	90.1566 	116.599 	-0.591113 	209.682 	360.634 	176.654 	539.795 	
34.3436 	-0.00804797 	-0.938157 	0.432064 	1.66252 	0.00373121 	3.13699 	90.1566 	116.599 	-0.591113 	209.168 	360.634 	176.209 	539.795 	
34.4465 	-0.00811083 	-0.938205 	0.434778 	1.66252 	0.00359754 	3.137 	90.1566 	116.599 	-0.591113 	208.629 	360.634 	175.656 	539.795 	
34.5492 	-0.00817377 	-0.93823 	0.437493 	1.66252 	0.00346395 	3.13701 	90.1566 	116.599 	-0.591113 	208.123 	360.634 	175.105 	539.795 	
34.6526 	-0.00823677 	-0.938231 	0.440207 	1.66252 	0.00333047 	3.13702 	90.1566 	116.599 	-0.591113 	207.629 	360.634 	174.643 	539.795 	
34.7557 	-0.00829983 	-0.938209 	0.442921 	1.66252 	0.00319711 	3.13703 	90.1566 	116.599 	-0.591113 	207.071 	360.634 	174.117 	539.795 	
34.859 	-0.00836295 	-0.938162 	0.445635 	1.66252 	0.00306386 	3.13705 	90.1566 	116.599 	-0.591113 	206.577 	360.634 	173.553 	539.795 	
34.9619 	-0.00842612 	-0.938092 	0.448349 	1.66252 	0.00293075 	3.13706 	90.1566 	116.599 	-0.591113 	206.077 	360.634 	173.084 	539.795 	
35.0645 	-0.00848934 	-0.937999 	0.451061 	1.66253 	0.00279777 	3.13708 	90.1566 	116.599 	-0.591113 	205.529 	360.634 	172.618 	539.795 	
35.1677 	-0.0085526 	-0.937881 	0.453773 	1.66253 	0.00266496 	3.1371 	90.1566 	116.599 	-0.591113 	205.025 	360.634 	172.007 	539.795 	
35.271 	-0.0086159 	-0.93774 	0.456484 	1.66253 	0.0025323 	3.13712 	90.1566 	116.599 	-0.591113 	204.52 	360.634 	171.525 	539.795 	
35.3736 	-0.00867923 	-0.937575 	0.459193 	1.66253 	0.00239982 	3.13714 	90.1566 	116.599 	-0.591113 	204.034 	360.634 	171.068 	539.795 	
35.4766 	-0.00874259 	-0.937387 	0.461901 	1.66253 	0.00226752 	3.13716 	90.1566 	116.599 	-0.591113 	203.476 	360.634 	170.469 	539.795 	
35.5797 	-0.00880597 	-0.937175 	0.464607 	1.66253 	0.00213541 	3.13718 	90.1566 	116.599 	-0.591113 	202.976 	360.634 	169.965 	539.795 	
35.6887 	-0.00886937 	-0.936939 	0.467311 	1.66253 	0.0020035 	3.13721 	90.1566 	116.599 	-0.591113 	202.414 	360.634 	169.466 	539.795 	
35.7917 	-0.00893278 	-0.93668 	0.470013 	1.66253 	0.00187181 	3.13723 	90.1566 	116.599 	-0.591113 	201.923 	360.634 	168.922 	539.795 	
35.8948 	-0.0089962 	-0.936398 	0.472713 	1.66253 	0.00174034 	3.13726 	90.1566 	116.599 	-0.591113 	201.375 	360.634 	168.411 	539.795 	
35.9979 	-0.00905962 	-0.936091 	0.47541 	1.66253 	0.0016091 	3.13728 	90.1566 	116.599 	-0.591113 	200.88 	360.634 	167.933 	539.795 	
36.1008 	-0.00912304 	-0.935761 	0.478104 	1.66253 	0.00147811 	3.13731 	90.1566 	116.599 	-0.591113 	200.368 	360.634 	167.396 	539.795 	
36.204 	-0.00918646 	-0.935408 	0.480795 	1.66253 	0.00134737 	3.13734 	90.1566 	116.599 	-0.591113 	199.872 	360.634 	166.859 	539.795 	
36.3066 	-0.00924987 	-0.935031 	0.483483 	1.66253 	0.00121689 	3.13737 	90.1566 	116.599 	-0.591113 	199.325 	360.634 	166.368 	539.795 	
36.4095 	-0.00931325 	-0.934631 	0.486168 	1.66253 	0.00108669 	3.1374 	90.1566 	116.599 	-0.591113 	198.824 	360.634 	165.842 	539.795 	
36.513 	-0.00937662 	-0.934207 	0.488849 	1.66253 	0.000956765 	3.13744 	90.1566 	116.599 	-0.591113 	198.321 	360.634 	165.301 	539.795 	
36.6157 	-0.00943997 	-0.93376 	0.491526 	1.66253 	0.000827138 	3.13747 	90.1566 	116.599 	-0.591113 	197.769 	360.634 	164.811 	539.795 	
36.7185 	-0.00950328 	-0.93329 	0.494199 	1.66253 	0.000697808 	3.13751 	90.1566 	116.599 	-0.591113 	197.279 	360.634 	164.306 	539.795 	
36.8221 	-0.00956656 	-0.932796 	0.496868 	1.66253 	0.000568796 	3.13754 	90.1566 	116.599 	-0.591113 	196.772 	360.634 	163.748 	539.795 	
36.929 	-0.0096298 	-0.932279 	0.499533 	1.66253 	0.000440104 	3.13758 	90.1566 	116.599 	-0.591113 	196.219 	360.634 	163.256 	539.795 	
37.0316 	-0.00969299 	-0.931738 	0.502193 	1.66253 	0.000311743 	3.13762 	90.1566 	116.599 	-0.591113 	195.715 	360.634 	162.767 	539.795 	
37.1344 	-0.00975613 	-0.931175 	0.504848 	1.66253 	0.000183725 	3.13766 	90.1566 	116.599 	-0.591113 	195.17 	360.634 	162.205 	539.795 	
37.2411 	-0.00988225 	-0.929979 	0.510143 	1.66253 	-7.12479e-05 	3.13774 	90.1566 	116.599 	-0.591113 	194.674 	360.634 	161.696 	539.795 	
37.3453 	-0.00994522 	-0.929346 	0.512783 	1.66253 	-0.000198183 	3.13778 	90.1566 	116.599 	-0.591113 	194.127 	360.634 	161.178 	539.795 	
37.4487 	-0.0100081 	-0.92869 	0.515417 	1.66253 	-0.000324736 	3.13783 	90.1566 	116.599 	-0.591113 	193.617 	360.634 	160.606 	539.795 	
37.5515 	-0.0100709 	-0.928011 	0.518045 	1.66253 	-0.000450901 	3.13787 	90.1566 	116.599 	-0.591113 	193.12 	360.634 	160.138 	539.795 	
37.6547 	-0.0101337 	-0.927309 	0.520667 	1.66254 	-0.000576664 	3.13792 	90.1566 	116.599 	-0.591113 	192.566 	360.634 	159.678 	539.795 	
37.7573 	-0.0101963 	-0.926585 	0.523282 	1.66254 	-0.000702018 	3.13797 	90.1566 	116.599 	-0.591113 	192.073 	360.634 	159.062 	539.795 	
37.8606 	-0.0102589 	-0.925837 	0.525892 	1.66254 	-0.000826954 	3.13802 	90.1566 	116.599 	-0.591113 	191.57 	360.634 	158.573 	539.795 	
37.9635 	-0.0103214 	-0.925067 	0.528494 	1.66254 	-0.00095146 	3.13807 	90.1566 	116.599 	-0.591113 	191.066 	360.634 	158.129 	539.795 	
38.0668 	-0.0103838 	-0.924274 	0.53109 	1.66254 	-0.00107553 	3.13812 	90.1566 	116.599 	-0.591113 	190.516 	360.634 	157.518 	539.795 	
38.1697 	-0.0104461 	-0.923459 	0.533679 	1.66254 	-0.00119915 	3.13817 	90.1566 	116.599 	-0.591113 	190.017 	360.634 	157.017 	539.795 	
38.2729 	-0.0105082 	-0.922621 	0.536261 	1.66254 	-0.00132232 	3.13822 	90.1566 	116.599 	-0.591113 	189.518 	360.634 	156.575 	539.795 	
38.3756 	-0.0105703 	-0.92176 	0.538835 	1.66254 	-0.00144501 	3.13828 	90.1566 	116.599 	-0.591113 	188.96 	360.634 	155.971 	539.795 	
38.4789 	-0.0106323 	-0.920877 	0.541402 	1.66254 	-0.00156724 	3.13833 	90.1566 	116.599 	-0.591113 	188.463 	360.634 	155.459 	539.795 	
38.5819 	-0.0106941 	-0.919972 	0.543961 	1.66254 	-0.00168897 	3.13839 	90.1566 	116.599 	-0.591113 	187.967 	360.634 	155.036 	539.795 	
38.6885 	-0.0107558 	-0.919044 	0.546512 	1.66254 	-0.00181022 	3.13844 	90.1566 	116.599 	-0.591113 	187.42 	360.634 	154.451 	539.795 	
38.7917 	-0.0108174 	-0.918094 	0.549055 	1.66254 	-0.00193096 	3.1385 	90.1566 	116.599 	-0.591113 	186.909 	360.634 	153.903 	539.795 	
38.8947 	-0.0108788 	-0.917122 	0.551589 	1.66254 	-0.00205118 	3.13856 	90.1566 	116.599 	-0.591113 	186.358 	360.634 	153.467 	539.795 	
38.9978 	-0.0109401 	-0.916128 	0.554114 	1.66254 	-0.00217089 	3.13862 	90.1566 	116.599 	-0.591113 	185.86 	360.634 	152.899 	539.795 	
39.1005 	-0.0110012 	-0.915112 	0.556631 	1.66254 	-0.00229006 	3.13868 	90.1566 	116.599 	-0.591113 	185.361 	360.634 	152.349 	539.795 	
39.2037 	-0.0110622 	-0.914074 	0.559139 	1.66254 	-0.0024087 	3.13875 	90.1566 	116.599 	-0.591113 	184.859 	360.634 	151.912 	539.795 	
39.3065 	-0.0111231 	-0.913014 	0.561638 	1.66254 	-0.00252679 	3.13881 	90.1566 	116.599 	-0.591113 	184.306 	360.634 	151.358 	539.795 	
39.4098 	-0.0111838 	-0.911932 	0.564128 	1.66254 	-0.00264431 	3.13887 	90.1566 	116.599 	-0.591113 	183.805 	360.634 	150.799 	539.795 	
39.5129 	-0.0112443 	-0.910829 	0.566608 	1.66254 	-0.00276127 	3.13894 	90.1566 	116.599 	-0.591113 	183.308 	360.634 	150.348 	539.795 	
39.6157 	-0.0113047 	-0.909704 	0.569078 	1.66255 	-0.00287766 	3.13901 	90.1566 	116.599 	-0.591113 	182.753 	360.634 	149.816 	539.795 	
39.7185 	-0.0113648 	-0.908557 	0.571538 	1.66255 	-0.00299346 	3.13907 	90.1566 	116.599 	-0.591113 	182.25 	360.634 	149.249 	539.795 	
39.8223 	-0.0114249 	-0.907389 	0.573988 	1.66255 	-0.00310867 	3.13914 	90.1566 	116.599 	-0.591113 	181.754 	360.634 	148.786 	539.795 	
39.9293 	-0.0114847 	-0.9062 	0.576428 	1.66255 	-0.00322327 	3.13921 	90.1566 	116.599 	-0.591113 	181.206 	360.634 	148.282 	539.795 	
40.0319 	-0.0115443 	-0.904989 	0.578858 	1.66255 	-0.00333726 	3.13928 	90.1566 	116.599 	-0.591113 	180.706 	360.634 	147.705 	539.795 	
40.1349 	-0.0116038 	-0.903758 	0.581276 	1.66255 	-0.00345064 	3.13935 	90.1566 	116.599 	-0.591113 	180.147 	360.634 	147.225 	539.795 	
40.2404 	-0.0116689 	-0.902378 	0.583924 	1.66255 	-0.00357462 	3.13943 	90.1566 	116.599 	-0.591113 	179.647 	360.634 	146.742 	539.795 	
40.345 	-0.0117809 	-0.899937 	0.588467 	1.66255 	-0.00378695 	3.13957 	90.1566 	116.599 	-0.591113 	179.1 	360.634 	146.173 	539.795 	
40.4473 	-0.0118396 	-0.898621 	0.590841 	1.66255 	-0.00389776 	3.13965 	90.1566 	116.599 	-0.591113 	178.599 	360.634 	145.623 	539.795 	
40.5505 	-0.011898 	-0.897285 	0.593204 	1.66255 	-0.00400791 	3.13973 	90.1566 	116.599 	-0.591113 	178.094 	360.634 	145.177 	539.795 	
40.6536 	-0.0119562 	-0.895928 	0.595555 	1.66255 	-0.00411739 	3.1398 	90.1566 	116.599 	-0.591113 	177.59 	360.634 	144.621 	539.795 	
40.757 	-0.0120142 	-0.894551 	0.597894 	1.66255 	-0.00422618 	3.13988 	90.1566 	116.599 	-0.591113 	177.047 	360.634 	144.062 	539.795 	
40.8597 	-0.012072 	-0.893154 	0.600221 	1.66255 	-0.00433429 	3.13996 	90.1566 	116.599 	-0.591113 	176.548 	360.634 	143.635 	539.795 	
40.9629 	-0.0121295 	-0.891736 	0.602535 	1.66256 	-0.0044417 	3.14004 	90.1566 	116.599 	-0.591113 	176.039 	360.634 	143.085 	539.795 	
41.0651 	-0.0121868 	-0.890298 	0.604837 	1.66256 	-0.00454841 	3.14012 	90.1566 	116.599 	-0.591113 	175.49 	360.634 	142.502 	539.795 	
41.167 	-0.0122439 	-0.88884 	0.607127 	1.66256 	-0.00465441 	3.1402 	90.1566 	116.599 	-0.591113 	174.989 	360.634 	142.077 	539.795 	
41.2697 	-0.0123007 	-0.887362 	0.609404 	1.66256 	-0.00475969 	3.14029 	90.1566 	116.599 	-0.591113 	174.487 	360.634 	141.555 	539.795 	
41.373 	-0.0123573 	-0.885864 	0.611668 	1.66256 	-0.00486424 	3.14037 	90.1566 	116.599 	-0.591113 	173.99 	360.634 	140.997 	539.795 	
41.4756 	-0.0124136 	-0.884347 	0.613918 	1.66256 	-0.00496805 	3.14046 	90.1566 	116.599 	-0.591113 	173.429 	360.634 	140.525 	539.795 	
41.5787 	-0.0124696 	-0.88281 	0.616155 	1.66256 	-0.00507112 	3.14054 	90.1566 	116.599 	-0.591113 	172.929 	360.634 	140.023 	539.795 	
41.6818 	-0.0125254 	-0.881254 	0.618379 	1.66256 	-0.00517344 	3.14063 	90.1566 	116.599 	-0.591113 	172.431 	360.634 	139.447 	539.795 	
41.7888 	-0.012581 	-0.879678 	0.620589 	1.66256 	-0.00527499 	3.14071 	90.1566 	116.599 	-0.591113 	171.887 	360.634 	138.96 	539.795 	
41.8916 	-0.0126362 	-0.878083 	0.622785 	1.66256 	-0.00537579 	3.1408 	90.1566 	116.599 	-0.591113 	171.38 	360.634 	138.474 	539.795 	
41.9948 	-0.0126912 	-0.876469 	0.624968 	1.66256 	-0.0054758 	3.14089 	90.1566 	116.599 	-0.591113 	170.829 	360.634 	137.9 	539.795 	
42.0982 	-0.0127459 	-0.874835 	0.627136 	1.66256 	-0.00557503 	3.14098 	90.1566 	116.599 	-0.591113 	170.325 	360.634 	137.404 	539.795 	
42.2008 	-0.0128004 	-0.873183 	0.62929 	1.66257 	-0.00567348 	3.14107 	90.1566 	116.599 	-0.591113 	169.831 	360.634 	136.933 	539.795 	
42.3041 	-0.0128545 	-0.871513 	0.631429 	1.66257 	-0.00577112 	3.14117 	90.1566 	116.599 	-0.591113 	169.324 	360.634 	136.355 	539.795 	
42.4069 	-0.0129084 	-0.869823 	0.633553 	1.66257 	-0.00586796 	3.14126 	90.1566 	116.599 	-0.591113 	168.771 	360.634 	135.832 	539.795 	
42.5099 	-0.0129619 	-0.868115 	0.635663 	1.66257 	-0.00596399 	3.14135 	90.1566 	116.599 	-0.591113 	168.269 	360.634 	135.383 	539.795 	
42.6129 	-0.0130152 	-0.866389 	0.637758 	1.66257 	-0.0060592 	3.14145 	90.1566 	116.599 	-0.591113 	167.768 	360.634 	134.816 	539.795 	
42.7159 	-0.0130681 	-0.864645 	0.639837 	1.66257 	-0.00615357 	3.14154 	90.1566 	116.599 	-0.591113 	167.223 	360.634 	134.269 	539.795 	
42.819 	-0.0131208 	-0.862882 	0.641902 	1.66257 	-0.00624712 	-3.14155 	90.1566 	116.599 	-0.591113 	166.715 	360.634 	133.848 	539.795 	
42.9224 	-0.0131731 	-0.861102 	0.643951 	1.66257 	-0.00633983 	-3.14145 	90.1566 	116.599 	-0.591113 	166.212 	360.634 	133.29 	539.795 	
43.0288 	-0.0132251 	-0.859304 	0.645984 	1.66257 	-0.00643168 	-3.14135 	90.1566 	116.599 	-0.591113 	165.66 	360.634 	132.714 	539.795 	
43.1317 	-0.0132768 	-0.857487 	0.648001 	1.66257 	-0.00652268 	-3.14126 	90.1566 	116.599 	-0.591113 	165.164 	360.634 	132.283 	539.795 	
43.2348 	-0.0133282 	-0.855654 	0.650003 	1.66257 	-0.00661282 	-3.14116 	90.1566 	116.599 	-0.591113 	164.612 	360.634 	131.739 	539.795 	
43.3406 	-0.0133793 	-0.853803 	0.651988 	1.66258 	-0.00670209 	-3.14106 	90.1566 	116.599 	-0.591113 	164.108 	360.634 	131.158 	539.795 	
43.4449 	-0.0134804 	-0.85005 	0.65591 	1.66258 	-0.00687799 	-3.14085 	90.1566 	116.599 	-0.591113 	163.56 	360.634 	130.739 	539.795 	
43.5474 	-0.0135305 	-0.848147 	0.657847 	1.66258 	-0.00696461 	-3.14075 	90.1566 	116.599 	-0.591113 	163.06 	360.634 	130.153 	539.795 	
43.6506 	-0.0135802 	-0.846228 	0.659766 	1.66258 	-0.00705034 	-3.14065 	90.1566 	116.599 	-0.591113 	162.556 	360.634 	129.6 	539.795 	
43.7538 	-0.0136295 	-0.844293 	0.661669 	1.66258 	-0.00713516 	-3.14054 	90.1566 	116.599 	-0.591113 	162.051 	360.634 	129.172 	539.795 	
43.8569 	-0.0136786 	-0.84234 	0.663555 	1.66258 	-0.00721907 	-3.14044 	90.1566 	116.599 	-0.591113 	161.498 	360.634 	128.615 	539.795 	
43.9599 	-0.0137272 	-0.840371 	0.665424 	1.66258 	-0.00730207 	-3.14034 	90.1566 	116.599 	-0.591113 	161.003 	360.634 	128.052 	539.795 	
44.0629 	-0.0137755 	-0.838387 	0.667275 	1.66258 	-0.00738415 	-3.14023 	90.1566 	116.599 	-0.591113 	160.497 	360.634 	127.618 	539.795 	
44.1656 	-0.0138235 	-0.836386 	0.669109 	1.66258 	-0.00746529 	-3.14012 	90.1566 	116.599 	-0.591113 	159.946 	360.634 	127.076 	539.795 	
44.2687 	-0.0138711 	-0.834369 	0.670926 	1.66259 	-0.00754551 	-3.14002 	90.1566 	116.599 	-0.591113 	159.441 	360.634 	126.506 	539.795 	
44.3717 	-0.0139183 	-0.832336 	0.672725 	1.66259 	-0.00762478 	-3.13991 	90.1566 	116.599 	-0.591113 	158.943 	360.634 	126.044 	539.795 	
44.4748 	-0.0139651 	-0.830288 	0.674506 	1.66259 	-0.00770311 	-3.1398 	90.1566 	116.599 	-0.591113 	158.447 	360.634 	125.583 	539.795 	
44.5778 	-0.0140116 	-0.828224 	0.676269 	1.66259 	-0.00778048 	-3.13969 	90.1566 	116.599 	-0.591113 	157.889 	360.634 	124.956 	539.795 	
44.6806 	-0.0140577 	-0.826145 	0.678014 	1.66259 	-0.0078569 	-3.13958 	90.1566 	116.599 	-0.591113 	157.383 	360.634 	124.484 	539.795 	
44.7886 	-0.0141034 	-0.82405 	0.679741 	1.66259 	-0.00793235 	-3.13947 	90.1566 	116.599 	-0.591113 	156.835 	360.634 	123.994 	539.795 	
44.8918 	-0.0141492 	-0.821975 	0.681816 	1.6612 	-0.00800873 	-3.13937 	90.1566 	116.599 	-0.591113 	156.34 	360.634 	123.568 	539.795 	
44.9949 	-0.0141973 	-0.820037 	0.685667 	1.65298 	-0.00809416 	-3.13932 	90.1566 	116.599 	-0.591113 	155.83 	360.634 	123.492 	539.795 	
45.0978 	-0.0142455 	-0.818077 	0.689633 	1.64425 	-0.00818063 	-3.13928 	90.1566 	116.599 	-0.591113 	155.28 	360.634 	123.463 	539.795 	
45.2003 	-0.0142937 	-0.816083 	0.693582 	1.63552 	-0.00826745 	-3.13924 	90.1566 	116.599 	-0.591113 	154.779 	360.634 	123.46 	539.795 	
45.304 	-0.0143418 	-0.814054 	0.697513 	1.6268 	-0.00835463 	-3.1392 	90.1566 	116.599 	-0.591113 	154.278 	360.634 	123.458 	539.795 	
45.4068 	-0.0143899 	-0.811991 	0.701427 	1.61807 	-0.00844213 	-3.13916 	90.1566 	116.599 	-0.591113 	153.724 	360.634 	123.457 	539.795 	
45.51 	-0.0144379 	-0.809894 	0.705322 	1.60934 	-0.00852997 	-3.13913 	90.1566 	116.599 	-0.591113 	153.219 	360.634 	123.457 	539.795 	
45.6128 	-0.0144859 	-0.807763 	0.709199 	1.60062 	-0.00861814 	-3.13909 	90.1566 	116.599 	-0.591113 	152.719 	360.634 	123.456 	539.795 	
45.7164 	-0.0145338 	-0.805598 	0.713057 	1.59189 	-0.00870662 	-3.13905 	90.1566 	116.599 	-0.591113 	152.165 	360.634 	123.456 	539.795 	
45.8188 	-0.0145816 	-0.8034 	0.716897 	1.58317 	-0.00879541 	-3.13902 	90.1566 	116.599 	-0.591113 	151.671 	360.634 	123.456 	539.795 	
45.9222 	-0.0146294 	-0.801168 	0.720716 	1.57444 	-0.00888451 	-3.13898 	90.1566 	116.599 	-0.591211 	151.166 	360.634 	123.456 	539.795 	
46.0292 	-0.0146771 	-0.798903 	0.724517 	1.56571 	-0.00897391 	-3.13895 	90.1566 	116.599 	-0.591211 	150.61 	360.634 	123.456 	539.795 	
46.1316 	-0.0147247 	-0.796605 	0.728297 	1.55699 	-0.0090636 	-3.13892 	90.1566 	116.599 	-0.591211 	150.109 	360.634 	123.456 	539.795 	
46.2346 	-0.0147723 	-0.794274 	0.732057 	1.54826 	-0.00915357 	-3.13888 	90.1566 	116.599 	-0.591211 	149.613 	360.634 	123.456 	539.795 	
46.3406 	-0.0148671 	-0.789513 	0.739516 	1.53081 	-0.00933435 	-3.13882 	90.1566 	116.599 	-0.591211 	149.054 	360.634 	123.456 	539.795 	
46.4448 	-0.0149144 	-0.787085 	0.743214 	1.52208 	-0.00942513 	-3.13879 	90.1566 	116.599 	-0.591211 	148.558 	360.634 	123.456 	539.795 	
46.5474 	-0.0149616 	-0.784624 	0.74689 	1.51335 	-0.00951617 	-3.13876 	90.1566 	116.599 	-0.591211 	148.004 	360.634 	123.455 	539.795 	
46.6507 	-0.0150087 	-0.782131 	0.750545 	1.50463 	-0.00960747 	-3.13874 	90.1566 	116.599 	-0.591211 	147.503 	360.634 	123.455 	539.795 	
46.7539 	-0.0150557 	-0.779606 	0.754178 	1.4959 	-0.009699 	-3.13871 	90.1566 	116.599 	-0.591211 	147.001 	360.634 	123.455 	539.795 	
46.8568 	-0.0151026 	-0.77705 	0.757789 	1.48717 	-0.00979078 	-3.13868 	90.1566 	116.599 	-0.591211 	146.448 	360.634 	123.455 	539.795 	
46.9599 	-0.0151494 	-0.774462 	0.761377 	1.47845 	-0.00988278 	-3.13866 	90.1566 	116.599 	-0.591211 	145.941 	360.634 	123.455 	539.795 	
47.0628 	-0.0151961 	-0.771844 	0.764943 	1.46972 	-0.009975 	-3.13863 	90.1566 	116.599 	-0.591211 	145.442 	360.634 	123.455 	539.795 	
47.1658 	-0.0152426 	-0.769193 	0.768485 	1.461 	-0.0100674 	-3.13861 	90.1566 	116.599 	-0.591211 	144.892 	360.634 	123.455 	539.795 	
47.2688 	-0.0152891 	-0.766513 	0.772005 	1.45227 	-0.0101601 	-3.13858 	90.1566 	116.599 	-0.591211 	144.388 	360.634 	123.455 	539.795 	
47.372 	-0.0153354 	-0.763801 	0.7755 	1.44354 	-0.0102529 	-3.13856 	90.1566 	116.599 	-0.591211 	143.885 	360.634 	123.455 	539.795 	
47.4748 	-0.0153816 	-0.76106 	0.778972 	1.43482 	-0.010346 	-3.13854 	90.1566 	116.599 	-0.591211 	143.384 	360.634 	123.455 	539.795 	
47.5779 	-0.0154276 	-0.758288 	0.78242 	1.42609 	-0.0104392 	-3.13852 	90.1566 	116.599 	-0.591211 	142.839 	360.634 	123.455 	539.795 	
47.6809 	-0.0154736 	-0.755486 	0.785844 	1.41736 	-0.0105326 	-3.1385 	90.1566 	116.599 	-0.591211 	142.332 	360.634 	123.455 	539.795 	
47.7889 	-0.0155193 	-0.752654 	0.789243 	1.40864 	-0.0106262 	-3.13848 	90.1566 	116.599 	-0.591211 	141.779 	360.634 	123.455 	539.795 	
47.892 	-0.015565 	-0.749793 	0.792617 	1.39991 	-0.0107199 	-3.13846 	90.1566 	116.599 	-0.591211 	141.276 	360.634 	123.455 	539.795 	
47.9947 	-0.0156105 	-0.746902 	0.795967 	1.39118 	-0.0108138 	-3.13844 	90.1566 	116.599 	-0.591211 	140.775 	360.634 	123.455 	539.795 	
48.0979 	-0.0156559 	-0.743982 	0.79929 	1.38246 	-0.0109079 	-3.13842 	90.1566 	116.599 	-0.591211 	140.222 	360.634 	123.455 	539.795 	
48.2008 	-0.0157011 	-0.741033 	0.802589 	1.37373 	-0.0110021 	-3.13841 	90.1566 	116.6 	-0.591211 	139.718 	360.634 	123.455 	539.795 	
48.3039 	-0.0157461 	-0.738056 	0.805861 	1.365 	-0.0110964 	-3.13839 	90.1566 	116.6 	-0.591211 	139.211 	360.634 	123.455 	539.795 	
48.4069 	-0.015791 	-0.73505 	0.809107 	1.35628 	-0.0111909 	-3.13838 	90.1566 	116.6 	-0.591211 	138.667 	360.634 	123.455 	539.795 	
48.5099 	-0.0158358 	-0.732016 	0.812327 	1.34755 	-0.0112855 	-3.13836 	90.1566 	116.6 	-0.591211 	138.164 	360.634 	123.455 	539.795 	
48.613 	-0.0158804 	-0.728954 	0.81552 	1.33883 	-0.0113802 	-3.13835 	90.1566 	116.6 	-0.591211 	137.661 	360.634 	123.455 	539.795 	
48.7155 	-0.0159248 	-0.725865 	0.818687 	1.3301 	-0.011475 	-3.13834 	90.1566 	116.6 	-0.591211 	137.107 	360.634 	123.455 	539.795 	
48.819 	-0.015969 	-0.722747 	0.821826 	1.32137 	-0.0115699 	-3.13833 	90.1566 	116.6 	-0.591211 	136.61 	360.634 	123.455 	539.795 	
48.9225 	-0.0160131 	-0.719603 	0.824938 	1.31265 	-0.0116649 	-3.13832 	90.1566 	116.6 	-0.591211 	136.105 	360.634 	123.455 	539.795 	
49.0292 	-0.0160613 	-0.716113 	0.828329 	1.30305 	-0.0117695 	-3.13831 	90.1566 	116.6 	-0.591211 	135.552 	360.634 	123.455 	539.795 	
49.1315 	-0.016105 	-0.712912 	0.831383 	1.29432 	-0.0118647 	-3.1383 	90.1566 	116.6 	-0.591211 	135.045 	360.634 	123.455 	539.795 	
49.2345 	-0.0161442 	-0.710008 	0.834108 	1.28647 	-0.0119504 	-3.13829 	90.1566 	116.6 	-0.591211 	134.546 	360.634 	123.455 	539.795 	
49.3404 	-0.0161875 	-0.706757 	0.837108 	1.27774 	-0.0120457 	-3.13829 	90.1566 	116.6 	-0.591211 	133.996 	360.634 	123.455 	539.795 	
49.4449 	-0.0162307 	-0.703479 	0.84008 	1.26901 	-0.0121411 	-3.13828 	90.1566 	116.6 	-0.591211 	133.494 	360.634 	123.455 	539.795 	
49.5473 	-0.0163164 	-0.696848 	0.845937 	1.25156 	-0.012332 	-3.13827 	90.1566 	116.6 	-0.591211 	132.941 	360.634 	123.455 	539.795 	
49.6495 	-0.0163589 	-0.693494 	0.848822 	1.24283 	-0.0124275 	-3.13827 	90.1566 	116.6 	-0.591211 	132.434 	360.634 	123.455 	539.795 	
49.7528 	-0.0164013 	-0.690115 	0.851678 	1.23411 	-0.012523 	-3.13826 	90.1566 	116.6 	-0.591211 	131.936 	360.634 	123.455 	539.795 	
49.856 	-0.0164434 	-0.686711 	0.854504 	1.22538 	-0.0126185 	-3.13826 	90.1566 	116.6 	-0.591211 	131.384 	360.634 	123.455 	539.795 	
49.9587 	-0.0164853 	-0.683282 	0.8573 	1.21665 	-0.0127141 	-3.13826 	90.1566 	116.6 	-0.591211 	130.879 	360.634 	123.455 	539.795 	
50.0619 	-0.0165271 	-0.67983 	0.860067 	1.20793 	-0.0128097 	-3.13826 	90.1566 	116.6 	-0.591211 	130.375 	360.634 	123.455 	539.795 	
50.1647 	-0.0165686 	-0.676353 	0.862803 	1.1992 	-0.0129052 	-3.13826 	90.1566 	116.6 	-0.591211 	129.875 	360.634 	123.455 	539.795 	
50.2679 	-0.0166098 	-0.672853 	0.865508 	1.19047 	-0.0130008 	-3.13826 	90.1566 	116.6 	-0.591211 	129.324 	360.634 	123.455 	539.795 	
50.3707 	-0.0166509 	-0.669329 	0.868183 	1.18175 	-0.0130963 	-3.13826 	90.1566 	116.6 	-0.591211 	128.822 	360.634 	123.455 	539.795 	
50.4738 	-0.0166917 	-0.665782 	0.870827 	1.17302 	-0.0131918 	-3.13827 	90.1566 	116.6 	-0.591211 	128.319 	360.634 	123.455 	539.795 	
50.5769 	-0.0167323 	-0.662212 	0.87344 	1.16429 	-0.0132873 	-3.13827 	90.1566 	116.6 	-0.591211 	127.77 	360.634 	123.455 	539.795 	
50.6803 	-0.0167727 	-0.658619 	0.876022 	1.15557 	-0.0133828 	-3.13828 	90.1566 	116.6 	-0.591211 	127.266 	360.634 	123.455 	539.795 	
50.789 	-0.0168129 	-0.655004 	0.878572 	1.14684 	-0.0134782 	-3.13828 	90.1566 	116.6 	-0.591211 	126.711 	360.634 	123.455 	539.795 	
50.892 	-0.0168528 	-0.651367 	0.881091 	1.13811 	-0.0135735 	-3.13829 	90.1566 	116.6 	-0.591211 	126.208 	360.634 	123.455 	539.795 	
50.9949 	-0.0168924 	-0.647707 	0.883578 	1.12939 	-0.0136688 	-3.13829 	90.1566 	116.6 	-0.591211 	125.706 	360.634 	123.455 	539.795 	
51.098 	-0.0169318 	-0.644027 	0.886032 	1.12066 	-0.0137641 	-3.1383 	90.1566 	116.6 	-0.591211 	125.153 	360.634 	123.455 	539.795 	
51.201 	-0.016971 	-0.640325 	0.888455 	1.11193 	-0.0138592 	-3.13831 	90.1566 	116.6 	-0.591211 	124.653 	360.634 	123.455 	539.795 	
51.304 	-0.0170099 	-0.636602 	0.890845 	1.10321 	-0.0139543 	-3.13832 	90.1566 	116.6 	-0.591211 	124.15 	360.634 	123.455 	539.795 	
51.4071 	-0.0170486 	-0.632858 	0.893203 	1.09448 	-0.0140493 	-3.13833 	90.1566 	116.6 	-0.591211 	123.596 	360.634 	123.455 	539.795 	
51.5103 	-0.017087 	-0.629094 	0.895528 	1.08575 	-0.0141442 	-3.13834 	90.1566 	116.6 	-0.591211 	123.096 	360.634 	123.455 	539.795 	
51.6129 	-0.0171251 	-0.62531 	0.897819 	1.07703 	-0.014239 	-3.13835 	90.1566 	116.6 	-0.591211 	122.593 	360.634 	123.455 	539.795 	
51.7162 	-0.017163 	-0.621506 	0.900078 	1.0683 	-0.0143336 	-3.13837 	90.1566 	116.6 	-0.591211 	122.04 	360.634 	123.455 	539.795 	
51.8191 	-0.0172006 	-0.617682 	0.902304 	1.05957 	-0.0144282 	-3.13838 	90.1566 	116.6 	-0.591211 	121.536 	360.634 	123.455 	539.795 	
51.9224 	-0.017238 	-0.613839 	0.904496 	1.05084 	-0.0145226 	-3.1384 	90.1566 	116.6 	-0.591211 	121.036 	360.634 	123.455 	539.795 	
52.028 	-0.017275 	-0.609977 	0.906654 	1.04212 	-0.014617 	-3.13841 	90.1566 	116.6 	-0.591211 	120.485 	360.634 	123.455 	539.795 	
52.1308 	-0.0173119 	-0.606097 	0.908779 	1.03339 	-0.0147111 	-3.13843 	90.1566 	116.6 	-0.591211 	119.978 	360.634 	123.455 	539.795 	
52.2338 	-0.0173484 	-0.602198 	0.910869 	1.02466 	-0.0148051 	-3.13844 	90.1566 	116.6 	-0.591211 	119.528 	360.634 	123.455 	539.795 	
52.3367 	-0.0173846 	-0.598281 	0.912926 	1.01594 	-0.014899 	-3.13846 	90.1566 	116.6 	-0.591211 	118.923 	360.634 	123.455 	539.795 	
52.442 	-0.0174206 	-0.594346 	0.914948 	1.00721 	-0.0149927 	-3.13848 	90.1566 	116.6 	-0.591211 	118.426 	360.634 	123.455 	539.795 	
52.5457 	-0.0174563 	-0.590393 	0.916936 	0.998483 	-0.0150863 	-3.1385 	90.1566 	116.6 	-0.591211 	117.868 	360.634 	123.455 	539.795 	
52.6487 	-0.0175268 	-0.582437 	0.920808 	0.981029 	-0.0152728 	-3.13854 	90.1566 	116.6 	-0.591211 	117.365 	360.634 	123.455 	539.795 	
52.7521 	-0.0175616 	-0.578434 	0.922692 	0.972302 	-0.0153658 	-3.13856 	90.1566 	116.6 	-0.591211 	116.862 	360.634 	123.455 	539.795 	
52.855 	-0.0175961 	-0.574415 	0.924541 	0.963575 	-0.0154586 	-3.13859 	90.1566 	116.601 	-0.591211 	116.362 	360.634 	123.455 	539.795 	
52.9574 	-0.0176304 	-0.570379 	0.926354 	0.954849 	-0.0155512 	-3.13861 	90.1566 	116.601 	-0.591211 	115.811 	360.634 	123.455 	539.795 	
53.0613 	-0.0176643 	-0.566328 	0.928133 	0.946121 	-0.0156436 	-3.13864 	90.1566 	116.601 	-0.591211 	115.307 	360.634 	123.455 	539.795 	
54.864 	-0.0177662 	-0.553838 	0.933354 	0.919416 	-0.015925 	-3.13872 	90.1566 	116.601 	-0.591211 	113.621 	360.634 	123.455 	539.795 	
54.9664 	-0.0177518 	-0.555476 	0.93325 	0.919765 	-0.0158866 	-3.13877 	90.1566 	116.601 	-0.591211 	113.718 	360.634 	123.558 	539.795 	
55.0698 	-0.017723 	-0.558186 	0.933404 	0.919763 	-0.0158115 	-3.13888 	90.1566 	116.601 	-0.591211 	114.102 	360.634 	123.939 	539.795 	
55.1729 	-0.0176938 	-0.560898 	0.933534 	0.919762 	-0.0157355 	-3.13899 	90.1566 	116.601 	-0.591211 	114.583 	360.634 	124.426 	539.795 	
55.2758 	-0.0176641 	-0.56361 	0.93364 	0.919761 	-0.0156585 	-3.1391 	90.1566 	116.601 	-0.591211 	115.14 	360.634 	125.019 	539.795 	
55.3787 	-0.0176338 	-0.566324 	0.933723 	0.91976 	-0.0155805 	-3.13921 	90.1566 	116.601 	-0.591211 	115.634 	360.634 	125.481 	539.795 	
55.4819 	-0.0176031 	-0.569038 	0.933782 	0.919759 	-0.0155016 	-3.13932 	90.1567 	116.601 	-0.591211 	116.137 	360.634 	125.974 	539.795 	
55.5878 	-0.0175719 	-0.571752 	0.933817 	0.919758 	-0.0154217 	-3.13943 	90.1566 	116.601 	-0.591211 	116.695 	360.634 	126.571 	539.795 	
55.6908 	-0.0175402 	-0.574467 	0.933829 	0.919757 	-0.0153409 	-3.13954 	90.1566 	116.601 	-0.591211 	117.191 	360.634 	127.04 	539.795 	
55.7938 	-0.017508 	-0.577181 	0.933817 	0.919755 	-0.0152592 	-3.13964 	90.1566 	116.601 	-0.591211 	117.69 	360.634 	127.52 	539.795 	
55.8967 	-0.0174753 	-0.579896 	0.933781 	0.919754 	-0.0151766 	-3.13975 	90.1566 	116.601 	-0.591211 	118.247 	360.634 	128.12 	539.795 	
56 	-0.0174421 	-0.58261 	0.933722 	0.919753 	-0.015093 	-3.13985 	90.1566 	116.601 	-0.591211 	118.757 	360.634 	128.597 	539.795 	
56.1029 	-0.0174085 	-0.585323 	0.933639 	0.919752 	-0.0150085 	-3.13996 	90.1566 	116.601 	-0.591211 	119.243 	360.634 	129.046 	539.795 	
56.2059 	-0.0173744 	-0.588036 	0.933532 	0.919751 	-0.0149231 	-3.14006 	90.1566 	116.601 	-0.591211 	119.813 	360.634 	129.666 	539.795 	
56.3088 	-0.0173398 	-0.590747 	0.933402 	0.91975 	-0.0148368 	-3.14016 	90.1566 	116.601 	-0.591211 	120.308 	360.634 	130.162 	539.795 	
56.4123 	-0.0173047 	-0.593457 	0.933248 	0.919749 	-0.0147497 	-3.14026 	90.1566 	116.601 	-0.591211 	120.808 	360.634 	130.615 	539.795 	
56.5151 	-0.0172692 	-0.596166 	0.93307 	0.919748 	-0.0146616 	-3.14037 	90.1566 	116.601 	-0.591211 	121.31 	360.634 	131.158 	539.795 	
56.618 	-0.0172332 	-0.598873 	0.932869 	0.919747 	-0.0145727 	-3.14047 	90.1566 	116.601 	-0.591211 	121.87 	360.634 	131.721 	539.795 	
56.7214 	-0.0171967 	-0.601579 	0.932644 	0.919745 	-0.0144829 	-3.14057 	90.1566 	116.601 	-0.591211 	122.363 	360.634 	132.169 	539.795 	
56.8307 	-0.0171597 	-0.604282 	0.932395 	0.919745 	-0.0143922 	-3.14066 	90.1566 	116.601 	-0.591211 	122.874 	360.634 	132.703 	539.795 	
56.9338 	-0.0171224 	-0.606983 	0.932123 	0.919744 	-0.0143007 	-3.14076 	90.1566 	116.601 	-0.591211 	123.375 	360.634 	133.229 	539.795 	
57.0398 	-0.0170845 	-0.609681 	0.931827 	0.919743 	-0.0142083 	-3.14086 	90.1566 	116.601 	-0.591211 	123.976 	360.634 	133.774 	539.795 	
57.143 	-0.0170462 	-0.612377 	0.931508 	0.919742 	-0.014115 	-3.14096 	90.1566 	116.601 	-0.591211 	124.476 	360.634 	134.303 	539.795 	
57.2468 	-0.0170074 	-0.61507 	0.931166 	0.919741 	-0.014021 	-3.14105 	90.1566 	116.601 	-0.591211 	125.031 	360.634 	134.879 	539.795 	
57.3495 	-0.0169286 	-0.620446 	0.93041 	0.919738 	-0.0138304 	-3.14124 	90.1566 	116.601 	-0.591211 	125.539 	360.634 	135.313 	539.795 	
57.4519 	-0.0168885 	-0.623129 	0.929996 	0.919738 	-0.0137338 	-3.14133 	90.1566 	116.601 	-0.591211 	126.032 	360.634 	135.829 	539.795 	
57.5547 	-0.016848 	-0.625808 	0.92956 	0.919736 	-0.0136365 	-3.14142 	90.1566 	116.601 	-0.591211 	126.541 	360.634 	136.378 	539.795 	
57.6578 	-0.016807 	-0.628484 	0.9291 	0.919736 	-0.0135384 	-3.14152 	90.1566 	116.601 	-0.591211 	127.091 	360.634 	136.88 	539.795 	
57.7607 	-0.0167656 	-0.631155 	0.928617 	0.919735 	-0.0134394 	3.14158 	90.1566 	116.601 	-0.591211 	127.602 	360.634 	137.382 	539.795 	
57.8639 	-0.0167238 	-0.633822 	0.928111 	0.919734 	-0.0133397 	3.14149 	90.1566 	116.601 	-0.591211 	128.093 	360.634 	137.928 	539.795 	
57.9668 	-0.0166816 	-0.636484 	0.927581 	0.919733 	-0.0132392 	3.1414 	90.1566 	116.601 	-0.591211 	128.656 	360.634 	138.445 	539.795 	
58.0699 	-0.0166389 	-0.639142 	0.927028 	0.919732 	-0.0131379 	3.14131 	90.1566 	116.601 	-0.591211 	129.152 	360.634 	138.926 	539.795 	
58.1729 	-0.0165958 	-0.641795 	0.926452 	0.919731 	-0.0130359 	3.14123 	90.1566 	116.601 	-0.591211 	129.66 	360.634 	139.476 	539.795 	
58.2759 	-0.0165523 	-0.644442 	0.925852 	0.91973 	-0.0129331 	3.14114 	90.1566 	116.601 	-0.591211 	130.206 	360.634 	139.958 	539.795 	
58.3789 	-0.0165084 	-0.647085 	0.92523 	0.919729 	-0.0128296 	3.14105 	90.1566 	116.601 	-0.591211 	130.711 	360.634 	140.471 	539.795 	
58.4822 	-0.016464 	-0.649721 	0.924585 	0.919728 	-0.0127253 	3.14097 	90.1566 	116.601 	-0.591211 	131.215 	360.634 	141.026 	539.795 	
58.589 	-0.0164193 	-0.652352 	0.923916 	0.919727 	-0.0126203 	3.14089 	90.1566 	116.601 	-0.591211 	131.768 	360.634 	141.558 	539.795 	
58.692 	-0.0163742 	-0.654977 	0.923225 	0.919727 	-0.0125146 	3.14081 	90.1566 	116.601 	-0.591211 	132.271 	360.634 	142.015 	539.795 	
58.7949 	-0.0163286 	-0.657596 	0.922511 	0.919726 	-0.0124081 	3.14072 	90.1566 	116.601 	-0.591211 	132.769 	360.634 	142.567 	539.795 	
58.898 	-0.0162827 	-0.660209 	0.921774 	0.919725 	-0.012301 	3.14064 	90.1566 	116.601 	-0.591211 	133.324 	360.634 	143.119 	539.795 	
59.001 	-0.0162364 	-0.662815 	0.921014 	0.919724 	-0.0121931 	3.14056 	90.1566 	116.601 	-0.591211 	133.823 	360.634 	143.575 	539.795 	
59.1043 	-0.0161897 	-0.665414 	0.920231 	0.919723 	-0.0120846 	3.14048 	90.1566 	116.601 	-0.591211 	134.334 	360.634 	144.111 	539.795 	
59.207 	-0.0161426 	-0.668007 	0.919426 	0.919722 	-0.0119754 	3.14041 	90.1566 	116.601 	-0.591211 	134.875 	360.634 	144.676 	539.795 	
59.3101 	-0.0160951 	-0.670592 	0.918599 	0.919722 	-0.0118655 	3.14033 	90.1566 	116.601 	-0.591211 	135.387 	360.634 	145.121 	539.795 	
59.4131 	-0.0160472 	-0.67317 	0.917748 	0.919721 	-0.0117549 	3.14025 	90.1566 	116.601 	-0.591211 	135.884 	360.634 	145.652 	539.795 	
59.5158 	-0.015999 	-0.67574 	0.916875 	0.91972 	-0.0116437 	3.14018 	90.1566 	116.601 	-0.591211 	136.443 	360.634 	146.18 	539.795 	
59.619 	-0.0159504 	-0.678303 	0.91598 	0.919719 	-0.0115319 	3.14011 	90.1566 	116.601 	-0.591211 	136.937 	360.634 	146.676 	539.795 	
59.7223 	-0.0159014 	-0.680858 	0.915063 	0.919718 	-0.0114194 	3.14003 	90.1566 	116.6 	-0.591211 	137.441 	360.634 	147.196 	539.795 	
59.8291 	-0.0158521 	-0.683405 	0.914123 	0.919718 	-0.0113062 	3.13996 	90.1566 	116.6 	-0.591211 	137.994 	360.634 	147.782 	539.795 	
59.9319 	-0.0158024 	-0.685943 	0.913161 	0.919717 	-0.0111925 	3.13989 	90.1566 	116.6 	-0.591211 	138.496 	360.634 	148.242 	539.795 	
60.0349 	-0.0157524 	-0.688473 	0.912177 	0.919716 	-0.0110781 	3.13982 	90.1566 	116.6 	-0.591211 	138.996 	360.634 	148.734 	539.795 	
60.1408 	-0.015702 	-0.690994 	0.911171 	0.919715 	-0.0109631 	3.13975 	90.1566 	116.6 	-0.591211 	139.546 	360.634 	149.331 	539.795 	
60.2447 	-0.0156001 	-0.696009 	0.909093 	0.919714 	-0.0107314 	3.13962 	90.1566 	116.6 	-0.591211 	140.055 	360.634 	149.795 	539.795 	
60.3475 	-0.0155487 	-0.698503 	0.908021 	0.919713 	-0.0106146 	3.13955 	90.1566 	116.6 	-0.591211 	140.6 	360.634 	150.333 	539.795 	
60.451 	-0.0154969 	-0.700988 	0.906928 	0.919713 	-0.0104973 	3.13949 	90.1566 	116.6 	-0.591211 	141.111 	360.634 	150.885 	539.795 	
60.554 	-0.0154448 	-0.703463 	0.905813 	0.919712 	-0.0103794 	3.13942 	90.1566 	116.6 	-0.591211 	141.6 	360.634 	151.351 	539.795 	
60.6568 	-0.0153924 	-0.705928 	0.904676 	0.919711 	-0.010261 	3.13936 	90.1566 	116.6 	-0.591211 	142.161 	360.634 	151.875 	539.795 	
60.7599 	-0.0153396 	-0.708383 	0.903518 	0.919711 	-0.010142 	3.1393 	90.1566 	116.6 	-0.591211 	142.658 	360.634 	152.424 	539.795 	
60.863 	-0.0152866 	-0.710828 	0.902338 	0.91971 	-0.0100225 	3.13924 	90.1566 	116.6 	-0.591211 	143.17 	360.634 	152.91 	539.795 	
60.9654 	-0.0152332 	-0.713262 	0.901137 	0.919709 	-0.00990249 	3.13918 	90.1566 	116.6 	-0.591211 	143.711 	360.634 	153.374 	539.795 	
61.0675 	-0.0151795 	-0.715686 	0.899915 	0.919709 	-0.00978195 	3.13912 	90.1566 	116.6 	-0.591211 	144.216 	360.634 	153.974 	539.795 	
61.1693 	-0.0151254 	-0.718099 	0.898672 	0.919708 	-0.00966089 	3.13906 	90.1566 	116.6 	-0.591211 	144.714 	360.634 	154.472 	539.795 	
61.2715 	-0.0150711 	-0.720501 	0.897408 	0.919708 	-0.00953934 	3.139 	90.1566 	116.6 	-0.591211 	145.218 	360.634 	154.924 	539.795 	
61.3733 	-0.0150165 	-0.722892 	0.896123 	0.919707 	-0.0094173 	3.13895 	90.1566 	116.6 	-0.591211 	145.725 	360.634 	155.456 	539.795 	
61.4756 	-0.0149616 	-0.725272 	0.894817 	0.919706 	-0.00929478 	3.13889 	90.1566 	116.6 	-0.591211 	146.269 	360.634 	155.971 	539.795 	
61.5775 	-0.0149064 	-0.72764 	0.89349 	0.919706 	-0.0091718 	3.13884 	90.1566 	116.6 	-0.591211 	146.775 	360.634 	156.478 	539.795 	
61.6794 	-0.0148509 	-0.729997 	0.892143 	0.919705 	-0.00904834 	3.13879 	90.1566 	116.6 	-0.591211 	147.274 	360.634 	157 	539.795 	
61.7873 	-0.0147951 	-0.732341 	0.890776 	0.919705 	-0.00892445 	3.13874 	90.1566 	116.6 	-0.591211 	147.832 	360.634 	157.582 	539.795 	
61.8894 	-0.0147391 	-0.734674 	0.889387 	0.919704 	-0.0088001 	3.13869 	90.1566 	116.6 	-0.591211 	148.32 	360.634 	158.035 	539.795 	
61.9913 	-0.0146828 	-0.736994 	0.887979 	0.919703 	-0.00867533 	3.13864 	90.1566 	116.6 	-0.591211 	148.833 	360.634 	158.542 	539.795 	
62.0952 	-0.0146262 	-0.739302 	0.88655 	0.919703 	-0.00855013 	3.13859 	90.1566 	116.6 	-0.591211 	149.329 	360.634 	159.081 	539.795 	
62.198 	-0.0145693 	-0.741598 	0.885102 	0.919702 	-0.00842452 	3.13854 	90.1566 	116.6 	-0.591211 	149.888 	360.634 	159.587 	539.795 	
62.3012 	-0.0145122 	-0.743881 	0.883633 	0.919702 	-0.00829851 	3.1385 	90.1566 	116.6 	-0.591211 	150.379 	360.634 	160.09 	539.795 	
62.4042 	-0.0144548 	-0.746151 	0.882144 	0.919701 	-0.0081721 	3.13845 	90.1566 	116.6 	-0.591211 	150.884 	360.634 	160.636 	539.795 	
62.507 	-0.0143972 	-0.748407 	0.880636 	0.919701 	-0.00804531 	3.13841 	90.1566 	116.6 	-0.591211 	151.434 	360.634 	161.149 	539.795 	
62.6101 	-0.0143393 	-0.750651 	0.879108 	0.9197 	-0.00791814 	3.13837 	90.1566 	116.6 	-0.591211 	151.94 	360.634 	161.626 	539.795 	
62.7131 	-0.0142811 	-0.752881 	0.87756 	0.9197 	-0.00779061 	3.13833 	90.1566 	116.6 	-0.591211 	152.441 	360.634 	162.177 	539.795 	
62.8164 	-0.0142228 	-0.755098 	0.875993 	0.9197 	-0.00766273 	3.13829 	90.1566 	116.6 	-0.591211 	152.992 	360.634 	162.652 	539.795 	
62.9188 	-0.0141642 	-0.7573 	0.874407 	0.919699 	-0.00753449 	3.13825 	90.1566 	116.6 	-0.591211 	153.492 	360.634 	163.176 	539.795 	
63.023 	-0.0141053 	-0.759489 	0.872802 	0.919699 	-0.00740592 	3.13821 	90.1566 	116.6 	-0.591211 	153.99 	360.634 	163.723 	539.795 	
63.1294 	-0.0140463 	-0.761664 	0.871177 	0.919698 	-0.00727703 	3.13817 	90.1566 	116.6 	-0.591211 	154.547 	360.634 	164.261 	539.795 	
63.2319 	-0.013987 	-0.763824 	0.869534 	0.919698 	-0.00714782 	3.13814 	90.1566 	116.6 	-0.591211 	155.042 	360.634 	164.721 	539.795 	
63.3349 	-0.0139275 	-0.76597 	0.867872 	0.919697 	-0.00701831 	3.1381 	90.1566 	116.6 	-0.591211 	155.501 	360.634 	165.206 	539.795 	
63.4407 	-0.0138678 	-0.768101 	0.866191 	0.919696 	-0.0068885 	3.13807 	90.1566 	116.6 	-0.591211 	156.093 	360.634 	165.811 	539.795 	
63.5446 	-0.0137477 	-0.77232 	0.862774 	0.919696 	-0.00662802 	3.13801 	90.1566 	116.6 	-0.591211 	156.606 	360.634 	166.277 	539.795 	
63.6479 	-0.0136874 	-0.774407 	0.861038 	0.919695 	-0.00649738 	3.13798 	90.1566 	116.6 	-0.591211 	157.146 	360.634 	166.863 	539.795 	
63.7507 	-0.0136269 	-0.776478 	0.859284 	0.919695 	-0.00636648 	3.13795 	90.1566 	116.6 	-0.591211 	157.654 	360.634 	167.375 	539.795 	
63.8526 	-0.0135662 	-0.778534 	0.857512 	0.919695 	-0.00623533 	3.13792 	90.1566 	116.6 	-0.591211 	158.153 	360.634 	167.828 	539.795 	
63.9561 	-0.0135053 	-0.780575 	0.855722 	0.919694 	-0.00610395 	3.13789 	90.1566 	116.6 	-0.591211 	158.703 	360.634 	168.353 	539.795 	
64.059 	-0.0134442 	-0.782599 	0.853914 	0.919693 	-0.00597235 	3.13787 	90.1566 	116.6 	-0.591211 	159.204 	360.634 	168.923 	539.795 	
64.1622 	-0.013383 	-0.784608 	0.852088 	0.919693 	-0.00584052 	3.13784 	90.1566 	116.6 	-0.591211 	159.707 	360.634 	169.383 	539.795 	
64.265 	-0.0133215 	-0.786601 	0.850246 	0.919693 	-0.00570849 	3.13782 	90.1566 	116.6 	-0.591211 	160.21 	360.634 	169.896 	539.795 	
64.368 	-0.0132599 	-0.788578 	0.848385 	0.919692 	-0.00557626 	3.1378 	90.1566 	116.6 	-0.591211 	160.758 	360.634 	170.483 	539.795 	
64.4707 	-0.0131982 	-0.790538 	0.846508 	0.919692 	-0.00544384 	3.13778 	90.1566 	116.6 	-0.591211 	161.262 	360.634 	170.94 	539.795 	
64.574 	-0.0131363 	-0.792482 	0.844614 	0.919692 	-0.00531125 	3.13776 	90.1566 	116.6 	-0.591211 	161.758 	360.634 	171.435 	539.795 	
64.6775 	-0.0130742 	-0.79441 	0.842702 	0.919691 	-0.00517849 	3.13774 	90.1566 	116.6 	-0.591211 	162.313 	360.634 	172.028 	539.795 	
64.7799 	-0.013012 	-0.79632 	0.840774 	0.919691 	-0.00504557 	3.13772 	90.1566 	116.6 	-0.591211 	162.811 	360.634 	172.496 	539.795 	
64.8881 	-0.0129497 	-0.798214 	0.83883 	0.91969 	-0.00491251 	3.13771 	90.1566 	116.6 	-0.591211 	163.368 	360.634 	173.039 	539.795 	
64.991 	-0.0128872 	-0.80009 	0.836869 	0.91969 	-0.00477932 	3.13769 	90.1566 	116.6 	-0.591211 	163.861 	360.634 	173.58 	539.795 	
65.0941 	-0.0128245 	-0.80195 	0.834891 	0.919689 	-0.00464599 	3.13768 	90.1566 	116.6 	-0.591211 	164.371 	360.634 	174.049 	539.795 	
65.1969 	-0.0127618 	-0.803792 	0.832898 	0.919689 	-0.00451256 	3.13766 	90.1566 	116.6 	-0.591211 	164.913 	360.634 	174.578 	539.795 	
65.3002 	-0.0126989 	-0.805617 	0.830888 	0.919689 	-0.00437901 	3.13765 	90.1566 	116.6 	-0.591211 	165.418 	360.634 	175.127 	539.795 	
65.4031 	-0.0126359 	-0.807424 	0.828863 	0.919688 	-0.00424537 	3.13764 	90.1566 	116.6 	-0.591211 	165.919 	360.634 	175.604 	539.795 	
65.5063 	-0.0125728 	-0.809213 	0.826821 	0.919688 	-0.00411165 	3.13763 	90.1566 	116.6 	-0.591211 	166.47 	360.634 	176.078 	539.795 	
65.6092 	-0.0125096 	-0.810984 	0.824765 	0.919687 	-0.00397785 	3.13763 	90.1566 	116.6 	-0.591211 	166.974 	360.634 	176.669 	539.795 	
65.7123 	-0.0124463 	-0.812738 	0.822693 	0.919687 	-0.00384398 	3.13762 	90.1566 	116.6 	-0.591211 	167.469 	360.634 	177.165 	539.795 	
65.8154 	-0.0123828 	-0.814473 	0.820605 	0.919687 	-0.00371006 	3.13761 	90.1566 	116.6 	-0.591211 	167.978 	360.634 	177.63 	539.795 	
65.9183 	-0.0123193 	-0.81619 	0.818503 	0.919686 	-0.0035761 	3.13761 	90.1566 	116.6 	-0.591211 	168.522 	360.634 	178.211 	539.795 	
66.0216 	-0.0122557 	-0.817888 	0.816386 	0.919686 	-0.0034421 	3.1376 	90.1566 	116.6 	-0.591211 	169.027 	360.634 	178.72 	539.795 	
66.1252 	-0.012192 	-0.819568 	0.814254 	0.919685 	-0.00330808 	3.1376 	90.1566 	116.6 	-0.591211 	169.524 	360.634 	179.181 	539.795 	
66.231 	-0.0121282 	-0.82123 	0.812107 	0.919685 	-0.00317405 	3.1376 	90.1566 	116.6 	-0.591211 	170.083 	360.634 	179.759 	539.795 	
66.334 	-0.0120644 	-0.822872 	0.809946 	0.919685 	-0.00304001 	3.1376 	90.1566 	116.599 	-0.591211 	170.575 	360.634 	180.274 	539.795 	
66.4369 	-0.0120005 	-0.824496 	0.807771 	0.919685 	-0.00290597 	3.1376 	90.1566 	116.599 	-0.591211 	171.129 	360.634 	180.783 	539.795 	
66.541 	-0.0119365 	-0.8261 	0.805582 	0.919684 	-0.00277196 	3.13761 	90.1566 	116.599 	-0.591211 	171.626 	360.634 	181.302 	539.795 	
66.6439 	-0.0118083 	-0.829251 	0.801161 	0.919683 	-0.00250402 	3.13761 	90.1566 	116.599 	-0.591211 	172.135 	360.634 	181.83 	539.795 	
66.7463 	-0.0117442 	-0.830798 	0.798931 	0.919683 	-0.00237012 	3.13762 	90.1566 	116.599 	-0.591211 	172.679 	360.634 	182.335 	539.795 	
66.8487 	-0.01168 	-0.832325 	0.796687 	0.919682 	-0.00223627 	3.13763 	90.1566 	116.599 	-0.591211 	173.183 	360.634 	182.849 	539.795 	
66.9516 	-0.0116157 	-0.833833 	0.79443 	0.919682 	-0.00210249 	3.13764 	90.1566 	116.599 	-0.591211 	173.681 	360.634 	183.383 	539.795 	
67.0551 	-0.0115514 	-0.83532 	0.792159 	0.919682 	-0.00196879 	3.13765 	90.1566 	116.599 	-0.591211 	174.183 	360.634 	183.845 	539.795 	
67.1582 	-0.0114871 	-0.836788 	0.789876 	0.919681 	-0.00183518 	3.13766 	90.1566 	116.599 	-0.591211 	174.736 	360.634 	184.387 	539.795 	
67.2611 	-0.0114228 	-0.838236 	0.78758 	0.919681 	-0.00170166 	3.13767 	90.1566 	116.599 	-0.591211 	175.232 	360.634 	184.929 	539.795 	
67.3642 	-0.0113584 	-0.839663 	0.785271 	0.919681 	-0.00156826 	3.13768 	90.1566 	116.599 	-0.591211 	175.74 	360.634 	185.392 	539.795 	
67.467 	-0.011294 	-0.841071 	0.782951 	0.91968 	-0.00143497 	3.1377 	90.1566 	116.599 	-0.591211 	176.284 	360.634 	185.939 	539.795 	
67.5702 	-0.0112296 	-0.842458 	0.780617 	0.91968 	-0.00130181 	3.13771 	90.1566 	116.599 	-0.591211 	176.792 	360.634 	186.479 	539.795 	
67.6729 	-0.0111652 	-0.843825 	0.778272 	0.919679 	-0.00116879 	3.13773 	90.1566 	116.599 	-0.591211 	177.284 	360.634 	186.957 	539.795 	
67.7761 	-0.0111008 	-0.845171 	0.775915 	0.919679 	-0.00103592 	3.13774 	90.1566 	116.599 	-0.591211 	177.843 	360.634 	187.427 	539.795 	
67.8792 	-0.0110364 	-0.846497 	0.773547 	0.919679 	-0.000903211 	3.13776 	90.1566 	116.599 	-0.591211 	178.34 	360.634 	188.022 	539.795 	
67.9825 	-0.010972 	-0.847802 	0.771167 	0.919678 	-0.000770669 	3.13778 	90.1566 	116.599 	-0.591211 	178.845 	360.634 	188.512 	539.795 	
68.0877 	-0.0109076 	-0.849086 	0.768775 	0.919678 	-0.000638308 	3.1378 	90.1566 	116.599 	-0.591211 	179.391 	360.634 	189.031 	539.795 	
68.1912 	-0.0108433 	-0.850349 	0.766373 	0.919678 	-0.000506135 	3.13783 	90.1566 	116.599 	-0.591211 	179.897 	360.634 	189.569 	539.795 	
68.2941 	-0.0107789 	-0.851591 	0.76396 	0.919677 	-0.000374162 	3.13785 	90.1566 	116.599 	-0.591211 	180.393 	360.634 	190.071 	539.795 	
68.397 	-0.0107146 	-0.852812 	0.761535 	0.919677 	-0.000242401 	3.13787 	90.1566 	116.599 	-0.591211 	180.942 	360.634 	190.581 	539.795 	
68.5003 	-0.0106503 	-0.854011 	0.759101 	0.919676 	-0.000110855 	3.1379 	90.1566 	116.599 	-0.591211 	181.448 	360.634 	191.11 	539.795 	
68.6031 	-0.0105861 	-0.85519 	0.756655 	0.919676 	2.04568e-05 	3.13793 	90.1566 	116.599 	-0.591211 	181.943 	360.634 	191.626 	539.795 	
68.7062 	-0.0105219 	-0.856347 	0.7542 	0.919675 	0.000151533 	3.13796 	90.1566 	116.599 	-0.591211 	182.496 	360.634 	192.083 	539.795 	
68.809 	-0.0104577 	-0.857483 	0.751735 	0.919675 	0.000282356 	3.13798 	90.1566 	116.599 	-0.591211 	182.993 	360.634 	192.659 	539.795 	
68.9125 	-0.0103936 	-0.858597 	0.74926 	0.919675 	0.000412921 	3.13802 	90.1566 	116.599 	-0.591211 	183.502 	360.634 	193.181 	539.795 	
69.0154 	-0.0103296 	-0.859689 	0.746775 	0.919674 	0.000543216 	3.13805 	90.1566 	116.599 	-0.591211 	183.997 	360.634 	193.637 	539.795 	
69.1182 	-0.0102656 	-0.86076 	0.744281 	0.919674 	0.000673232 	3.13808 	90.1566 	116.599 	-0.591211 	184.553 	360.634 	194.198 	539.795 	
69.2214 	-0.0102017 	-0.861809 	0.741777 	0.919673 	0.000802958 	3.13811 	90.1566 	116.599 	-0.591211 	185.045 	360.634 	194.729 	539.795 	
69.3296 	-0.0101378 	-0.862836 	0.739265 	0.919672 	0.000932383 	3.13815 	90.1566 	116.599 	-0.591211 	185.602 	360.634 	195.234 	539.795 	
69.4321 	-0.0100676 	-0.86394 	0.736491 	0.919672 	0.0010744 	3.13819 	90.1566 	116.599 	-0.591211 	186.102 	360.634 	195.746 	539.795 	
69.5351 	-0.0100103 	-0.864823 	0.734213 	0.919672 	0.0011903 	3.13822 	90.1566 	116.599 	-0.591211 	186.602 	360.634 	196.23 	539.795 	
69.6409 	-0.0098832 	-0.866723 	0.729128 	0.919671 	0.0014469 	3.1383 	90.1566 	116.599 	-0.591211 	187.152 	360.634 	196.793 	539.795 	
69.7449 	-0.00981977 	-0.867639 	0.726573 	0.91967 	0.00157469 	3.13834 	90.1566 	116.599 	-0.591211 	187.651 	360.634 	197.287 	539.795 	
69.848 	-0.00975644 	-0.868533 	0.72401 	0.91967 	0.00170211 	3.13838 	90.1566 	116.599 	-0.591211 	188.205 	360.634 	197.874 	539.795 	
69.9509 	-0.00969323 	-0.869405 	0.721439 	0.919669 	0.00182917 	3.13842 	90.1566 	116.599 	-0.591211 	188.703 	360.634 	198.347 	539.795 	
70.054 	-0.00963011 	-0.870254 	0.718861 	0.919668 	0.00195585 	3.13847 	90.1566 	116.599 	-0.591211 	189.209 	360.634 	198.836 	539.795 	
70.1565 	-0.00956712 	-0.871081 	0.716276 	0.919668 	0.00208214 	3.13851 	90.1566 	116.599 	-0.591211 	189.752 	360.634 	199.433 	539.795 	
70.2588 	-0.00950424 	-0.871885 	0.713683 	0.919667 	0.00220804 	3.13856 	90.1566 	116.599 	-0.591211 	190.257 	360.634 	199.909 	539.795 	
70.3621 	-0.00944149 	-0.872666 	0.711084 	0.919667 	0.00233352 	3.1386 	90.1566 	116.599 	-0.591211 	190.752 	360.634 	200.379 	539.795 	
70.4651 	-0.00937887 	-0.873424 	0.708478 	0.919667 	0.0024586 	3.13865 	90.1566 	116.599 	-0.591211 	191.257 	360.634 	200.918 	539.795 	
70.5683 	-0.00931638 	-0.87416 	0.705865 	0.919666 	0.00258325 	3.1387 	90.1566 	116.599 	-0.591211 	191.802 	360.634 	201.465 	539.795 	
70.6709 	-0.00925402 	-0.874873 	0.703246 	0.919665 	0.00270746 	3.13875 	90.1566 	116.599 	-0.591211 	192.308 	360.634 	201.927 	539.795 	
70.7744 	-0.00919181 	-0.875563 	0.700621 	0.919665 	0.00283123 	3.1388 	90.1566 	116.599 	-0.591211 	192.807 	360.634 	202.465 	539.795 	
70.877 	-0.00912976 	-0.87623 	0.69799 	0.919664 	0.00295454 	3.13886 	90.1566 	116.599 	-0.591211 	193.357 	360.634 	203.017 	539.795 	
70.9801 	-0.00906785 	-0.876875 	0.695353 	0.919664 	0.0030774 	3.13891 	90.1566 	116.599 	-0.591211 	193.857 	360.634 	203.47 	539.795 	
71.0881 	-0.0090061 	-0.877496 	0.692711 	0.919663 	0.00319977 	3.13896 	90.1566 	116.599 	-0.591211 	194.41 	360.634 	204.057 	539.795 	
71.1909 	-0.00894451 	-0.878094 	0.690063 	0.919662 	0.00332167 	3.13902 	90.1566 	116.599 	-0.591211 	194.91 	360.634 	204.569 	539.795 	
71.2943 	-0.00888309 	-0.878669 	0.68741 	0.919662 	0.00344308 	3.13908 	90.1566 	116.599 	-0.591211 	195.405 	360.634 	205.031 	539.795 	
71.397 	-0.00882183 	-0.87922 	0.684753 	0.919661 	0.00356398 	3.13914 	90.1566 	116.599 	-0.591211 	195.963 	360.634 	205.603 	539.795 	
71.5002 	-0.00876076 	-0.879749 	0.682091 	0.91966 	0.00368438 	3.13919 	90.1566 	116.599 	-0.591211 	196.457 	360.634 	206.131 	539.795 	
71.6033 	-0.00869986 	-0.880254 	0.679424 	0.91966 	0.00380426 	3.13925 	90.1566 	116.599 	-0.591211 	196.964 	360.634 	206.587 	539.795 	
71.7065 	-0.00863916 	-0.880736 	0.676752 	0.919659 	0.00392361 	3.13932 	90.1566 	116.599 	-0.591211 	197.51 	360.634 	207.092 	539.795 	
71.8093 	-0.00857864 	-0.881195 	0.674077 	0.919658 	0.00404242 	3.13938 	90.1566 	116.599 	-0.591211 	198.016 	360.634 	207.68 	539.795 	
71.9125 	-0.00851831 	-0.88163 	0.671398 	0.919658 	0.00416069 	3.13944 	90.1566 	116.599 	-0.591211 	198.51 	360.634 	208.135 	539.795 	
72.0154 	-0.00845819 	-0.882042 	0.668715 	0.919657 	0.0042784 	3.1395 	90.1566 	116.599 	-0.591211 	199.011 	360.634 	208.638 	539.795 	
72.1182 	-0.00839827 	-0.88243 	0.666029 	0.919656 	0.00439555 	3.13957 	90.1566 	116.599 	-0.591211 	199.56 	360.634 	209.23 	539.795 	
72.2216 	-0.00833856 	-0.882795 	0.663339 	0.919656 	0.00451212 	3.13964 	90.1566 	116.599 	-0.591211 	200.064 	360.634 	209.698 	539.795 	
72.3293 	-0.00827905 	-0.883137 	0.660646 	0.919655 	0.00462811 	3.1397 	90.1566 	116.599 	-0.591211 	200.612 	360.634 	210.238 	539.795 	
72.4327 	-0.00821977 	-0.883454 	0.65795 	0.919654 	0.00474352 	3.13977 	90.1566 	116.598 	-0.591211 	201.113 	360.634 	210.773 	539.795 	
72.5351 	-0.00816071 	-0.883749 	0.655252 	0.919654 	0.00485832 	3.13984 	90.1566 	116.598 	-0.591211 	201.615 	360.634 	211.256 	539.795 	
72.6411 	-0.00804328 	-0.884267 	0.649848 	0.919652 	0.00508609 	3.13998 	90.1566 	116.598 	-0.591211 	202.162 	360.634 	211.778 	539.795 	
72.7446 	-0.00798491 	-0.88449 	0.647143 	0.919651 	0.00519904 	3.14005 	90.1566 	116.598 	-0.591211 	202.661 	360.634 	212.322 	539.795 	
72.8481 	-0.00792678 	-0.88469 	0.644436 	0.919651 	0.00531136 	3.14013 	90.1566 	116.598 	-0.591211 	203.21 	360.634 	212.861 	539.795 	
72.9506 	-0.00786889 	-0.884867 	0.641727 	0.91965 	0.00542304 	3.1402 	90.1566 	116.598 	-0.591211 	203.715 	360.634 	213.324 	539.795 	
73.0542 	-0.00781126 	-0.885019 	0.639018 	0.919649 	0.00553406 	3.14028 	90.1566 	116.598 	-0.591211 	204.212 	360.634 	213.864 	539.795 	
73.1571 	-0.00775388 	-0.885148 	0.636306 	0.919649 	0.00564443 	3.14035 	90.1566 	116.598 	-0.591211 	204.766 	360.634 	214.411 	539.795 	
73.26 	-0.00769675 	-0.885254 	0.633594 	0.919648 	0.00575412 	3.14043 	90.1566 	116.598 	-0.591211 	205.259 	360.634 	214.872 	539.795 	
73.3632 	-0.00763989 	-0.885336 	0.630881 	0.919647 	0.00586314 	3.14051 	90.1566 	116.598 	-0.591211 	205.764 	360.634 	215.411 	539.795 	
73.4662 	-0.00758329 	-0.885394 	0.628167 	0.919646 	0.00597148 	3.14059 	90.1566 	116.598 	-0.591211 	206.312 	360.634 	215.924 	539.795 	
73.5691 	-0.00752697 	-0.885428 	0.625453 	0.919645 	0.00607912 	3.14067 	90.1566 	116.598 	-0.591211 	206.816 	360.634 	216.428 	539.795 	
73.6722 	-0.00747091 	-0.885439 	0.622739 	0.919644 	0.00618606 	3.14075 	90.1566 	116.598 	-0.591211 	207.315 	360.634 	216.953 	539.795 	
73.7751 	-0.00741514 	-0.885425 	0.620024 	0.919643 	0.00629229 	3.14083 	90.1566 	116.598 	-0.591211 	207.813 	360.634 	217.475 	539.795 	
73.8781 	-0.00735965 	-0.885389 	0.61731 	0.919643 	0.0063978 	3.14091 	90.1566 	116.598 	-0.591211 	208.362 	360.634 	217.978 	539.795 	
73.9813 	-0.00730445 	-0.885328 	0.614596 	0.919642 	0.00650259 	3.141 	90.1566 	116.598 	-0.591211 	208.858 	360.634 	218.494 	539.795 	
74.0882 	-0.00724954 	-0.885244 	0.611883 	0.919641 	0.00660665 	3.14108 	90.1566 	116.588 	-0.591211 	209.409 	360.634 	219.082 	539.795 	
74.1913 	-0.00719492 	-0.885136 	0.609171 	0.91964 	0.00670996 	3.14117 	90.1566 	116.588 	-0.591211 	209.911 	360.634 	219.535 	539.795 	
74.2942 	-0.00714061 	-0.885005 	0.60646 	0.919639 	0.00681252 	3.14125 	90.1566 	116.588 	-0.591211 	210.416 	360.634 	220.041 	539.795 	
74.3971 	-0.0070866 	-0.88485 	0.60375 	0.919638 	0.00691433 	3.14134 	90.1566 	116.588 	-0.591211 	210.964 	360.634 	220.622 	539.795 	
74.5005 	-0.0070329 	-0.884671 	0.601041 	0.919637 	0.00701537 	3.14143 	90.1566 	116.588 	-0.591211 	211.464 	360.634 	221.089 	539.795 	
74.6034 	-0.00697951 	-0.884468 	0.598335 	0.919636 	0.00711565 	3.14152 	90.1566 	116.588 	-0.591211 	211.961 	360.634 	221.583 	539.795 	
74.7068 	-0.00692643 	-0.884242 	0.59563 	0.919635 	0.00721513 	-3.14158 	90.1566 	116.588 	-0.591211 	212.514 	360.634 	222.123 	539.795 	
74.809 	-0.00687368 	-0.883993 	0.592927 	0.919635 	0.00731384 	-3.14149 	90.1566 	116.588 	-0.591211 	213.01 	360.634 	222.651 	539.795 	
74.9125 	-0.00682125 	-0.88372 	0.590226 	0.919633 	0.00741175 	-3.1414 	90.1566 	116.588 	-0.591211 	213.515 	360.634 	223.123 	539.795 	
75.0154 	-0.00676915 	-0.883423 	0.587528 	0.919633 	0.00750885 	-3.14131 	90.1566 	116.588 	-0.591211 	214.011 	360.634 	223.671 	539.795 	
75.1182 	-0.00671738 	-0.883102 	0.584833 	0.919631 	0.00760514 	-3.14121 	90.1566 	116.588 	-0.591211 	214.561 	360.634 	224.2 	539.795 	
75.2213 	-0.00666595 	-0.882758 	0.58214 	0.91963 	0.00770062 	-3.14112 	90.1566 	116.588 	-0.591211 	215.06 	360.634 	224.672 	539.795 	
75.3291 	-0.00661486 	-0.882391 	0.579451 	0.919629 	0.00779527 	-3.14102 	90.1566 	116.588 	-0.591211 	215.612 	360.634 	225.269 	539.795 	
75.4324 	-0.00656411 	-0.882 	0.576765 	0.919628 	0.00788909 	-3.14093 	90.1566 	116.588 	-0.591211 	216.109 	360.634 	225.766 	539.795 	
75.5351 	-0.00651371 	-0.881586 	0.574082 	0.919627 	0.00798207 	-3.14083 	90.1566 	116.588 	-0.591211 	216.607 	360.634 	226.224 	539.795 	
75.641 	-0.00646366 	-0.881149 	0.571403 	0.919626 	0.00807421 	-3.14073 	90.1566 	116.588 	-0.591211 	217.162 	360.634 	226.812 	539.795 	
75.7449 	-0.00641397 	-0.880688 	0.568728 	0.919626 	0.00816549 	-3.14064 	90.1566 	116.588 	-0.591211 	217.657 	360.634 	227.319 	539.795 	
75.8477 	-0.00631567 	-0.879696 	0.56339 	0.919623 	0.00834547 	-3.14044 	90.1566 	116.588 	-0.591211 	218.208 	360.634 	227.824 	539.795 	
75.9497 	-0.00626707 	-0.879165 	0.560729 	0.919622 	0.00843414 	-3.14034 	90.1566 	116.588 	-0.591211 	218.707 	360.634 	228.362 	539.795 	
76.0518 	-0.00621884 	-0.878611 	0.558071 	0.919621 	0.00852194 	-3.14024 	90.1566 	116.588 	-0.591211 	219.21 	360.634 	228.874 	539.795 	
76.1551 	-0.00617098 	-0.878033 	0.555419 	0.91962 	0.00860886 	-3.14013 	90.1566 	116.588 	-0.591211 	219.705 	360.634 	229.33 	539.795 	
76.2579 	-0.0061235 	-0.877433 	0.552772 	0.919619 	0.00869488 	-3.14003 	90.1566 	116.587 	-0.591211 	220.261 	360.634 	229.907 	539.795 	
76.3611 	-0.0060764 	-0.87681 	0.55013 	0.919618 	0.00878 	-3.13993 	90.1566 	116.588 	-0.591211 	220.754 	360.634 	230.425 	539.795 	
76.4641 	-0.00602969 	-0.876163 	0.547494 	0.919617 	0.00886421 	-3.13982 	90.1566 	116.588 	-0.591211 	221.26 	360.634 	230.882 	539.795 	
76.5665 	-0.00598336 	-0.875494 	0.544863 	0.919616 	0.00894751 	-3.13972 	90.1566 	116.588 	-0.591211 	221.805 	360.634 	231.448 	539.795 	
76.6703 	-0.00593743 	-0.874801 	0.542238 	0.919615 	0.00902988 	-3.13961 	90.1566 	116.587 	-0.591211 	222.307 	360.634 	231.983 	539.795 	
76.7731 	-0.0058919 	-0.874086 	0.53962 	0.919613 	0.00911133 	-3.13951 	90.1566 	116.587 	-0.591211 	222.809 	360.634 	232.437 	539.795 	
76.8761 	-0.00584676 	-0.873348 	0.537008 	0.919612 	0.00919186 	-3.1394 	90.1566 	116.587 	-0.591211 	223.357 	360.634 	232.933 	539.795 	
76.9793 	-0.00580203 	-0.872587 	0.534402 	0.919611 	0.00927144 	-3.13929 	90.1566 	116.587 	-0.591211 	223.855 	360.634 	233.529 	539.795 	
77.0825 	-0.0057577 	-0.871803 	0.531803 	0.91961 	0.00935007 	-3.13918 	90.1566 	116.588 	-0.591113 	224.356 	360.634 	233.994 	539.795 	
77.1879 	-0.00571378 	-0.870997 	0.529211 	0.919609 	0.00942776 	-3.13907 	90.1566 	116.588 	-0.591113 	224.905 	360.634 	234.524 	539.795 	
77.2913 	-0.00567028 	-0.870168 	0.526626 	0.919608 	0.00950449 	-3.13896 	90.1566 	116.588 	-0.591113 	225.403 	360.634 	235.073 	539.795 	
77.3942 	-0.00562719 	-0.869317 	0.524049 	0.919606 	0.00958026 	-3.13885 	90.1566 	116.587 	-0.591113 	225.908 	360.634 	235.557 	539.795 	
77.4971 	-0.00558452 	-0.868443 	0.521479 	0.919605 	0.00965506 	-3.13874 	90.1566 	116.587 	-0.591113 	226.454 	360.634 	236.078 	539.795 	
77.6005 	-0.00554227 	-0.867547 	0.518917 	0.919604 	0.00972889 	-3.13863 	90.1566 	116.587 	-0.591113 	226.956 	360.634 	236.621 	539.795 	
77.7035 	-0.00550045 	-0.866628 	0.516362 	0.919603 	0.00980174 	-3.13852 	90.1566 	116.588 	-0.591113 	227.453 	360.634 	237.114 	539.795 	
77.8064 	-0.00545906 	-0.865687 	0.513816 	0.919602 	0.0098736 	-3.1384 	90.1566 	116.588 	-0.591113 	228.001 	360.634 	237.569 	539.795 	
