RISC-NYUAD/HeavyPayloadDrone/projects/kinova-ros/devel/lib/ne_kinova_demo/VulcanTrajectory/Vulcan1_Vicon_y19m11d14h14min30.csv
time (NSec) 	Kinova Tip Position (t_x) 	t_y 	t_z 	Kinova Tip Angle (theta_x) 	Kinova Tip Angle (theta_y) 	Kinova Tip Angle (theta_z) 	Kinova Joint Angle (j1) 	(j2) 	(j3) 	(j4) 	Kinova Joint Angle (j5) 	(j6) 	(j7)
0.027271 	-0.00833781 	0.0536533 	1.24345 	-0.318371 	-0.00572107 	-2.7296 	84.9908 	182.319 	359.56 	190.629 	183.076 	153.545 	338.906 	
0.130352 	-0.0067651 	0.0444167 	1.2443 	-0.302821 	-0.00209156 	-2.73916 	85.2435 	182.043 	359.292 	190.871 	183.33 	153.889 	339.129 	
0.233441 	-0.000379958 	0.00991758 	1.24722 	-0.237013 	0.0154251 	-2.79828 	86.0783 	181.349 	358.439 	191.638 	185.01 	155.528 	340.759 	
0.336354 	0.00528395 	-0.0258475 	1.24864 	-0.167254 	0.0318808 	-2.86549 	87.0953 	180.381 	357.466 	192.608 	187.01 	157.522 	342.753 	
0.439194 	0.00975375 	-0.0618662 	1.24827 	-0.0970585 	0.0454792 	-2.93397 	88.2056 	179.17 	356.36 	193.746 	189.19 	159.767 	344.942 	
0.542349 	0.0130096 	-0.0979866 	1.24611 	-0.0265388 	0.0561329 	-3.00349 	89.2056 	178.197 	355.364 	194.739 	191.197 	161.734 	346.944 	
0.645408 	0.0155175 	-0.134002 	1.24217 	0.0439441 	0.063936 	-3.07024 	89.883 	177.274 	354.374 	195.695 	193.189 	163.71 	348.945 	
0.74871 	0.0194077 	-0.169554 	1.23647 	0.11347 	0.0707751 	-3.12376 	90.0646 	176.177 	353.271 	196.797 	195.39 	165.912 	350.938 	
0.851245 	0.0233047 	-0.204697 	1.22906 	0.18278 	0.0769718 	3.10523 	90.1765 	175.156 	352.272 	197.79 	197.396 	167.911 	353.148 	
0.954556 	0.0271944 	-0.239318 	1.21996 	0.25183 	0.0824816 	3.05034 	90.1742 	174.215 	351.258 	198.774 	199.404 	169.869 	355.137 	
1.05744 	0.0310619 	-0.273309 	1.20923 	0.320571 	0.087258 	2.99477 	90.1743 	173.143 	350.181 	199.75 	201.398 	171.87 	357.129 	
1.16062 	0.0348914 	-0.306564 	1.19692 	0.388954 	0.091253 	2.93851 	90.1742 	172.139 	349.169 	200.846 	203.595 	174.052 	359.322 	
1.26324 	0.0386672 	-0.338988 	1.18311 	0.456923 	0.0944177 	2.88157 	90.1741 	171.153 	348.171 	201.847 	205.612 	176.057 	361.318 	
1.36667 	0.0423727 	-0.370489 	1.16788 	0.524421 	0.096703 	2.82397 	90.1741 	170.188 	347.176 	202.821 	207.621 	178.025 	363.314 	
1.46954 	0.0459918 	-0.400983 	1.15129 	0.591385 	0.0980607 	2.76573 	90.1742 	169.119 	346.081 	203.903 	209.805 	180.215 	365.514 	
1.57296 	0.0495083 	-0.430395 	1.13344 	0.657749 	0.0984436 	2.70686 	90.174 	168.112 	345.071 	204.913 	211.815 	182.22 	367.53 	
1.67958 	0.0529066 	-0.458656 	1.11443 	0.723442 	0.0978075 	2.64741 	90.1742 	167.049 	343.983 	205.988 	214.013 	184.396 	369.723 	
1.7825 	0.0561709 	-0.485708 	1.09435 	0.788391 	0.0961103 	2.58741 	90.1741 	166.06 	342.963 	206.99 	216.04 	186.381 	371.73 	
1.88535 	0.0592871 	-0.511499 	1.07331 	0.85252 	0.0933146 	2.52688 	90.1742 	165.079 	341.974 	207.979 	218.012 	188.383 	373.714 	
1.98978 	0.0622416 	-0.535989 	1.0514 	0.915748 	0.0893872 	2.46589 	90.1742 	164.013 	340.882 	209.056 	220.219 	190.57 	375.909 	
2.09323 	0.0676165 	-0.580942 	1.00544 	1.03917 	0.0780307 	2.34267 	90.1741 	163.027 	339.873 	210.059 	222.23 	192.557 	377.921 	
2.19744 	0.070016 	-0.601367 	0.981595 	1.09919 	0.0705635 	2.28055 	90.1742 	161.954 	338.778 	211.045 	224.222 	194.537 	379.905 	
2.30034 	0.0722124 	-0.620414 	0.957324 	1.15798 	0.0618898 	2.21814 	90.1618 	160.942 	337.757 	212.145 	226.436 	196.741 	382.114 	
2.4034 	0.0741991 	-0.638085 	0.932732 	1.21544 	0.0520069 	2.15551 	90.156 	160.035 	336.773 	213.125 	228.427 	198.745 	384.11 	
2.50682 	0.0759721 	-0.65439 	0.907922 	1.27149 	0.0409208 	2.09269 	90.1575 	159.037 	335.79 	214.113 	230.456 	200.759 	386.105 	
2.61475 	0.0775285 	-0.669349 	0.882999 	1.32604 	0.0286431 	2.02973 	90.1476 	157.913 	334.658 	215.231 	232.668 	202.917 	388.321 	
2.71748 	0.0788681 	-0.682987 	0.858059 	1.37902 	0.0151947 	1.96668 	90.1489 	156.816 	333.56 	216.222 	234.651 	204.952 	390.327 	
2.82061 	0.0799928 	-0.695335 	0.833199 	1.43035 	0.000603341 	1.90357 	90.149 	155.843 	332.566 	217.309 	236.865 	207.163 	392.521 	
2.92378 	0.0809059 	-0.706432 	0.808508 	1.47995 	-0.0150977 	1.84044 	90.1454 	154.865 	331.553 	218.311 	238.868 	209.131 	394.506 	
3.02646 	0.0816141 	-0.716323 	0.784072 	1.52774 	-0.0318656 	1.77731 	90.1481 	153.871 	330.559 	219.315 	240.882 	211.14 	396.503 	
3.12962 	0.0821247 	-0.725055 	0.75997 	1.57367 	-0.0496536 	1.7142 	90.1484 	152.781 	329.465 	220.412 	243.069 	213.374 	398.728 	
3.23259 	0.0824485 	-0.732681 	0.736276 	1.61765 	-0.0684064 	1.65114 	90.1483 	151.809 	328.461 	221.407 	245.1 	215.359 	400.693 	
3.33582 	0.0825968 	-0.739257 	0.713059 	1.65964 	-0.0880648 	1.58813 	90.1483 	150.834 	327.462 	222.412 	247.104 	217.37 	402.704 	
3.43868 	0.0825842 	-0.744842 	0.69038 	1.69957 	-0.108562 	1.52518 	90.1474 	149.743 	326.344 	223.504 	249.299 	219.558 	404.713 	
3.54182 	0.0824259 	-0.749498 	0.668293 	1.73739 	-0.129828 	1.46229 	90.1489 	148.776 	325.359 	224.5 	251.312 	221.598 	406.903 	
3.64483 	0.0821392 	-0.753284 	0.646847 	1.77305 	-0.151788 	1.39946 	90.1482 	147.803 	324.342 	225.5 	253.304 	223.579 	408.912 	
3.74792 	0.081743 	-0.756265 	0.626085 	1.80649 	-0.17436 	1.33666 	90.1483 	146.691 	323.243 	226.51 	255.333 	225.597 	410.913 	
3.8509 	0.0812565 	-0.758503 	0.606042 	1.83768 	-0.197464 	1.27389 	90.1483 	145.681 	322.243 	227.606 	257.516 	227.801 	413.121 	
3.95385 	0.0807009 	-0.760059 	0.586748 	1.86658 	-0.22101 	1.21113 	90.1483 	144.669 	321.244 	228.618 	259.519 	229.821 	415.122 	
4.05678 	0.0800974 	-0.760994 	0.568224 	1.89314 	-0.24491 	1.14835 	90.1483 	143.681 	320.234 	229.611 	261.539 	231.825 	417.106 	
4.15993 	0.0794685 	-0.761367 	0.550489 	1.91733 	-0.269069 	1.08552 	90.1478 	142.574 	319.134 	230.731 	263.729 	234.032 	419.332 	
4.26285 	0.0788357 	-0.761233 	0.533554 	1.93912 	-0.293394 	1.02263 	90.1483 	141.589 	318.132 	231.726 	265.732 	236.034 	421.335 	
4.36572 	0.078222 	-0.760646 	0.517424 	1.95848 	-0.317786 	0.959641 	90.1482 	140.609 	317.133 	232.724 	267.74 	238.04 	423.309 	
4.46884 	0.0776489 	-0.759657 	0.502102 	1.97538 	-0.342147 	0.896526 	90.1495 	139.505 	316.026 	233.835 	269.959 	240.253 	425.305 	
4.57225 	0.0771374 	-0.758311 	0.487584 	1.98982 	-0.366379 	0.83326 	90.1488 	138.507 	315.027 	234.841 	271.957 	242.268 	427.511 	
4.68015 	0.0767083 	-0.756653 	0.473862 	2.00176 	-0.390381 	0.769819 	90.1487 	137.418 	313.916 	235.935 	274.155 	244.48 	429.709 	
4.78268 	0.0763806 	-0.75472 	0.460925 	2.01122 	-0.414054 	0.706184 	90.1496 	136.416 	312.923 	236.946 	276.165 	246.485 	431.71 	
4.88584 	0.0761723 	-0.752548 	0.448758 	2.01817 	-0.437299 	0.642344 	90.1495 	135.409 	311.918 	237.955 	278.169 	248.497 	433.709 	
4.98874 	0.0760995 	-0.750167 	0.437343 	2.02264 	-0.460019 	0.578291 	90.1491 	134.322 	310.804 	239.063 	280.361 	250.69 	435.729 	
5.09246 	0.0761768 	-0.747604 	0.42666 	2.02464 	-0.482121 	0.514029 	90.1508 	133.311 	309.803 	240.072 	282.361 	252.714 	437.928 	
5.19661 	0.0764161 	-0.744881 	0.416687 	2.02421 	-0.503513 	0.449574 	90.1516 	132.317 	308.806 	241.076 	284.373 	254.729 	439.903 	
5.29979 	0.077418 	-0.739023 	0.398772 	2.01621 	-0.543833 	0.320202 	90.1509 	131.216 	307.695 	242.18 	286.576 	256.919 	442.112 	
5.40278 	0.0781927 	-0.735913 	0.390778 	2.00878 	-0.562611 	0.255381 	90.1632 	130.207 	306.709 	243.177 	288.569 	258.927 	444.116 	
5.50608 	0.079154 	-0.732693 	0.383389 	1.99917 	-0.580378 	0.190561 	90.1562 	129.201 	305.681 	244.197 	290.566 	260.935 	446.093 	
5.61406 	0.0803012 	-0.729367 	0.37658 	1.98748 	-0.597081 	0.125828 	90.1579 	128.112 	304.59 	245.292 	292.784 	263.165 	448.324 	
5.71699 	0.0816308 	-0.725936 	0.370321 	1.97385 	-0.612678 	0.0612889 	90.1559 	127.098 	303.586 	246.311 	294.786 	265.152 	450.325 	
5.81991 	0.0831361 	-0.722398 	0.364583 	1.95841 	-0.627142 	-0.00293881 	90.1561 	125.995 	302.476 	247.416 	296.984 	267.354 	452.519 	
5.92314 	0.0848079 	-0.718749 	0.359339 	1.94132 	-0.640456 	-0.0667188 	90.1561 	125.038 	301.465 	248.419 	298.983 	269.353 	454.517 	
6.02604 	0.0866341 	-0.714984 	0.354561 	1.92274 	-0.652624 	-0.129905 	90.156 	124.037 	300.465 	249.427 	300.979 	271.34 	456.519 	
6.12887 	0.0885998 	-0.711096 	0.350221 	1.90285 	-0.663659 	-0.192342 	90.1554 	122.938 	299.357 	250.532 	303.18 	273.57 	458.514 	
6.23223 	0.0906875 	-0.707076 	0.346293 	1.88184 	-0.673596 	-0.253867 	90.1555 	121.942 	298.353 	251.532 	305.185 	275.556 	460.717 	
6.3351 	0.0928773 	-0.702915 	0.342749 	1.85991 	-0.68248 	-0.314312 	90.1559 	120.924 	297.359 	252.541 	307.173 	277.571 	462.719 	
6.43817 	0.095147 	-0.698603 	0.339563 	1.83724 	-0.690378 	-0.373512 	90.16 	119.822 	296.357 	253.536 	309.173 	279.591 	464.725 	
6.5411 	0.0974722 	-0.69413 	0.336709 	1.81404 	-0.697367 	-0.431305 	90.1605 	118.824 	295.242 	254.654 	311.373 	281.773 	466.929 	
6.64432 	0.099827 	-0.689488 	0.334163 	1.79049 	-0.703538 	-0.487536 	90.1672 	117.83 	294.239 	255.656 	313.37 	283.786 	468.908 	
6.74732 	0.104214 	-0.686263 	0.331097 	1.76912 	-0.6989 	-0.540546 	90.1807 	116.819 	293.244 	256.66 	315.388 	284.848 	470.917 	
6.85034 	0.113521 	-0.686599 	0.326352 	1.75416 	-0.669509 	-0.587679 	90.1881 	115.709 	292.138 	257.77 	317.574 	284.957 	473.136 	
6.95304 	0.12288 	-0.686599 	0.321849 	1.7403 	-0.639812 	-0.632449 	90.1881 	114.717 	291.126 	258.774 	319.553 	284.962 	475.134 	
7.05629 	0.132263 	-0.68626 	0.317604 	1.72737 	-0.609904 	-0.674979 	90.1902 	113.712 	290.126 	259.785 	321.573 	284.964 	477.126 	
7.15922 	0.141647 	-0.685584 	0.313633 	1.71523 	-0.579873 	-0.715384 	90.1923 	112.619 	289.023 	260.887 	323.778 	284.966 	479.113 	
7.26241 	0.151003 	-0.684571 	0.30995 	1.70373 	-0.549806 	-0.753765 	90.1922 	111.613 	288.008 	261.896 	325.768 	284.967 	481.339 	
7.36515 	0.160305 	-0.683224 	0.306568 	1.69274 	-0.519785 	-0.790215 	90.1923 	110.604 	286.999 	262.897 	327.763 	284.967 	483.329 	
7.46832 	0.169524 	-0.681549 	0.303501 	1.68215 	-0.489889 	-0.824816 	90.1917 	109.514 	285.989 	263.904 	329.772 	284.967 	485.32 	
7.57155 	0.178632 	-0.679552 	0.300761 	1.67183 	-0.460195 	-0.85764 	90.1948 	108.501 	284.885 	265.004 	331.979 	284.967 	487.534 	
7.67449 	0.187599 	-0.677239 	0.298358 	1.66169 	-0.430778 	-0.888754 	90.1942 	107.474 	283.888 	266.017 	333.967 	284.967 	489.519 	
7.78051 	0.196397 	-0.674621 	0.296302 	1.65162 	-0.401715 	-0.918215 	90.194 	106.356 	282.779 	267.128 	336.167 	284.967 	491.716 	
7.88421 	0.204996 	-0.671706 	0.294603 	1.64155 	-0.373076 	-0.946074 	90.1952 	105.363 	281.781 	268.112 	338.175 	284.967 	493.74 	
7.98907 	0.212721 	-0.669102 	0.293546 	1.63115 	-0.347474 	-0.971527 	90.1951 	104.253 	280.676 	268.543 	340.362 	284.967 	495.717 	
8.09463 	0.216637 	-0.669552 	0.294238 	1.61932 	-0.33646 	-0.991441 	90.1951 	103.258 	279.67 	268.602 	342.367 	284.967 	497.927 	
8.19819 	0.223465 	-0.67016 	0.295939 	1.59532 	-0.31745 	-1.02998 	90.2019 	102.124 	278.679 	268.615 	344.376 	284.967 	499.916 	
8.30107 	0.226361 	-0.670331 	0.296931 	1.58316 	-0.309494 	-1.04869 	90.2016 	101.147 	277.568 	268.634 	346.571 	284.967 	502.127 	
8.4038 	0.228903 	-0.670421 	0.298003 	1.5709 	-0.302594 	-1.06709 	90.2019 	100.166 	276.56 	268.639 	348.568 	284.967 	504.139 	
8.50772 	0.231084 	-0.670433 	0.299145 	1.55856 	-0.296765 	-1.08523 	90.2018 	99.1355 	275.557 	268.64 	350.564 	284.967 	506.111 	
8.61415 	0.2329 	-0.670373 	0.300347 	1.54614 	-0.29202 	-1.10315 	90.2024 	98.0689 	274.454 	268.641 	352.769 	284.967 	508.331 	
8.71717 	0.234346 	-0.670244 	0.301597 	1.53365 	-0.288369 	-1.1209 	90.2028 	97.0357 	273.449 	268.644 	354.786 	284.967 	510.348 	
8.82032 	0.23542 	-0.670049 	0.302884 	1.52111 	-0.28582 	-1.13852 	90.2019 	95.9253 	272.356 	268.647 	356.962 	284.967 	512.52 	
8.92319 	0.23612 	-0.669792 	0.304197 	1.50854 	-0.284378 	-1.15607 	90.2026 	94.9285 	271.34 	268.649 	358.973 	284.967 	514.536 	
9.02623 	0.236435 	-0.669603 	0.303659 	1.50332 	-0.28408 	-1.17341 	90.2029 	93.9127 	270.341 	268.65 	360.538 	284.967 	516.53 	
9.12947 	0.236521 	-0.669819 	0.296649 	1.52375 	-0.284316 	-1.19017 	90.2031 	92.8131 	269.237 	268.651 	360.813 	284.967 	518.521 	
9.2325 	0.236532 	-0.67001 	0.289106 	1.54629 	-0.284472 	-1.20686 	90.203 	91.7944 	268.238 	268.653 	360.836 	284.967 	520.725 	
9.33539 	0.23647 	-0.670143 	0.281561 	1.56883 	-0.284539 	-1.22356 	90.203 	90.7994 	267.234 	268.659 	360.841 	284.967 	522.73 	
9.43831 	0.236336 	-0.670216 	0.274012 	1.59137 	-0.284516 	-1.24026 	90.2036 	89.6806 	266.24 	268.668 	360.845 	284.967 	524.72 	
9.54142 	0.236131 	-0.670229 	0.266459 	1.61391 	-0.284404 	-1.25696 	90.2066 	88.6827 	265.141 	268.682 	360.848 	284.967 	526.944 	
9.6446 	0.235853 	-0.670182 	0.258899 	1.63644 	-0.284202 	-1.27366 	90.2129 	87.6733 	264.141 	268.686 	360.849 	284.967 	528.943 	
9.74758 	0.235502 	-0.670075 	0.251331 	1.65897 	-0.283912 	-1.29036 	90.213 	86.7158 	263.137 	268.688 	360.85 	284.967 	530.932 	
9.85142 	0.23508 	-0.669907 	0.243755 	1.6815 	-0.283532 	-1.30707 	90.2131 	85.6396 	262.043 	268.691 	360.851 	284.967 	533.135 	
9.95435 	0.234587 	-0.669678 	0.236167 	1.70401 	-0.283063 	-1.32378 	90.2133 	84.6456 	261.041 	268.693 	360.851 	284.967 	535.135 	
10.0573 	0.234021 	-0.669386 	0.228567 	1.72652 	-0.282506 	-1.3405 	90.2133 	83.6605 	260.041 	268.698 	360.851 	284.967 	537.123 	
10.1605 	0.233384 	-0.669031 	0.220954 	1.74901 	-0.28186 	-1.35722 	90.2132 	82.5543 	258.94 	268.707 	360.851 	284.967 	539.16 	
10.2634 	0.232676 	-0.668612 	0.213326 	1.77149 	-0.281126 	-1.35604 	90.2132 	81.5699 	257.936 	268.732 	360.851 	284.967 	539.648 	
10.3665 	0.231896 	-0.668128 	0.205682 	1.79395 	-0.280303 	-1.33787 	90.2134 	80.5773 	256.936 	268.734 	360.851 	284.967 	539.685 	
10.4695 	0.231046 	-0.667578 	0.19802 	1.8164 	-0.279393 	-1.31971 	90.2135 	79.4837 	255.832 	268.736 	360.851 	284.967 	539.688 	
10.573 	0.230126 	-0.666961 	0.19034 	1.83882 	-0.278396 	-1.30156 	90.2139 	78.4812 	254.84 	268.737 	360.851 	284.967 	539.688 	
10.6796 	0.229135 	-0.666274 	0.182641 	1.86123 	-0.277311 	-1.28342 	90.2141 	77.3747 	253.735 	268.738 	360.851 	284.966 	539.689 	
10.7825 	0.228073 	-0.665517 	0.174921 	1.88361 	-0.27614 	-1.26529 	90.214 	76.3517 	252.742 	268.739 	360.851 	284.966 	539.689 	
10.8854 	0.226943 	-0.664688 	0.167179 	1.90597 	-0.274883 	-1.24718 	90.214 	75.356 	251.744 	268.741 	360.851 	284.967 	539.689 	
10.9883 	0.225743 	-0.663785 	0.159415 	1.9283 	-0.27354 	-1.22907 	90.2141 	74.3501 	250.736 	268.743 	360.851 	284.966 	539.689 	
11.0924 	0.223136 	-0.661752 	0.143816 	1.97288 	-0.2706 	-1.19291 	90.2142 	73.2218 	249.647 	268.746 	360.851 	284.966 	539.69 	
11.1972 	0.22173 	-0.660618 	0.13598 	1.99512 	-0.269003 	-1.17486 	90.2143 	72.2275 	248.644 	268.753 	360.851 	284.966 	539.69 	
11.3004 	0.220257 	-0.659403 	0.128118 	2.01733 	-0.267323 	-1.15681 	90.2177 	71.1489 	247.536 	268.759 	360.851 	284.966 	539.69 	
11.4031 	0.218716 	-0.658104 	0.120231 	2.03951 	-0.26556 	-1.13879 	90.2181 	70.1481 	246.535 	268.771 	360.851 	284.966 	539.69 	
11.5068 	0.217109 	-0.65672 	0.112317 	2.06165 	-0.263715 	-1.12078 	90.2181 	69.1605 	245.547 	268.781 	360.851 	284.966 	539.69 	
11.6142 	0.215435 	-0.655249 	0.104377 	2.08375 	-0.261788 	-1.1028 	90.2188 	68.0378 	244.448 	268.784 	360.851 	284.966 	539.69 	
11.7174 	0.213696 	-0.653687 	0.0964095 	2.10582 	-0.259781 	-1.08483 	90.2187 	67.0365 	243.447 	268.789 	360.851 	284.966 	539.69 	
11.8207 	0.211891 	-0.652034 	0.0884156 	2.12784 	-0.257693 	-1.06688 	90.2187 	65.9233 	242.351 	268.81 	360.851 	284.966 	539.69 	
11.9238 	0.210021 	-0.650286 	0.0803947 	2.14982 	-0.255527 	-1.04895 	90.2187 	64.9224 	241.352 	268.833 	360.851 	284.966 	539.69 	
12.0264 	0.208087 	-0.648582 	0.0727997 	2.17106 	-0.253282 	-1.03104 	90.2187 	63.9581 	240.356 	268.838 	360.851 	284.966 	539.69 	
12.1294 	0.206087 	-0.648743 	0.071278 	2.18283 	-0.250967 	-1.01317 	90.2187 	63.406 	239.257 	268.84 	360.851 	284.966 	539.69 	
12.2326 	0.204022 	-0.650391 	0.0744714 	2.18722 	-0.248582 	-0.995324 	90.2189 	63.3244 	238.265 	268.843 	360.851 	284.966 	539.69 	
12.3357 	0.201894 	-0.652022 	0.0776325 	2.19156 	-0.246122 	-0.977502 	90.2188 	63.309 	237.255 	268.845 	360.851 	284.965 	539.69 	
12.4388 	0.199705 	-0.653636 	0.08076 	2.19585 	-0.243586 	-0.959702 	90.2186 	63.3036 	236.263 	268.849 	360.851 	284.965 	539.69 	
12.5419 	0.197455 	-0.655232 	0.0838533 	2.2001 	-0.240977 	-0.941924 	90.2182 	63.3017 	235.161 	268.862 	360.851 	284.965 	539.69 	
12.6447 	0.195144 	-0.65681 	0.0869111 	2.20429 	-0.238296 	-0.92417 	90.2183 	63.2898 	234.172 	268.868 	360.851 	284.965 	539.69 	
12.7478 	0.192773 	-0.658369 	0.0899327 	2.20843 	-0.235542 	-0.906438 	90.2181 	63.2842 	233.166 	268.87 	360.851 	284.965 	539.69 	
12.8507 	0.190344 	-0.659908 	0.0929171 	2.21252 	-0.232718 	-0.888731 	90.2182 	63.283 	232.068 	268.871 	360.851 	284.965 	539.69 	
12.9536 	0.187856 	-0.661428 	0.0958634 	2.21655 	-0.229823 	-0.871048 	90.2176 	63.2818 	231.076 	268.871 	360.851 	284.965 	539.691 	
13.0568 	0.18531 	-0.662928 	0.0987708 	2.22052 	-0.22686 	-0.853388 	90.2174 	63.282 	230.07 	268.873 	360.851 	284.964 	539.691 	
13.1598 	0.182708 	-0.664406 	0.101638 	2.22444 	-0.223829 	-0.835753 	90.2173 	63.2817 	228.967 	268.873 	360.851 	284.964 	539.691 	
13.2628 	0.18005 	-0.665864 	0.104465 	2.2283 	-0.220731 	-0.818143 	90.2143 	63.2816 	227.976 	268.873 	360.851 	284.964 	539.691 	
13.3658 	0.177337 	-0.6673 	0.10725 	2.2321 	-0.217568 	-0.800557 	90.2108 	63.282 	226.968 	268.875 	360.851 	284.964 	539.691 	
13.4687 	0.17457 	-0.668714 	0.109993 	2.23585 	-0.214339 	-0.782996 	90.2049 	63.2817 	225.986 	268.874 	360.851 	284.963 	539.691 	
13.5717 	0.171749 	-0.670106 	0.112692 	2.23953 	-0.211047 	-0.765459 	90.2051 	63.282 	224.883 	268.875 	360.851 	284.963 	539.691 	
13.6802 	0.168876 	-0.671475 	0.115347 	2.24314 	-0.207692 	-0.747948 	90.2041 	63.282 	223.78 	268.875 	360.851 	284.963 	539.691 	
13.7838 	0.165951 	-0.67282 	0.117958 	2.2467 	-0.204276 	-0.730461 	90.2021 	63.2817 	222.792 	268.875 	360.851 	284.963 	539.691 	
13.8877 	0.162975 	-0.674142 	0.120522 	2.25019 	-0.2008 	-0.713 	90.2021 	63.2819 	221.792 	268.876 	360.851 	284.962 	539.691 	
13.9941 	0.156875 	-0.676713 	0.125511 	2.25698 	-0.193671 	-0.678151 	90.2022 	63.2817 	220.693 	268.876 	360.851 	284.962 	539.691 	
14.0975 	0.153752 	-0.677961 	0.127934 	2.26027 	-0.190021 	-0.660764 	90.2024 	63.2817 	219.692 	268.876 	360.851 	284.962 	539.691 	
14.2003 	0.150582 	-0.679184 	0.130308 	2.2635 	-0.186315 	-0.643401 	90.2024 	63.2817 	218.59 	268.876 	360.851 	284.962 	539.691 	
14.3035 	0.147366 	-0.680381 	0.132633 	2.26665 	-0.182555 	-0.626062 	90.2026 	63.2817 	217.585 	268.876 	360.851 	284.962 	539.691 	
14.4072 	0.144105 	-0.681552 	0.134907 	2.26974 	-0.178742 	-0.608748 	90.2026 	63.2818 	216.597 	268.876 	360.851 	284.961 	539.691 	
14.5145 	0.1408 	-0.682697 	0.137131 	2.27276 	-0.174876 	-0.591457 	90.2028 	63.2818 	215.491 	268.876 	360.851 	284.961 	539.691 	
14.6176 	0.137451 	-0.683816 	0.139303 	2.27571 	-0.17096 	-0.57419 	90.2028 	63.2818 	214.502 	268.876 	360.851 	284.961 	539.691 	
14.7207 	0.134061 	-0.684907 	0.141423 	2.27859 	-0.166994 	-0.556947 	90.2028 	63.2819 	213.4 	268.876 	360.851 	284.961 	539.691 	
14.8238 	0.130629 	-0.685971 	0.143489 	2.2814 	-0.16298 	-0.539727 	90.2029 	63.2819 	212.41 	268.876 	360.851 	284.96 	539.691 	
14.9269 	0.127157 	-0.687007 	0.145503 	2.28413 	-0.158919 	-0.522529 	90.2028 	63.2818 	211.415 	268.876 	360.851 	284.96 	539.691 	
15.0298 	0.123647 	-0.688015 	0.147462 	2.28679 	-0.154812 	-0.505354 	90.2028 	63.2819 	210.314 	268.877 	360.851 	284.96 	539.691 	
15.133 	0.120098 	-0.688994 	0.149367 	2.28938 	-0.15066 	-0.488201 	90.2027 	63.2819 	209.316 	268.877 	360.851 	284.959 	539.691 	
15.2359 	0.116513 	-0.689945 	0.151216 	2.2919 	-0.146466 	-0.471069 	90.2029 	63.2818 	208.316 	268.877 	360.851 	284.959 	539.691 	
15.3389 	0.112891 	-0.690867 	0.153009 	2.29434 	-0.142229 	-0.453959 	90.2035 	63.2818 	207.316 	268.877 	360.851 	284.958 	539.691 	
15.4421 	0.109236 	-0.69176 	0.154746 	2.2967 	-0.137952 	-0.436869 	90.2038 	63.2819 	206.214 	268.877 	360.851 	284.957 	539.691 	
15.5449 	0.105546 	-0.692624 	0.156426 	2.29899 	-0.133635 	-0.4198 	90.2035 	63.2818 	205.219 	268.877 	360.851 	284.945 	539.691 	
15.6479 	0.101824 	-0.693458 	0.158049 	2.3012 	-0.12928 	-0.40275 	90.2035 	63.2819 	204.228 	268.877 	360.851 	284.943 	539.691 	
15.7511 	0.0980714 	-0.694261 	0.159614 	2.30334 	-0.124889 	-0.38572 	90.2036 	63.2818 	203.136 	268.877 	360.851 	284.942 	539.691 	
15.854 	0.0942883 	-0.695035 	0.16112 	2.3054 	-0.120462 	-0.368709 	90.2032 	63.2819 	202.135 	268.878 	360.851 	284.941 	539.691 	
15.9572 	0.0904761 	-0.695778 	0.162568 	2.30738 	-0.116001 	-0.351716 	90.203 	63.2819 	201.146 	268.878 	360.851 	284.94 	539.691 	
16.0602 	0.0866361 	-0.69649 	0.163956 	2.30929 	-0.111507 	-0.33474 	90.203 	63.2819 	200.044 	268.878 	360.851 	284.94 	539.691 	
16.1631 	0.0827695 	-0.697172 	0.165284 	2.31112 	-0.106981 	-0.317781 	90.2046 	63.2819 	199.038 	268.878 	360.851 	284.94 	539.691 	
16.2661 	0.0788773 	-0.697822 	0.166553 	2.31286 	-0.102426 	-0.300839 	90.2037 	63.2819 	198.053 	268.878 	360.851 	284.94 	539.691 	
16.3691 	0.074961 	-0.698441 	0.16776 	2.31453 	-0.0978416 	-0.283913 	90.2031 	63.2819 	197.055 	268.878 	360.851 	284.939 	539.691 	
16.4722 	0.0710215 	-0.699028 	0.168907 	2.31613 	-0.0932299 	-0.267001 	90.2034 	63.282 	195.953 	268.878 	360.851 	284.939 	539.691 	
16.5801 	0.0670601 	-0.699584 	0.169993 	2.31764 	-0.088592 	-0.250105 	90.2031 	63.282 	194.858 	268.878 	360.851 	284.939 	539.691 	
16.6827 	0.0630781 	-0.700108 	0.171017 	2.31907 	-0.0839294 	-0.233222 	90.2032 	63.2819 	193.859 	268.878 	360.851 	284.939 	539.691 	
16.786 	0.0590766 	-0.700599 	0.171979 	2.32043 	-0.0792434 	-0.216352 	90.2031 	63.282 	192.867 	268.879 	360.851 	284.938 	539.691 	
16.8899 	0.0550568 	-0.701059 	0.172879 	2.3217 	-0.0745352 	-0.199495 	90.203 	63.2819 	191.776 	268.879 	360.851 	284.938 	539.691 	
16.9931 	0.05102 	-0.701487 	0.173717 	2.32289 	-0.0698063 	-0.18265 	90.2021 	63.282 	190.785 	268.879 	360.851 	284.938 	539.691 	
17.0974 	0.0469674 	-0.701882 	0.174491 	2.324 	-0.0650581 	-0.165815 	90.2022 	63.282 	189.787 	268.879 	360.851 	284.938 	539.691 	
17.1996 	0.0388198 	-0.702574 	0.175852 	2.32599 	-0.055509 	-0.132177 	90.2022 	63.2822 	188.691 	268.88 	360.851 	284.937 	539.691 	
17.3029 	0.0347273 	-0.70287 	0.176437 	2.32686 	-0.0507108 	-0.115371 	90.2027 	63.2821 	187.691 	268.88 	360.851 	284.937 	539.691 	
17.4061 	0.0306239 	-0.703135 	0.176959 	2.32765 	-0.0458987 	-0.0985737 	90.2027 	63.2821 	186.686 	268.88 	360.851 	284.937 	539.691 	
17.5141 	0.0265109 	-0.703366 	0.177418 	2.32836 	-0.041074 	-0.0817837 	90.2023 	63.2821 	185.601 	268.88 	360.851 	284.937 	539.691 	
17.6169 	0.0223897 	-0.703564 	0.177812 	2.32898 	-0.0362382 	-0.0650001 	90.2025 	63.282 	184.595 	268.88 	360.851 	284.937 	539.691 	
17.72 	0.0182613 	-0.703729 	0.178142 	2.32953 	-0.0313925 	-0.0482222 	90.2026 	63.2821 	183.498 	268.881 	360.851 	284.937 	539.691 	
17.823 	0.0141271 	-0.703861 	0.178409 	2.32999 	-0.0265383 	-0.0314494 	90.2025 	63.2821 	182.509 	268.881 	360.851 	284.937 	539.691 	
17.9261 	0.00998833 	-0.70396 	0.178611 	2.33037 	-0.021677 	-0.0146807 	90.2023 	63.2821 	181.518 	268.881 	360.851 	284.937 	539.691 	
18.0291 	0.00584629 	-0.704025 	0.178749 	2.33068 	-0.01681 	0.00208449 	90.2023 	63.2821 	180.516 	268.881 	360.851 	284.937 	539.691 	
18.1323 	0.00170221 	-0.704057 	0.178823 	2.3309 	-0.0119387 	0.0188471 	90.2023 	63.2822 	179.421 	268.881 	360.851 	284.937 	539.691 	
18.2353 	-0.00244264 	-0.704057 	0.178832 	2.33103 	-0.00706431 	0.0356078 	90.2022 	63.2821 	178.422 	268.881 	360.851 	284.936 	539.691 	
18.3383 	-0.00658694 	-0.704023 	0.178777 	2.33109 	-0.00218841 	0.0523672 	90.2022 	63.2821 	177.42 	268.881 	360.851 	284.936 	539.691 	
18.4411 	-0.0107295 	-0.703955 	0.178658 	2.33106 	0.00268781 	0.0691266 	90.2019 	63.2821 	176.328 	268.881 	360.851 	284.936 	539.691 	
18.5443 	-0.0148691 	-0.703855 	0.178475 	2.33096 	0.00756292 	0.0858866 	90.2017 	63.282 	175.339 	268.882 	360.851 	284.936 	539.691 	
18.6472 	-0.0190044 	-0.703721 	0.178228 	2.33077 	0.0124355 	0.102648 	90.202 	63.282 	174.328 	268.882 	360.851 	284.936 	539.691 	
18.7504 	-0.0231342 	-0.703554 	0.177916 	2.3305 	0.0173043 	0.119411 	90.2014 	63.2821 	173.244 	268.882 	360.85 	284.936 	539.691 	
18.8524 	-0.0272572 	-0.703354 	0.177541 	2.33014 	0.0221678 	0.136178 	90.2015 	63.2821 	172.25 	268.882 	360.85 	284.936 	539.691 	
18.9553 	-0.0313721 	-0.703122 	0.177101 	2.32971 	0.0270248 	0.152948 	90.202 	63.2821 	171.246 	268.882 	360.85 	284.936 	539.691 	
19.0581 	-0.0354778 	-0.702856 	0.176598 	2.32919 	0.0318738 	0.169722 	90.2013 	63.2821 	170.247 	268.882 	360.85 	284.936 	539.691 	
19.1613 	-0.0395728 	-0.702557 	0.176032 	2.3286 	0.0367134 	0.186502 	90.2003 	63.2821 	169.153 	268.883 	360.85 	284.936 	539.691 	
19.2645 	-0.043656 	-0.702226 	0.175402 	2.32792 	0.0415423 	0.203288 	90.1952 	63.2822 	168.162 	268.883 	360.85 	284.936 	539.691 	
19.3677 	-0.0477263 	-0.701862 	0.174709 	2.32716 	0.0463592 	0.220081 	90.195 	63.2822 	167.16 	268.883 	360.85 	284.936 	539.691 	
19.4706 	-0.0517822 	-0.701465 	0.173952 	2.32632 	0.0511627 	0.236881 	90.1949 	63.282 	166.068 	268.884 	360.85 	284.936 	539.691 	
19.5735 	-0.0558226 	-0.701036 	0.173133 	2.3254 	0.0559514 	0.25369 	90.196 	63.282 	165.057 	268.884 	360.85 	284.936 	539.691 	
19.6805 	-0.0598463 	-0.700574 	0.172252 	2.32439 	0.0607239 	0.270508 	90.1953 	63.282 	163.964 	268.884 	360.85 	284.936 	539.691 	
19.7834 	-0.063852 	-0.700081 	0.171308 	2.32331 	0.065479 	0.287335 	90.1953 	63.282 	162.975 	268.884 	360.85 	284.936 	539.691 	
19.8861 	-0.0678384 	-0.699555 	0.170302 	2.32215 	0.0702151 	0.304174 	90.1952 	63.282 	161.973 	268.884 	360.85 	284.936 	539.691 	
19.992 	-0.0718045 	-0.698998 	0.169235 	2.3209 	0.0749311 	0.321023 	90.1944 	63.2821 	160.885 	268.884 	360.85 	284.936 	539.691 	
20.0974 	-0.0757489 	-0.698409 	0.168106 	2.31958 	0.0796254 	0.337885 	90.1944 	63.2821 	159.883 	268.884 	360.85 	284.936 	539.691 	
20.2 	-0.0835681 	-0.697136 	0.165666 	2.3167 	0.0889441 	0.371647 	90.1936 	63.2821 	158.796 	268.884 	360.849 	284.936 	539.691 	
20.3035 	-0.0874405 	-0.696453 	0.164355 	2.31513 	0.0935656 	0.388548 	90.1936 	63.2821 	157.797 	268.884 	360.849 	284.936 	539.691 	
20.4063 	-0.0912865 	-0.695739 	0.162984 	2.31349 	0.0981602 	0.405465 	90.1936 	63.2821 	156.804 	268.884 	360.849 	284.936 	539.691 	
20.5145 	-0.095105 	-0.694995 	0.161554 	2.31177 	0.102727 	0.422397 	90.1933 	63.2822 	155.709 	268.884 	360.849 	284.936 	539.691 	
20.6171 	-0.0988947 	-0.69422 	0.160065 	2.30997 	0.107263 	0.439345 	90.1933 	63.2822 	154.712 	268.884 	360.849 	284.936 	539.691 	
20.7205 	-0.102655 	-0.693414 	0.158518 	2.3081 	0.111769 	0.456309 	90.1935 	63.2822 	153.607 	268.884 	360.849 	284.936 	539.691 	
20.8235 	-0.106383 	-0.692579 	0.156912 	2.30615 	0.116242 	0.473291 	90.1937 	63.2821 	152.599 	268.884 	360.849 	284.936 	539.691 	
20.9267 	-0.11008 	-0.691714 	0.155249 	2.30411 	0.120682 	0.49029 	90.1935 	63.2822 	151.61 	268.884 	360.849 	284.936 	539.691 	
21.0293 	-0.113743 	-0.69082 	0.153529 	2.30201 	0.125087 	0.507308 	90.1935 	63.2822 	150.612 	268.884 	360.849 	284.936 	539.691 	
21.1328 	-0.117372 	-0.689896 	0.151752 	2.29982 	0.129456 	0.524344 	90.1923 	63.2821 	149.527 	268.884 	360.848 	284.936 	539.691 	
21.2355 	-0.120966 	-0.688943 	0.149919 	2.29756 	0.133787 	0.5414 	90.1923 	63.2822 	148.533 	268.884 	360.848 	284.936 	539.691 	
21.3385 	-0.124523 	-0.687962 	0.148031 	2.29523 	0.138079 	0.558476 	90.1924 	63.2821 	147.526 	268.884 	360.848 	284.936 	539.691 	
21.4414 	-0.128042 	-0.686953 	0.146088 	2.29282 	0.142331 	0.575573 	90.1925 	63.2819 	146.428 	268.884 	360.848 	284.936 	539.691 	
21.5446 	-0.131523 	-0.685915 	0.14409 	2.29033 	0.146541 	0.59269 	90.1924 	63.2808 	145.425 	268.883 	360.848 	284.936 	539.691 	
21.6477 	-0.134963 	-0.68485 	0.142039 	2.28777 	0.150709 	0.609828 	90.1924 	63.2809 	144.429 	268.884 	360.848 	284.936 	539.691 	
21.7505 	-0.138363 	-0.683757 	0.139935 	2.28514 	0.154833 	0.626988 	90.1928 	63.2808 	143.334 	268.883 	360.848 	284.936 	539.691 	
21.8535 	-0.141721 	-0.682638 	0.137779 	2.28243 	0.158911 	0.64417 	90.1924 	63.2807 	142.337 	268.884 	360.847 	284.936 	539.691 	
21.9567 	-0.145036 	-0.681491 	0.13557 	2.27965 	0.162943 	0.661375 	90.191 	63.2807 	141.351 	268.884 	360.847 	284.936 	539.691 	
22.0598 	-0.148307 	-0.680319 	0.133311 	2.2768 	0.166927 	0.678602 	90.1908 	63.2782 	140.336 	268.884 	360.847 	284.936 	539.691 	
22.1627 	-0.151533 	-0.67912 	0.131001 	2.27388 	0.170862 	0.695853 	90.1908 	63.2778 	139.251 	268.883 	360.847 	284.936 	539.691 	
22.2657 	-0.154713 	-0.677896 	0.128641 	2.27089 	0.174747 	0.713126 	90.1908 	63.2779 	138.255 	268.884 	360.847 	284.936 	539.691 	
22.3688 	-0.157846 	-0.676646 	0.126233 	2.26783 	0.17858 	0.730424 	90.188 	63.2778 	137.255 	268.884 	360.847 	284.936 	539.691 	
22.4719 	-0.160932 	-0.675372 	0.123776 	2.2647 	0.182361 	0.747745 	90.1881 	63.2765 	136.16 	268.884 	360.847 	284.936 	539.691 	
22.5787 	-0.163969 	-0.674073 	0.121272 	2.2615 	0.186088 	0.765091 	90.1881 	63.2691 	135.151 	268.883 	360.847 	284.936 	539.691 	
22.6817 	-0.166956 	-0.67275 	0.118721 	2.25823 	0.189759 	0.78246 	90.1881 	63.2659 	134.061 	268.883 	360.847 	284.936 	539.691 	
22.7849 	-0.169892 	-0.671403 	0.116124 	2.2549 	0.193374 	0.799855 	90.1857 	63.2654 	133.075 	268.883 	360.846 	284.936 	539.691 	
22.8884 	-0.172777 	-0.670033 	0.113482 	2.2515 	0.196931 	0.817273 	90.1855 	63.2655 	132.08 	268.883 	360.846 	284.936 	539.691 	
22.9926 	-0.175609 	-0.66864 	0.110796 	2.24803 	0.20043 	0.834716 	90.1865 	63.2656 	130.972 	268.883 	360.846 	284.936 	539.691 	
23.0969 	-0.181114 	-0.665788 	0.105293 	2.24091 	0.207248 	0.869677 	90.1864 	63.2658 	129.974 	268.884 	360.846 	284.936 	539.691 	
23.1995 	-0.183784 	-0.664329 	0.102479 	2.23726 	0.210564 	0.887194 	90.1862 	63.2656 	128.972 	268.884 	360.846 	284.936 	539.691 	
23.3025 	-0.186398 	-0.662849 	0.0996232 	2.23354 	0.213816 	0.904735 	90.1864 	63.2656 	127.883 	268.883 	360.846 	284.936 	539.691 	
23.4051 	-0.188956 	-0.661349 	0.0967278 	2.22977 	0.217005 	0.9223 	90.1862 	63.2656 	126.881 	268.883 	360.846 	284.936 	539.691 	
23.509 	-0.191457 	-0.659828 	0.0937931 	2.22593 	0.220128 	0.93989 	90.1862 	63.2656 	125.883 	268.883 	360.846 	284.936 	539.691 	
23.6147 	-0.193899 	-0.658288 	0.0908201 	2.22204 	0.223184 	0.957504 	90.1863 	63.2656 	124.779 	268.883 	360.846 	284.936 	539.691 	
23.7175 	-0.196283 	-0.656728 	0.0878096 	2.21808 	0.226174 	0.975143 	90.1862 	63.2656 	123.784 	268.883 	360.846 	284.936 	539.691 	
23.8207 	-0.198607 	-0.65515 	0.0847626 	2.21408 	0.229094 	0.992806 	90.1857 	63.2656 	122.701 	268.883 	360.845 	284.936 	539.691 	
23.9236 	-0.200871 	-0.653553 	0.08168 	2.21001 	0.231946 	1.01049 	90.1858 	63.2657 	121.696 	268.883 	360.845 	284.936 	539.691 	
24.0267 	-0.203073 	-0.651938 	0.0785628 	2.2059 	0.234726 	1.0282 	90.1858 	63.2657 	120.703 	268.883 	360.845 	284.936 	539.691 	
24.1296 	-0.205215 	-0.650306 	0.0754118 	2.20173 	0.237436 	1.04593 	90.1858 	63.2656 	119.704 	268.883 	360.845 	284.936 	539.691 	
24.2327 	-0.207294 	-0.648657 	0.0722281 	2.19751 	0.240073 	1.06369 	90.1859 	63.2656 	118.606 	268.883 	360.845 	284.936 	539.692 	
24.3358 	-0.20931 	-0.646992 	0.0690126 	2.19324 	0.242637 	1.08147 	90.1858 	63.2656 	117.599 	268.883 	360.845 	284.936 	539.692 	
24.4388 	-0.211263 	-0.645311 	0.0657663 	2.18892 	0.245126 	1.09927 	90.1858 	63.2654 	116.597 	268.883 	360.845 	284.936 	539.692 	
24.5416 	-0.213151 	-0.643615 	0.0624902 	2.18455 	0.247541 	1.1171 	90.1855 	63.2653 	115.505 	268.883 	360.845 	284.936 	539.692 	
24.6447 	-0.214975 	-0.641903 	0.0591853 	2.18013 	0.249879 	1.13494 	90.1852 	63.2653 	114.51 	268.883 	360.845 	284.936 	539.692 	
24.7479 	-0.216734 	-0.640178 	0.0558525 	2.17567 	0.252141 	1.15281 	90.185 	63.2651 	113.516 	268.883 	360.845 	284.936 	539.692 	
24.8507 	-0.218427 	-0.638439 	0.052493 	2.17117 	0.254326 	1.17069 	90.185 	63.2652 	112.408 	268.883 	360.845 	284.936 	539.692 	
24.9538 	-0.220053 	-0.636686 	0.0491077 	2.16663 	0.256432 	1.1886 	90.1848 	63.2651 	111.416 	268.883 	360.844 	284.936 	539.692 	
25.0571 	-0.221613 	-0.634921 	0.0456977 	2.16204 	0.258458 	1.20652 	90.1837 	63.2647 	110.419 	268.883 	360.844 	284.937 	539.692 	
25.1602 	-0.223106 	-0.633144 	0.0422639 	2.15741 	0.260405 	1.22447 	90.1836 	63.2642 	109.421 	268.883 	360.844 	284.937 	539.692 	
25.2628 	-0.22453 	-0.631355 	0.0388075 	2.15275 	0.262272 	1.24243 	90.1835 	63.2643 	108.319 	268.883 	360.844 	284.937 	539.692 	
25.3659 	-0.225887 	-0.629555 	0.0353295 	2.14805 	0.264057 	1.26041 	90.1784 	63.2643 	107.334 	268.883 	360.844 	284.937 	539.692 	
25.4689 	-0.227175 	-0.627744 	0.0318309 	2.14332 	0.26576 	1.27841 	90.1742 	63.2642 	106.332 	268.883 	360.844 	284.937 	539.692 	
25.5723 	-0.228395 	-0.625924 	0.0283129 	2.13855 	0.267381 	1.29642 	90.171 	63.2583 	105.232 	268.883 	360.844 	284.937 	539.692 	
25.6811 	-0.229545 	-0.624094 	0.0247765 	2.13375 	0.268918 	1.31445 	90.171 	63.2456 	104.13 	268.883 	360.843 	284.937 	539.692 	
25.784 	-0.230625 	-0.622255 	0.0212227 	2.12892 	0.270372 	1.3325 	90.1711 	63.2412 	103.122 	268.883 	360.843 	284.937 	539.692 	
25.889 	-0.231635 	-0.620408 	0.0176528 	2.12407 	0.271742 	1.35056 	90.17 	63.2272 	102.113 	268.883 	360.843 	284.938 	539.692 	
25.9929 	-0.232575 	-0.618553 	0.0140676 	2.11918 	0.273026 	1.36863 	90.1607 	63.2207 	101.023 	268.883 	360.842 	284.938 	539.692 	
26.0966 	-0.233444 	-0.616691 	0.0104684 	2.11428 	0.274226 	1.38671 	90.1587 	63.2181 	100.029 	268.883 	360.842 	284.938 	539.692 	
26.1995 	-0.23497 	-0.612948 	0.00323212 	2.10439 	0.276368 	1.42292 	90.1576 	63.2175 	99.0236 	268.883 	360.841 	284.938 	539.692 	
26.3029 	-0.235626 	-0.611068 	-0.000402719 	2.09942 	0.277309 	1.44103 	90.1479 	63.2093 	97.915 	268.883 	360.841 	284.938 	539.692 	
26.4064 	-0.236211 	-0.609183 	-0.00404721 	2.09442 	0.278163 	1.45916 	90.1469 	63.1905 	96.9219 	268.883 	360.841 	284.938 	539.692 	
26.5141 	-0.236724 	-0.607294 	-0.00770024 	2.08942 	0.278931 	1.4773 	90.1458 	63.1876 	95.8325 	268.883 	360.831 	284.938 	539.692 	
26.617 	-0.237165 	-0.605401 	-0.0113607 	2.08439 	0.279611 	1.49544 	90.1455 	63.1851 	94.8171 	268.883 	360.83 	284.938 	539.692 	
26.72 	-0.237534 	-0.603505 	-0.0150275 	2.07936 	0.280203 	1.51359 	90.1456 	63.1851 	93.8171 	268.883 	360.829 	284.938 	539.692 	
26.8229 	-0.237831 	-0.601606 	-0.0186995 	2.07431 	0.280707 	1.53174 	90.1462 	63.1851 	92.7345 	268.883 	360.828 	284.938 	539.692 	
26.9259 	-0.238056 	-0.599705 	-0.0223756 	2.06925 	0.281123 	1.5499 	90.1463 	63.1851 	91.7308 	268.883 	360.828 	284.938 	539.692 	
27.0291 	-0.238208 	-0.597803 	-0.0260546 	2.06419 	0.28145 	1.56807 	90.1464 	63.1851 	90.7381 	268.883 	360.828 	284.938 	539.692 	
27.132 	-0.238288 	-0.5959 	-0.0297355 	2.05912 	0.28169 	1.58623 	90.1463 	63.1851 	89.6429 	268.882 	360.828 	284.938 	539.692 	
27.2351 	-0.238296 	-0.593996 	-0.0334171 	2.05405 	0.281841 	1.6044 	90.1459 	63.1852 	88.6435 	268.882 	360.828 	284.939 	539.692 	
27.3382 	-0.238232 	-0.592093 	-0.0370983 	2.04897 	0.281903 	1.62257 	90.1461 	63.185 	87.6397 	268.882 	360.827 	284.939 	539.692 	
27.4412 	-0.238095 	-0.590191 	-0.0407781 	2.0439 	0.281876 	1.64074 	90.1461 	63.1851 	86.5447 	268.882 	360.827 	284.939 	539.692 	
27.5443 	-0.237886 	-0.58829 	-0.0444551 	2.03882 	0.281761 	1.65891 	90.1461 	63.1852 	85.5466 	268.882 	360.827 	284.939 	539.692 	
27.6473 	-0.237605 	-0.586392 	-0.0481284 	2.03375 	0.281558 	1.67708 	90.146 	63.1852 	84.5489 	268.882 	360.827 	284.939 	539.692 	
27.7502 	-0.237251 	-0.584495 	-0.0517968 	2.02868 	0.281266 	1.69524 	90.146 	63.185 	83.5403 	268.882 	360.827 	284.939 	539.692 	
27.8532 	-0.236826 	-0.582603 	-0.0554592 	2.02362 	0.280886 	1.71341 	90.146 	63.1852 	82.4429 	268.882 	360.827 	284.94 	539.692 	
27.9563 	-0.236329 	-0.580714 	-0.0591146 	2.01857 	0.280417 	1.73156 	90.146 	63.1852 	81.4424 	268.882 	360.827 	284.94 	539.692 	
28.0592 	-0.23576 	-0.578829 	-0.0627616 	2.01353 	0.279861 	1.74971 	90.146 	63.1852 	80.4398 	268.882 	360.827 	284.94 	539.692 	
28.1623 	-0.235119 	-0.576949 	-0.0663994 	2.0085 	0.279216 	1.76786 	90.146 	63.185 	79.337 	268.882 	360.827 	284.94 	539.692 	
28.2653 	-0.234407 	-0.575075 	-0.0700267 	2.00349 	0.278484 	1.786 	90.146 	63.185 	78.3442 	268.882 	360.827 	284.94 	539.692 	
28.3684 	-0.233624 	-0.573206 	-0.0736425 	1.99849 	0.277665 	1.80413 	90.146 	63.1844 	77.3262 	268.882 	360.827 	284.941 	539.692 	
28.4713 	-0.23277 	-0.571345 	-0.0772456 	1.99351 	0.276759 	1.82225 	90.146 	63.1843 	76.2272 	268.882 	360.827 	284.941 	539.692 	
28.5804 	-0.231845 	-0.569491 	-0.0808349 	1.98855 	0.275766 	1.84036 	90.1461 	63.1829 	75.2371 	268.882 	360.827 	284.943 	539.692 	
28.683 	-0.23085 	-0.567644 	-0.0844095 	1.98361 	0.274687 	1.85846 	90.1461 	63.182 	74.1382 	268.882 	360.827 	284.95 	539.692 	
28.786 	-0.229785 	-0.565806 	-0.087968 	1.97869 	0.273522 	1.87655 	90.146 	63.182 	73.142 	268.882 	360.827 	284.954 	539.692 	
28.8893 	-0.22865 	-0.563976 	-0.0915096 	1.97379 	0.272271 	1.89463 	90.1459 	63.182 	72.1398 	268.881 	360.827 	284.955 	539.692 	
28.993 	-0.227446 	-0.562156 	-0.0950331 	1.96893 	0.270936 	1.91269 	90.146 	63.182 	71.0383 	268.881 	360.827 	284.956 	539.692 	
29.096 	-0.224831 	-0.558547 	-0.102022 	1.95927 	0.268012 	1.94878 	90.1462 	63.182 	70.0348 	268.881 	360.827 	284.956 	539.692 	
29.1988 	-0.223421 	-0.556759 	-0.105484 	1.95449 	0.266425 	1.9668 	90.1461 	63.1813 	69.0314 	268.881 	360.827 	284.957 	539.692 	
29.3023 	-0.221943 	-0.554982 	-0.108925 	1.94975 	0.264755 	1.9848 	90.146 	63.1813 	67.9364 	268.881 	360.827 	284.959 	539.692 	
29.4051 	-0.220398 	-0.553218 	-0.112342 	1.94503 	0.263003 	2.00279 	90.146 	63.1813 	66.941 	268.881 	360.827 	284.964 	539.692 	
29.5084 	-0.218786 	-0.551466 	-0.115734 	1.94036 	0.26117 	2.02076 	90.146 	63.1802 	65.9244 	268.881 	360.827 	284.966 	539.692 	
29.6144 	-0.217107 	-0.549728 	-0.119102 	1.93572 	0.259255 	2.03871 	90.146 	63.1802 	64.8178 	268.881 	360.827 	284.967 	539.692 	
29.7172 	-0.215363 	-0.548003 	-0.122442 	1.93111 	0.257261 	2.05665 	90.146 	63.1802 	63.8165 	268.881 	360.827 	284.968 	539.692 	
29.8202 	-0.213553 	-0.546293 	-0.125755 	1.92655 	0.255187 	2.07456 	90.146 	63.1802 	62.8147 	268.88 	360.827 	284.968 	539.692 	
29.9233 	-0.211678 	-0.544597 	-0.12904 	1.92203 	0.253034 	2.09245 	90.146 	63.1801 	61.729 	268.881 	360.827 	284.969 	539.692 	
30.0264 	-0.20974 	-0.542917 	-0.132295 	1.91755 	0.250803 	2.11033 	90.1461 	63.18 	60.724 	268.88 	360.827 	284.969 	539.692 	
30.1293 	-0.207737 	-0.541253 	-0.135519 	1.91312 	0.248496 	2.12818 	90.1461 	63.1797 	59.7263 	268.88 	360.827 	284.97 	539.692 	
30.2324 	-0.205672 	-0.539605 	-0.138713 	1.90873 	0.246112 	2.14601 	90.146 	63.1797 	58.6271 	268.88 	360.827 	284.971 	539.692 	
30.3355 	-0.203544 	-0.537974 	-0.141873 	1.9044 	0.243652 	2.16382 	90.146 	63.1797 	57.6267 	268.88 	360.827 	284.972 	539.692 	
30.4386 	-0.201354 	-0.53636 	-0.145 	1.9001 	0.241118 	2.18161 	90.1461 	63.1795 	56.6151 	268.88 	360.827 	284.972 	539.692 	
30.5414 	-0.199104 	-0.534764 	-0.148093 	1.89586 	0.238511 	2.19938 	90.146 	63.1795 	55.5106 	268.88 	360.827 	284.973 	539.692 	
30.6445 	-0.196793 	-0.533187 	-0.15115 	1.89167 	0.235831 	2.21712 	90.146 	63.1791 	54.5082 	268.88 	360.827 	284.994 	539.692 	
30.7477 	-0.194422 	-0.531628 	-0.154172 	1.88753 	0.233079 	2.23484 	90.146 	63.1787 	53.513 	268.88 	360.827 	285.014 	539.692 	
30.8507 	-0.191992 	-0.530089 	-0.157156 	1.88345 	0.230256 	2.25254 	90.146 	63.1784 	52.5129 	268.88 	360.827 	285.016 	539.692 	
30.9535 	-0.189504 	-0.528569 	-0.160102 	1.87942 	0.227363 	2.27021 	90.1461 	63.1784 	51.4128 	268.88 	360.827 	285.017 	539.692 	
31.0566 	-0.186959 	-0.52707 	-0.163009 	1.87544 	0.224401 	2.28786 	90.146 	63.1778 	50.4146 	268.879 	360.827 	285.02 	539.692 	
31.1594 	-0.184357 	-0.525592 	-0.165876 	1.87153 	0.221372 	2.30548 	90.146 	63.1768 	49.4097 	268.879 	360.827 	285.023 	539.692 	
31.2624 	-0.181699 	-0.524134 	-0.168702 	1.86767 	0.218275 	2.32308 	90.1459 	63.1754 	48.3051 	268.879 	360.827 	285.028 	539.692 	
31.3655 	-0.178986 	-0.522698 	-0.171487 	1.86387 	0.215113 	2.34066 	90.146 	63.1753 	47.2984 	268.879 	360.827 	285.033 	539.692 	
31.4684 	-0.176218 	-0.521284 	-0.174229 	1.86013 	0.211887 	2.35821 	90.146 	63.1751 	46.2955 	268.879 	360.827 	285.049 	539.692 	
31.5717 	-0.173398 	-0.519893 	-0.176928 	1.85645 	0.208596 	2.37573 	90.1459 	63.1748 	45.1976 	268.879 	360.827 	285.061 	539.692 	
31.6799 	-0.170524 	-0.518524 	-0.179583 	1.85283 	0.205243 	2.39323 	90.1459 	63.1744 	44.1903 	268.878 	360.827 	285.065 	539.692 	
31.7823 	-0.167599 	-0.517179 	-0.182193 	1.84928 	0.201829 	2.41071 	90.1459 	63.1736 	43.0906 	268.878 	360.827 	285.066 	539.692 	
31.8851 	-0.164624 	-0.515858 	-0.184757 	1.84579 	0.198354 	2.42816 	90.1459 	63.1684 	42.0862 	268.878 	360.827 	285.067 	539.692 	
31.9892 	-0.161598 	-0.51456 	-0.187275 	1.84236 	0.194821 	2.44559 	90.1459 	63.1681 	41.0917 	268.878 	360.827 	285.068 	539.692 	
32.0945 	-0.158523 	-0.513287 	-0.189745 	1.839 	0.191229 	2.46299 	90.1459 	63.1668 	39.9862 	268.878 	360.827 	285.068 	539.692 	
32.1986 	-0.152231 	-0.510817 	-0.194541 	1.83248 	0.183877 	2.49772 	90.146 	63.1624 	38.9838 	268.878 	360.827 	285.069 	539.692 	
32.3016 	-0.149015 	-0.509619 	-0.196865 	1.82932 	0.180118 	2.51505 	90.1459 	63.1611 	37.8795 	268.878 	360.827 	285.069 	539.692 	
32.4041 	-0.145754 	-0.508448 	-0.199139 	1.82623 	0.176306 	2.53236 	90.146 	63.161 	36.8799 	268.878 	360.827 	285.07 	539.692 	
32.5077 	-0.142448 	-0.507304 	-0.201363 	1.82321 	0.172443 	2.54964 	90.146 	63.1604 	35.8705 	268.878 	360.827 	285.07 	539.692 	
32.6145 	-0.1391 	-0.506186 	-0.203534 	1.82026 	0.168528 	2.5669 	90.1459 	63.1603 	34.7699 	268.878 	360.827 	285.071 	539.692 	
32.7174 	-0.13571 	-0.505095 	-0.205653 	1.81738 	0.164564 	2.58414 	90.1459 	63.1599 	33.7714 	268.878 	360.827 	285.071 	539.692 	
32.8206 	-0.132278 	-0.504031 	-0.20772 	1.81458 	0.160552 	2.60135 	90.146 	63.1518 	32.7647 	268.878 	360.827 	285.071 	539.692 	
32.9235 	-0.128806 	-0.502995 	-0.209733 	1.81184 	0.156492 	2.61854 	90.146 	63.1203 	31.6557 	268.878 	360.827 	285.072 	539.692 	
33.0266 	-0.125296 	-0.501987 	-0.211692 	1.80918 	0.152387 	2.63571 	90.146 	63.1142 	30.6594 	268.878 	360.827 	285.072 	539.692 	
33.1297 	-0.121747 	-0.501008 	-0.213596 	1.80659 	0.148237 	2.65285 	90.1464 	63.1142 	29.6524 	268.878 	360.827 	285.073 	539.692 	
33.2325 	-0.118162 	-0.500057 	-0.215445 	1.80407 	0.144044 	2.66998 	90.1462 	63.1143 	28.5524 	268.877 	360.827 	285.073 	539.692 	
33.3356 	-0.114541 	-0.499135 	-0.217238 	1.80163 	0.139809 	2.68708 	90.1458 	63.1145 	27.5434 	268.874 	360.827 	285.074 	539.692 	
33.4387 	-0.110885 	-0.498242 	-0.218975 	1.79927 	0.135533 	2.70416 	90.1456 	63.1145 	26.5461 	268.872 	360.827 	285.075 	539.692 	
33.5416 	-0.107196 	-0.497379 	-0.220655 	1.79697 	0.131218 	2.72123 	90.1457 	63.1147 	25.4503 	268.872 	360.827 	285.094 	539.692 	
33.6447 	-0.103474 	-0.496545 	-0.222277 	1.79476 	0.126864 	2.73827 	90.1457 	63.115 	24.4435 	268.872 	360.827 	285.107 	539.692 	
33.7476 	-0.0997211 	-0.495742 	-0.223842 	1.79262 	0.122474 	2.75529 	90.1457 	63.1146 	23.437 	268.872 	360.827 	285.124 	539.692 	
33.8506 	-0.095938 	-0.494968 	-0.225348 	1.79056 	0.118049 	2.7723 	90.1457 	63.1127 	22.418 	268.872 	360.827 	285.126 	539.692 	
33.9537 	-0.092126 	-0.494225 	-0.226795 	1.78857 	0.113589 	2.78929 	90.1458 	63.1123 	21.323 	268.873 	360.827 	285.128 	539.692 	
34.0569 	-0.0882862 	-0.493513 	-0.228183 	1.78667 	0.109097 	2.80626 	90.1459 	63.1095 	20.3183 	268.873 	360.827 	285.129 	539.692 	
34.1599 	-0.0844197 	-0.492832 	-0.229511 	1.78484 	0.104573 	2.82321 	90.146 	63.1084 	19.3224 	268.873 	360.827 	285.13 	539.692 	
34.2628 	-0.0805277 	-0.492182 	-0.230779 	1.78309 	0.100019 	2.84015 	90.146 	63.1084 	18.2208 	268.873 	360.827 	285.13 	539.692 	
34.3658 	-0.0766115 	-0.491563 	-0.231987 	1.78141 	0.0954356 	2.85707 	90.146 	63.1085 	17.2229 	268.872 	360.827 	285.131 	539.692 	
34.4689 	-0.0726722 	-0.490976 	-0.233133 	1.77982 	0.0908251 	2.87398 	90.146 	63.1087 	16.2114 	268.872 	360.827 	285.131 	539.692 	
34.5722 	-0.068711 	-0.49042 	-0.234219 	1.7783 	0.0861885 	2.89087 	90.146 	63.1087 	15.1127 	268.872 	360.827 	285.132 	539.692 	
34.6801 	-0.0647291 	-0.489896 	-0.235243 	1.77687 	0.081527 	2.90775 	90.146 	63.1087 	14.108 	268.872 	360.827 	285.132 	539.692 	
34.7829 	-0.0607278 	-0.489405 	-0.236205 	1.77551 	0.076842 	2.92461 	90.146 	63.1087 	13.0019 	268.872 	360.827 	285.132 	539.692 	
34.8858 	-0.0567082 	-0.488945 	-0.237104 	1.77424 	0.0721349 	2.94147 	90.1459 	63.1089 	12.0013 	268.872 	360.827 	285.133 	539.692 	
34.9886 	-0.0526716 	-0.488518 	-0.237942 	1.77304 	0.0674071 	2.95831 	90.1459 	63.1089 	10.9909 	268.872 	360.827 	285.133 	539.692 	
35.0927 	-0.0486192 	-0.488123 	-0.238716 	1.77193 	0.0626599 	2.97514 	90.146 	63.1089 	9.8918 	268.872 	360.827 	285.133 	539.692 	
35.1965 	-0.040472 	-0.487431 	-0.240077 	1.76994 	0.0531125 	3.00877 	90.146 	63.1089 	8.88721 	268.872 	360.827 	285.133 	539.692 	
35.2995 	-0.0363797 	-0.487134 	-0.240662 	1.76906 	0.0483152 	3.02558 	90.146 	63.1088 	7.89414 	268.872 	360.827 	285.133 	539.692 	
35.4026 	-0.0322765 	-0.48687 	-0.241184 	1.76827 	0.0435039 	3.04237 	90.146 	63.1088 	6.7874 	268.872 	360.827 	285.133 	539.692 	
35.5065 	-0.0281638 	-0.486639 	-0.241642 	1.76756 	0.03868 	3.05916 	90.146 	63.1089 	5.78418 	268.872 	360.827 	285.134 	539.692 	
35.615 	-0.0240428 	-0.486441 	-0.242036 	1.76693 	0.0338449 	3.07594 	90.146 	63.1089 	4.66748 	268.872 	360.827 	285.134 	539.692 	
35.7178 	-0.0199146 	-0.486276 	-0.242366 	1.76638 	0.0289998 	3.09271 	90.146 	63.1089 	3.67813 	268.872 	360.827 	285.134 	539.692 	
35.8207 	-0.0157807 	-0.486144 	-0.242632 	1.76591 	0.0241463 	3.10949 	90.146 	63.1089 	2.6752 	268.872 	360.827 	285.134 	539.692 	
35.9239 	-0.0116422 	-0.486046 	-0.242834 	1.76553 	0.0192855 	3.12625 	90.146 	63.1089 	1.56963 	268.872 	360.827 	285.134 	539.692 	
36.027 	-0.00750042 	-0.48598 	-0.242972 	1.76522 	0.014419 	-3.14017 	90.146 	63.1089 	0.566211 	268.872 	360.827 	285.134 	539.692 	
36.0524 	-0.00750042 	-0.48598 	-0.242972 	1.76522 	0.014419 	-3.14017 	90.146 	63.109 	0.376465 	268.872 	360.827 	285.134 	539.692 	
36.0723 	-0.00750042 	-0.48598 	-0.242972 	1.76522 	0.014419 	-3.14017 	90.146 	63.1088 	0.19541 	268.872 	360.827 	285.134 	539.692 	
36.1799 	-0.00498315 	-0.485824 	-0.243156 	1.76578 	0.0116144 	-3.13009 	90.146 	63.3311 	-0.352832 	269.085 	360.828 	285.134 	539.692 	
36.2827 	-0.00386449 	-0.488667 	-0.237556 	1.76572 	0.0105163 	-3.12568 	90.146 	64.257 	-0.490332 	270.021 	360.828 	285.134 	539.692 	
36.3859 	-0.00381923 	-0.491799 	-0.231123 	1.76572 	0.0107053 	-3.12563 	90.1457 	65.2338 	-0.515332 	270.992 	360.828 	285.134 	539.692 	
36.4889 	-0.00377466 	-0.494819 	-0.224635 	1.76572 	0.010895 	-3.12558 	90.1458 	66.233 	-0.527246 	271.982 	360.828 	285.134 	539.692 	
36.5934 	-0.00368762 	-0.500517 	-0.211508 	1.76572 	0.0112769 	-3.1255 	90.1458 	67.3444 	-0.529297 	273.083 	360.828 	285.134 	539.692 	
36.6966 	-0.00364517 	-0.503194 	-0.204872 	1.76572 	0.0114688 	-3.12546 	90.1458 	68.3488 	-0.530078 	274.09 	360.828 	285.134 	539.692 	
36.7998 	-0.00360346 	-0.505754 	-0.19819 	1.76572 	0.0116614 	-3.12543 	90.1457 	69.3647 	-0.530566 	275.084 	360.828 	285.134 	539.692 	
36.9028 	-0.0035625 	-0.508197 	-0.191464 	1.76572 	0.0118545 	-3.1254 	90.1457 	70.4692 	-0.530859 	276.181 	360.828 	285.134 	539.692 	
37.006 	-0.0035223 	-0.510522 	-0.184697 	1.76572 	0.0120481 	-3.12538 	90.1457 	71.4781 	-0.531055 	277.185 	360.828 	285.134 	539.692 	
37.114 	-0.00348287 	-0.512729 	-0.17789 	1.76572 	0.0122421 	-3.12535 	90.1457 	72.5677 	-0.531152 	278.276 	360.828 	285.134 	539.692 	
37.217 	-0.00344422 	-0.514817 	-0.171046 	1.76572 	0.0124366 	-3.12533 	90.1458 	73.5816 	-0.531152 	279.282 	360.828 	285.134 	539.692 	
37.3201 	-0.00340636 	-0.516784 	-0.164166 	1.76572 	0.0126313 	-3.12532 	90.1458 	74.5796 	-0.53125 	280.282 	360.828 	285.134 	539.692 	
37.4229 	-0.00336932 	-0.518632 	-0.157253 	1.76572 	0.0128263 	-3.1253 	90.1457 	75.7207 	-0.531152 	281.37 	360.828 	285.134 	539.692 	
37.526 	-0.00333309 	-0.520359 	-0.150309 	1.76572 	0.0130214 	-3.12529 	90.1457 	76.7188 	-0.53125 	282.379 	360.828 	285.134 	539.692 	
37.6289 	-0.00329769 	-0.521964 	-0.143336 	1.76572 	0.0132168 	-3.12529 	90.1457 	77.7322 	-0.531348 	283.378 	360.828 	285.134 	539.692 	
37.7322 	-0.00326314 	-0.523447 	-0.136335 	1.76572 	0.0134121 	-3.12528 	90.1457 	78.8239 	-0.531348 	284.372 	360.828 	285.134 	539.692 	
37.835 	-0.00323277 	-0.524677 	-0.130014 	1.76572 	0.013588 	-3.12529 	90.1455 	79.8231 	-0.531934 	285.476 	360.828 	285.134 	539.692 	
37.9379 	-0.00319659 	-0.526046 	-0.122263 	1.76572 	0.0138029 	-3.12529 	90.1452 	80.8395 	-0.532227 	286.477 	360.828 	285.134 	539.692 	
38.041 	-0.00316461 	-0.52716 	-0.115194 	1.76572 	0.0139982 	-3.1253 	90.1452 	81.8226 	-0.532227 	287.477 	360.828 	285.134 	539.692 	
38.1444 	-0.00313352 	-0.528151 	-0.108108 	1.76572 	0.0141933 	-3.12531 	90.1452 	82.9331 	-0.532227 	288.576 	360.828 	285.134 	539.692 	
38.2472 	-0.00310332 	-0.529019 	-0.101005 	1.76572 	0.0143882 	-3.12532 	90.1453 	83.9251 	-0.532227 	289.583 	360.828 	285.134 	539.692 	
38.3503 	-0.00307402 	-0.529762 	-0.093888 	1.76572 	0.0145828 	-3.12534 	90.1453 	84.9091 	-0.532227 	290.579 	360.828 	285.134 	539.692 	
38.4532 	-0.00304562 	-0.530381 	-0.0867592 	1.76572 	0.014777 	-3.12536 	90.1453 	85.9987 	-0.532227 	291.682 	360.828 	285.134 	539.692 	
38.5563 	-0.00301815 	-0.530876 	-0.0796207 	1.76572 	0.0149709 	-3.12539 	90.1453 	87.0406 	-0.532324 	292.68 	360.828 	285.134 	539.692 	
38.659 	-0.0029916 	-0.531245 	-0.0724746 	1.76572 	0.0151643 	-3.12541 	90.1452 	88.0231 	-0.532422 	293.683 	360.828 	285.134 	539.692 	
38.7623 	-0.00296598 	-0.53149 	-0.0653231 	1.76573 	0.0153572 	-3.12545 	90.1452 	89.1263 	-0.532422 	294.673 	360.828 	285.134 	539.692 	
38.8659 	-0.0029413 	-0.53161 	-0.0581686 	1.76573 	0.0155495 	-3.12548 	90.1452 	90.1287 	-0.532422 	295.777 	360.828 	285.134 	539.692 	
38.9692 	-0.00291757 	-0.531606 	-0.0510129 	1.76573 	0.0157412 	-3.12552 	90.1453 	91.1524 	-0.532422 	296.776 	360.828 	285.134 	539.692 	
39.0724 	-0.0028948 	-0.531476 	-0.0438585 	1.76573 	0.0159322 	-3.12556 	90.1453 	92.2376 	-0.532422 	297.779 	360.828 	285.134 	539.692 	
39.1803 	-0.00287299 	-0.531222 	-0.0367074 	1.76573 	0.0161224 	-3.1256 	90.1453 	93.2403 	-0.532422 	298.882 	360.828 	285.134 	539.692 	
39.2833 	-0.00285215 	-0.530842 	-0.0295618 	1.76573 	0.0163118 	-3.12565 	90.1454 	94.3544 	-0.532422 	299.979 	360.828 	285.134 	539.692 	
39.3862 	-0.00283229 	-0.530338 	-0.022424 	1.76573 	0.0165004 	-3.1257 	90.1454 	95.3365 	-0.532324 	300.97 	360.828 	285.134 	539.692 	
39.4893 	-0.00281341 	-0.52971 	-0.015296 	1.76573 	0.016688 	-3.12576 	90.1455 	96.3256 	-0.532422 	301.972 	360.828 	285.134 	539.692 	
39.5942 	-0.00279552 	-0.528957 	-0.00818011 	1.76573 	0.0168747 	-3.12582 	90.1453 	97.4028 	-0.532617 	303.082 	360.828 	285.134 	539.692 	
39.6975 	-0.00277862 	-0.528081 	-0.00107834 	1.76573 	0.0170603 	-3.12588 	90.1453 	98.4333 	-0.53291 	304.082 	360.828 	285.134 	539.692 	
39.7998 	-0.00274782 	-0.525956 	0.0130737 	1.76574 	0.0174282 	-3.12601 	90.1453 	99.4138 	-0.533008 	305.08 	360.828 	285.134 	539.692 	
39.9031 	-0.00273393 	-0.524709 	0.0201198 	1.76574 	0.0176104 	-3.12608 	90.1454 	100.518 	-0.533105 	306.182 	360.828 	285.134 	539.692 	
40.0065 	-0.00272106 	-0.523339 	0.027143 	1.76574 	0.0177913 	-3.12615 	90.1453 	101.523 	-0.533301 	307.179 	360.828 	285.134 	539.692 	
40.1141 	-0.0027092 	-0.521846 	0.0341413 	1.76574 	0.0179709 	-3.12623 	90.1454 	102.626 	-0.533301 	308.28 	360.828 	285.134 	539.692 	
40.2174 	-0.00269836 	-0.520232 	0.0411126 	1.76574 	0.0181491 	-3.12631 	90.1454 	103.626 	-0.533301 	309.277 	360.828 	285.134 	539.692 	
40.3206 	-0.00268854 	-0.518496 	0.0480544 	1.76575 	0.0183259 	-3.12639 	90.1454 	104.616 	-0.533398 	310.277 	360.828 	285.134 	539.692 	
40.4234 	-0.00267975 	-0.516639 	0.054965 	1.76575 	0.0185012 	-3.12648 	90.1454 	105.707 	-0.533398 	311.383 	360.828 	285.134 	539.692 	
40.5264 	-0.00267198 	-0.514663 	0.0618421 	1.76575 	0.018675 	-3.12657 	90.1452 	106.702 	-0.533594 	312.38 	360.828 	285.134 	539.692 	
40.6295 	-0.00266525 	-0.512566 	0.0686837 	1.76575 	0.0188472 	-3.12666 	90.1453 	107.7 	-0.533594 	313.385 	360.828 	285.134 	539.692 	
40.7326 	-0.00265955 	-0.51035 	0.0754877 	1.76575 	0.0190178 	-3.12676 	90.1455 	108.787 	-0.533398 	314.381 	360.828 	285.134 	539.692 	
40.8354 	-0.00265488 	-0.508016 	0.0822519 	1.76576 	0.0191866 	-3.12686 	90.1454 	109.778 	-0.533594 	315.483 	360.828 	285.134 	539.692 	
40.9384 	-0.00265126 	-0.505564 	0.0889744 	1.76576 	0.0193538 	-3.12696 	90.1454 	110.784 	-0.533594 	316.477 	360.828 	285.134 	539.692 	
41.0415 	-0.0026502 	-0.504337 	0.0961503 	1.76169 	0.0194797 	-3.12704 	90.1453 	111.795 	-0.533594 	317.221 	360.828 	285.134 	539.692 	
41.1447 	-0.00265446 	-0.507391 	0.104979 	1.74424 	0.0194752 	-3.12707 	90.1453 	112.891 	-0.533691 	317.346 	360.828 	285.134 	539.692 	
41.2475 	-0.00265851 	-0.510289 	0.113861 	1.72679 	0.0194713 	-3.12709 	90.1453 	113.89 	-0.533691 	317.363 	360.828 	285.134 	539.692 	
41.3505 	-0.00266197 	-0.512765 	0.121896 	1.71108 	0.019468 	-3.12711 	90.1453 	114.879 	-0.533789 	317.382 	360.828 	285.134 	539.692 	
41.4534 	-0.00266595 	-0.51562 	0.131768 	1.69188 	0.0194645 	-3.12714 	90.1453 	115.972 	-0.533789 	317.386 	360.828 	285.134 	539.692 	
41.4815 	-0.00266595 	-0.51562 	0.131768 	1.69188 	0.0194645 	-3.12714 	90.1453 	116.178 	-0.533789 	317.387 	360.828 	285.134 	539.692 	
41.5843 	-0.00266934 	-0.518049 	0.140788 	1.67443 	0.0194618 	-3.12716 	90.1452 	117.25 	-0.533789 	317.388 	360.828 	285.134 	539.692 	
41.6873 	-0.00267158 	-0.519654 	0.147116 	1.66224 	0.0194601 	-3.12718 	90.1452 	117.558 	-0.533887 	317.388 	360.828 	285.135 	539.692 	
41.7913 	-0.00267158 	-0.519654 	0.147116 	1.66224 	0.0194601 	-3.12718 	90.1451 	117.618 	-0.534375 	317.388 	360.828 	285.135 	539.692 	
41.8947 	-0.00267158 	-0.519654 	0.147116 	1.66224 	0.0194601 	-3.12718 	90.1451 	117.638 	-0.534473 	317.388 	360.828 	285.135 	539.692 	
41.9992 	-0.00267158 	-0.519654 	0.147116 	1.66224 	0.0194601 	-3.12718 	90.1452 	117.642 	-0.534375 	317.389 	360.828 	285.135 	539.692 	
42.1021 	-0.00267158 	-0.519654 	0.147116 	1.66224 	0.0194601 	-3.12718 	90.1451 	117.642 	-0.534473 	317.389 	360.828 	285.135 	539.692 	
42.2127 	-0.00267158 	-0.519654 	0.147116 	1.66224 	0.0194601 	-3.12718 	90.1422 	117.643 	-0.536426 	317.389 	360.828 	285.135 	539.692 	
42.3154 	-0.00252555 	-0.522136 	0.145737 	1.66362 	0.0196822 	-3.12706 	90.1423 	117.643 	-0.547754 	317.116 	360.828 	284.71 	539.692 	
42.4187 	-0.00241308 	-0.526824 	0.139643 	1.68003 	0.0199639 	-3.12764 	90.1413 	117.643 	-0.569531 	316.372 	360.828 	283.141 	539.692 	
42.5216 	-0.00229218 	-0.531895 	0.132751 	1.69923 	0.0202667 	-3.12832 	90.141 	117.643 	-0.57207 	315.314 	360.828 	280.945 	539.692 	
42.6247 	-0.00218865 	-0.536453 	0.126591 	1.71669 	0.020521 	-3.12894 	90.1409 	117.643 	-0.572461 	314.209 	360.828 	278.763 	539.692 	
42.7275 	-0.00210072 	-0.540509 	0.121135 	1.7324 	0.0207326 	-3.1295 	90.1409 	117.643 	-0.572852 	313.198 	360.828 	276.767 	539.692 	
42.8305 	-0.00200005 	-0.545408 	0.114581 	1.75161 	0.0209689 	-3.1302 	90.1409 	117.644 	-0.572949 	312.196 	360.828 	274.755 	539.692 	
42.9336 	-0.00191506 	-0.549805 	0.108733 	1.76906 	0.0211624 	-3.13083 	90.1409 	117.645 	-0.573047 	311.092 	360.828 	272.75 	539.692 	
43.0367 	-0.00183632 	-0.554144 	0.102994 	1.78652 	0.0213354 	-3.13147 	90.1408 	117.645 	-0.57334 	310.09 	360.828 	270.554 	539.692 	
43.1398 	-0.00177084 	-0.558001 	0.0979223 	1.80224 	0.0214735 	-3.13205 	90.1408 	117.645 	-0.57334 	309.093 	360.828 	268.549 	539.692 	
43.2425 	-0.00169773 	-0.562649 	0.0918459 	1.82144 	0.0216197 	-3.13276 	90.1406 	117.645 	-0.573633 	308.088 	360.828 	266.553 	539.692 	
43.3456 	-0.00164359 	-0.566399 	0.0869759 	1.83716 	0.0217208 	-3.13334 	90.1406 	117.645 	-0.57373 	306.98 	360.828 	264.336 	539.692 	
43.4487 	-0.00158439 	-0.570914 	0.0811499 	1.85636 	0.0218217 	-3.13405 	90.1372 	117.645 	-0.574609 	305.978 	360.828 	262.355 	539.692 	
43.5519 	-0.00153721 	-0.574952 	0.0759755 	1.87382 	0.0218918 	-3.13469 	90.1371 	117.645 	-0.574609 	304.973 	360.828 	260.342 	539.692 	
43.6548 	-0.00149635 	-0.578927 	0.0709189 	1.89129 	0.0219415 	-3.13534 	90.1371 	117.647 	-0.574609 	303.871 	360.828 	258.134 	539.692 	
43.7577 	-0.00146497 	-0.582448 	0.06647 	1.907 	0.0219687 	-3.13592 	90.1367 	117.648 	-0.574902 	302.873 	360.828 	256.141 	539.692 	
43.8607 	-0.00143608 	-0.586298 	0.0616419 	1.92446 	0.0219796 	-3.13656 	90.1366 	117.651 	-0.575 	301.857 	360.828 	254.129 	539.692 	
43.9637 	-0.00141346 	-0.59008 	0.0569364 	1.94192 	0.0219702 	-3.1372 	90.1366 	117.652 	-0.575 	300.752 	360.828 	252.13 	539.692 	
44.0668 	-0.00139708 	-0.593794 	0.0523545 	1.95938 	0.0219408 	-3.13784 	90.1365 	117.654 	-0.575098 	299.747 	360.828 	249.924 	539.692 	
44.1698 	-0.00138691 	-0.597438 	0.0478975 	1.97683 	0.0218915 	-3.13848 	90.1362 	117.656 	-0.575195 	298.747 	360.828 	247.944 	539.692 	
44.2731 	-0.00138283 	-0.601364 	0.0431411 	1.99604 	0.0218145 	-3.13917 	90.136 	117.66 	-0.575195 	297.754 	360.828 	245.946 	539.692 	
44.3799 	-0.00138553 	-0.604858 	0.0389511 	2.0135 	0.021724 	-3.13979 	90.136 	117.663 	-0.575391 	296.643 	360.828 	243.741 	539.692 	
44.4826 	-0.00139429 	-0.608279 	0.0348903 	2.03095 	0.0216142 	-3.14041 	90.1359 	117.678 	-0.575488 	295.643 	360.828 	241.724 	539.692 	
44.5856 	-0.00140729 	-0.611294 	0.031347 	2.04667 	0.0214992 	-3.14096 	90.1359 	117.685 	-0.575488 	294.547 	360.828 	239.505 	539.692 	
44.6885 	-0.00142971 	-0.614897 	0.0271612 	2.06587 	0.021338 	3.14156 	90.1317 	117.693 	-0.575879 	293.529 	360.828 	237.526 	539.692 	
44.7923 	-0.00145623 	-0.618092 	0.0234951 	2.08333 	0.021172 	3.14096 	90.1318 	117.693 	-0.575879 	292.522 	360.828 	235.509 	539.692 	
44.897 	-0.00148504 	-0.620902 	0.02031 	2.09904 	0.0210072 	3.14043 	90.1303 	117.694 	-0.576465 	291.42 	360.828 	233.314 	539.692 	
44.9993 	-0.00156551 	-0.626919 	0.0136243 	2.13395 	0.0205895 	3.13928 	90.128 	117.695 	-0.57666 	290.427 	360.828 	231.297 	539.692 	
45.1018 	-0.00161922 	-0.630092 	0.0101799 	2.15315 	0.0203305 	3.13867 	90.1271 	117.696 	-0.577344 	289.429 	360.828 	229.316 	539.692 	
45.2044 	-0.00166804 	-0.632616 	0.00748591 	2.16886 	0.0201035 	3.13817 	90.1263 	117.696 	-0.577344 	288.315 	360.828 	227.099 	539.692 	
45.3079 	-0.00172732 	-0.635343 	0.00462434 	2.18632 	0.0198359 	3.13763 	90.1261 	117.696 	-0.577539 	287.315 	360.828 	225.1 	539.692 	
45.4147 	-0.00179182 	-0.637987 	0.00190234 	2.20378 	0.0195523 	3.1371 	90.1258 	117.696 	-0.577539 	286.208 	360.828 	222.887 	539.692 	
45.5176 	-0.00186864 	-0.6408 	-0.000929475 	2.22298 	0.0192227 	3.13654 	90.1255 	117.696 	-0.577637 	285.212 	360.828 	220.883 	539.692 	
45.6209 	-0.00193597 	-0.643025 	-0.00311935 	2.23869 	0.0189395 	3.13608 	90.125 	117.698 	-0.577832 	284.205 	360.828 	218.881 	539.692 	
45.7238 	-0.00202359 	-0.645652 	-0.00563951 	2.25789 	0.0185774 	3.13554 	90.1221 	117.698 	-0.578027 	283.102 	360.828 	216.882 	539.692 	
45.8268 	-0.00209954 	-0.647725 	-0.00757316 	2.2736 	0.0182686 	3.13512 	90.1219 	117.699 	-0.57793 	282.101 	360.828 	214.678 	539.692 	
45.9299 	-0.00218828 	-0.649945 	-0.00958534 	2.29105 	0.0179126 	3.13465 	90.1218 	117.699 	-0.57793 	281.093 	360.828 	212.684 	539.692 	
46.0329 	-0.00228147 	-0.652079 	-0.0114537 	2.30851 	0.0175437 	3.1342 	90.1212 	117.7 	-0.578027 	280.099 	360.828 	210.674 	539.692 	
46.136 	-0.002379 	-0.654125 	-0.0131773 	2.32596 	0.0171623 	3.13377 	90.1208 	117.701 	-0.578027 	278.995 	360.828 	208.454 	539.692 	
46.2387 	-0.0024807 	-0.656083 	-0.0147562 	2.34341 	0.016769 	3.13335 	90.1198 	117.701 	-0.578027 	277.988 	360.828 	206.462 	539.692 	
46.342 	-0.00258643 	-0.657953 	-0.0161894 	2.36087 	0.0163643 	3.13294 	90.1188 	117.701 	-0.57793 	276.987 	360.828 	204.443 	539.692 	
46.4449 	-0.00269606 	-0.659733 	-0.0174766 	2.37832 	0.0159488 	3.13256 	90.106 	117.701 	-0.578027 	275.892 	360.828 	202.239 	539.692 	
46.5481 	-0.00280941 	-0.661423 	-0.0186175 	2.39577 	0.0155231 	3.13218 	90.1044 	117.702 	-0.578027 	274.887 	360.828 	200.242 	539.692 	
46.651 	-0.00292635 	-0.663023 	-0.0196115 	2.41322 	0.0150878 	3.13183 	90.1004 	117.702 	-0.57832 	273.875 	360.828 	198.251 	539.692 	
46.754 	-0.0030467 	-0.664531 	-0.0204588 	2.43068 	0.0146434 	3.13149 	90.1 	117.718 	-0.57832 	272.773 	360.828 	196.249 	539.692 	
46.8573 	-0.00317032 	-0.665949 	-0.0211585 	2.44813 	0.0141906 	3.13116 	90.0978 	117.734 	-0.578516 	271.756 	360.828 	194.037 	539.692 	
46.9603 	-0.00330987 	-0.667402 	-0.021758 	2.46732 	0.0136835 	3.13083 	90.0975 	117.735 	-0.578613 	270.749 	360.828 	192.028 	539.692 	
47.063 	-0.00342669 	-0.668508 	-0.0221156 	2.48303 	0.0132621 	3.13057 	90.0975 	117.738 	-0.578516 	269.755 	360.828 	190.047 	539.692 	
47.166 	-0.00355911 	-0.669649 	-0.0223726 	2.50048 	0.0127877 	3.1303 	90.0975 	117.738 	-0.578516 	268.66 	360.828 	187.812 	539.692 	
47.269 	-0.00369413 	-0.670697 	-0.0224817 	2.51793 	0.0123073 	3.13004 	90.0975 	117.739 	-0.578613 	267.668 	360.828 	185.822 	539.692 	
47.3726 	-0.00383159 	-0.671652 	-0.0224428 	2.53538 	0.0118216 	3.12981 	90.0975 	117.739 	-0.578613 	266.672 	360.828 	183.81 	539.692 	
47.4802 	-0.00397131 	-0.672513 	-0.0222562 	2.55283 	0.0113312 	3.12959 	90.0973 	117.739 	-0.578613 	265.557 	360.828 	181.604 	539.692 	
47.5829 	-0.0041274 	-0.673352 	-0.02188 	2.57203 	0.0107871 	3.12937 	90.0971 	117.739 	-0.578711 	264.554 	360.828 	179.615 	539.692 	
47.6862 	-0.00427131 	-0.674016 	-0.021383 	2.58948 	0.0102889 	3.12919 	90.0971 	117.74 	-0.578613 	263.445 	360.828 	177.407 	539.692 	
47.7889 	-0.00441694 	-0.674585 	-0.0207385 	2.60693 	0.00978798 	3.12903 	90.0971 	117.741 	-0.578613 	262.443 	360.828 	175.393 	539.692 	
47.8927 	-0.00469779 	-0.675408 	-0.0191081 	2.64008 	0.00883111 	3.12877 	90.0968 	117.742 	-0.578711 	261.44 	360.828 	173.395 	539.692 	
47.9972 	-0.00484745 	-0.675703 	-0.0180368 	2.65753 	0.00832599 	3.12866 	90.0966 	117.742 	-0.578711 	260.347 	360.828 	171.187 	539.692 	
48.1001 	-0.00499817 	-0.675904 	-0.0168191 	2.67498 	0.00782065 	3.12857 	90.0959 	117.742 	-0.578711 	259.338 	360.828 	169.169 	539.692 	
48.2026 	-0.00514976 	-0.67601 	-0.0154552 	2.69243 	0.00731573 	3.12849 	90.096 	117.742 	-0.578711 	258.345 	360.828 	167.172 	539.692 	
48.3067 	-0.00531732 	-0.676017 	-0.0137865 	2.71162 	0.00676157 	3.12843 	90.0954 	117.744 	-0.578809 	257.228 	360.828 	164.978 	539.692 	
48.414 	-0.00545489 	-0.675937 	-0.0122905 	2.72732 	0.0063097 	3.1284 	90.0954 	117.744 	-0.578809 	256.12 	360.828 	162.961 	539.692 	
48.517 	-0.00560809 	-0.675758 	-0.0104908 	2.74477 	0.00580983 	3.12838 	90.0953 	117.745 	-0.578809 	255.106 	360.828 	160.749 	539.692 	
48.6201 	-0.00576148 	-0.675484 	-0.00854675 	2.76222 	0.00531288 	3.12837 	90.0953 	117.746 	-0.578809 	254.105 	360.828 	158.741 	539.692 	
48.7228 	-0.0059149 	-0.675116 	-0.00645927 	2.77967 	0.00481947 	3.12839 	90.0953 	117.746 	-0.578809 	253.102 	360.828 	156.733 	539.692 	
48.8261 	-0.00606818 	-0.674653 	-0.00422865 	2.79712 	0.00433019 	3.12842 	90.0953 	117.746 	-0.578809 	252.011 	360.828 	154.563 	539.692 	
48.9288 	-0.00622116 	-0.674095 	-0.0018556 	2.81457 	0.00384564 	3.12847 	90.0953 	117.747 	-0.578809 	251.004 	360.828 	152.539 	539.692 	
49.0323 	-0.00637367 	-0.673444 	0.000658929 	2.83202 	0.0033664 	3.12853 	90.0952 	117.747 	-0.578809 	250.009 	360.828 	150.541 	539.692 	
49.1353 	-0.00652555 	-0.672698 	0.00331432 	2.84947 	0.00289306 	3.12861 	90.0952 	117.748 	-0.578809 	248.91 	360.828 	148.332 	539.692 	
49.2383 	-0.00667666 	-0.671858 	0.00610965 	2.86691 	0.00242617 	3.12871 	90.0952 	117.748 	-0.578809 	247.908 	360.828 	146.333 	539.692 	
49.3413 	-0.00682682 	-0.670925 	0.00904441 	2.88436 	0.00196629 	3.12883 	90.0954 	117.75 	-0.578711 	246.901 	360.828 	144.341 	539.692 	
49.4445 	-0.0069759 	-0.669898 	0.0121172 	2.90181 	0.00151397 	3.12896 	90.0948 	117.757 	-0.578809 	245.803 	360.828 	142.329 	539.692 	
49.5473 	-0.00712373 	-0.668778 	0.0153274 	2.91926 	0.00106974 	3.1291 	90.0936 	117.766 	-0.579102 	244.806 	360.828 	140.117 	539.692 	
49.6504 	-0.00728474 	-0.667439 	0.019016 	2.93846 	0.000591045 	3.12928 	90.0932 	117.777 	-0.579004 	243.787 	360.828 	138.134 	539.692 	
49.7534 	-0.0074151 	-0.666261 	0.0221558 	2.95416 	0.000207599 	3.12943 	90.0899 	117.78 	-0.579102 	242.792 	360.828 	136.124 	539.692 	
49.8565 	-0.00755836 	-0.664864 	0.0257721 	2.97161 	-0.000209312 	3.12962 	90.09 	117.78 	-0.579004 	241.701 	360.828 	133.928 	539.692 	
49.9594 	-0.00769981 	-0.663376 	0.0295214 	2.98906 	-0.00061615 	3.12982 	90.0878 	117.787 	-0.579395 	240.692 	360.828 	131.906 	539.692 	
50.0624 	-0.00783932 	-0.661797 	0.0334028 	3.00651 	-0.00101245 	3.13004 	90.0879 	117.787 	-0.579297 	239.687 	360.828 	129.9 	539.692 	
50.1653 	-0.00797678 	-0.660127 	0.037415 	3.02396 	-0.00139776 	3.13027 	90.088 	117.787 	-0.579199 	238.583 	360.828 	127.72 	539.692 	
50.2686 	-0.00811204 	-0.658367 	0.041557 	3.04141 	-0.00177166 	3.13051 	90.0879 	117.788 	-0.579297 	237.587 	360.828 	125.81 	539.692 	
50.3717 	-0.00822451 	-0.65826 	0.0459774 	3.05223 	-0.00205606 	3.13074 	90.0877 	117.789 	-0.579395 	236.582 	360.828 	124.492 	539.692 	
50.4794 	-0.00830161 	-0.661003 	0.0507231 	3.05188 	-0.00220331 	3.13097 	90.0875 	117.789 	-0.579395 	235.485 	360.828 	123.769 	539.692 	
50.582 	-0.00834636 	-0.667442 	0.0563375 	3.0381 	-0.00220996 	3.13118 	90.0867 	117.789 	-0.579395 	234.483 	360.828 	123.666 	539.692 	
50.6853 	-0.00837101 	-0.673792 	0.061144 	3.02239 	-0.00216739 	3.13135 	90.0862 	117.79 	-0.579297 	233.375 	360.828 	123.65 	539.692 	
50.7891 	-0.00839993 	-0.680757 	0.0666011 	3.00494 	-0.00212315 	3.13153 	90.0868 	117.79 	-0.579297 	232.387 	360.828 	123.638 	539.692 	
50.8935 	-0.0084336 	-0.688308 	0.072743 	2.98574 	-0.00207826 	3.13174 	90.0538 	117.8 	-0.580078 	231.369 	360.828 	123.636 	539.692 	
50.9971 	-0.0084626 	-0.694397 	0.0778754 	2.97003 	-0.00204446 	3.13191 	90.0531 	117.802 	-0.57998 	230.254 	360.828 	123.635 	539.692 	
51.1002 	-0.00853163 	-0.707636 	0.0896187 	2.93513 	-0.00197887 	3.13228 	90.0439 	117.803 	-0.580371 	229.257 	360.828 	123.635 	539.692 	
51.2035 	-0.0085685 	-0.714099 	0.095662 	2.91767 	-0.00195101 	3.13247 	90.0403 	117.807 	-0.580371 	228.26 	360.828 	123.635 	539.692 	
51.3065 	-0.00860693 	-0.720456 	0.101817 	2.90022 	-0.00192646 	3.13266 	90.0392 	117.817 	-0.580078 	227.149 	360.828 	123.635 	539.692 	
51.4142 	-0.00864691 	-0.726704 	0.108082 	2.88277 	-0.00190522 	3.13285 	90.0394 	117.821 	-0.580078 	226.058 	360.828 	123.635 	539.692 	
51.5174 	-0.00868842 	-0.732843 	0.114455 	2.86531 	-0.00188729 	3.13304 	90.0346 	117.825 	-0.580469 	225.054 	360.828 	123.635 	539.692 	
51.6205 	-0.00873146 	-0.738869 	0.120935 	2.84786 	-0.00187269 	3.13323 	90.0408 	117.824 	-0.579883 	224.073 	360.828 	123.634 	539.692 	
51.7236 	-0.008776 	-0.744781 	0.127518 	2.83041 	-0.00186143 	3.13342 	90.037 	117.824 	-0.580371 	223.066 	360.828 	123.634 	539.692 	
51.8266 	-0.00882204 	-0.750577 	0.134204 	2.81296 	-0.00185349 	3.13362 	90.0336 	117.826 	-0.580566 	221.949 	360.828 	123.634 	539.692 	
51.9295 	-0.00886957 	-0.756256 	0.14099 	2.7955 	-0.00184888 	3.13381 	90.0305 	117.826 	-0.580176 	220.961 	360.828 	123.634 	539.692 	
52.0326 	-0.00892353 	-0.762364 	0.148567 	2.7763 	-0.00184767 	3.13402 	90.0188 	117.826 	-0.580762 	219.95 	360.828 	123.634 	539.692 	
52.1357 	-0.00896899 	-0.767253 	0.154854 	2.7606 	-0.00184968 	3.13419 	90.0177 	117.826 	-0.580469 	218.847 	360.828 	123.634 	539.692 	
52.2386 	-0.00902087 	-0.772569 	0.161927 	2.74314 	-0.00185508 	3.13438 	90.0177 	117.826 	-0.580371 	217.837 	360.828 	123.634 	539.692 	
52.3416 	-0.00907416 	-0.777761 	0.169093 	2.72569 	-0.00186382 	3.13457 	90.0169 	117.826 	-0.580273 	216.841 	360.828 	123.634 	539.692 	
52.4446 	-0.00912886 	-0.782826 	0.176348 	2.70824 	-0.00187588 	3.13476 	90.0116 	117.827 	-0.580566 	215.732 	360.828 	123.635 	539.692 	
52.5478 	-0.00918495 	-0.787764 	0.18369 	2.69079 	-0.00189128 	3.13495 	90.0022 	117.828 	-0.580469 	214.734 	360.828 	123.635 	539.692 	
52.6506 	-0.00924241 	-0.792574 	0.191117 	2.67333 	-0.00190999 	3.13514 	90.0023 	117.828 	-0.580469 	213.728 	360.828 	123.635 	539.692 	
52.7535 	-0.00930122 	-0.797253 	0.198627 	2.65588 	-0.00193203 	3.13533 	90.0023 	117.83 	-0.580469 	212.727 	360.828 	123.636 	539.692 	
52.8572 	-0.00936137 	-0.8018 	0.206218 	2.63843 	-0.00195737 	3.13552 	90.0027 	117.83 	-0.580371 	211.63 	360.828 	123.636 	539.692 	
52.96 	-0.00942283 	-0.806214 	0.213886 	2.62097 	-0.00198601 	3.13571 	90.0021 	117.83 	-0.580371 	210.634 	360.828 	123.636 	539.692 	
53.0626 	-0.00948559 	-0.810493 	0.221631 	2.60352 	-0.00201795 	3.1359 	90.0031 	117.83 	-0.580273 	209.629 	360.828 	123.636 	539.692 	
53.1657 	-0.00954963 	-0.814637 	0.229449 	2.58607 	-0.00205318 	3.13609 	90.003 	117.832 	-0.580371 	208.525 	360.828 	123.636 	539.692 	
53.2692 	-0.00961493 	-0.818643 	0.237339 	2.56861 	-0.00209167 	3.13627 	90.0045 	117.832 	-0.580078 	207.533 	360.828 	123.637 	539.692 	
53.373 	-0.00968147 	-0.822511 	0.245297 	2.55116 	-0.00213343 	3.13646 	90.002 	117.833 	-0.580371 	206.522 	360.828 	123.637 	539.692 	
53.4799 	-0.00974923 	-0.82624 	0.253321 	2.53371 	-0.00217844 	3.13665 	90.0025 	117.833 	-0.580273 	205.419 	360.828 	123.637 	539.692 	
53.5826 	-0.00982515 	-0.830179 	0.262221 	2.51451 	-0.00223168 	3.13685 	90.0024 	117.833 	-0.580273 	204.416 	360.828 	123.637 	539.692 	
53.6853 	-0.00988832 	-0.833275 	0.269558 	2.4988 	-0.00227814 	3.13702 	90.0031 	117.833 	-0.580176 	203.323 	360.828 	123.637 	539.692 	
53.7885 	-0.00995961 	-0.836578 	0.277767 	2.48135 	-0.00233281 	3.1372 	90.0016 	117.833 	-0.580273 	202.318 	360.828 	123.638 	539.692 	
53.8913 	-0.0100393 	-0.840046 	0.286861 	2.46215 	-0.00239663 	3.1374 	90.0027 	117.833 	-0.580176 	201.313 	360.828 	123.638 	539.692 	
53.9961 	-0.0101802 	-0.845623 	0.30272 	2.42899 	-0.00251587 	3.13774 	90.0049 	117.835 	-0.580078 	200.207 	360.828 	123.638 	539.692 	
54.0998 	-0.0102559 	-0.848346 	0.311139 	2.41154 	-0.00258318 	3.13792 	90.0023 	117.835 	-0.580176 	199.216 	360.828 	123.638 	539.692 	
54.2027 	-0.0103326 	-0.850921 	0.319604 	2.39409 	-0.0026536 	3.1381 	90.0028 	117.835 	-0.580176 	198.209 	360.828 	123.638 	539.692 	
54.3055 	-0.0104104 	-0.853349 	0.328113 	2.37663 	-0.00272711 	3.13827 	90.0029 	117.835 	-0.580176 	197.124 	360.828 	123.638 	539.692 	
54.4147 	-0.0104892 	-0.855627 	0.336663 	2.35918 	-0.00280369 	3.13845 	90.0025 	117.835 	-0.580176 	196.01 	360.828 	123.639 	539.692 	
54.5178 	-0.0105689 	-0.857756 	0.345251 	2.34173 	-0.00288332 	3.13862 	90.0026 	117.835 	-0.580176 	195.016 	360.828 	123.639 	539.692 	
54.6206 	-0.0106496 	-0.859735 	0.353875 	2.32427 	-0.00296596 	3.1388 	90.0022 	117.835 	-0.580176 	194.02 	360.828 	123.639 	539.692 	
54.7238 	-0.0107312 	-0.861563 	0.362533 	2.30682 	-0.0030516 	3.13897 	90.0021 	117.835 	-0.580176 	193.017 	360.828 	123.639 	539.692 	
54.8271 	-0.0108137 	-0.863239 	0.37122 	2.28937 	-0.00314021 	3.13914 	90.0021 	117.835 	-0.580176 	191.914 	360.828 	123.639 	539.692 	
54.9299 	-0.0108971 	-0.864764 	0.379936 	2.27192 	-0.00323177 	3.1393 	90.0023 	117.835 	-0.580078 	190.918 	360.828 	123.64 	539.692 	
55.0329 	-0.0109813 	-0.866136 	0.388677 	2.25446 	-0.00332623 	3.13947 	90.0023 	117.835 	-0.580078 	189.912 	360.828 	123.64 	539.692 	
55.1361 	-0.0110663 	-0.867356 	0.397441 	2.23701 	-0.00342358 	3.13963 	90.0021 	117.836 	-0.580176 	188.811 	360.828 	123.64 	539.692 	
55.2389 	-0.0111522 	-0.868422 	0.406225 	2.21956 	-0.00352379 	3.1398 	90.003 	117.836 	-0.580078 	187.818 	360.828 	123.64 	539.692 	
55.342 	-0.0112388 	-0.869335 	0.415026 	2.20211 	-0.00362682 	3.13996 	90.0026 	117.836 	-0.580078 	186.814 	360.828 	123.64 	539.692 	
55.4449 	-0.0113262 	-0.870094 	0.423841 	2.18465 	-0.00373265 	3.14012 	90.0036 	117.837 	-0.580078 	185.707 	360.828 	123.641 	539.692 	
55.548 	-0.0114143 	-0.870699 	0.432669 	2.1672 	-0.00384124 	3.14027 	90.0032 	117.837 	-0.580078 	184.72 	360.828 	123.641 	539.692 	
55.6508 	-0.011503 	-0.87115 	0.441505 	2.14975 	-0.00395255 	3.14043 	90.0012 	117.837 	-0.580078 	183.73 	360.828 	123.641 	539.692 	
55.7539 	-0.0115925 	-0.871447 	0.450348 	2.13229 	-0.00406657 	3.14058 	90.0014 	117.837 	-0.580078 	182.722 	360.828 	123.641 	539.692 	
55.8576 	-0.0116826 	-0.871589 	0.459195 	2.11484 	-0.00418324 	3.14073 	90.0019 	117.838 	-0.580078 	181.61 	360.828 	123.641 	539.692 	
55.96 	-0.0117732 	-0.871577 	0.468043 	2.09739 	-0.00430253 	3.14088 	90.0013 	117.838 	-0.580078 	180.611 	360.828 	123.642 	539.692 	
56.0629 	-0.0118645 	-0.87141 	0.47689 	2.07994 	-0.00442441 	3.14103 	90.0015 	117.838 	-0.580078 	179.612 	360.828 	123.642 	539.692 	
56.1659 	-0.0119563 	-0.871089 	0.485732 	2.06248 	-0.00454885 	3.14118 	90.0015 	117.838 	-0.580078 	178.515 	360.828 	123.642 	539.692 	
56.2689 	-0.0120487 	-0.870614 	0.494567 	2.04503 	-0.0046758 	3.14132 	90.0015 	117.838 	-0.580078 	177.515 	360.828 	123.643 	539.692 	
56.3725 	-0.0121415 	-0.869985 	0.503393 	2.02758 	-0.00480522 	3.14146 	90.0014 	117.838 	-0.580078 	176.523 	360.828 	123.643 	539.692 	
56.48 	-0.0122348 	-0.869201 	0.512206 	2.01013 	-0.00493708 	-3.14159 	90.0014 	117.838 	-0.580078 	175.41 	360.828 	123.645 	539.692 	
56.5828 	-0.0123286 	-0.868264 	0.521005 	1.99267 	-0.00507133 	-3.14145 	90.0018 	117.838 	-0.580078 	174.416 	360.828 	123.663 	539.692 	
56.6863 	-0.0124228 	-0.867174 	0.529785 	1.97522 	-0.00520793 	-3.14132 	90.0017 	117.838 	-0.580078 	173.322 	360.828 	123.668 	539.692 	
56.7887 	-0.0125268 	-0.865797 	0.53942 	1.95602 	-0.00536087 	-3.14117 	90.0017 	117.838 	-0.580078 	172.321 	360.828 	123.67 	539.692 	
56.8918 	-0.0126217 	-0.864386 	0.548155 	1.93857 	-0.00550228 	-3.14104 	90.0016 	117.838 	-0.580078 	171.319 	360.828 	123.672 	539.692 	
56.9951 	-0.0127075 	-0.862985 	0.555994 	1.92286 	-0.00563145 	-3.14093 	90.0016 	117.839 	-0.57998 	170.22 	360.828 	123.674 	539.692 	
57.0979 	-0.0128988 	-0.859433 	0.573329 	1.88796 	-0.00592479 	-3.14069 	90.0018 	117.838 	-0.57998 	169.224 	360.828 	123.676 	539.692 	
57.2006 	-0.0129949 	-0.857431 	0.581948 	1.87051 	-0.00607462 	-3.14057 	90.0018 	117.838 	-0.57998 	168.235 	360.828 	123.676 	539.692 	
57.3035 	-0.0130911 	-0.855278 	0.59053 	1.85305 	-0.0062265 	-3.14045 	90.0014 	117.839 	-0.57998 	167.222 	360.828 	123.677 	539.692 	
57.4071 	-0.0131875 	-0.852976 	0.599073 	1.8356 	-0.00638039 	-3.14034 	90.0023 	117.839 	-0.57998 	166.126 	360.828 	123.678 	539.692 	
57.514 	-0.0132841 	-0.850525 	0.607575 	1.81815 	-0.00653622 	-3.14023 	90.0016 	117.839 	-0.57998 	165.134 	360.828 	123.678 	539.692 	
57.617 	-0.0133808 	-0.847927 	0.616033 	1.80069 	-0.00669397 	-3.14012 	90.0018 	117.839 	-0.57998 	164.02 	360.828 	123.679 	539.692 	
57.7201 	-0.0134776 	-0.84518 	0.624444 	1.78324 	-0.00685357 	-3.14001 	90.0026 	117.839 	-0.57998 	163.026 	360.828 	123.68 	539.692 	
57.8231 	-0.0135745 	-0.842288 	0.632806 	1.76579 	-0.00701498 	-3.13991 	90.0016 	117.839 	-0.57998 	162.026 	360.828 	123.68 	539.692 	
57.9261 	-0.0136714 	-0.83925 	0.641116 	1.74834 	-0.00717816 	-3.13981 	90.0062 	117.838 	-0.57998 	160.942 	360.828 	123.68 	539.692 	
58.0288 	-0.0137683 	-0.836067 	0.649372 	1.73088 	-0.00734305 	-3.13972 	89.9974 	117.838 	-0.579883 	159.936 	360.828 	123.681 	539.692 	
58.1322 	-0.0138651 	-0.832741 	0.657571 	1.71343 	-0.0075096 	-3.13962 	90.0015 	117.839 	-0.579883 	158.93 	360.828 	123.681 	539.692 	
58.2352 	-0.013962 	-0.829273 	0.665711 	1.69598 	-0.00767777 	-3.13953 	90.0012 	117.839 	-0.579883 	157.836 	360.828 	123.681 	539.692 	
58.3383 	-0.0140587 	-0.825662 	0.673789 	1.67853 	-0.00784749 	-3.13944 	90.0004 	117.839 	-0.579883 	156.842 	360.828 	123.681 	539.692 	
58.4412 	-0.0141553 	-0.821911 	0.681803 	1.66107 	-0.00801872 	-3.13936 	90.0009 	117.839 	-0.579883 	155.843 	360.828 	123.682 	539.692 	
58.5443 	-0.0142518 	-0.818021 	0.689749 	1.64362 	-0.0081914 	-3.13928 	90.0009 	117.839 	-0.579883 	154.857 	360.828 	123.682 	539.692 	
58.6469 	-0.0143481 	-0.813993 	0.697627 	1.62617 	-0.0083655 	-3.1392 	90.0006 	117.839 	-0.579785 	153.751 	360.828 	123.682 	539.692 	
58.7504 	-0.0144442 	-0.809828 	0.705434 	1.60872 	-0.00854094 	-3.13912 	90.0012 	117.839 	-0.579785 	152.753 	360.828 	123.682 	539.692 	
58.8532 	-0.0145401 	-0.805527 	0.713166 	1.59126 	-0.00871767 	-3.13905 	90.0009 	117.839 	-0.579785 	151.754 	360.828 	123.682 	539.692 	
58.9564 	-0.0146357 	-0.801092 	0.720823 	1.57381 	-0.00889566 	-3.13898 	90.0011 	117.838 	-0.579785 	150.651 	360.828 	123.683 	539.692 	
59.0594 	-0.014731 	-0.796524 	0.7284 	1.55636 	-0.00907483 	-3.13891 	90.0009 	117.838 	-0.579687 	149.665 	360.828 	123.683 	539.692 	
59.1623 	-0.014826 	-0.791825 	0.735897 	1.5389 	-0.00925513 	-3.13885 	90.0006 	117.838 	-0.579687 	148.654 	360.828 	123.683 	539.692 	
59.2653 	-0.0149206 	-0.786995 	0.743311 	1.52145 	-0.00943652 	-3.13879 	90.0004 	117.838 	-0.57959 	147.648 	360.828 	123.683 	539.692 	
59.3683 	-0.0150149 	-0.782037 	0.750639 	1.504 	-0.00961893 	-3.13873 	90.0008 	117.838 	-0.57959 	146.571 	360.828 	123.683 	539.692 	
59.4711 	-0.0151088 	-0.776951 	0.757879 	1.48655 	-0.00980231 	-3.13868 	90.0006 	117.838 	-0.57959 	145.567 	360.828 	123.683 	539.692 	
59.5803 	-0.0152022 	-0.77174 	0.76503 	1.46909 	-0.0099866 	-3.13863 	90.0008 	117.838 	-0.57959 	144.462 	360.828 	123.683 	539.692 	
59.6839 	-0.0153044 	-0.765865 	0.77279 	1.4499 	-0.0101903 	-3.13857 	90.0007 	117.838 	-0.57959 	143.474 	360.828 	123.683 	539.692 	
59.7869 	-0.0153876 	-0.760947 	0.779053 	1.43419 	-0.0103577 	-3.13853 	90.0007 	117.838 	-0.579492 	142.376 	360.828 	123.683 	539.692 	
59.8934 	-0.0154796 	-0.755369 	0.785922 	1.41674 	-0.0105444 	-3.13849 	90.0013 	117.838 	-0.57959 	141.391 	360.828 	123.683 	539.692 	
59.9971 	-0.0156619 	-0.743857 	0.799361 	1.38183 	-0.0109198 	-3.13842 	90.0009 	117.838 	-0.579395 	140.28 	360.828 	123.683 	539.692 	
60.1001 	-0.0157521 	-0.737927 	0.805927 	1.36438 	-0.0111084 	-3.13839 	90.0016 	117.838 	-0.579492 	139.293 	360.828 	123.683 	539.692 	
60.2033 	-0.0158417 	-0.731883 	0.812389 	1.34692 	-0.0112974 	-3.13836 	90.0001 	117.838 	-0.579199 	138.291 	360.828 	123.683 	539.692 	
60.3064 	-0.0159306 	-0.725728 	0.818745 	1.32947 	-0.011487 	-3.13834 	90.0008 	117.838 	-0.579297 	137.205 	360.828 	123.683 	539.692 	
60.414 	-0.0160189 	-0.719462 	0.824993 	1.31202 	-0.011677 	-3.13832 	90.0006 	117.838 	-0.579199 	136.203 	360.828 	123.683 	539.692 	
60.5175 	-0.0161065 	-0.713088 	0.83113 	1.29456 	-0.0118673 	-3.1383 	90.0004 	117.838 	-0.579199 	135.102 	360.828 	123.684 	539.692 	
60.6204 	-0.0161933 	-0.706608 	0.837155 	1.27711 	-0.0120578 	-3.13828 	89.9999 	117.838 	-0.579004 	134.095 	360.828 	123.684 	539.692 	
60.7237 	-0.0162793 	-0.700024 	0.843066 	1.25966 	-0.0122486 	-3.13827 	90.0032 	117.838 	-0.579395 	133.111 	360.828 	123.684 	539.692 	
60.8263 	-0.0163646 	-0.693338 	0.848861 	1.2422 	-0.0124396 	-3.13827 	90.0016 	117.838 	-0.579102 	132.006 	360.828 	123.684 	539.692 	
60.9293 	-0.016449 	-0.686551 	0.854538 	1.22475 	-0.0126307 	-3.13826 	90.0053 	117.838 	-0.579297 	131.017 	360.828 	123.684 	539.692 	
61.0325 	-0.0165326 	-0.679667 	0.860096 	1.2073 	-0.0128218 	-3.13826 	90.0053 	117.836 	-0.579395 	130.032 	360.828 	123.684 	539.692 	
61.1354 	-0.0166154 	-0.672686 	0.865534 	1.18984 	-0.013013 	-3.13826 	90.0005 	117.834 	-0.57832 	129.033 	360.828 	123.684 	539.692 	
61.2382 	-0.0166972 	-0.665612 	0.870848 	1.17239 	-0.013204 	-3.13827 	90.0002 	117.834 	-0.57832 	127.939 	360.828 	123.684 	539.692 	
61.3414 	-0.0167781 	-0.658446 	0.876038 	1.15494 	-0.0133949 	-3.13828 	90.001 	117.832 	-0.578516 	126.958 	360.828 	123.684 	539.692 	
61.4446 	-0.0168581 	-0.651191 	0.881102 	1.13749 	-0.0135857 	-3.13829 	89.994 	117.834 	-0.575195 	125.925 	360.828 	123.684 	539.692 	
61.5473 	-0.0169371 	-0.643849 	0.886039 	1.12004 	-0.0137762 	-3.1383 	90.0452 	117.8 	-0.581055 	124.883 	360.829 	123.684 	539.692 	
61.6505 	-0.0170151 	-0.636422 	0.890846 	1.10258 	-0.0139664 	-3.13832 	90.0208 	117.807 	-0.575781 	123.846 	360.829 	123.684 	539.692 	
61.7537 	-0.0170921 	-0.628912 	0.895524 	1.08513 	-0.0141562 	-3.13834 	90.0198 	117.812 	-0.57666 	122.835 	360.829 	123.685 	539.692 	
61.8567 	-0.0171681 	-0.621321 	0.900069 	1.06768 	-0.0143457 	-3.13837 	90.0197 	117.811 	-0.576563 	121.768 	360.829 	123.685 	539.692 	
61.9594 	-0.017243 	-0.613652 	0.904482 	1.05023 	-0.0145346 	-3.1384 	90.0201 	117.802 	-0.576953 	120.8 	360.829 	123.685 	539.692 	
62.0625 	-0.0173168 	-0.605908 	0.90876 	1.03277 	-0.0147231 	-3.13843 	90.0176 	117.812 	-0.575879 	119.769 	360.829 	123.685 	539.692 	
62.1655 	-0.0173895 	-0.59809 	0.912902 	1.01532 	-0.0149109 	-3.13846 	90.0085 	117.817 	-0.576758 	118.767 	360.829 	123.685 	539.692 	
62.269 	-0.0174611 	-0.590201 	0.916907 	0.997868 	-0.0150981 	-3.1385 	90.0112 	117.816 	-0.577246 	117.696 	360.829 	123.685 	539.692 	
62.372 	-0.0175315 	-0.582243 	0.920774 	0.980416 	-0.0152847 	-3.13854 	90.0112 	117.817 	-0.577246 	116.695 	360.829 	123.685 	539.692 	
62.4796 	-0.0176008 	-0.574219 	0.924501 	0.962963 	-0.0154704 	-3.13859 	90.0075 	117.816 	-0.57666 	115.6 	360.829 	123.685 	539.692 	
62.5832 	-0.0176688 	-0.56613 	0.928088 	0.94551 	-0.0156553 	-3.13864 	90.0069 	117.816 	-0.576074 	114.607 	360.829 	123.685 	539.692 	
68.2742 	-0.0177673 	-0.554048 	0.933136 	0.91968 	-0.0159274 	-3.13872 	90.03 	117.797 	-0.578809 	113.475 	360.829 	123.685 	539.692 	
68.3796 	-0.0177668 	-0.554085 	0.933171 	0.919529 	-0.0159261 	-3.13872 	90.0311 	117.796 	-0.57959 	113.475 	360.829 	124.193 	539.692 	
68.4824 	-0.0177775 	-0.550461 	0.937817 	0.897186 	-0.0159668 	-3.13908 	90.0356 	117.792 	-0.578906 	113.475 	360.829 	125.99 	539.692 	
68.5853 	-0.0177901 	-0.544594 	0.944911 	0.862275 	-0.0160144 	-3.13963 	90.0357 	117.793 	-0.579102 	113.475 	360.829 	127.987 	539.692 	
68.6904 	-0.0177997 	-0.532134 	0.958463 	0.792454 	-0.0160511 	-3.14075 	90.0357 	117.792 	-0.579102 	113.475 	360.829 	130.167 	539.692 	
68.7935 	-0.0177969 	-0.525557 	0.964904 	0.757543 	-0.0160401 	-3.14131 	90.0357 	117.793 	-0.578906 	113.475 	360.829 	132.182 	539.692 	
68.8963 	-0.0177888 	-0.518759 	0.971113 	0.722633 	-0.0160095 	3.14131 	90.0356 	117.792 	-0.578906 	113.475 	360.829 	134.373 	539.692 	
68.9985 	-0.0177756 	-0.511749 	0.97708 	0.687722 	-0.0159595 	3.14075 	90.0358 	117.793 	-0.579102 	113.475 	360.829 	136.368 	539.692 	
69.1007 	-0.0177573 	-0.504535 	0.982799 	0.652812 	-0.01589 	3.1402 	90.0372 	117.792 	-0.579004 	113.476 	360.829 	138.363 	539.692 	
69.2036 	-0.0177338 	-0.497126 	0.988262 	0.617902 	-0.0158012 	3.13964 	90.0362 	117.792 	-0.578809 	113.476 	360.829 	140.362 	539.692 	
69.3069 	-0.0177053 	-0.48953 	0.993464 	0.582991 	-0.0156931 	3.13909 	90.0381 	117.791 	-0.579297 	113.476 	360.829 	142.559 	539.692 	
69.4136 	-0.0176718 	-0.481758 	0.998398 	0.548081 	-0.0155659 	3.13855 	90.0377 	117.791 	-0.578711 	113.476 	360.829 	144.542 	539.692 	
69.5166 	-0.0176332 	-0.473818 	1.00306 	0.513171 	-0.0154197 	3.13801 	90.0434 	117.79 	-0.580371 	113.476 	360.829 	146.742 	539.692 	
69.6197 	-0.0175897 	-0.465721 	1.00744 	0.478262 	-0.0152547 	3.13747 	90.0491 	117.79 	-0.579883 	113.476 	360.829 	148.732 	539.692 	
69.7228 	-0.0175413 	-0.457475 	1.01153 	0.443352 	-0.0150712 	3.13694 	90.0466 	117.789 	-0.580078 	113.477 	360.829 	150.706 	539.692 	
69.8262 	-0.0174881 	-0.449092 	1.01534 	0.408443 	-0.0148692 	3.13642 	90.0491 	117.789 	-0.580176 	113.476 	360.829 	152.735 	539.692 	
69.929 	-0.01743 	-0.440582 	1.01884 	0.373534 	-0.0146492 	3.1359 	90.0483 	117.787 	-0.579492 	113.477 	360.829 	154.916 	539.692 	
70.0322 	-0.0173673 	-0.431953 	1.02205 	0.338625 	-0.0144113 	3.1354 	90.0513 	117.775 	-0.581445 	113.477 	360.829 	156.9 	539.692 	
70.1349 	-0.0173 	-0.423219 	1.02496 	0.303716 	-0.0141559 	3.1349 	90.051 	117.775 	-0.580078 	113.478 	360.829 	158.902 	539.692 	
70.2381 	-0.017228 	-0.414388 	1.02756 	0.268807 	-0.0138832 	3.13441 	90.0513 	117.774 	-0.58125 	113.478 	360.829 	161.099 	539.692 	
70.3411 	-0.0171517 	-0.405472 	1.02985 	0.233899 	-0.0135936 	3.13393 	90.0523 	117.775 	-0.580957 	113.478 	360.829 	163.097 	539.692 	
70.4443 	-0.0170709 	-0.396481 	1.03183 	0.198992 	-0.0132874 	3.13346 	90.0522 	117.775 	-0.580957 	113.478 	360.829 	165.086 	539.692 	
70.5471 	-0.0169859 	-0.387427 	1.03349 	0.164084 	-0.0129651 	3.133 	90.0518 	117.774 	-0.580078 	113.478 	360.829 	167.275 	539.692 	
70.6501 	-0.0168967 	-0.37832 	1.03484 	0.129177 	-0.0126269 	3.13256 	90.0539 	117.775 	-0.581836 	113.478 	360.829 	169.28 	539.692 	
70.7531 	-0.0168035 	-0.369172 	1.03587 	0.0942696 	-0.0122734 	3.13212 	90.0546 	117.774 	-0.581543 	113.478 	360.829 	171.275 	539.692 	
70.8567 	-0.0167063 	-0.359994 	1.03657 	0.0593631 	-0.0119049 	3.1317 	90.0546 	117.775 	-0.581836 	113.478 	360.829 	173.277 	539.692 	
70.9594 	-0.0166053 	-0.350797 	1.03696 	0.0244567 	-0.0115219 	3.13129 	90.0543 	117.774 	-0.581445 	113.479 	360.829 	175.453 	539.692 	
71.0623 	-0.0165006 	-0.341592 	1.03703 	-0.0104495 	-0.0111249 	3.13089 	90.0577 	117.773 	-0.587305 	113.479 	360.829 	177.435 	539.692 	
71.1652 	-0.0163923 	-0.33239 	1.03677 	-0.045355 	-0.0107144 	3.13051 	90.0567 	117.765 	-0.586133 	113.48 	360.829 	179.428 	539.692 	
71.2684 	-0.0162806 	-0.323203 	1.03619 	-0.0802605 	-0.0102907 	3.13015 	90.0568 	117.766 	-0.586523 	113.479 	360.829 	181.627 	539.692 	
71.3714 	-0.0161656 	-0.314041 	1.0353 	-0.115166 	-0.00985458 	3.1298 	90.0605 	117.766 	-0.588965 	113.48 	360.829 	183.63 	539.692 	
71.4805 	-0.0160474 	-0.304917 	1.03408 	-0.15007 	-0.00940642 	3.12946 	90.0599 	117.75 	-0.587891 	113.481 	360.829 	185.807 	539.692 	
71.5837 	-0.0159261 	-0.29584 	1.03255 	-0.184975 	-0.00894679 	3.12914 	90.0601 	117.746 	-0.588574 	113.482 	360.829 	187.789 	539.692 	
71.6871 	-0.0158021 	-0.286823 	1.0307 	-0.219879 	-0.00847628 	3.12883 	90.06 	117.746 	-0.588184 	113.482 	360.829 	189.983 	539.692 	
71.7923 	-0.0156752 	-0.277875 	1.02854 	-0.254783 	-0.00799543 	3.12855 	90.0601 	117.746 	-0.588281 	113.482 	360.829 	191.978 	539.692 	
71.8963 	-0.0155458 	-0.269009 	1.02606 	-0.289687 	-0.00750485 	3.12828 	90.06 	117.746 	-0.588086 	113.482 	360.829 	193.97 	539.692 	
71.999 	-0.01528 	-0.251562 	1.02019 	-0.359493 	-0.00649687 	3.12779 	90.0601 	117.746 	-0.588379 	113.482 	360.829 	196.168 	539.692 	
72.1024 	-0.0151439 	-0.243003 	1.01681 	-0.394396 	-0.0059807 	3.12757 	90.0601 	117.746 	-0.588477 	113.482 	360.829 	198.152 	539.692 	
72.205 	-0.0150058 	-0.234568 	1.01312 	-0.429299 	-0.00545724 	3.12737 	90.0599 	117.746 	-0.587793 	113.482 	360.829 	200.142 	539.692 	
72.3085 	-0.014866 	-0.226266 	1.00914 	-0.464201 	-0.00492714 	3.12719 	90.0601 	117.746 	-0.588574 	113.482 	360.829 	202.345 	539.692 	
72.4144 	-0.0147246 	-0.218108 	1.00488 	-0.499104 	-0.00439103 	3.12703 	90.06 	117.745 	-0.587988 	113.483 	360.829 	204.33 	539.692 	
72.5173 	-0.0145818 	-0.210104 	1.00034 	-0.534006 	-0.00384958 	3.12688 	90.0598 	117.745 	-0.588477 	113.483 	360.829 	206.523 	539.692 	
72.6201 	-0.0144377 	-0.202263 	0.995513 	-0.568908 	-0.00330344 	3.12676 	90.0598 	117.745 	-0.588184 	113.483 	360.829 	208.506 	539.692 	
72.7234 	-0.0142926 	-0.194595 	0.99042 	-0.60381 	-0.00275327 	3.12665 	90.0599 	117.744 	-0.588574 	113.483 	360.829 	210.508 	539.692 	
72.8263 	-0.0141466 	-0.18711 	0.985063 	-0.638711 	-0.00219975 	3.12657 	90.0599 	117.731 	-0.588379 	113.484 	360.829 	212.496 	539.692 	
72.9294 	-0.014 	-0.179817 	0.979447 	-0.673613 	-0.00164355 	3.1265 	90.0599 	117.727 	-0.588477 	113.485 	360.829 	214.696 	539.692 	
73.0325 	-0.0138527 	-0.172724 	0.973581 	-0.708515 	-0.00108535 	3.12645 	90.0602 	117.728 	-0.58916 	113.485 	360.829 	216.68 	539.692 	
73.1354 	-0.0137052 	-0.16584 	0.96747 	-0.743416 	-0.000525833 	3.12642 	90.0598 	117.721 	-0.588379 	113.489 	360.829 	218.666 	539.693 	
73.2383 	-0.0135574 	-0.159173 	0.961123 	-0.778318 	3.43308e-05 	3.12641 	90.0676 	117.722 	-0.592383 	113.488 	360.829 	220.862 	539.693 	
73.3415 	-0.0134097 	-0.152732 	0.954547 	-0.813219 	0.00059445 	3.12643 	90.0828 	117.722 	-0.592383 	113.489 	360.829 	222.858 	539.693 	
73.4447 	-0.0132621 	-0.146525 	0.94775 	-0.848121 	0.00115385 	3.12646 	90.0829 	117.722 	-0.592676 	113.489 	360.829 	224.848 	539.693 	
73.5475 	-0.013115 	-0.140558 	0.940741 	-0.883023 	0.00171184 	3.12651 	90.09 	117.721 	-0.59375 	113.489 	360.829 	227.052 	539.693 	
73.6506 	-0.0129683 	-0.13484 	0.933528 	-0.917924 	0.00226774 	3.12658 	90.0916 	117.696 	-0.592871 	113.493 	360.829 	229.034 	539.693 	
73.7536 	-0.0128225 	-0.129377 	0.926119 	-0.952826 	0.00282089 	3.12666 	90.0934 	117.697 	-0.594141 	113.493 	360.829 	231.028 	539.693 	
73.8568 	-0.0126775 	-0.124176 	0.918525 	-0.987728 	0.0033706 	3.12677 	90.1009 	117.695 	-0.60127 	113.494 	360.829 	233.041 	539.693 	
73.9602 	-0.0125336 	-0.119243 	0.910753 	-1.02263 	0.0039162 	3.1269 	90.1005 	117.688 	-0.600879 	113.494 	360.829 	235.223 	539.693 	
74.0628 	-0.0123909 	-0.114585 	0.902814 	-1.05753 	0.00445703 	3.12705 	90.1006 	117.687 	-0.601465 	113.494 	360.829 	237.228 	539.693 	
74.1654 	-0.0122497 	-0.110206 	0.894717 	-1.09243 	0.00499244 	3.12721 	90.1006 	117.688 	-0.601367 	113.494 	360.829 	239.206 	539.693 	
74.2687 	-0.0121101 	-0.106113 	0.886472 	-1.12734 	0.00552176 	3.12739 	90.1006 	117.688 	-0.60127 	113.495 	360.829 	241.387 	539.693 	
74.3722 	-0.0119723 	-0.10231 	0.87809 	-1.16224 	0.00604436 	3.1276 	90.1009 	117.687 	-0.602344 	113.495 	360.829 	243.394 	539.693 	
74.48 	-0.0118364 	-0.0988015 	0.86958 	-1.19714 	0.00655959 	3.12782 	90.1007 	117.688 	-0.601856 	113.495 	360.829 	245.583 	539.693 	
74.5828 	-0.0117026 	-0.0955924 	0.860952 	-1.23205 	0.00706684 	3.12805 	90.1009 	117.687 	-0.602344 	113.495 	360.829 	247.608 	539.693 	
74.6856 	-0.0115711 	-0.0926864 	0.852218 	-1.26695 	0.00756547 	3.12831 	90.1016 	117.687 	-0.603516 	113.495 	360.829 	249.577 	539.693 	
74.7895 	-0.011442 	-0.090087 	0.843387 	-1.30185 	0.00805489 	3.12858 	90.1013 	117.687 	-0.602832 	113.496 	360.829 	251.771 	539.693 	
74.8934 	-0.0111918 	-0.0858202 	0.825481 	-1.37166 	0.00900372 	3.12918 	90.1014 	117.687 	-0.603223 	113.496 	360.829 	253.77 	539.693 	
74.9973 	-0.0110709 	-0.0841579 	0.816427 	-1.40657 	0.00946198 	3.1295 	90.1013 	117.686 	-0.60293 	113.498 	360.829 	255.773 	539.693 	
75.0995 	-0.0109531 	-0.0828127 	0.80732 	-1.44147 	0.00990874 	3.12984 	90.1014 	117.686 	-0.603613 	113.498 	360.829 	257.968 	539.693 	
75.2027 	-0.0108384 	-0.0817862 	0.798171 	-1.47638 	0.0103434 	3.13019 	90.1013 	117.686 	-0.603125 	113.499 	360.829 	259.954 	539.693 	
75.3053 	-0.0107271 	-0.0810795 	0.788992 	-1.51129 	0.0107655 	3.13056 	90.1013 	117.686 	-0.603613 	113.499 	360.829 	261.98 	539.693 	
75.4088 	-0.0106193 	-0.0806937 	0.779794 	-1.5462 	0.0111745 	3.13094 	90.1012 	117.686 	-0.60332 	113.5 	360.829 	264.185 	539.693 	
75.515 	-0.010515 	-0.0806291 	0.770588 	-1.58111 	0.0115698 	3.13134 	90.1013 	117.686 	-0.603613 	113.5 	360.829 	266.151 	539.693 	
75.6175 	-0.0104144 	-0.0808859 	0.761386 	-1.61602 	0.0119511 	3.13175 	90.1014 	117.686 	-0.603809 	113.5 	360.829 	268.175 	539.693 	
75.7206 	-0.0103177 	-0.0814637 	0.752198 	-1.65093 	0.0123177 	3.13217 	90.1015 	117.685 	-0.604102 	113.5 	360.829 	270.386 	539.693 	
75.8238 	-0.010225 	-0.0823618 	0.743035 	-1.68584 	0.0126694 	3.13261 	90.1016 	117.686 	-0.604688 	113.5 	360.829 	272.369 	539.693 	
75.9269 	-0.0101363 	-0.0835792 	0.73391 	-1.72075 	0.0130057 	3.13306 	90.1014 	117.685 	-0.604102 	113.5 	360.829 	274.37 	539.693 	
76.0298 	-0.0100518 	-0.0851142 	0.724833 	-1.75566 	0.0133261 	3.13352 	90.1015 	117.685 	-0.604688 	113.501 	360.829 	276.565 	539.693 	
76.1328 	-0.0099716 	-0.0869652 	0.715814 	-1.79057 	0.0136302 	3.13399 	90.1015 	117.685 	-0.604395 	113.501 	360.829 	278.568 	539.693 	
76.2359 	-0.00989576 	-0.0891298 	0.706866 	-1.82548 	0.0139178 	3.13447 	90.1016 	117.686 	-0.604688 	113.501 	360.829 	280.577 	539.693 	
76.3391 	-0.0098244 	-0.0916053 	0.697999 	-1.86039 	0.0141884 	3.13496 	90.1014 	117.684 	-0.604199 	113.502 	360.829 	282.753 	539.693 	
76.4419 	-0.00976407 	-0.0940967 	0.690096 	-1.89181 	0.0144171 	3.13541 	90.1017 	117.685 	-0.60459 	113.502 	360.829 	284.323 	539.693 	
76.4668 	-0.00976407 	-0.0940967 	0.690096 	-1.89181 	0.0144171 	3.13541 	90.1017 	117.685 	-0.604785 	113.502 	360.829 	284.452 	539.693 	
76.5699 	-0.00975603 	-0.0947877 	0.689025 	-1.89618 	0.0144437 	3.13549 	90.1015 	117.685 	-0.604395 	113.848 	360.829 	284.613 	539.693 	
76.6734 	-0.00978656 	-0.0985327 	0.693421 	-1.87977 	0.0142642 	3.1355 	90.1016 	117.685 	-0.60459 	114.735 	360.829 	284.64 	539.693 	
76.7802 	-0.00981804 	-0.102595 	0.69803 	-1.86232 	0.0140734 	3.13551 	90.1016 	117.685 	-0.60459 	115.808 	360.829 	284.651 	539.693 	
76.8827 	-0.00984847 	-0.106738 	0.702567 	-1.84487 	0.0138829 	3.13552 	90.1015 	117.685 	-0.604395 	116.803 	360.829 	284.653 	539.693 	
76.9858 	-0.00987785 	-0.110959 	0.707031 	-1.82742 	0.0136927 	3.13554 	90.1016 	117.685 	-0.604688 	117.81 	360.829 	284.655 	539.693 	
77.0888 	-0.00990617 	-0.115257 	0.71142 	-1.80996 	0.0135028 	3.13556 	90.1015 	117.685 	-0.604395 	118.891 	360.829 	284.656 	539.693 	
77.1926 	-0.00993342 	-0.119631 	0.715734 	-1.79251 	0.0133133 	3.13559 	90.1016 	117.685 	-0.604492 	119.894 	360.829 	284.656 	539.693 	
77.2967 	-0.00998469 	-0.128602 	0.72413 	-1.75761 	0.0129358 	3.13565 	90.1016 	117.685 	-0.60459 	120.886 	360.829 	284.657 	539.693 	
77.3998 	-0.0100087 	-0.133196 	0.728209 	-1.74016 	0.0127478 	3.13568 	90.1016 	117.685 	-0.604492 	121.991 	360.829 	284.657 	539.693 	
77.5029 	-0.0100316 	-0.137861 	0.732208 	-1.72271 	0.0125606 	3.13572 	90.1016 	117.686 	-0.604492 	122.978 	360.829 	284.657 	539.693 	
77.6061 	-0.0100534 	-0.142594 	0.736124 	-1.70526 	0.012374 	3.13576 	90.1016 	117.686 	-0.604492 	123.966 	360.829 	284.657 	539.693 	
77.7141 	-0.010074 	-0.147395 	0.739957 	-1.6878 	0.0121881 	3.13581 	90.1016 	117.686 	-0.604395 	125.065 	360.829 	284.657 	539.693 	
77.8168 	-0.0100936 	-0.152263 	0.743706 	-1.67035 	0.0120031 	3.13585 	90.1017 	117.686 	-0.60459 	126.062 	360.829 	284.658 	539.693 	
77.9201 	-0.010112 	-0.157195 	0.747369 	-1.6529 	0.0118189 	3.13591 	90.1016 	117.686 	-0.604492 	127.17 	360.829 	284.658 	539.693 	
78.0231 	-0.0101293 	-0.16219 	0.750946 	-1.63545 	0.0116357 	3.13596 	90.1016 	117.686 	-0.604395 	128.161 	360.829 	284.658 	539.693 	
78.1263 	-0.0101455 	-0.167247 	0.754436 	-1.618 	0.0114534 	3.13602 	90.1017 	117.687 	-0.604492 	129.152 	360.829 	284.658 	539.693 	
78.2291 	-0.0101605 	-0.172365 	0.757836 	-1.60054 	0.0112721 	3.13608 	90.1017 	117.687 	-0.604395 	130.254 	360.829 	284.658 	539.693 	
78.3323 	-0.0101743 	-0.177541 	0.761147 	-1.58309 	0.011092 	3.13614 	90.1018 	117.688 	-0.604395 	131.249 	360.829 	284.658 	539.693 	
78.4353 	-0.0101871 	-0.182774 	0.764366 	-1.56564 	0.0109129 	3.13621 	90.102 	117.688 	-0.604492 	132.241 	360.829 	284.658 	539.693 	
78.5382 	-0.0101986 	-0.188062 	0.767494 	-1.54819 	0.0107351 	3.13628 	90.1023 	117.688 	-0.604395 	133.351 	360.829 	284.658 	539.693 	
78.6411 	-0.010209 	-0.193404 	0.77053 	-1.53073 	0.0105585 	3.13635 	90.1024 	117.689 	-0.604492 	134.333 	360.829 	284.658 	539.693 	
78.7442 	-0.0102183 	-0.198799 	0.773471 	-1.51328 	0.0103832 	3.13643 	90.1024 	117.688 	-0.604395 	135.338 	360.829 	284.658 	539.693 	
78.8472 	-0.0102263 	-0.204243 	0.776318 	-1.49583 	0.0102093 	3.13651 	90.1028 	117.693 	-0.604492 	136.334 	360.829 	284.659 	539.693 	
78.9502 	-0.0102333 	-0.209737 	0.779069 	-1.47838 	0.0100368 	3.13659 	90.103 	117.693 	-0.604395 	137.42 	360.829 	284.659 	539.693 	
79.0531 	-0.010239 	-0.215278 	0.781725 	-1.46092 	0.00986576 	3.13668 	90.103 	117.693 	-0.604395 	138.427 	360.829 	284.659 	539.693 	
79.1563 	-0.0102436 	-0.220864 	0.784283 	-1.44347 	0.00969623 	3.13676 	90.1031 	117.694 	-0.604492 	139.412 	360.829 	284.659 	539.693 	
79.2591 	-0.010247 	-0.226494 	0.786743 	-1.42602 	0.00952826 	3.13685 	90.103 	117.694 	-0.604395 	140.517 	360.829 	284.659 	539.693 	
79.3623 	-0.0102492 	-0.232167 	0.789104 	-1.40857 	0.00936191 	3.13695 	90.1038 	117.697 	-0.60459 	141.506 	360.829 	284.659 	539.693 	
79.4655 	-0.0102502 	-0.237879 	0.791367 	-1.39111 	0.00919723 	3.13705 	90.1037 	117.697 	-0.604297 	142.504 	360.829 	284.659 	539.693 	
79.5681 	-0.0102501 	-0.24363 	0.793529 	-1.37366 	0.00903426 	3.13715 	90.1041 	117.697 	-0.60459 	143.602 	360.829 	284.659 	539.693 	
79.6711 	-0.0102488 	-0.249418 	0.79559 	-1.35621 	0.00887307 	3.13725 	90.1046 	117.698 	-0.604492 	144.598 	360.829 	284.659 	539.693 	
79.7745 	-0.0102463 	-0.255242 	0.79755 	-1.33876 	0.00871369 	3.13735 	90.1044 	117.698 	-0.604395 	145.6 	360.829 	284.659 	539.693 	
79.8807 	-0.0102427 	-0.261098 	0.799408 	-1.3213 	0.00855618 	3.13746 	90.1044 	117.698 	-0.604395 	146.694 	360.829 	284.659 	539.693 	
79.9834 	-0.0102379 	-0.266986 	0.801164 	-1.30385 	0.00840058 	3.13757 	90.1044 	117.698 	-0.604297 	147.688 	360.829 	284.659 	539.693 	
80.0862 	-0.0102319 	-0.272904 	0.802817 	-1.2864 	0.00824694 	3.13769 	90.1045 	117.699 	-0.604395 	148.675 	360.829 	284.659 	539.693 	
80.189 	-0.0102247 	-0.278849 	0.804366 	-1.26895 	0.00809531 	3.1378 	90.1047 	117.699 	-0.604395 	149.781 	360.829 	284.659 	539.693 	
80.2931 	-0.0102164 	-0.284821 	0.805811 	-1.2515 	0.00794573 	3.13792 	90.1051 	117.7 	-0.604492 	150.775 	360.829 	284.66 	539.693 	
80.3971 	-0.0102069 	-0.290817 	0.807152 	-1.23404 	0.00779826 	3.13804 	90.105 	117.7 	-0.604297 	151.765 	360.829 	284.66 	539.693 	
80.5004 	-0.0101963 	-0.296836 	0.808387 	-1.21659 	0.00765292 	3.13817 	90.1058 	117.7 	-0.604395 	152.874 	360.829 	284.66 	539.693 	
80.6032 	-0.0101715 	-0.308933 	0.810543 	-1.18169 	0.00736886 	3.13842 	90.1055 	117.702 	-0.604297 	153.863 	360.829 	284.66 	539.693 	
80.7063 	-0.0101574 	-0.315008 	0.811462 	-1.16423 	0.00723023 	3.13856 	90.1058 	117.702 	-0.604395 	154.858 	360.829 	284.66 	539.693 	
80.8144 	-0.0101421 	-0.321098 	0.812275 	-1.14678 	0.00709391 	3.13869 	90.1057 	117.703 	-0.604395 	155.954 	360.829 	284.66 	539.693 	
80.9172 	-0.0101257 	-0.327202 	0.812982 	-1.12933 	0.00695995 	3.13883 	90.1057 	117.704 	-0.604297 	156.958 	360.829 	284.66 	539.693 	
81.0204 	-0.0101082 	-0.333317 	0.813582 	-1.11188 	0.00682839 	3.13896 	90.1057 	117.704 	-0.604297 	158.045 	360.829 	284.66 	539.693 	
