RISC-NYUAD/HeavyPayloadDrone/projects/kinova-ros/devel/lib/ne_kinova_demo/VulcanTrajectory/Vulcan1_Vicon_y19m11d12h15min8.csv
time (NSec) 	Kinova Tip Position (t_x) 	t_y 	t_z 	Kinova Tip Angle (theta_x) 	Kinova Tip Angle (theta_y) 	Kinova Tip Angle (theta_z) 	Kinova Joint Angle (j1) 	(j2) 	(j3) 	(j4) 	Kinova Joint Angle (j5) 	(j6) 	(j7)
10.0005 	0.00669986 	-0.467482 	-0.273055 	1.78115 	0.0486244 	3.00979 	87.6501 	58.5892 	0.969434 	264.905 	0.17571 	284.687 	186.24 	
20.0009 	0.187658 	-0.427673 	0.113309 	1.6303 	0.833526 	2.47878 	90.179 	108.024 	-0.579102 	314.204 	49.4075 	285.09 	235.405 	
30.0014 	0.20973 	-0.571851 	0.0539444 	2.83457 	0.964169 	-0.564025 	90.1787 	117.697 	-0.58584 	266.156 	99.0058 	236.271 	285.124 	
30.0115 	0.20973 	-0.571851 	0.0539444 	2.83457 	0.964169 	-0.564025 	90.1787 	117.697 	-0.58584 	266.156 	99.0058 	236.271 	285.124 	
30.0215 	0.20973 	-0.571851 	0.0539444 	2.83457 	0.964169 	-0.564025 	90.1787 	117.697 	-0.58584 	266.156 	99.0058 	236.271 	285.124 	
30.0315 	0.20973 	-0.571851 	0.0539444 	2.83457 	0.964169 	-0.564025 	90.1787 	117.697 	-0.58584 	266.156 	99.0058 	236.271 	285.124 	
30.0415 	0.20973 	-0.571851 	0.0539444 	2.83457 	0.964169 	-0.564025 	90.1787 	117.697 	-0.58584 	266.156 	99.0058 	236.271 	285.124 	
30.0515 	0.20973 	-0.571851 	0.0539444 	2.83457 	0.964169 	-0.564025 	90.1787 	117.697 	-0.58584 	266.156 	99.0058 	236.271 	285.124 	
30.0615 	0.20973 	-0.571851 	0.0539444 	2.83457 	0.964169 	-0.564025 	90.1787 	117.697 	-0.58584 	266.156 	99.0058 	236.271 	285.124 	
30.0715 	0.20973 	-0.571851 	0.0539444 	2.83457 	0.964169 	-0.564025 	90.1787 	117.697 	-0.58584 	266.156 	99.0058 	236.271 	285.124 	
30.0815 	0.20973 	-0.571851 	0.0539444 	2.83457 	0.964169 	-0.564025 	90.1787 	117.697 	-0.58584 	266.156 	99.0058 	236.271 	285.124 	
30.0915 	0.20973 	-0.571851 	0.0539444 	2.83457 	0.964169 	-0.564025 	90.1787 	117.697 	-0.58584 	266.156 	99.0058 	236.271 	285.124 	
30.1015 	0.20973 	-0.571851 	0.0539444 	2.83457 	0.964169 	-0.564025 	90.1787 	117.697 	-0.58584 	266.156 	99.0058 	236.271 	285.124 	
30.1115 	0.20973 	-0.571851 	0.0539444 	2.83457 	0.964169 	-0.564025 	90.1787 	117.697 	-0.58584 	266.156 	99.0058 	236.271 	285.124 	
30.1215 	0.20973 	-0.571851 	0.0539444 	2.83457 	0.964169 	-0.564025 	90.1787 	117.697 	-0.58584 	266.156 	99.0058 	236.271 	285.124 	
30.1315 	0.208174 	-0.574973 	0.0532907 	2.83326 	0.953934 	-0.583298 	90.1787 	117.7 	-0.58584 	265.489 	99.644 	235.609 	285.736 	
30.1415 	0.208174 	-0.574973 	0.0532907 	2.83326 	0.953934 	-0.583298 	90.1787 	117.7 	-0.58584 	265.489 	99.644 	235.609 	285.736 	
30.1515 	0.208174 	-0.574973 	0.0532907 	2.83326 	0.953934 	-0.583298 	90.1787 	117.7 	-0.58584 	265.489 	99.644 	235.609 	285.736 	
30.1615 	0.208174 	-0.574973 	0.0532907 	2.83326 	0.953934 	-0.583298 	90.1787 	117.7 	-0.58584 	265.489 	99.644 	235.609 	285.736 	
30.1715 	0.208174 	-0.574973 	0.0532907 	2.83326 	0.953934 	-0.583298 	90.1787 	117.7 	-0.58584 	265.489 	99.644 	235.609 	285.736 	
30.1815 	0.208174 	-0.574973 	0.0532907 	2.83326 	0.953934 	-0.583298 	90.1787 	117.7 	-0.58584 	265.489 	99.644 	235.609 	285.736 	
30.1915 	0.208174 	-0.574973 	0.0532907 	2.83326 	0.953934 	-0.583298 	90.1787 	117.701 	-0.58584 	265.388 	99.703 	235.554 	285.803 	
30.2015 	0.208174 	-0.574973 	0.0532907 	2.83326 	0.953934 	-0.583298 	90.1787 	117.701 	-0.58584 	265.388 	99.703 	235.554 	285.803 	
30.2115 	0.208174 	-0.574973 	0.0532907 	2.83326 	0.953934 	-0.583298 	90.1787 	117.701 	-0.58584 	265.388 	99.703 	235.554 	285.803 	
30.2215 	0.208174 	-0.574973 	0.0532907 	2.83326 	0.953934 	-0.583298 	90.1787 	117.701 	-0.58584 	265.388 	99.703 	235.554 	285.803 	
30.2315 	0.208174 	-0.574973 	0.0532907 	2.83326 	0.953934 	-0.583298 	90.1787 	117.701 	-0.58584 	265.388 	99.703 	235.554 	285.803 	
30.2415 	0.208174 	-0.574973 	0.0532907 	2.83326 	0.953934 	-0.583298 	90.1787 	117.701 	-0.58584 	265.388 	99.703 	235.554 	285.803 	
30.2515 	0.208174 	-0.574973 	0.0532907 	2.83326 	0.953934 	-0.583298 	90.1787 	117.701 	-0.58584 	265.388 	99.703 	235.554 	285.803 	
30.2615 	0.208174 	-0.574973 	0.0532907 	2.83326 	0.953934 	-0.583298 	90.1787 	117.701 	-0.58584 	265.388 	99.703 	235.554 	285.803 	
30.2715 	0.208174 	-0.574973 	0.0532907 	2.83326 	0.953934 	-0.583298 	90.1787 	117.701 	-0.58584 	265.388 	99.703 	235.554 	285.803 	
30.2815 	0.208174 	-0.574973 	0.0532907 	2.83326 	0.953934 	-0.583298 	90.1787 	117.701 	-0.58584 	265.343 	99.7207 	235.538 	285.831 	
30.2915 	0.208174 	-0.574973 	0.0532907 	2.83326 	0.953934 	-0.583298 	90.1787 	117.701 	-0.58584 	265.343 	99.7207 	235.538 	285.831 	
30.3015 	0.208174 	-0.574973 	0.0532907 	2.83326 	0.953934 	-0.583298 	90.1787 	117.701 	-0.58584 	265.343 	99.7207 	235.538 	285.831 	
30.3115 	0.208174 	-0.574973 	0.0532907 	2.83326 	0.953934 	-0.583298 	90.1787 	117.701 	-0.58584 	265.343 	99.7207 	235.538 	285.831 	
30.3215 	0.208174 	-0.574973 	0.0532907 	2.83326 	0.953934 	-0.583298 	90.1787 	117.701 	-0.58584 	265.343 	99.7207 	235.538 	285.831 	
30.3315 	0.208174 	-0.574973 	0.0532907 	2.83326 	0.953934 	-0.583298 	90.1787 	117.701 	-0.58584 	265.343 	99.7207 	235.538 	285.831 	
30.3415 	0.208174 	-0.574973 	0.0532907 	2.83326 	0.953934 	-0.583298 	90.1787 	117.701 	-0.58584 	265.343 	99.7207 	235.538 	285.831 	
30.3515 	0.208174 	-0.574973 	0.0532907 	2.83326 	0.953934 	-0.583298 	90.1787 	117.701 	-0.58584 	265.343 	99.7207 	235.538 	285.831 	
30.3615 	0.208174 	-0.574973 	0.0532907 	2.83326 	0.953934 	-0.583298 	90.1787 	117.701 	-0.58584 	265.343 	99.7207 	235.538 	285.831 	
30.3715 	0.208174 	-0.574973 	0.0532907 	2.83326 	0.953934 	-0.583298 	90.1787 	117.701 	-0.58584 	265.343 	99.7207 	235.538 	285.831 	
30.3815 	0.208174 	-0.574973 	0.0532907 	2.83326 	0.953934 	-0.583298 	90.1786 	117.701 	-0.58584 	265.339 	99.7311 	235.522 	285.835 	
30.3915 	0.208174 	-0.574973 	0.0532907 	2.83326 	0.953934 	-0.583298 	90.1786 	117.701 	-0.58584 	265.339 	99.7311 	235.522 	285.835 	
30.4015 	0.208174 	-0.574973 	0.0532907 	2.83326 	0.953934 	-0.583298 	90.1786 	117.701 	-0.58584 	265.339 	99.7311 	235.522 	285.835 	
30.4115 	0.208174 	-0.574973 	0.0532907 	2.83326 	0.953934 	-0.583298 	90.1786 	117.701 	-0.58584 	265.339 	99.7311 	235.522 	285.835 	
30.4214 	0.208174 	-0.574973 	0.0532907 	2.83326 	0.953934 	-0.583298 	90.1786 	117.701 	-0.58584 	265.339 	99.7311 	235.522 	285.835 	
30.4314 	0.208174 	-0.574973 	0.0532907 	2.83326 	0.953934 	-0.583298 	90.1786 	117.701 	-0.58584 	265.339 	99.7311 	235.522 	285.835 	
30.4415 	0.208174 	-0.574973 	0.0532907 	2.83326 	0.953934 	-0.583298 	90.1786 	117.701 	-0.58584 	265.339 	99.7311 	235.522 	285.835 	
30.4515 	0.208174 	-0.574973 	0.0532907 	2.83326 	0.953934 	-0.583298 	90.1786 	117.701 	-0.58584 	265.339 	99.7311 	235.522 	285.835 	
30.4615 	0.208174 	-0.574973 	0.0532907 	2.83326 	0.953934 	-0.583298 	90.1786 	117.701 	-0.58584 	265.339 	99.7311 	235.522 	285.835 	
30.4715 	0.208174 	-0.574973 	0.0532907 	2.83326 	0.953934 	-0.583298 	90.1786 	117.701 	-0.58584 	265.339 	99.7311 	235.522 	285.835 	
30.4815 	0.208174 	-0.574973 	0.0532907 	2.83326 	0.953934 	-0.583298 	90.1786 	117.701 	-0.58584 	265.336 	99.7344 	235.499 	285.836 	
30.4915 	0.208174 	-0.574973 	0.0532907 	2.83326 	0.953934 	-0.583298 	90.1786 	117.701 	-0.58584 	265.336 	99.7344 	235.499 	285.836 	
30.5015 	0.208174 	-0.574973 	0.0532907 	2.83326 	0.953934 	-0.583298 	90.1786 	117.701 	-0.58584 	265.336 	99.7344 	235.499 	285.836 	
30.5115 	0.208174 	-0.574973 	0.0532907 	2.83326 	0.953934 	-0.583298 	90.1786 	117.701 	-0.58584 	265.336 	99.7344 	235.499 	285.836 	
30.5215 	0.208174 	-0.574973 	0.0532907 	2.83326 	0.953934 	-0.583298 	90.1786 	117.701 	-0.58584 	265.336 	99.7344 	235.499 	285.836 	
30.5315 	0.208174 	-0.574973 	0.0532907 	2.83326 	0.953934 	-0.583298 	90.1786 	117.701 	-0.58584 	265.336 	99.7344 	235.499 	285.836 	
30.5415 	0.208174 	-0.574973 	0.0532907 	2.83326 	0.953934 	-0.583298 	90.1786 	117.701 	-0.58584 	265.336 	99.7344 	235.499 	285.836 	
30.5515 	0.208174 	-0.574973 	0.0532907 	2.83326 	0.953934 	-0.583298 	90.1786 	117.701 	-0.58584 	265.336 	99.7344 	235.499 	285.836 	
30.5615 	0.208174 	-0.574973 	0.0532907 	2.83326 	0.953934 	-0.583298 	90.1786 	117.701 	-0.58584 	265.336 	99.7344 	235.499 	285.836 	
30.5715 	0.208174 	-0.574973 	0.0532907 	2.83326 	0.953934 	-0.583298 	90.1786 	117.701 	-0.58584 	265.336 	99.7344 	235.499 	285.836 	
30.5815 	0.208174 	-0.574973 	0.0532907 	2.83326 	0.953934 	-0.583298 	90.1786 	117.701 	-0.58584 	265.331 	99.7354 	235.495 	285.837 	
30.5915 	0.208174 	-0.574973 	0.0532907 	2.83326 	0.953934 	-0.583298 	90.1786 	117.701 	-0.58584 	265.331 	99.7354 	235.495 	285.837 	
30.6015 	0.208174 	-0.574973 	0.0532907 	2.83326 	0.953934 	-0.583298 	90.1786 	117.701 	-0.58584 	265.331 	99.7354 	235.495 	285.837 	
30.6115 	0.208174 	-0.574973 	0.0532907 	2.83326 	0.953934 	-0.583298 	90.1786 	117.701 	-0.58584 	265.331 	99.7354 	235.495 	285.837 	
30.6215 	0.208174 	-0.574973 	0.0532907 	2.83326 	0.953934 	-0.583298 	90.1786 	117.701 	-0.58584 	265.331 	99.7354 	235.495 	285.837 	
30.6315 	0.208174 	-0.574973 	0.0532907 	2.83326 	0.953934 	-0.583298 	90.1786 	117.701 	-0.58584 	265.331 	99.7354 	235.495 	285.837 	
30.6415 	0.208174 	-0.574973 	0.0532907 	2.83326 	0.953934 	-0.583298 	90.1786 	117.701 	-0.58584 	265.331 	99.7354 	235.495 	285.837 	
30.6515 	0.208174 	-0.574973 	0.0532907 	2.83326 	0.953934 	-0.583298 	90.1786 	117.701 	-0.58584 	265.331 	99.7354 	235.495 	285.837 	
30.6615 	0.208174 	-0.574973 	0.0532907 	2.83326 	0.953934 	-0.583298 	90.1786 	117.701 	-0.58584 	265.331 	99.7354 	235.495 	285.837 	
30.6715 	0.208174 	-0.574973 	0.0532907 	2.83326 	0.953934 	-0.583298 	90.1786 	117.701 	-0.58584 	265.331 	99.7354 	235.495 	285.837 	
30.6815 	0.208174 	-0.574973 	0.0532907 	2.83326 	0.953934 	-0.583298 	90.1786 	117.701 	-0.58584 	265.319 	99.7359 	235.493 	285.837 	
30.6915 	0.208174 	-0.574973 	0.0532907 	2.83326 	0.953934 	-0.583298 	90.1786 	117.701 	-0.58584 	265.319 	99.7359 	235.493 	285.837 	
30.7015 	0.208174 	-0.574973 	0.0532907 	2.83326 	0.953934 	-0.583298 	90.1786 	117.701 	-0.58584 	265.319 	99.7359 	235.493 	285.837 	
30.7115 	0.208174 	-0.574973 	0.0532907 	2.83326 	0.953934 	-0.583298 	90.1786 	117.701 	-0.58584 	265.319 	99.7359 	235.493 	285.837 	
30.7215 	0.208174 	-0.574973 	0.0532907 	2.83326 	0.953934 	-0.583298 	90.1786 	117.701 	-0.58584 	265.319 	99.7359 	235.493 	285.837 	
30.7315 	0.208174 	-0.574973 	0.0532907 	2.83326 	0.953934 	-0.583298 	90.1786 	117.701 	-0.58584 	265.319 	99.7359 	235.493 	285.837 	
30.7415 	0.208174 	-0.574973 	0.0532907 	2.83326 	0.953934 	-0.583298 	90.1786 	117.701 	-0.58584 	265.319 	99.7359 	235.493 	285.837 	
30.7515 	0.208174 	-0.574973 	0.0532907 	2.83326 	0.953934 	-0.583298 	90.1786 	117.701 	-0.58584 	265.319 	99.7359 	235.493 	285.837 	
30.7615 	0.208174 	-0.574973 	0.0532907 	2.83326 	0.953934 	-0.583298 	90.1786 	117.701 	-0.58584 	265.319 	99.7359 	235.493 	285.837 	
30.7715 	0.208174 	-0.574973 	0.0532907 	2.83326 	0.953934 	-0.583298 	90.1786 	117.701 	-0.58584 	265.319 	99.7359 	235.493 	285.837 	
30.7815 	0.208174 	-0.574973 	0.0532907 	2.83326 	0.953934 	-0.583298 	90.1786 	117.701 	-0.58584 	265.311 	99.7365 	235.492 	285.837 	
30.7915 	0.208174 	-0.574973 	0.0532907 	2.83326 	0.953934 	-0.583298 	90.1786 	117.701 	-0.58584 	265.311 	99.7365 	235.492 	285.837 	
30.8015 	0.208174 	-0.574973 	0.0532907 	2.83326 	0.953934 	-0.583298 	90.1786 	117.701 	-0.58584 	265.311 	99.7365 	235.492 	285.837 	
30.8115 	0.208174 	-0.574973 	0.0532907 	2.83326 	0.953934 	-0.583298 	90.1786 	117.701 	-0.58584 	265.311 	99.7365 	235.492 	285.837 	
30.8215 	0.208174 	-0.574973 	0.0532907 	2.83326 	0.953934 	-0.583298 	90.1786 	117.701 	-0.58584 	265.311 	99.7365 	235.492 	285.837 	
30.8315 	0.208174 	-0.574973 	0.0532907 	2.83326 	0.953934 	-0.583298 	90.1786 	117.701 	-0.58584 	265.311 	99.7365 	235.492 	285.837 	
30.8415 	0.208174 	-0.574973 	0.0532907 	2.83326 	0.953934 	-0.583298 	90.1786 	117.701 	-0.58584 	265.311 	99.7365 	235.492 	285.837 	
30.8515 	0.208174 	-0.574973 	0.0532907 	2.83326 	0.953934 	-0.583298 	90.1786 	117.701 	-0.58584 	265.311 	99.7365 	235.492 	285.837 	
30.8615 	0.208174 	-0.574973 	0.0532907 	2.83326 	0.953934 	-0.583298 	90.1786 	117.701 	-0.58584 	265.311 	99.7365 	235.492 	285.837 	
30.8715 	0.208174 	-0.574973 	0.0532907 	2.83326 	0.953934 	-0.583298 	90.1786 	117.701 	-0.58584 	265.311 	99.7365 	235.492 	285.837 	
30.8815 	0.208174 	-0.574973 	0.0532907 	2.83326 	0.953934 	-0.583298 	90.1786 	117.701 	-0.58584 	265.311 	99.7365 	235.492 	285.837 	
30.8915 	0.208174 	-0.574973 	0.0532907 	2.83326 	0.953934 	-0.583298 	90.1786 	117.701 	-0.58584 	265.31 	99.7369 	235.492 	285.837 	
30.9015 	0.208174 	-0.574973 	0.0532907 	2.83326 	0.953934 	-0.583298 	90.1786 	117.701 	-0.58584 	265.31 	99.7369 	235.492 	285.837 	
30.9115 	0.208174 	-0.574973 	0.0532907 	2.83326 	0.953934 	-0.583298 	90.1786 	117.701 	-0.58584 	265.31 	99.7369 	235.492 	285.837 	
30.9215 	0.208174 	-0.574973 	0.0532907 	2.83326 	0.953934 	-0.583298 	90.1786 	117.701 	-0.58584 	265.31 	99.7369 	235.492 	285.837 	
30.9315 	0.208174 	-0.574973 	0.0532907 	2.83326 	0.953934 	-0.583298 	90.1786 	117.701 	-0.58584 	265.31 	99.7369 	235.492 	285.837 	
30.9415 	0.208174 	-0.574973 	0.0532907 	2.83326 	0.953934 	-0.583298 	90.1786 	117.701 	-0.58584 	265.31 	99.7369 	235.492 	285.837 	
30.9515 	0.208174 	-0.574973 	0.0532907 	2.83326 	0.953934 	-0.583298 	90.1786 	117.701 	-0.58584 	265.31 	99.7369 	235.492 	285.837 	
30.9615 	0.208174 	-0.574973 	0.0532907 	2.83326 	0.953934 	-0.583298 	90.1786 	117.701 	-0.58584 	265.31 	99.7369 	235.492 	285.837 	
30.9715 	0.208174 	-0.574973 	0.0532907 	2.83326 	0.953934 	-0.583298 	90.1786 	117.701 	-0.58584 	265.31 	99.7369 	235.492 	285.837 	
30.9815 	0.208174 	-0.574973 	0.0532907 	2.83326 	0.953934 	-0.583298 	90.1786 	117.701 	-0.58584 	265.309 	99.7372 	235.492 	285.837 	
30.9915 	0.208174 	-0.574973 	0.0532907 	2.83326 	0.953934 	-0.583298 	90.1786 	117.701 	-0.58584 	265.309 	99.7372 	235.492 	285.837 	
31.0015 	0.208174 	-0.574973 	0.0532907 	2.83326 	0.953934 	-0.583298 	90.1786 	117.701 	-0.58584 	265.309 	99.7372 	235.492 	285.837 	
31.0115 	0.208174 	-0.574973 	0.0532907 	2.83326 	0.953934 	-0.583298 	90.1786 	117.701 	-0.58584 	265.309 	99.7372 	235.492 	285.837 	
31.0215 	0.208174 	-0.574973 	0.0532907 	2.83326 	0.953934 	-0.583298 	90.1786 	117.701 	-0.58584 	265.309 	99.7372 	235.492 	285.837 	
31.0315 	0.208174 	-0.574973 	0.0532907 	2.83326 	0.953934 	-0.583298 	90.1786 	117.701 	-0.58584 	265.309 	99.7372 	235.492 	285.837 	
31.0415 	0.208174 	-0.574973 	0.0532907 	2.83326 	0.953934 	-0.583298 	90.1786 	117.701 	-0.58584 	265.309 	99.7372 	235.492 	285.837 	
31.0515 	0.208174 	-0.574973 	0.0532907 	2.83326 	0.953934 	-0.583298 	90.1786 	117.701 	-0.58584 	265.309 	99.7372 	235.492 	285.837 	
31.0615 	0.208174 	-0.574973 	0.0532907 	2.83326 	0.953934 	-0.583298 	90.1786 	117.701 	-0.58584 	265.309 	99.7372 	235.492 	285.837 	
31.0715 	0.208174 	-0.574973 	0.0532907 	2.83326 	0.953934 	-0.583298 	90.1786 	117.701 	-0.58584 	265.309 	99.7372 	235.492 	285.837 	
31.0815 	0.208174 	-0.574973 	0.0532907 	2.83326 	0.953934 	-0.583298 	90.1786 	117.701 	-0.58584 	265.309 	99.7377 	235.491 	285.838 	
31.0915 	0.208174 	-0.574973 	0.0532907 	2.83326 	0.953934 	-0.583298 	90.1786 	117.701 	-0.58584 	265.309 	99.7377 	235.491 	285.838 	
31.1015 	0.208174 	-0.574973 	0.0532907 	2.83326 	0.953934 	-0.583298 	90.1786 	117.701 	-0.58584 	265.309 	99.7377 	235.491 	285.838 	
31.1115 	0.208174 	-0.574973 	0.0532907 	2.83326 	0.953934 	-0.583298 	90.1786 	117.701 	-0.58584 	265.309 	99.7377 	235.491 	285.838 	
31.1215 	0.208174 	-0.574973 	0.0532907 	2.83326 	0.953934 	-0.583298 	90.1786 	117.701 	-0.58584 	265.309 	99.7377 	235.491 	285.838 	
31.1315 	0.208174 	-0.574973 	0.0532907 	2.83326 	0.953934 	-0.583298 	90.1786 	117.701 	-0.58584 	265.309 	99.7377 	235.491 	285.838 	
31.1415 	0.208174 	-0.574973 	0.0532907 	2.83326 	0.953934 	-0.583298 	90.1786 	117.701 	-0.58584 	265.309 	99.7377 	235.491 	285.838 	
31.1515 	0.208174 	-0.574973 	0.0532907 	2.83326 	0.953934 	-0.583298 	90.1786 	117.701 	-0.58584 	265.309 	99.7377 	235.491 	285.838 	
31.1615 	0.208174 	-0.574973 	0.0532907 	2.83326 	0.953934 	-0.583298 	90.1786 	117.701 	-0.58584 	265.309 	99.7377 	235.491 	285.838 	
31.1715 	0.208174 	-0.574973 	0.0532907 	2.83326 	0.953934 	-0.583298 	90.1786 	117.701 	-0.58584 	265.309 	99.7377 	235.491 	285.838 	
31.1815 	0.208174 	-0.574973 	0.0532907 	2.83326 	0.953934 	-0.583298 	90.1786 	117.701 	-0.58584 	265.309 	99.7379 	235.491 	285.838 	
31.1915 	0.208174 	-0.574973 	0.0532907 	2.83326 	0.953934 	-0.583298 	90.1786 	117.701 	-0.58584 	265.309 	99.7379 	235.491 	285.838 	
31.2015 	0.208174 	-0.574973 	0.0532907 	2.83326 	0.953934 	-0.583298 	90.1786 	117.701 	-0.58584 	265.309 	99.7379 	235.491 	285.838 	
31.2115 	0.208174 	-0.574973 	0.0532907 	2.83326 	0.953934 	-0.583298 	90.1786 	117.701 	-0.58584 	265.309 	99.7379 	235.491 	285.838 	
31.2215 	0.208174 	-0.574973 	0.0532907 	2.83326 	0.953934 	-0.583298 	90.1786 	117.701 	-0.58584 	265.309 	99.7379 	235.491 	285.838 	
31.2315 	0.208174 	-0.574973 	0.0532907 	2.83326 	0.953934 	-0.583298 	90.1786 	117.701 	-0.58584 	265.309 	99.7379 	235.491 	285.838 	
31.2415 	0.208174 	-0.574973 	0.0532907 	2.83326 	0.953934 	-0.583298 	90.1786 	117.701 	-0.58584 	265.309 	99.7379 	235.491 	285.838 	
31.2515 	0.208174 	-0.574973 	0.0532907 	2.83326 	0.953934 	-0.583298 	90.1786 	117.701 	-0.58584 	265.309 	99.7379 	235.491 	285.838 	
31.2614 	0.208174 	-0.574973 	0.0532907 	2.83326 	0.953934 	-0.583298 	90.1786 	117.701 	-0.58584 	265.309 	99.7379 	235.491 	285.838 	
31.2715 	0.208174 	-0.574973 	0.0532907 	2.83326 	0.953934 	-0.583298 	90.1786 	117.701 	-0.58584 	265.309 	99.7379 	235.491 	285.838 	
31.2815 	0.208174 	-0.574973 	0.0532907 	2.83326 	0.953934 	-0.583298 	90.1786 	117.701 	-0.58584 	265.308 	99.7381 	235.491 	285.838 	
31.2915 	0.208174 	-0.574973 	0.0532907 	2.83326 	0.953934 	-0.583298 	90.1786 	117.701 	-0.58584 	265.308 	99.7381 	235.491 	285.838 	
31.3015 	0.208174 	-0.574973 	0.0532907 	2.83326 	0.953934 	-0.583298 	90.1786 	117.701 	-0.58584 	265.308 	99.7381 	235.491 	285.838 	
31.3115 	0.208174 	-0.574973 	0.0532907 	2.83326 	0.953934 	-0.583298 	90.1786 	117.701 	-0.58584 	265.308 	99.7381 	235.491 	285.838 	
31.3215 	0.208174 	-0.574973 	0.0532907 	2.83326 	0.953934 	-0.583298 	90.1786 	117.701 	-0.58584 	265.308 	99.7381 	235.491 	285.838 	
31.3315 	0.208174 	-0.574973 	0.0532907 	2.83326 	0.953934 	-0.583298 	90.1786 	117.701 	-0.58584 	265.308 	99.7381 	235.491 	285.838 	
31.3415 	0.208174 	-0.574973 	0.0532907 	2.83326 	0.953934 	-0.583298 	90.1786 	117.701 	-0.58584 	265.308 	99.7381 	235.491 	285.838 	
31.3515 	0.208174 	-0.574973 	0.0532907 	2.83326 	0.953934 	-0.583298 	90.1786 	117.701 	-0.58584 	265.308 	99.7381 	235.491 	285.838 	
31.3615 	0.208174 	-0.574973 	0.0532907 	2.83326 	0.953934 	-0.583298 	90.1786 	117.701 	-0.58584 	265.308 	99.7381 	235.491 	285.838 	
31.3715 	0.208174 	-0.574973 	0.0532907 	2.83326 	0.953934 	-0.583298 	90.1786 	117.701 	-0.58584 	265.308 	99.7381 	235.491 	285.838 	
31.3815 	0.208174 	-0.574973 	0.0532907 	2.83326 	0.953934 	-0.583298 	90.1786 	117.701 	-0.58584 	265.308 	99.7382 	235.491 	285.838 	
31.3915 	0.208174 	-0.574973 	0.0532907 	2.83326 	0.953934 	-0.583298 	90.1786 	117.701 	-0.58584 	265.308 	99.7382 	235.491 	285.838 	
31.4015 	0.208174 	-0.574973 	0.0532907 	2.83326 	0.953934 	-0.583298 	90.1786 	117.701 	-0.58584 	265.308 	99.7382 	235.491 	285.838 	
31.4115 	0.208174 	-0.574973 	0.0532907 	2.83326 	0.953934 	-0.583298 	90.1786 	117.701 	-0.58584 	265.308 	99.7382 	235.491 	285.838 	
31.4215 	0.208174 	-0.574973 	0.0532907 	2.83326 	0.953934 	-0.583298 	90.1786 	117.701 	-0.58584 	265.308 	99.7382 	235.491 	285.838 	
31.4315 	0.208174 	-0.574973 	0.0532907 	2.83326 	0.953934 	-0.583298 	90.1786 	117.701 	-0.58584 	265.308 	99.7382 	235.491 	285.838 	
31.4415 	0.208174 	-0.574973 	0.0532907 	2.83326 	0.953934 	-0.583298 	90.1786 	117.701 	-0.58584 	265.308 	99.7382 	235.491 	285.838 	
31.4515 	0.208174 	-0.574973 	0.0532907 	2.83326 	0.953934 	-0.583298 	90.1786 	117.701 	-0.58584 	265.308 	99.7382 	235.491 	285.838 	
31.4615 	0.208174 	-0.574973 	0.0532907 	2.83326 	0.953934 	-0.583298 	90.1786 	117.701 	-0.58584 	265.308 	99.7382 	235.491 	285.838 	
31.4715 	0.208174 	-0.574973 	0.0532907 	2.83326 	0.953934 	-0.583298 	90.1786 	117.701 	-0.58584 	265.308 	99.7382 	235.491 	285.838 	
31.4815 	0.208174 	-0.574973 	0.0532907 	2.83326 	0.953934 	-0.583298 	90.1786 	117.701 	-0.58584 	265.308 	99.7384 	235.491 	285.838 	
31.4915 	0.208174 	-0.574973 	0.0532907 	2.83326 	0.953934 	-0.583298 	90.1786 	117.701 	-0.58584 	265.308 	99.7384 	235.491 	285.838 	
31.5015 	0.208174 	-0.574973 	0.0532907 	2.83326 	0.953934 	-0.583298 	90.1786 	117.701 	-0.58584 	265.308 	99.7384 	235.491 	285.838 	
31.5115 	0.208174 	-0.574973 	0.0532907 	2.83326 	0.953934 	-0.583298 	90.1786 	117.701 	-0.58584 	265.308 	99.7384 	235.491 	285.838 	
31.5215 	0.208174 	-0.574973 	0.0532907 	2.83326 	0.953934 	-0.583298 	90.1786 	117.701 	-0.58584 	265.308 	99.7384 	235.491 	285.838 	
31.5315 	0.208174 	-0.574973 	0.0532907 	2.83326 	0.953934 	-0.583298 	90.1786 	117.701 	-0.58584 	265.308 	99.7384 	235.491 	285.838 	
31.5415 	0.208174 	-0.574973 	0.0532907 	2.83326 	0.953934 	-0.583298 	90.1786 	117.701 	-0.58584 	265.308 	99.7384 	235.491 	285.838 	
31.5515 	0.208174 	-0.574973 	0.0532907 	2.83326 	0.953934 	-0.583298 	90.1786 	117.701 	-0.58584 	265.308 	99.7384 	235.491 	285.838 	
31.5615 	0.208174 	-0.574973 	0.0532907 	2.83326 	0.953934 	-0.583298 	90.1786 	117.701 	-0.58584 	265.308 	99.7384 	235.491 	285.838 	
31.5715 	0.208174 	-0.574973 	0.0532907 	2.83326 	0.953934 	-0.583298 	90.1786 	117.701 	-0.58584 	265.308 	99.7384 	235.491 	285.838 	
31.5815 	0.208174 	-0.574973 	0.0532907 	2.83326 	0.953934 	-0.583298 	90.1786 	117.701 	-0.58584 	265.308 	99.7385 	235.491 	285.838 	
31.5915 	0.208174 	-0.574973 	0.0532907 	2.83326 	0.953934 	-0.583298 	90.1786 	117.701 	-0.58584 	265.308 	99.7385 	235.491 	285.838 	
31.6015 	0.208174 	-0.574973 	0.0532907 	2.83326 	0.953934 	-0.583298 	90.1786 	117.701 	-0.58584 	265.308 	99.7385 	235.491 	285.838 	
31.6115 	0.208174 	-0.574973 	0.0532907 	2.83326 	0.953934 	-0.583298 	90.1786 	117.701 	-0.58584 	265.308 	99.7385 	235.491 	285.838 	
31.6215 	0.208174 	-0.574973 	0.0532907 	2.83326 	0.953934 	-0.583298 	90.1786 	117.701 	-0.58584 	265.308 	99.7385 	235.491 	285.838 	
31.6314 	0.208174 	-0.574973 	0.0532907 	2.83326 	0.953934 	-0.583298 	90.1786 	117.701 	-0.58584 	265.308 	99.7385 	235.491 	285.838 	
31.6415 	0.208174 	-0.574973 	0.0532907 	2.83326 	0.953934 	-0.583298 	90.1786 	117.701 	-0.58584 	265.308 	99.7385 	235.491 	285.838 	
31.6515 	0.208174 	-0.574973 	0.0532907 	2.83326 	0.953934 	-0.583298 	90.1786 	117.701 	-0.58584 	265.308 	99.7385 	235.491 	285.838 	
31.6615 	0.208174 	-0.574973 	0.0532907 	2.83326 	0.953934 	-0.583298 	90.1786 	117.701 	-0.58584 	265.308 	99.7385 	235.491 	285.838 	
31.6715 	0.208174 	-0.574973 	0.0532907 	2.83326 	0.953934 	-0.583298 	90.1786 	117.701 	-0.58584 	265.308 	99.7385 	235.491 	285.838 	
31.6815 	0.208174 	-0.574973 	0.0532907 	2.83326 	0.953934 	-0.583298 	90.1786 	117.701 	-0.58584 	265.308 	99.7386 	235.491 	285.838 	
31.6915 	0.208174 	-0.574973 	0.0532907 	2.83326 	0.953934 	-0.583298 	90.1786 	117.701 	-0.58584 	265.308 	99.7386 	235.491 	285.838 	
31.7015 	0.208174 	-0.574973 	0.0532907 	2.83326 	0.953934 	-0.583298 	90.1786 	117.701 	-0.58584 	265.308 	99.7386 	235.491 	285.838 	
31.7115 	0.208174 	-0.574973 	0.0532907 	2.83326 	0.953934 	-0.583298 	90.1786 	117.701 	-0.58584 	265.308 	99.7386 	235.491 	285.838 	
31.7215 	0.208174 	-0.574973 	0.0532907 	2.83326 	0.953934 	-0.583298 	90.1786 	117.701 	-0.58584 	265.308 	99.7386 	235.491 	285.838 	
31.7315 	0.208174 	-0.574973 	0.0532907 	2.83326 	0.953934 	-0.583298 	90.1786 	117.701 	-0.58584 	265.308 	99.7386 	235.491 	285.838 	
31.7415 	0.208174 	-0.574973 	0.0532907 	2.83326 	0.953934 	-0.583298 	90.1786 	117.701 	-0.58584 	265.308 	99.7386 	235.491 	285.838 	
31.7515 	0.208174 	-0.574973 	0.0532907 	2.83326 	0.953934 	-0.583298 	90.1786 	117.701 	-0.58584 	265.308 	99.7386 	235.491 	285.838 	
31.7615 	0.208174 	-0.574973 	0.0532907 	2.83326 	0.953934 	-0.583298 	90.1786 	117.701 	-0.58584 	265.308 	99.7386 	235.491 	285.838 	
31.7715 	0.208174 	-0.574973 	0.0532907 	2.83326 	0.953934 	-0.583298 	90.1786 	117.701 	-0.58584 	265.308 	99.7386 	235.491 	285.838 	
31.7815 	0.208174 	-0.574973 	0.0532907 	2.83326 	0.953934 	-0.583298 	90.1786 	117.701 	-0.58584 	265.308 	99.7388 	235.491 	285.838 	
31.7915 	0.208174 	-0.574973 	0.0532907 	2.83326 	0.953934 	-0.583298 	90.1786 	117.701 	-0.58584 	265.308 	99.7388 	235.491 	285.838 	
31.8015 	0.208174 	-0.574973 	0.0532907 	2.83326 	0.953934 	-0.583298 	90.1786 	117.701 	-0.58584 	265.308 	99.7388 	235.491 	285.838 	
31.8115 	0.208174 	-0.574973 	0.0532907 	2.83326 	0.953934 	-0.583298 	90.1786 	117.701 	-0.58584 	265.308 	99.7388 	235.491 	285.838 	
31.8214 	0.208174 	-0.574973 	0.0532907 	2.83326 	0.953934 	-0.583298 	90.1786 	117.701 	-0.58584 	265.308 	99.7388 	235.491 	285.838 	
31.8315 	0.208174 	-0.574973 	0.0532907 	2.83326 	0.953934 	-0.583298 	90.1786 	117.701 	-0.58584 	265.308 	99.7388 	235.491 	285.838 	
31.8415 	0.208174 	-0.574973 	0.0532907 	2.83326 	0.953934 	-0.583298 	90.1786 	117.701 	-0.58584 	265.308 	99.7388 	235.491 	285.838 	
31.8515 	0.208174 	-0.574973 	0.0532907 	2.83326 	0.953934 	-0.583298 	90.1786 	117.701 	-0.58584 	265.308 	99.7388 	235.491 	285.838 	
31.8615 	0.208174 	-0.574973 	0.0532907 	2.83326 	0.953934 	-0.583298 	90.1786 	117.701 	-0.58584 	265.308 	99.7388 	235.491 	285.838 	
31.8715 	0.208174 	-0.574973 	0.0532907 	2.83326 	0.953934 	-0.583298 	90.1786 	117.701 	-0.58584 	265.308 	99.7388 	235.491 	285.838 	
31.8815 	0.208174 	-0.574973 	0.0532907 	2.83326 	0.953934 	-0.583298 	90.1786 	117.701 	-0.58584 	265.308 	99.7389 	235.491 	285.838 	
31.8915 	0.208174 	-0.574973 	0.0532907 	2.83326 	0.953934 	-0.583298 	90.1786 	117.701 	-0.58584 	265.308 	99.7389 	235.491 	285.838 	
31.9015 	0.208174 	-0.574973 	0.0532907 	2.83326 	0.953934 	-0.583298 	90.1786 	117.701 	-0.58584 	265.308 	99.7389 	235.491 	285.838 	
31.9115 	0.208174 	-0.574973 	0.0532907 	2.83326 	0.953934 	-0.583298 	90.1786 	117.701 	-0.58584 	265.308 	99.7389 	235.491 	285.838 	
31.9215 	0.208174 	-0.574973 	0.0532907 	2.83326 	0.953934 	-0.583298 	90.1786 	117.701 	-0.58584 	265.308 	99.7389 	235.491 	285.838 	
31.9315 	0.208174 	-0.574973 	0.0532907 	2.83326 	0.953934 	-0.583298 	90.1786 	117.701 	-0.58584 	265.308 	99.7389 	235.491 	285.838 	
31.9415 	0.208174 	-0.574973 	0.0532907 	2.83326 	0.953934 	-0.583298 	90.1786 	117.701 	-0.58584 	265.308 	99.7389 	235.491 	285.838 	
31.9515 	0.208174 	-0.574973 	0.0532907 	2.83326 	0.953934 	-0.583298 	90.1786 	117.701 	-0.58584 	265.308 	99.7389 	235.491 	285.838 	
31.9615 	0.208174 	-0.574973 	0.0532907 	2.83326 	0.953934 	-0.583298 	90.1786 	117.701 	-0.58584 	265.308 	99.7389 	235.491 	285.838 	
31.9715 	0.208174 	-0.574973 	0.0532907 	2.83326 	0.953934 	-0.583298 	90.1786 	117.701 	-0.58584 	265.308 	99.7389 	235.491 	285.838 	
31.9815 	0.208174 	-0.574973 	0.0532907 	2.83326 	0.953934 	-0.583298 	90.1786 	117.701 	-0.58584 	265.308 	99.7389 	235.491 	285.838 	
31.9915 	0.208174 	-0.574973 	0.0532907 	2.83326 	0.953934 	-0.583298 	90.1786 	117.701 	-0.58584 	265.308 	99.7389 	235.491 	285.838 	
32.0015 	0.208174 	-0.574973 	0.0532907 	2.83326 	0.953934 	-0.583298 	90.1786 	117.701 	-0.58584 	265.308 	99.7389 	235.491 	285.838 	
32.0115 	0.208174 	-0.574973 	0.0532907 	2.83326 	0.953934 	-0.583298 	90.1786 	117.701 	-0.58584 	265.308 	99.7389 	235.491 	285.838 	
32.0215 	0.208174 	-0.574973 	0.0532907 	2.83326 	0.953934 	-0.583298 	90.1786 	117.701 	-0.58584 	265.308 	99.7389 	235.491 	285.838 	
32.0315 	0.208174 	-0.574973 	0.0532907 	2.83326 	0.953934 	-0.583298 	90.1786 	117.701 	-0.58584 	265.308 	99.7389 	235.491 	285.838 	
32.0415 	0.208174 	-0.574973 	0.0532907 	2.83326 	0.953934 	-0.583298 	90.1786 	117.701 	-0.58584 	265.308 	99.7389 	235.491 	285.838 	
32.0515 	0.208174 	-0.574973 	0.0532907 	2.83326 	0.953934 	-0.583298 	90.1786 	117.701 	-0.58584 	265.308 	99.7389 	235.491 	285.838 	
32.0615 	0.208174 	-0.574973 	0.0532907 	2.83326 	0.953934 	-0.583298 	90.1786 	117.701 	-0.58584 	265.308 	99.7389 	235.491 	285.838 	
32.0715 	0.208174 	-0.574973 	0.0532907 	2.83326 	0.953934 	-0.583298 	90.1786 	117.701 	-0.58584 	265.308 	99.7389 	235.491 	285.838 	
32.0815 	0.208174 	-0.574973 	0.0532907 	2.83326 	0.953934 	-0.583298 	90.1786 	117.701 	-0.58584 	265.308 	99.7389 	235.491 	285.838 	
32.0915 	0.208174 	-0.574973 	0.0532907 	2.83326 	0.953934 	-0.583298 	90.1786 	117.701 	-0.58584 	265.308 	99.7389 	235.491 	285.838 	
32.1015 	0.208174 	-0.574973 	0.0532907 	2.83326 	0.953934 	-0.583298 	90.1786 	117.701 	-0.58584 	265.308 	99.7389 	235.491 	285.838 	
32.1115 	0.208174 	-0.574973 	0.0532907 	2.83326 	0.953934 	-0.583298 	90.1786 	117.701 	-0.58584 	265.308 	99.7389 	235.491 	285.838 	
32.1215 	0.208174 	-0.574973 	0.0532907 	2.83326 	0.953934 	-0.583298 	90.1786 	117.701 	-0.58584 	265.308 	99.7389 	235.491 	285.838 	
32.1315 	0.208174 	-0.574973 	0.0532907 	2.83326 	0.953934 	-0.583298 	90.1786 	117.701 	-0.58584 	265.308 	99.7389 	235.491 	285.838 	
32.1415 	0.208174 	-0.574973 	0.0532907 	2.83326 	0.953934 	-0.583298 	90.1786 	117.701 	-0.58584 	265.308 	99.7389 	235.491 	285.838 	
32.1515 	0.208174 	-0.574973 	0.0532907 	2.83326 	0.953934 	-0.583298 	90.1786 	117.701 	-0.58584 	265.308 	99.7389 	235.491 	285.838 	
32.1615 	0.208174 	-0.574973 	0.0532907 	2.83326 	0.953934 	-0.583298 	90.1786 	117.701 	-0.58584 	265.308 	99.7389 	235.491 	285.838 	
32.1715 	0.208174 	-0.574973 	0.0532907 	2.83326 	0.953934 	-0.583298 	90.1786 	117.701 	-0.58584 	265.308 	99.7389 	235.491 	285.838 	
32.1815 	0.208174 	-0.574973 	0.0532907 	2.83326 	0.953934 	-0.583298 	90.1786 	117.701 	-0.58584 	265.308 	99.7391 	235.491 	285.838 	
32.1915 	0.208174 	-0.574973 	0.0532907 	2.83326 	0.953934 	-0.583298 	90.1786 	117.701 	-0.58584 	265.308 	99.7391 	235.491 	285.838 	
32.2015 	0.208174 	-0.574973 	0.0532907 	2.83326 	0.953934 	-0.583298 	90.1786 	117.701 	-0.58584 	265.308 	99.7391 	235.491 	285.838 	
32.2115 	0.208174 	-0.574973 	0.0532907 	2.83326 	0.953934 	-0.583298 	90.1786 	117.701 	-0.58584 	265.308 	99.7391 	235.491 	285.838 	
32.2215 	0.208174 	-0.574973 	0.0532907 	2.83326 	0.953934 	-0.583298 	90.1786 	117.701 	-0.58584 	265.308 	99.7391 	235.491 	285.838 	
32.2315 	0.208174 	-0.574973 	0.0532907 	2.83326 	0.953934 	-0.583298 	90.1786 	117.701 	-0.58584 	265.308 	99.7391 	235.491 	285.838 	
32.2415 	0.208174 	-0.574973 	0.0532907 	2.83326 	0.953934 	-0.583298 	90.1786 	117.701 	-0.58584 	265.308 	99.7391 	235.491 	285.838 	
32.2515 	0.208174 	-0.574973 	0.0532907 	2.83326 	0.953934 	-0.583298 	90.1786 	117.701 	-0.58584 	265.308 	99.7391 	235.491 	285.838 	
32.2615 	0.208174 	-0.574973 	0.0532907 	2.83326 	0.953934 	-0.583298 	90.1786 	117.701 	-0.58584 	265.308 	99.7391 	235.491 	285.838 	
32.2715 	0.208174 	-0.574973 	0.0532907 	2.83326 	0.953934 	-0.583298 	90.1786 	117.701 	-0.58584 	265.308 	99.7391 	235.491 	285.838 	
32.2815 	0.208174 	-0.574973 	0.0532907 	2.83326 	0.953934 	-0.583298 	90.1786 	117.701 	-0.58584 	265.308 	99.7391 	235.49 	285.838 	
32.2915 	0.208174 	-0.574973 	0.0532907 	2.83326 	0.953934 	-0.583298 	90.1786 	117.701 	-0.58584 	265.308 	99.7391 	235.49 	285.838 	
32.3015 	0.208174 	-0.574973 	0.0532907 	2.83326 	0.953934 	-0.583298 	90.1786 	117.701 	-0.58584 	265.308 	99.7391 	235.49 	285.838 	
32.3115 	0.208174 	-0.574973 	0.0532907 	2.83326 	0.953934 	-0.583298 	90.1786 	117.701 	-0.58584 	265.308 	99.7391 	235.49 	285.838 	
32.3215 	0.208174 	-0.574973 	0.0532907 	2.83326 	0.953934 	-0.583298 	90.1786 	117.701 	-0.58584 	265.308 	99.7391 	235.49 	285.838 	
32.3315 	0.208174 	-0.574973 	0.0532907 	2.83326 	0.953934 	-0.583298 	90.1786 	117.701 	-0.58584 	265.308 	99.7391 	235.49 	285.838 	
32.3415 	0.208174 	-0.574973 	0.0532907 	2.83326 	0.953934 	-0.583298 	90.1786 	117.701 	-0.58584 	265.308 	99.7391 	235.49 	285.838 	
32.3515 	0.208174 	-0.574973 	0.0532907 	2.83326 	0.953934 	-0.583298 	90.1786 	117.701 	-0.58584 	265.308 	99.7391 	235.49 	285.838 	
32.3615 	0.208174 	-0.574973 	0.0532907 	2.83326 	0.953934 	-0.583298 	90.1786 	117.701 	-0.58584 	265.308 	99.7391 	235.49 	285.838 	
32.3715 	0.208174 	-0.574973 	0.0532907 	2.83326 	0.953934 	-0.583298 	90.1786 	117.701 	-0.58584 	265.308 	99.7391 	235.49 	285.838 	
32.3815 	0.208174 	-0.574973 	0.0532907 	2.83326 	0.953934 	-0.583298 	90.1786 	117.701 	-0.58584 	265.308 	99.7391 	235.49 	285.838 	
32.3915 	0.208174 	-0.574973 	0.0532907 	2.83326 	0.953934 	-0.583298 	90.1786 	117.701 	-0.58584 	265.308 	99.7391 	235.49 	285.838 	
32.4014 	0.208174 	-0.574973 	0.0532907 	2.83326 	0.953934 	-0.583298 	90.1786 	117.701 	-0.58584 	265.308 	99.7391 	235.49 	285.838 	
32.4114 	0.208174 	-0.574973 	0.0532907 	2.83326 	0.953934 	-0.583298 	90.1786 	117.701 	-0.58584 	265.308 	99.7391 	235.49 	285.838 	
32.4215 	0.208174 	-0.574973 	0.0532907 	2.83326 	0.953934 	-0.583298 	90.1786 	117.701 	-0.58584 	265.308 	99.7391 	235.49 	285.838 	
32.4315 	0.208174 	-0.574973 	0.0532907 	2.83326 	0.953934 	-0.583298 	90.1786 	117.701 	-0.58584 	265.308 	99.7391 	235.49 	285.838 	
32.4415 	0.208174 	-0.574973 	0.0532907 	2.83326 	0.953934 	-0.583298 	90.1786 	117.701 	-0.58584 	265.308 	99.7391 	235.49 	285.838 	
32.4515 	0.208174 	-0.574973 	0.0532907 	2.83326 	0.953934 	-0.583298 	90.1786 	117.701 	-0.58584 	265.308 	99.7391 	235.49 	285.838 	
32.4615 	0.208174 	-0.574973 	0.0532907 	2.83326 	0.953934 	-0.583298 	90.1786 	117.701 	-0.58584 	265.308 	99.7391 	235.49 	285.838 	
32.4715 	0.208174 	-0.574973 	0.0532907 	2.83326 	0.953934 	-0.583298 	90.1786 	117.701 	-0.58584 	265.308 	99.7391 	235.49 	285.838 	
32.4815 	0.208174 	-0.574973 	0.0532907 	2.83326 	0.953934 	-0.583298 	90.1786 	117.702 	-0.58584 	265.308 	99.7392 	235.49 	285.838 	
32.4915 	0.208174 	-0.574973 	0.0532907 	2.83326 	0.953934 	-0.583298 	90.1786 	117.702 	-0.58584 	265.308 	99.7392 	235.49 	285.838 	
32.5015 	0.208174 	-0.574973 	0.0532907 	2.83326 	0.953934 	-0.583298 	90.1786 	117.702 	-0.58584 	265.308 	99.7392 	235.49 	285.838 	
32.5114 	0.208174 	-0.574973 	0.0532907 	2.83326 	0.953934 	-0.583298 	90.1786 	117.702 	-0.58584 	265.308 	99.7392 	235.49 	285.838 	
32.5215 	0.208174 	-0.574973 	0.0532907 	2.83326 	0.953934 	-0.583298 	90.1786 	117.702 	-0.58584 	265.308 	99.7392 	235.49 	285.838 	
32.5315 	0.208174 	-0.574973 	0.0532907 	2.83326 	0.953934 	-0.583298 	90.1786 	117.702 	-0.58584 	265.308 	99.7392 	235.49 	285.838 	
32.5415 	0.208174 	-0.574973 	0.0532907 	2.83326 	0.953934 	-0.583298 	90.1786 	117.702 	-0.58584 	265.308 	99.7392 	235.49 	285.838 	
32.5515 	0.208174 	-0.574973 	0.0532907 	2.83326 	0.953934 	-0.583298 	90.1786 	117.702 	-0.58584 	265.308 	99.7392 	235.49 	285.838 	
32.5615 	0.208174 	-0.574973 	0.0532907 	2.83326 	0.953934 	-0.583298 	90.1786 	117.702 	-0.58584 	265.308 	99.7392 	235.49 	285.838 	
32.5715 	0.208174 	-0.574973 	0.0532907 	2.83326 	0.953934 	-0.583298 	90.1786 	117.702 	-0.58584 	265.308 	99.7392 	235.49 	285.838 	
32.5815 	0.208174 	-0.574973 	0.0532907 	2.83326 	0.953934 	-0.583298 	90.1786 	117.702 	-0.58584 	265.308 	99.7392 	235.49 	285.838 	
32.5915 	0.208174 	-0.574973 	0.0532907 	2.83326 	0.953934 	-0.583298 	90.1786 	117.702 	-0.58584 	265.308 	99.7392 	235.49 	285.838 	
32.6015 	0.208174 	-0.574973 	0.0532907 	2.83326 	0.953934 	-0.583298 	90.1786 	117.702 	-0.58584 	265.308 	99.7392 	235.49 	285.838 	
32.6114 	0.208174 	-0.574973 	0.0532907 	2.83326 	0.953934 	-0.583298 	90.1786 	117.702 	-0.58584 	265.308 	99.7392 	235.49 	285.838 	
32.6215 	0.208174 	-0.574973 	0.0532907 	2.83326 	0.953934 	-0.583298 	90.1786 	117.702 	-0.58584 	265.308 	99.7392 	235.49 	285.838 	
32.6315 	0.208174 	-0.574973 	0.0532907 	2.83326 	0.953934 	-0.583298 	90.1786 	117.702 	-0.58584 	265.308 	99.7392 	235.49 	285.838 	
32.6415 	0.208174 	-0.574973 	0.0532907 	2.83326 	0.953934 	-0.583298 	90.1786 	117.702 	-0.58584 	265.308 	99.7392 	235.49 	285.838 	
32.6515 	0.208174 	-0.574973 	0.0532907 	2.83326 	0.953934 	-0.583298 	90.1786 	117.702 	-0.58584 	265.308 	99.7392 	235.49 	285.838 	
32.6615 	0.208174 	-0.574973 	0.0532907 	2.83326 	0.953934 	-0.583298 	90.1786 	117.702 	-0.58584 	265.308 	99.7392 	235.49 	285.838 	
32.6715 	0.208174 	-0.574973 	0.0532907 	2.83326 	0.953934 	-0.583298 	90.1786 	117.702 	-0.58584 	265.308 	99.7392 	235.49 	285.838 	
32.6815 	0.208174 	-0.574973 	0.0532907 	2.83326 	0.953934 	-0.583298 	90.1786 	117.702 	-0.58584 	265.308 	99.7392 	235.49 	285.838 	
32.6915 	0.208174 	-0.574973 	0.0532907 	2.83326 	0.953934 	-0.583298 	90.1786 	117.702 	-0.58584 	265.308 	99.7392 	235.49 	285.838 	
32.7015 	0.208174 	-0.574973 	0.0532907 	2.83326 	0.953934 	-0.583298 	90.1786 	117.702 	-0.58584 	265.308 	99.7392 	235.49 	285.838 	
32.7115 	0.208174 	-0.574973 	0.0532907 	2.83326 	0.953934 	-0.583298 	90.1786 	117.702 	-0.58584 	265.308 	99.7392 	235.49 	285.838 	
32.7215 	0.208174 	-0.574973 	0.0532907 	2.83326 	0.953934 	-0.583298 	90.1786 	117.702 	-0.58584 	265.308 	99.7392 	235.49 	285.838 	
32.7315 	0.208174 	-0.574973 	0.0532907 	2.83326 	0.953934 	-0.583298 	90.1786 	117.702 	-0.58584 	265.308 	99.7392 	235.49 	285.838 	
32.7415 	0.208174 	-0.574973 	0.0532907 	2.83326 	0.953934 	-0.583298 	90.1786 	117.702 	-0.58584 	265.308 	99.7392 	235.49 	285.838 	
32.7515 	0.208174 	-0.574973 	0.0532907 	2.83326 	0.953934 	-0.583298 	90.1786 	117.702 	-0.58584 	265.308 	99.7392 	235.49 	285.838 	
32.7615 	0.208174 	-0.574973 	0.0532907 	2.83326 	0.953934 	-0.583298 	90.1786 	117.702 	-0.58584 	265.308 	99.7392 	235.49 	285.838 	
32.7715 	0.208174 	-0.574973 	0.0532907 	2.83326 	0.953934 	-0.583298 	90.1786 	117.702 	-0.58584 	265.308 	99.7392 	235.49 	285.838 	
32.7815 	0.208174 	-0.574973 	0.0532907 	2.83326 	0.953934 	-0.583298 	90.1786 	117.702 	-0.58584 	265.308 	99.7392 	235.49 	285.838 	
32.7915 	0.208174 	-0.574973 	0.0532907 	2.83326 	0.953934 	-0.583298 	90.1786 	117.702 	-0.58584 	265.308 	99.7392 	235.49 	285.838 	
32.8015 	0.208174 	-0.574973 	0.0532907 	2.83326 	0.953934 	-0.583298 	90.1786 	117.702 	-0.58584 	265.308 	99.7392 	235.49 	285.838 	
32.8115 	0.208174 	-0.574973 	0.0532907 	2.83326 	0.953934 	-0.583298 	90.1786 	117.702 	-0.58584 	265.308 	99.7392 	235.49 	285.838 	
32.8215 	0.208174 	-0.574973 	0.0532907 	2.83326 	0.953934 	-0.583298 	90.1786 	117.702 	-0.58584 	265.308 	99.7392 	235.49 	285.838 	
32.8315 	0.208174 	-0.574973 	0.0532907 	2.83326 	0.953934 	-0.583298 	90.1786 	117.702 	-0.58584 	265.308 	99.7392 	235.49 	285.838 	
32.8415 	0.208174 	-0.574973 	0.0532907 	2.83326 	0.953934 	-0.583298 	90.1786 	117.702 	-0.58584 	265.308 	99.7392 	235.49 	285.838 	
32.8515 	0.208174 	-0.574973 	0.0532907 	2.83326 	0.953934 	-0.583298 	90.1786 	117.702 	-0.58584 	265.308 	99.7392 	235.49 	285.838 	
32.8615 	0.208174 	-0.574973 	0.0532907 	2.83326 	0.953934 	-0.583298 	90.1786 	117.702 	-0.58584 	265.308 	99.7392 	235.49 	285.838 	
32.8715 	0.208174 	-0.574973 	0.0532907 	2.83326 	0.953934 	-0.583298 	90.1786 	117.702 	-0.58584 	265.308 	99.7392 	235.49 	285.838 	
32.8815 	0.208174 	-0.574973 	0.0532907 	2.83326 	0.953934 	-0.583298 	90.1786 	117.702 	-0.58584 	265.308 	99.7394 	235.49 	285.838 	
32.8915 	0.208174 	-0.574973 	0.0532907 	2.83326 	0.953934 	-0.583298 	90.1786 	117.702 	-0.58584 	265.308 	99.7394 	235.49 	285.838 	
32.9015 	0.208174 	-0.574973 	0.0532907 	2.83326 	0.953934 	-0.583298 	90.1786 	117.702 	-0.58584 	265.308 	99.7394 	235.49 	285.838 	
32.9115 	0.208174 	-0.574973 	0.0532907 	2.83326 	0.953934 	-0.583298 	90.1786 	117.702 	-0.58584 	265.308 	99.7394 	235.49 	285.838 	
32.9215 	0.208174 	-0.574973 	0.0532907 	2.83326 	0.953934 	-0.583298 	90.1786 	117.702 	-0.58584 	265.308 	99.7394 	235.49 	285.838 	
32.9315 	0.208174 	-0.574973 	0.0532907 	2.83326 	0.953934 	-0.583298 	90.1786 	117.702 	-0.58584 	265.308 	99.7394 	235.49 	285.838 	
32.9415 	0.208174 	-0.574973 	0.0532907 	2.83326 	0.953934 	-0.583298 	90.1786 	117.702 	-0.58584 	265.308 	99.7394 	235.49 	285.838 	
32.9515 	0.208174 	-0.574973 	0.0532907 	2.83326 	0.953934 	-0.583298 	90.1786 	117.702 	-0.58584 	265.308 	99.7394 	235.49 	285.838 	
32.9614 	0.208174 	-0.574973 	0.0532907 	2.83326 	0.953934 	-0.583298 	90.1786 	117.702 	-0.58584 	265.308 	99.7394 	235.49 	285.838 	
32.9715 	0.208174 	-0.574973 	0.0532907 	2.83326 	0.953934 	-0.583298 	90.1786 	117.702 	-0.58584 	265.308 	99.7394 	235.49 	285.838 	
32.9815 	0.208174 	-0.574973 	0.0532907 	2.83326 	0.953934 	-0.583298 	90.1786 	117.702 	-0.58584 	265.308 	99.7394 	235.49 	285.838 	
32.9915 	0.208174 	-0.574973 	0.0532907 	2.83326 	0.953934 	-0.583298 	90.1786 	117.702 	-0.58584 	265.308 	99.7394 	235.49 	285.838 	
33.0015 	0.208174 	-0.574973 	0.0532907 	2.83326 	0.953934 	-0.583298 	90.1786 	117.702 	-0.58584 	265.308 	99.7394 	235.49 	285.838 	
33.0115 	0.208174 	-0.574973 	0.0532907 	2.83326 	0.953934 	-0.583298 	90.1786 	117.702 	-0.58584 	265.308 	99.7394 	235.49 	285.838 	
33.0215 	0.208174 	-0.574973 	0.0532907 	2.83326 	0.953934 	-0.583298 	90.1786 	117.702 	-0.58584 	265.308 	99.7394 	235.49 	285.838 	
33.0315 	0.208174 	-0.574973 	0.0532907 	2.83326 	0.953934 	-0.583298 	90.1786 	117.702 	-0.58584 	265.308 	99.7394 	235.49 	285.838 	
33.0415 	0.208174 	-0.574973 	0.0532907 	2.83326 	0.953934 	-0.583298 	90.1786 	117.702 	-0.58584 	265.308 	99.7394 	235.49 	285.838 	
33.0515 	0.208174 	-0.574973 	0.0532907 	2.83326 	0.953934 	-0.583298 	90.1786 	117.702 	-0.58584 	265.308 	99.7394 	235.49 	285.838 	
33.0615 	0.208174 	-0.574973 	0.0532907 	2.83326 	0.953934 	-0.583298 	90.1786 	117.702 	-0.58584 	265.308 	99.7394 	235.49 	285.838 	
33.0715 	0.208174 	-0.574973 	0.0532907 	2.83326 	0.953934 	-0.583298 	90.1786 	117.702 	-0.58584 	265.308 	99.7394 	235.49 	285.838 	
33.0815 	0.208174 	-0.574973 	0.0532907 	2.83326 	0.953934 	-0.583298 	90.1786 	117.702 	-0.58584 	265.308 	99.7394 	235.49 	285.838 	
33.0915 	0.208174 	-0.574973 	0.0532907 	2.83326 	0.953934 	-0.583298 	90.1786 	117.702 	-0.58584 	265.308 	99.7394 	235.49 	285.838 	
33.1015 	0.208174 	-0.574973 	0.0532907 	2.83326 	0.953934 	-0.583298 	90.1786 	117.702 	-0.58584 	265.308 	99.7394 	235.49 	285.838 	
33.1115 	0.208174 	-0.574973 	0.0532907 	2.83326 	0.953934 	-0.583298 	90.1786 	117.702 	-0.58584 	265.308 	99.7394 	235.49 	285.838 	
33.1215 	0.208174 	-0.574973 	0.0532907 	2.83326 	0.953934 	-0.583298 	90.1786 	117.702 	-0.58584 	265.308 	99.7394 	235.49 	285.838 	
33.1315 	0.208174 	-0.574973 	0.0532907 	2.83326 	0.953934 	-0.583298 	90.1786 	117.702 	-0.58584 	265.308 	99.7394 	235.49 	285.838 	
33.1415 	0.208174 	-0.574973 	0.0532907 	2.83326 	0.953934 	-0.583298 	90.1786 	117.702 	-0.58584 	265.308 	99.7394 	235.49 	285.838 	
33.1515 	0.208174 	-0.574973 	0.0532907 	2.83326 	0.953934 	-0.583298 	90.1786 	117.702 	-0.58584 	265.308 	99.7394 	235.49 	285.838 	
33.1614 	0.208174 	-0.574973 	0.0532907 	2.83326 	0.953934 	-0.583298 	90.1786 	117.702 	-0.58584 	265.308 	99.7394 	235.49 	285.838 	
33.1715 	0.208174 	-0.574973 	0.0532907 	2.83326 	0.953934 	-0.583298 	90.1786 	117.702 	-0.58584 	265.308 	99.7394 	235.49 	285.838 	
33.1815 	0.208174 	-0.574973 	0.0532907 	2.83326 	0.953934 	-0.583298 	90.1786 	117.702 	-0.58584 	265.308 	99.7394 	235.49 	285.838 	
33.1915 	0.208174 	-0.574973 	0.0532907 	2.83326 	0.953934 	-0.583298 	90.1786 	117.702 	-0.58584 	265.308 	99.7394 	235.49 	285.838 	
33.2015 	0.208174 	-0.574973 	0.0532907 	2.83326 	0.953934 	-0.583298 	90.1786 	117.702 	-0.58584 	265.308 	99.7394 	235.49 	285.838 	
33.2115 	0.208174 	-0.574973 	0.0532907 	2.83326 	0.953934 	-0.583298 	90.1786 	117.702 	-0.58584 	265.308 	99.7394 	235.49 	285.838 	
33.2215 	0.208174 	-0.574973 	0.0532907 	2.83326 	0.953934 	-0.583298 	90.1786 	117.702 	-0.58584 	265.308 	99.7394 	235.49 	285.838 	
33.2315 	0.208174 	-0.574973 	0.0532907 	2.83326 	0.953934 	-0.583298 	90.1786 	117.702 	-0.58584 	265.308 	99.7394 	235.49 	285.838 	
33.2415 	0.208174 	-0.574973 	0.0532907 	2.83326 	0.953934 	-0.583298 	90.1786 	117.702 	-0.58584 	265.308 	99.7394 	235.49 	285.838 	
33.2515 	0.208174 	-0.574973 	0.0532907 	2.83326 	0.953934 	-0.583298 	90.1786 	117.702 	-0.58584 	265.308 	99.7394 	235.49 	285.838 	
33.2615 	0.208174 	-0.574973 	0.0532907 	2.83326 	0.953934 	-0.583298 	90.1786 	117.702 	-0.58584 	265.308 	99.7394 	235.49 	285.838 	
33.2715 	0.208174 	-0.574973 	0.0532907 	2.83326 	0.953934 	-0.583298 	90.1786 	117.702 	-0.58584 	265.308 	99.7394 	235.49 	285.838 	
33.2815 	0.208174 	-0.574973 	0.0532907 	2.83326 	0.953934 	-0.583298 	90.1786 	117.702 	-0.58584 	265.308 	99.7394 	235.49 	285.838 	
33.2915 	0.208174 	-0.574973 	0.0532907 	2.83326 	0.953934 	-0.583298 	90.1786 	117.702 	-0.58584 	265.308 	99.7394 	235.49 	285.838 	
33.3015 	0.208174 	-0.574973 	0.0532907 	2.83326 	0.953934 	-0.583298 	90.1786 	117.702 	-0.58584 	265.308 	99.7394 	235.49 	285.838 	
33.3115 	0.208174 	-0.574973 	0.0532907 	2.83326 	0.953934 	-0.583298 	90.1786 	117.702 	-0.58584 	265.308 	99.7394 	235.49 	285.838 	
33.3215 	0.208174 	-0.574973 	0.0532907 	2.83326 	0.953934 	-0.583298 	90.1786 	117.702 	-0.58584 	265.308 	99.7394 	235.49 	285.838 	
33.3315 	0.208174 	-0.574973 	0.0532907 	2.83326 	0.953934 	-0.583298 	90.1786 	117.702 	-0.58584 	265.308 	99.7394 	235.49 	285.838 	
33.3415 	0.208174 	-0.574973 	0.0532907 	2.83326 	0.953934 	-0.583298 	90.1786 	117.702 	-0.58584 	265.308 	99.7394 	235.49 	285.838 	
33.3515 	0.208174 	-0.574973 	0.0532907 	2.83326 	0.953934 	-0.583298 	90.1786 	117.702 	-0.58584 	265.308 	99.7394 	235.49 	285.838 	
33.3615 	0.208174 	-0.574973 	0.0532907 	2.83326 	0.953934 	-0.583298 	90.1786 	117.702 	-0.58584 	265.308 	99.7394 	235.49 	285.838 	
33.3715 	0.208174 	-0.574973 	0.0532907 	2.83326 	0.953934 	-0.583298 	90.1786 	117.702 	-0.58584 	265.308 	99.7394 	235.49 	285.838 	
33.3815 	0.208174 	-0.574973 	0.0532907 	2.83326 	0.953934 	-0.583298 	90.1786 	117.702 	-0.58584 	265.308 	99.7394 	235.49 	285.838 	
33.3915 	0.208174 	-0.574973 	0.0532907 	2.83326 	0.953934 	-0.583298 	90.1786 	117.702 	-0.58584 	265.308 	99.7395 	235.49 	285.838 	
33.4015 	0.208174 	-0.574973 	0.0532907 	2.83326 	0.953934 	-0.583298 	90.1786 	117.702 	-0.58584 	265.308 	99.7395 	235.49 	285.838 	
33.4115 	0.208174 	-0.574973 	0.0532907 	2.83326 	0.953934 	-0.583298 	90.1786 	117.702 	-0.58584 	265.308 	99.7395 	235.49 	285.838 	
33.4215 	0.208174 	-0.574973 	0.0532907 	2.83326 	0.953934 	-0.583298 	90.1786 	117.702 	-0.58584 	265.308 	99.7395 	235.49 	285.838 	
33.4315 	0.208174 	-0.574973 	0.0532907 	2.83326 	0.953934 	-0.583298 	90.1786 	117.702 	-0.58584 	265.308 	99.7395 	235.49 	285.838 	
33.4415 	0.208174 	-0.574973 	0.0532907 	2.83326 	0.953934 	-0.583298 	90.1786 	117.702 	-0.58584 	265.308 	99.7395 	235.49 	285.838 	
33.4515 	0.208174 	-0.574973 	0.0532907 	2.83326 	0.953934 	-0.583298 	90.1786 	117.702 	-0.58584 	265.308 	99.7395 	235.49 	285.838 	
33.4615 	0.208174 	-0.574973 	0.0532907 	2.83326 	0.953934 	-0.583298 	90.1786 	117.702 	-0.58584 	265.308 	99.7395 	235.49 	285.838 	
33.4715 	0.208174 	-0.574973 	0.0532907 	2.83326 	0.953934 	-0.583298 	90.1786 	117.702 	-0.58584 	265.308 	99.7395 	235.49 	285.838 	
33.4815 	0.208174 	-0.574973 	0.0532907 	2.83326 	0.953934 	-0.583298 	90.1786 	117.702 	-0.58584 	265.308 	99.7395 	235.49 	285.838 	
33.4915 	0.208174 	-0.574973 	0.0532907 	2.83326 	0.953934 	-0.583298 	90.1786 	117.702 	-0.58584 	265.308 	99.7395 	235.49 	285.838 	
33.5015 	0.208174 	-0.574973 	0.0532907 	2.83326 	0.953934 	-0.583298 	90.1786 	117.702 	-0.58584 	265.308 	99.7395 	235.49 	285.838 	
33.5115 	0.208174 	-0.574973 	0.0532907 	2.83326 	0.953934 	-0.583298 	90.1786 	117.702 	-0.58584 	265.308 	99.7395 	235.49 	285.838 	
33.5215 	0.208174 	-0.574973 	0.0532907 	2.83326 	0.953934 	-0.583298 	90.1786 	117.702 	-0.58584 	265.308 	99.7395 	235.49 	285.838 	
33.5315 	0.208174 	-0.574973 	0.0532907 	2.83326 	0.953934 	-0.583298 	90.1786 	117.702 	-0.58584 	265.308 	99.7395 	235.49 	285.838 	
33.5415 	0.208174 	-0.574973 	0.0532907 	2.83326 	0.953934 	-0.583298 	90.1786 	117.702 	-0.58584 	265.308 	99.7395 	235.49 	285.838 	
33.5515 	0.208174 	-0.574973 	0.0532907 	2.83326 	0.953934 	-0.583298 	90.1786 	117.702 	-0.58584 	265.308 	99.7395 	235.49 	285.838 	
33.5615 	0.208174 	-0.574973 	0.0532907 	2.83326 	0.953934 	-0.583298 	90.1786 	117.702 	-0.58584 	265.308 	99.7395 	235.49 	285.838 	
33.5715 	0.208174 	-0.574973 	0.0532907 	2.83326 	0.953934 	-0.583298 	90.1786 	117.702 	-0.58584 	265.308 	99.7395 	235.49 	285.838 	
33.5815 	0.208174 	-0.574973 	0.0532907 	2.83326 	0.953934 	-0.583298 	90.1786 	117.702 	-0.58584 	265.308 	99.7395 	235.49 	285.838 	
33.5915 	0.208174 	-0.574973 	0.0532907 	2.83326 	0.953934 	-0.583298 	90.1786 	117.702 	-0.58584 	265.308 	99.7395 	235.49 	285.838 	
33.6015 	0.208174 	-0.574973 	0.0532907 	2.83326 	0.953934 	-0.583298 	90.1786 	117.702 	-0.58584 	265.308 	99.7395 	235.49 	285.838 	
33.6115 	0.208174 	-0.574973 	0.0532907 	2.83326 	0.953934 	-0.583298 	90.1786 	117.702 	-0.58584 	265.308 	99.7395 	235.49 	285.838 	
33.6215 	0.208174 	-0.574973 	0.0532907 	2.83326 	0.953934 	-0.583298 	90.1786 	117.702 	-0.58584 	265.308 	99.7395 	235.49 	285.838 	
33.6315 	0.208174 	-0.574973 	0.0532907 	2.83326 	0.953934 	-0.583298 	90.1786 	117.702 	-0.58584 	265.308 	99.7395 	235.49 	285.838 	
33.6415 	0.208174 	-0.574973 	0.0532907 	2.83326 	0.953934 	-0.583298 	90.1786 	117.702 	-0.58584 	265.308 	99.7395 	235.49 	285.838 	
33.6515 	0.208174 	-0.574973 	0.0532907 	2.83326 	0.953934 	-0.583298 	90.1786 	117.702 	-0.58584 	265.308 	99.7395 	235.49 	285.838 	
33.6615 	0.208174 	-0.574973 	0.0532907 	2.83326 	0.953934 	-0.583298 	90.1786 	117.702 	-0.58584 	265.308 	99.7395 	235.49 	285.838 	
33.6715 	0.208174 	-0.574973 	0.0532907 	2.83326 	0.953934 	-0.583298 	90.1786 	117.702 	-0.58584 	265.308 	99.7395 	235.49 	285.838 	
33.6815 	0.208174 	-0.574973 	0.0532907 	2.83326 	0.953934 	-0.583298 	90.1786 	117.702 	-0.58584 	265.308 	99.7395 	235.49 	285.838 	
33.6915 	0.208174 	-0.574973 	0.0532907 	2.83326 	0.953934 	-0.583298 	90.1786 	117.702 	-0.58584 	265.308 	99.7395 	235.49 	285.838 	
33.7015 	0.208174 	-0.574973 	0.0532907 	2.83326 	0.953934 	-0.583298 	90.1786 	117.702 	-0.58584 	265.308 	99.7395 	235.49 	285.838 	
33.7115 	0.208174 	-0.574973 	0.0532907 	2.83326 	0.953934 	-0.583298 	90.1786 	117.702 	-0.58584 	265.308 	99.7395 	235.49 	285.838 	
33.7215 	0.208174 	-0.574973 	0.0532907 	2.83326 	0.953934 	-0.583298 	90.1786 	117.702 	-0.58584 	265.308 	99.7395 	235.49 	285.838 	
33.7315 	0.208174 	-0.574973 	0.0532907 	2.83326 	0.953934 	-0.583298 	90.1786 	117.702 	-0.58584 	265.308 	99.7395 	235.49 	285.838 	
33.7415 	0.208174 	-0.574973 	0.0532907 	2.83326 	0.953934 	-0.583298 	90.1786 	117.702 	-0.58584 	265.308 	99.7395 	235.49 	285.838 	
33.7515 	0.208174 	-0.574973 	0.0532907 	2.83326 	0.953934 	-0.583298 	90.1786 	117.702 	-0.58584 	265.308 	99.7395 	235.49 	285.838 	
33.7615 	0.208174 	-0.574973 	0.0532907 	2.83326 	0.953934 	-0.583298 	90.1786 	117.702 	-0.58584 	265.308 	99.7395 	235.49 	285.838 	
33.7715 	0.208174 	-0.574973 	0.0532907 	2.83326 	0.953934 	-0.583298 	90.1786 	117.702 	-0.58584 	265.308 	99.7395 	235.49 	285.838 	
33.7815 	0.208174 	-0.574973 	0.0532907 	2.83326 	0.953934 	-0.583298 	90.1786 	117.702 	-0.58584 	265.308 	99.7395 	235.49 	285.838 	
33.7915 	0.208174 	-0.574973 	0.0532907 	2.83326 	0.953934 	-0.583298 	90.1786 	117.702 	-0.58584 	265.308 	99.7395 	235.49 	285.838 	
33.8015 	0.208174 	-0.574973 	0.0532907 	2.83326 	0.953934 	-0.583298 	90.1786 	117.702 	-0.58584 	265.308 	99.7395 	235.49 	285.838 	
33.8115 	0.208174 	-0.574973 	0.0532907 	2.83326 	0.953934 	-0.583298 	90.1786 	117.702 	-0.58584 	265.308 	99.7395 	235.49 	285.838 	
33.8215 	0.208174 	-0.574973 	0.0532907 	2.83326 	0.953934 	-0.583298 	90.1786 	117.702 	-0.58584 	265.308 	99.7395 	235.49 	285.838 	
33.8315 	0.208174 	-0.574973 	0.0532907 	2.83326 	0.953934 	-0.583298 	90.1786 	117.702 	-0.58584 	265.308 	99.7395 	235.49 	285.838 	
33.8415 	0.208174 	-0.574973 	0.0532907 	2.83326 	0.953934 	-0.583298 	90.1786 	117.702 	-0.58584 	265.308 	99.7395 	235.49 	285.838 	
33.8515 	0.208174 	-0.574973 	0.0532907 	2.83326 	0.953934 	-0.583298 	90.1786 	117.702 	-0.58584 	265.308 	99.7395 	235.49 	285.838 	
33.8615 	0.208174 	-0.574973 	0.0532907 	2.83326 	0.953934 	-0.583298 	90.1786 	117.702 	-0.58584 	265.308 	99.7395 	235.49 	285.838 	
33.8715 	0.208174 	-0.574973 	0.0532907 	2.83326 	0.953934 	-0.583298 	90.1786 	117.702 	-0.58584 	265.308 	99.7395 	235.49 	285.838 	
33.8815 	0.208174 	-0.574973 	0.0532907 	2.83326 	0.953934 	-0.583298 	90.1786 	117.702 	-0.58584 	265.308 	99.7395 	235.49 	285.838 	
33.8915 	0.208174 	-0.574973 	0.0532907 	2.83326 	0.953934 	-0.583298 	90.1786 	117.702 	-0.58584 	265.308 	99.7395 	235.49 	285.838 	
33.9015 	0.208174 	-0.574973 	0.0532907 	2.83326 	0.953934 	-0.583298 	90.1786 	117.702 	-0.58584 	265.308 	99.7395 	235.49 	285.838 	
33.9115 	0.208174 	-0.574973 	0.0532907 	2.83326 	0.953934 	-0.583298 	90.1786 	117.702 	-0.58584 	265.308 	99.7395 	235.49 	285.838 	
33.9215 	0.208174 	-0.574973 	0.0532907 	2.83326 	0.953934 	-0.583298 	90.1786 	117.702 	-0.58584 	265.308 	99.7395 	235.49 	285.838 	
33.9315 	0.208174 	-0.574973 	0.0532907 	2.83326 	0.953934 	-0.583298 	90.1786 	117.702 	-0.58584 	265.308 	99.7395 	235.49 	285.838 	
33.9415 	0.208174 	-0.574973 	0.0532907 	2.83326 	0.953934 	-0.583298 	90.1786 	117.702 	-0.58584 	265.308 	99.7395 	235.49 	285.838 	
33.9515 	0.208174 	-0.574973 	0.0532907 	2.83326 	0.953934 	-0.583298 	90.1786 	117.702 	-0.58584 	265.308 	99.7395 	235.49 	285.838 	
33.9615 	0.208174 	-0.574973 	0.0532907 	2.83326 	0.953934 	-0.583298 	90.1786 	117.702 	-0.58584 	265.308 	99.7395 	235.49 	285.838 	
33.9715 	0.208174 	-0.574973 	0.0532907 	2.83326 	0.953934 	-0.583298 	90.1786 	117.702 	-0.58584 	265.308 	99.7395 	235.49 	285.838 	
33.9815 	0.208174 	-0.574973 	0.0532907 	2.83326 	0.953934 	-0.583298 	90.1786 	117.702 	-0.58584 	265.308 	99.7395 	235.49 	285.838 	
33.9915 	0.208174 	-0.574973 	0.0532907 	2.83326 	0.953934 	-0.583298 	90.1786 	117.702 	-0.58584 	265.308 	99.7395 	235.49 	285.838 	
34.0015 	0.208174 	-0.574973 	0.0532907 	2.83326 	0.953934 	-0.583298 	90.1786 	117.702 	-0.58584 	265.308 	99.7395 	235.49 	285.838 	
34.0115 	0.208174 	-0.574973 	0.0532907 	2.83326 	0.953934 	-0.583298 	90.1786 	117.702 	-0.58584 	265.308 	99.7395 	235.49 	285.838 	
34.0215 	0.208174 	-0.574973 	0.0532907 	2.83326 	0.953934 	-0.583298 	90.1786 	117.702 	-0.58584 	265.308 	99.7395 	235.49 	285.838 	
34.0315 	0.208174 	-0.574973 	0.0532907 	2.83326 	0.953934 	-0.583298 	90.1786 	117.702 	-0.58584 	265.308 	99.7395 	235.49 	285.838 	
34.0415 	0.208174 	-0.574973 	0.0532907 	2.83326 	0.953934 	-0.583298 	90.1786 	117.702 	-0.58584 	265.308 	99.7395 	235.49 	285.838 	
34.0515 	0.208174 	-0.574973 	0.0532907 	2.83326 	0.953934 	-0.583298 	90.1786 	117.702 	-0.58584 	265.308 	99.7395 	235.49 	285.838 	
34.0615 	0.208174 	-0.574973 	0.0532907 	2.83326 	0.953934 	-0.583298 	90.1786 	117.702 	-0.58584 	265.308 	99.7395 	235.49 	285.838 	
34.0715 	0.208174 	-0.574973 	0.0532907 	2.83326 	0.953934 	-0.583298 	90.1786 	117.702 	-0.58584 	265.308 	99.7395 	235.49 	285.838 	
34.0815 	0.208174 	-0.574973 	0.0532907 	2.83326 	0.953934 	-0.583298 	90.1786 	117.702 	-0.58584 	265.308 	99.7396 	235.49 	285.838 	
34.0915 	0.208174 	-0.574973 	0.0532907 	2.83326 	0.953934 	-0.583298 	90.1786 	117.702 	-0.58584 	265.308 	99.7396 	235.49 	285.838 	
34.1015 	0.208174 	-0.574973 	0.0532907 	2.83326 	0.953934 	-0.583298 	90.1786 	117.702 	-0.58584 	265.308 	99.7396 	235.49 	285.838 	
34.1115 	0.208174 	-0.574973 	0.0532907 	2.83326 	0.953934 	-0.583298 	90.1786 	117.702 	-0.58584 	265.308 	99.7396 	235.49 	285.838 	
34.1215 	0.208174 	-0.574973 	0.0532907 	2.83326 	0.953934 	-0.583298 	90.1786 	117.702 	-0.58584 	265.308 	99.7396 	235.49 	285.838 	
34.1315 	0.208174 	-0.574973 	0.0532907 	2.83326 	0.953934 	-0.583298 	90.1786 	117.702 	-0.58584 	265.308 	99.7396 	235.49 	285.838 	
34.1414 	0.208174 	-0.574973 	0.0532907 	2.83326 	0.953934 	-0.583298 	90.1786 	117.702 	-0.58584 	265.308 	99.7396 	235.49 	285.838 	
34.1515 	0.208174 	-0.574973 	0.0532907 	2.83326 	0.953934 	-0.583298 	90.1786 	117.702 	-0.58584 	265.308 	99.7396 	235.49 	285.838 	
34.1615 	0.208174 	-0.574973 	0.0532907 	2.83326 	0.953934 	-0.583298 	90.1786 	117.702 	-0.58584 	265.308 	99.7396 	235.49 	285.838 	
34.1715 	0.208174 	-0.574973 	0.0532907 	2.83326 	0.953934 	-0.583298 	90.1786 	117.702 	-0.58584 	265.308 	99.7396 	235.49 	285.838 	
34.1815 	0.208174 	-0.574973 	0.0532907 	2.83326 	0.953934 	-0.583298 	90.1786 	117.702 	-0.58584 	265.308 	99.7396 	235.49 	285.838 	
34.1915 	0.208174 	-0.574973 	0.0532907 	2.83326 	0.953934 	-0.583298 	90.1786 	117.702 	-0.58584 	265.308 	99.7396 	235.49 	285.838 	
34.2015 	0.208174 	-0.574973 	0.0532907 	2.83326 	0.953934 	-0.583298 	90.1786 	117.702 	-0.58584 	265.308 	99.7396 	235.49 	285.838 	
34.2115 	0.208174 	-0.574973 	0.0532907 	2.83326 	0.953934 	-0.583298 	90.1786 	117.702 	-0.58584 	265.308 	99.7396 	235.49 	285.838 	
34.2215 	0.208174 	-0.574973 	0.0532907 	2.83326 	0.953934 	-0.583298 	90.1786 	117.702 	-0.58584 	265.308 	99.7396 	235.49 	285.838 	
34.2315 	0.208174 	-0.574973 	0.0532907 	2.83326 	0.953934 	-0.583298 	90.1786 	117.702 	-0.58584 	265.308 	99.7396 	235.49 	285.838 	
34.2415 	0.208174 	-0.574973 	0.0532907 	2.83326 	0.953934 	-0.583298 	90.1786 	117.702 	-0.58584 	265.308 	99.7396 	235.49 	285.838 	
34.2515 	0.208174 	-0.574973 	0.0532907 	2.83326 	0.953934 	-0.583298 	90.1786 	117.702 	-0.58584 	265.308 	99.7396 	235.49 	285.838 	
34.2615 	0.208174 	-0.574973 	0.0532907 	2.83326 	0.953934 	-0.583298 	90.1786 	117.702 	-0.58584 	265.308 	99.7396 	235.49 	285.838 	
34.2715 	0.208174 	-0.574973 	0.0532907 	2.83326 	0.953934 	-0.583298 	90.1786 	117.702 	-0.58584 	265.308 	99.7396 	235.49 	285.838 	
34.2815 	0.208174 	-0.574973 	0.0532907 	2.83326 	0.953934 	-0.583298 	90.1786 	117.702 	-0.58584 	265.308 	99.7396 	235.49 	285.838 	
34.2915 	0.208174 	-0.574973 	0.0532907 	2.83326 	0.953934 	-0.583298 	90.1786 	117.702 	-0.58584 	265.308 	99.7396 	235.49 	285.838 	
34.3015 	0.208174 	-0.574973 	0.0532907 	2.83326 	0.953934 	-0.583298 	90.1786 	117.702 	-0.58584 	265.308 	99.7396 	235.49 	285.838 	
34.3115 	0.208174 	-0.574973 	0.0532907 	2.83326 	0.953934 	-0.583298 	90.1786 	117.702 	-0.58584 	265.308 	99.7396 	235.49 	285.838 	
34.3215 	0.208174 	-0.574973 	0.0532907 	2.83326 	0.953934 	-0.583298 	90.1786 	117.702 	-0.58584 	265.308 	99.7396 	235.49 	285.838 	
34.3315 	0.208174 	-0.574973 	0.0532907 	2.83326 	0.953934 	-0.583298 	90.1786 	117.702 	-0.58584 	265.308 	99.7396 	235.49 	285.838 	
34.3415 	0.208174 	-0.574973 	0.0532907 	2.83326 	0.953934 	-0.583298 	90.1786 	117.702 	-0.58584 	265.308 	99.7396 	235.49 	285.838 	
34.3515 	0.208174 	-0.574973 	0.0532907 	2.83326 	0.953934 	-0.583298 	90.1786 	117.702 	-0.58584 	265.308 	99.7396 	235.49 	285.838 	
34.3615 	0.208174 	-0.574973 	0.0532907 	2.83326 	0.953934 	-0.583298 	90.1786 	117.702 	-0.58584 	265.308 	99.7396 	235.49 	285.838 	
34.3715 	0.208174 	-0.574973 	0.0532907 	2.83326 	0.953934 	-0.583298 	90.1786 	117.702 	-0.58584 	265.308 	99.7396 	235.49 	285.838 	
34.3815 	0.208174 	-0.574973 	0.0532907 	2.83326 	0.953934 	-0.583298 	90.1786 	117.702 	-0.58584 	265.308 	99.7396 	235.49 	285.838 	
34.3915 	0.208174 	-0.574973 	0.0532907 	2.83326 	0.953934 	-0.583298 	90.1786 	117.702 	-0.58584 	265.308 	99.7396 	235.49 	285.838 	
34.4014 	0.208174 	-0.574973 	0.0532907 	2.83326 	0.953934 	-0.583298 	90.1786 	117.702 	-0.58584 	265.308 	99.7396 	235.49 	285.838 	
34.4114 	0.208174 	-0.574973 	0.0532907 	2.83326 	0.953934 	-0.583298 	90.1786 	117.702 	-0.58584 	265.308 	99.7396 	235.49 	285.838 	
34.4215 	0.208174 	-0.574973 	0.0532907 	2.83326 	0.953934 	-0.583298 	90.1786 	117.702 	-0.58584 	265.308 	99.7396 	235.49 	285.838 	
34.4315 	0.208174 	-0.574973 	0.0532907 	2.83326 	0.953934 	-0.583298 	90.1786 	117.702 	-0.58584 	265.308 	99.7396 	235.49 	285.838 	
34.4415 	0.208174 	-0.574973 	0.0532907 	2.83326 	0.953934 	-0.583298 	90.1786 	117.702 	-0.58584 	265.308 	99.7396 	235.49 	285.838 	
34.4514 	0.208174 	-0.574973 	0.0532907 	2.83326 	0.953934 	-0.583298 	90.1786 	117.702 	-0.58584 	265.308 	99.7396 	235.49 	285.838 	
34.4615 	0.208174 	-0.574973 	0.0532907 	2.83326 	0.953934 	-0.583298 	90.1786 	117.702 	-0.58584 	265.308 	99.7396 	235.49 	285.838 	
34.4715 	0.208174 	-0.574973 	0.0532907 	2.83326 	0.953934 	-0.583298 	90.1786 	117.702 	-0.58584 	265.308 	99.7396 	235.49 	285.838 	
34.4815 	0.208174 	-0.574973 	0.0532907 	2.83326 	0.953934 	-0.583298 	90.1786 	117.702 	-0.58584 	265.308 	99.7396 	235.49 	285.838 	
34.4915 	0.208174 	-0.574973 	0.0532907 	2.83326 	0.953934 	-0.583298 	90.1786 	117.702 	-0.58584 	265.308 	99.7396 	235.49 	285.838 	
34.5015 	0.208174 	-0.574973 	0.0532907 	2.83326 	0.953934 	-0.583298 	90.1786 	117.702 	-0.58584 	265.308 	99.7396 	235.49 	285.838 	
34.5115 	0.208174 	-0.574973 	0.0532907 	2.83326 	0.953934 	-0.583298 	90.1786 	117.702 	-0.58584 	265.308 	99.7396 	235.49 	285.838 	
34.5215 	0.208174 	-0.574973 	0.0532907 	2.83326 	0.953934 	-0.583298 	90.1786 	117.702 	-0.58584 	265.308 	99.7396 	235.49 	285.838 	
34.5315 	0.208174 	-0.574973 	0.0532907 	2.83326 	0.953934 	-0.583298 	90.1786 	117.702 	-0.58584 	265.308 	99.7396 	235.49 	285.838 	
34.5415 	0.208174 	-0.574973 	0.0532907 	2.83326 	0.953934 	-0.583298 	90.1786 	117.702 	-0.58584 	265.308 	99.7396 	235.49 	285.838 	
34.5515 	0.208174 	-0.574973 	0.0532907 	2.83326 	0.953934 	-0.583298 	90.1786 	117.702 	-0.58584 	265.308 	99.7396 	235.49 	285.838 	
34.5615 	0.208174 	-0.574973 	0.0532907 	2.83326 	0.953934 	-0.583298 	90.1786 	117.702 	-0.58584 	265.308 	99.7396 	235.49 	285.838 	
34.5715 	0.208174 	-0.574973 	0.0532907 	2.83326 	0.953934 	-0.583298 	90.1786 	117.702 	-0.58584 	265.308 	99.7396 	235.49 	285.838 	
34.5815 	0.208174 	-0.574973 	0.0532907 	2.83326 	0.953934 	-0.583298 	90.1786 	117.702 	-0.58584 	265.308 	99.7396 	235.49 	285.838 	
34.5915 	0.208174 	-0.574973 	0.0532907 	2.83326 	0.953934 	-0.583298 	90.1786 	117.702 	-0.58584 	265.308 	99.7396 	235.49 	285.838 	
34.6015 	0.208174 	-0.574973 	0.0532907 	2.83326 	0.953934 	-0.583298 	90.1786 	117.702 	-0.58584 	265.308 	99.7396 	235.49 	285.838 	
34.6115 	0.208174 	-0.574973 	0.0532907 	2.83326 	0.953934 	-0.583298 	90.1786 	117.702 	-0.58584 	265.308 	99.7396 	235.49 	285.838 	
34.6215 	0.208174 	-0.574973 	0.0532907 	2.83326 	0.953934 	-0.583298 	90.1786 	117.702 	-0.58584 	265.308 	99.7396 	235.49 	285.838 	
34.6315 	0.208174 	-0.574973 	0.0532907 	2.83326 	0.953934 	-0.583298 	90.1786 	117.702 	-0.58584 	265.308 	99.7396 	235.49 	285.838 	
34.6415 	0.208174 	-0.574973 	0.0532907 	2.83326 	0.953934 	-0.583298 	90.1786 	117.702 	-0.58584 	265.308 	99.7396 	235.49 	285.838 	
34.6515 	0.208174 	-0.574973 	0.0532907 	2.83326 	0.953934 	-0.583298 	90.1786 	117.702 	-0.58584 	265.308 	99.7396 	235.49 	285.838 	
34.6615 	0.208174 	-0.574973 	0.0532907 	2.83326 	0.953934 	-0.583298 	90.1786 	117.702 	-0.58584 	265.308 	99.7396 	235.49 	285.838 	
34.6715 	0.208174 	-0.574973 	0.0532907 	2.83326 	0.953934 	-0.583298 	90.1786 	117.702 	-0.58584 	265.308 	99.7396 	235.49 	285.838 	
34.6815 	0.208174 	-0.574973 	0.0532907 	2.83326 	0.953934 	-0.583298 	90.1786 	117.702 	-0.58584 	265.308 	99.7396 	235.49 	285.838 	
34.6915 	0.208174 	-0.574973 	0.0532907 	2.83326 	0.953934 	-0.583298 	90.1786 	117.702 	-0.58584 	265.308 	99.7396 	235.49 	285.838 	
34.7015 	0.208174 	-0.574973 	0.0532907 	2.83326 	0.953934 	-0.583298 	90.1786 	117.702 	-0.58584 	265.308 	99.7396 	235.49 	285.838 	
34.7115 	0.208174 	-0.574973 	0.0532907 	2.83326 	0.953934 	-0.583298 	90.1786 	117.702 	-0.58584 	265.308 	99.7396 	235.49 	285.838 	
34.7215 	0.208174 	-0.574973 	0.0532907 	2.83326 	0.953934 	-0.583298 	90.1786 	117.702 	-0.58584 	265.308 	99.7396 	235.49 	285.838 	
34.7315 	0.208174 	-0.574973 	0.0532907 	2.83326 	0.953934 	-0.583298 	90.1786 	117.702 	-0.58584 	265.308 	99.7396 	235.49 	285.838 	
34.7415 	0.208174 	-0.574973 	0.0532907 	2.83326 	0.953934 	-0.583298 	90.1786 	117.702 	-0.58584 	265.308 	99.7396 	235.49 	285.838 	
34.7515 	0.208174 	-0.574973 	0.0532907 	2.83326 	0.953934 	-0.583298 	90.1786 	117.702 	-0.58584 	265.308 	99.7396 	235.49 	285.838 	
34.7615 	0.208174 	-0.574973 	0.0532907 	2.83326 	0.953934 	-0.583298 	90.1786 	117.702 	-0.58584 	265.308 	99.7396 	235.49 	285.838 	
34.7715 	0.208174 	-0.574973 	0.0532907 	2.83326 	0.953934 	-0.583298 	90.1786 	117.702 	-0.58584 	265.308 	99.7396 	235.49 	285.838 	
34.7815 	0.208174 	-0.574973 	0.0532907 	2.83326 	0.953934 	-0.583298 	90.1786 	117.702 	-0.58584 	265.308 	99.7396 	235.49 	285.838 	
34.7915 	0.208174 	-0.574973 	0.0532907 	2.83326 	0.953934 	-0.583298 	90.1786 	117.702 	-0.58584 	265.308 	99.7396 	235.49 	285.838 	
34.8015 	0.208174 	-0.574973 	0.0532907 	2.83326 	0.953934 	-0.583298 	90.1786 	117.702 	-0.58584 	265.308 	99.7396 	235.49 	285.838 	
34.8115 	0.208174 	-0.574973 	0.0532907 	2.83326 	0.953934 	-0.583298 	90.1786 	117.702 	-0.58584 	265.308 	99.7396 	235.49 	285.838 	
34.8215 	0.208174 	-0.574973 	0.0532907 	2.83326 	0.953934 	-0.583298 	90.1786 	117.702 	-0.58584 	265.308 	99.7396 	235.49 	285.838 	
34.8315 	0.208174 	-0.574973 	0.0532907 	2.83326 	0.953934 	-0.583298 	90.1786 	117.702 	-0.58584 	265.308 	99.7396 	235.49 	285.838 	
34.8415 	0.208174 	-0.574973 	0.0532907 	2.83326 	0.953934 	-0.583298 	90.1786 	117.702 	-0.58584 	265.308 	99.7396 	235.49 	285.838 	
34.8515 	0.208174 	-0.574973 	0.0532907 	2.83326 	0.953934 	-0.583298 	90.1786 	117.702 	-0.58584 	265.308 	99.7396 	235.49 	285.838 	
34.8615 	0.208174 	-0.574973 	0.0532907 	2.83326 	0.953934 	-0.583298 	90.1786 	117.702 	-0.58584 	265.308 	99.7396 	235.49 	285.838 	
34.8715 	0.208174 	-0.574973 	0.0532907 	2.83326 	0.953934 	-0.583298 	90.1786 	117.702 	-0.58584 	265.308 	99.7396 	235.49 	285.838 	
34.8815 	0.208174 	-0.574973 	0.0532907 	2.83326 	0.953934 	-0.583298 	90.1786 	117.702 	-0.58584 	265.308 	99.7396 	235.49 	285.838 	
34.8915 	0.208174 	-0.574973 	0.0532907 	2.83326 	0.953934 	-0.583298 	90.1786 	117.702 	-0.58584 	265.308 	99.7396 	235.49 	285.838 	
34.9015 	0.208174 	-0.574973 	0.0532907 	2.83326 	0.953934 	-0.583298 	90.1786 	117.702 	-0.58584 	265.308 	99.7396 	235.49 	285.838 	
34.9115 	0.208174 	-0.574973 	0.0532907 	2.83326 	0.953934 	-0.583298 	90.1786 	117.702 	-0.58584 	265.308 	99.7396 	235.49 	285.838 	
34.9215 	0.208174 	-0.574973 	0.0532907 	2.83326 	0.953934 	-0.583298 	90.1786 	117.702 	-0.58584 	265.308 	99.7396 	235.49 	285.838 	
34.9315 	0.208174 	-0.574973 	0.0532907 	2.83326 	0.953934 	-0.583298 	90.1786 	117.702 	-0.58584 	265.308 	99.7396 	235.49 	285.838 	
34.9415 	0.208174 	-0.574973 	0.0532907 	2.83326 	0.953934 	-0.583298 	90.1786 	117.702 	-0.58584 	265.308 	99.7396 	235.49 	285.838 	
34.9515 	0.208174 	-0.574973 	0.0532907 	2.83326 	0.953934 	-0.583298 	90.1786 	117.702 	-0.58584 	265.308 	99.7396 	235.49 	285.838 	
34.9615 	0.208174 	-0.574973 	0.0532907 	2.83326 	0.953934 	-0.583298 	90.1786 	117.702 	-0.58584 	265.308 	99.7396 	235.49 	285.838 	
34.9715 	0.208174 	-0.574973 	0.0532907 	2.83326 	0.953934 	-0.583298 	90.1786 	117.702 	-0.58584 	265.308 	99.7396 	235.49 	285.838 	
34.9815 	0.208174 	-0.574973 	0.0532907 	2.83326 	0.953934 	-0.583298 	90.1786 	117.702 	-0.58584 	265.308 	99.7396 	235.49 	285.838 	
34.9915 	0.208174 	-0.574973 	0.0532907 	2.83326 	0.953934 	-0.583298 	90.1786 	117.702 	-0.58584 	265.308 	99.7396 	235.49 	285.838 	
35.0015 	0.208174 	-0.574973 	0.0532907 	2.83326 	0.953934 	-0.583298 	90.1786 	117.702 	-0.58584 	265.308 	99.7396 	235.49 	285.838 	
35.0115 	0.208174 	-0.574973 	0.0532907 	2.83326 	0.953934 	-0.583298 	90.1786 	117.702 	-0.58584 	265.308 	99.7396 	235.49 	285.838 	
35.0215 	0.208174 	-0.574973 	0.0532907 	2.83326 	0.953934 	-0.583298 	90.1786 	117.702 	-0.58584 	265.308 	99.7396 	235.49 	285.838 	
35.0315 	0.208174 	-0.574973 	0.0532907 	2.83326 	0.953934 	-0.583298 	90.1786 	117.702 	-0.58584 	265.308 	99.7396 	235.49 	285.838 	
35.0415 	0.208174 	-0.574973 	0.0532907 	2.83326 	0.953934 	-0.583298 	90.1786 	117.702 	-0.58584 	265.308 	99.7396 	235.49 	285.838 	
35.0515 	0.208174 	-0.574973 	0.0532907 	2.83326 	0.953934 	-0.583298 	90.1786 	117.702 	-0.58584 	265.308 	99.7396 	235.49 	285.838 	
35.0615 	0.208174 	-0.574973 	0.0532907 	2.83326 	0.953934 	-0.583298 	90.1786 	117.702 	-0.58584 	265.308 	99.7396 	235.49 	285.838 	
35.0715 	0.208174 	-0.574973 	0.0532907 	2.83326 	0.953934 	-0.583298 	90.1786 	117.702 	-0.58584 	265.308 	99.7396 	235.49 	285.838 	
35.0815 	0.208174 	-0.574973 	0.0532907 	2.83326 	0.953934 	-0.583298 	90.1786 	117.702 	-0.58584 	265.308 	99.7396 	235.49 	285.838 	
35.0915 	0.208174 	-0.574973 	0.0532907 	2.83326 	0.953934 	-0.583298 	90.1786 	117.702 	-0.58584 	265.308 	99.7398 	235.49 	285.838 	
35.1015 	0.208174 	-0.574973 	0.0532907 	2.83326 	0.953934 	-0.583298 	90.1786 	117.702 	-0.58584 	265.308 	99.7398 	235.49 	285.838 	
35.1115 	0.208174 	-0.574973 	0.0532907 	2.83326 	0.953934 	-0.583298 	90.1786 	117.702 	-0.58584 	265.308 	99.7398 	235.49 	285.838 	
35.1215 	0.208174 	-0.574973 	0.0532907 	2.83326 	0.953934 	-0.583298 	90.1786 	117.702 	-0.58584 	265.308 	99.7398 	235.49 	285.838 	
35.1315 	0.208174 	-0.574973 	0.0532907 	2.83326 	0.953934 	-0.583298 	90.1786 	117.702 	-0.58584 	265.308 	99.7398 	235.49 	285.838 	
35.1415 	0.208174 	-0.574973 	0.0532907 	2.83326 	0.953934 	-0.583298 	90.1786 	117.702 	-0.58584 	265.308 	99.7398 	235.49 	285.838 	
35.1515 	0.208174 	-0.574973 	0.0532907 	2.83326 	0.953934 	-0.583298 	90.1786 	117.702 	-0.58584 	265.308 	99.7398 	235.49 	285.838 	
35.1615 	0.208174 	-0.574973 	0.0532907 	2.83326 	0.953934 	-0.583298 	90.1786 	117.702 	-0.58584 	265.308 	99.7398 	235.49 	285.838 	
35.1715 	0.208174 	-0.574973 	0.0532907 	2.83326 	0.953934 	-0.583298 	90.1786 	117.702 	-0.58584 	265.308 	99.7398 	235.49 	285.838 	
35.1815 	0.208174 	-0.574973 	0.0532907 	2.83326 	0.953934 	-0.583298 	90.1786 	117.702 	-0.58584 	265.308 	99.7398 	235.49 	285.838 	
35.1915 	0.208174 	-0.574973 	0.0532907 	2.83326 	0.953934 	-0.583298 	90.1786 	117.702 	-0.58584 	265.308 	99.7398 	235.49 	285.838 	
35.2015 	0.208174 	-0.574973 	0.0532907 	2.83326 	0.953934 	-0.583298 	90.1786 	117.702 	-0.58584 	265.308 	99.7398 	235.49 	285.838 	
35.2115 	0.208174 	-0.574973 	0.0532907 	2.83326 	0.953934 	-0.583298 	90.1786 	117.702 	-0.58584 	265.308 	99.7398 	235.49 	285.838 	
35.2215 	0.208174 	-0.574973 	0.0532907 	2.83326 	0.953934 	-0.583298 	90.1786 	117.702 	-0.58584 	265.308 	99.7398 	235.49 	285.838 	
35.2315 	0.208174 	-0.574973 	0.0532907 	2.83326 	0.953934 	-0.583298 	90.1786 	117.702 	-0.58584 	265.308 	99.7398 	235.49 	285.838 	
35.2415 	0.208174 	-0.574973 	0.0532907 	2.83326 	0.953934 	-0.583298 	90.1786 	117.702 	-0.58584 	265.308 	99.7398 	235.49 	285.838 	
35.2515 	0.208174 	-0.574973 	0.0532907 	2.83326 	0.953934 	-0.583298 	90.1786 	117.702 	-0.58584 	265.308 	99.7398 	235.49 	285.838 	
35.2614 	0.208174 	-0.574973 	0.0532907 	2.83326 	0.953934 	-0.583298 	90.1786 	117.702 	-0.58584 	265.308 	99.7398 	235.49 	285.838 	
35.2715 	0.208174 	-0.574973 	0.0532907 	2.83326 	0.953934 	-0.583298 	90.1786 	117.702 	-0.58584 	265.308 	99.7398 	235.49 	285.838 	
35.2815 	0.208174 	-0.574973 	0.0532907 	2.83326 	0.953934 	-0.583298 	90.1786 	117.702 	-0.58584 	265.308 	99.7398 	235.49 	285.838 	
35.2915 	0.208174 	-0.574973 	0.0532907 	2.83326 	0.953934 	-0.583298 	90.1786 	117.702 	-0.58584 	265.308 	99.7398 	235.49 	285.838 	
35.3014 	0.208174 	-0.574973 	0.0532907 	2.83326 	0.953934 	-0.583298 	90.1786 	117.702 	-0.58584 	265.308 	99.7398 	235.49 	285.838 	
35.3115 	0.208174 	-0.574973 	0.0532907 	2.83326 	0.953934 	-0.583298 	90.1786 	117.702 	-0.58584 	265.308 	99.7398 	235.49 	285.838 	
35.3215 	0.208174 	-0.574973 	0.0532907 	2.83326 	0.953934 	-0.583298 	90.1786 	117.702 	-0.58584 	265.308 	99.7398 	235.49 	285.838 	
35.3315 	0.208174 	-0.574973 	0.0532907 	2.83326 	0.953934 	-0.583298 	90.1786 	117.702 	-0.58584 	265.308 	99.7398 	235.49 	285.838 	
35.3415 	0.208174 	-0.574973 	0.0532907 	2.83326 	0.953934 	-0.583298 	90.1786 	117.702 	-0.58584 	265.308 	99.7398 	235.49 	285.838 	
35.3515 	0.208174 	-0.574973 	0.0532907 	2.83326 	0.953934 	-0.583298 	90.1786 	117.702 	-0.58584 	265.308 	99.7398 	235.49 	285.838 	
35.3615 	0.208174 	-0.574973 	0.0532907 	2.83326 	0.953934 	-0.583298 	90.1786 	117.702 	-0.58584 	265.308 	99.7398 	235.49 	285.838 	
35.3715 	0.208174 	-0.574973 	0.0532907 	2.83326 	0.953934 	-0.583298 	90.1786 	117.702 	-0.58584 	265.308 	99.7398 	235.49 	285.838 	
35.3815 	0.208174 	-0.574973 	0.0532907 	2.83326 	0.953934 	-0.583298 	90.1786 	117.702 	-0.58584 	265.308 	99.7398 	235.49 	285.838 	
35.3915 	0.208174 	-0.574973 	0.0532907 	2.83326 	0.953934 	-0.583298 	90.1786 	117.702 	-0.58584 	265.308 	99.7398 	235.49 	285.838 	
35.4015 	0.208174 	-0.574973 	0.0532907 	2.83326 	0.953934 	-0.583298 	90.1786 	117.702 	-0.58584 	265.308 	99.7398 	235.49 	285.838 	
35.4115 	0.208174 	-0.574973 	0.0532907 	2.83326 	0.953934 	-0.583298 	90.1786 	117.702 	-0.58584 	265.308 	99.7398 	235.49 	285.838 	
35.4215 	0.208174 	-0.574973 	0.0532907 	2.83326 	0.953934 	-0.583298 	90.1786 	117.702 	-0.58584 	265.308 	99.7398 	235.49 	285.838 	
35.4315 	0.208174 	-0.574973 	0.0532907 	2.83326 	0.953934 	-0.583298 	90.1786 	117.702 	-0.58584 	265.308 	99.7398 	235.49 	285.838 	
35.4415 	0.208174 	-0.574973 	0.0532907 	2.83326 	0.953934 	-0.583298 	90.1786 	117.702 	-0.58584 	265.308 	99.7398 	235.49 	285.838 	
35.4515 	0.208174 	-0.574973 	0.0532907 	2.83326 	0.953934 	-0.583298 	90.1786 	117.702 	-0.58584 	265.308 	99.7398 	235.49 	285.838 	
35.4615 	0.208174 	-0.574973 	0.0532907 	2.83326 	0.953934 	-0.583298 	90.1786 	117.702 	-0.58584 	265.308 	99.7398 	235.49 	285.838 	
35.4715 	0.208174 	-0.574973 	0.0532907 	2.83326 	0.953934 	-0.583298 	90.1786 	117.702 	-0.58584 	265.308 	99.7398 	235.49 	285.838 	
35.4815 	0.208174 	-0.574973 	0.0532907 	2.83326 	0.953934 	-0.583298 	90.1786 	117.702 	-0.58584 	265.308 	99.7398 	235.49 	285.838 	
35.4915 	0.208174 	-0.574973 	0.0532907 	2.83326 	0.953934 	-0.583298 	90.1786 	117.702 	-0.58584 	265.308 	99.7398 	235.49 	285.838 	
35.5015 	0.208174 	-0.574973 	0.0532907 	2.83326 	0.953934 	-0.583298 	90.1786 	117.702 	-0.58584 	265.308 	99.7398 	235.49 	285.838 	
35.5115 	0.208174 	-0.574973 	0.0532907 	2.83326 	0.953934 	-0.583298 	90.1786 	117.702 	-0.58584 	265.308 	99.7398 	235.49 	285.838 	
35.5215 	0.208174 	-0.574973 	0.0532907 	2.83326 	0.953934 	-0.583298 	90.1786 	117.702 	-0.58584 	265.308 	99.7398 	235.49 	285.838 	
35.5315 	0.208174 	-0.574973 	0.0532907 	2.83326 	0.953934 	-0.583298 	90.1786 	117.702 	-0.58584 	265.308 	99.7398 	235.49 	285.838 	
35.5415 	0.208174 	-0.574973 	0.0532907 	2.83326 	0.953934 	-0.583298 	90.1786 	117.702 	-0.58584 	265.308 	99.7398 	235.49 	285.838 	
35.5515 	0.208174 	-0.574973 	0.0532907 	2.83326 	0.953934 	-0.583298 	90.1786 	117.702 	-0.58584 	265.308 	99.7398 	235.49 	285.838 	
35.5615 	0.208174 	-0.574973 	0.0532907 	2.83326 	0.953934 	-0.583298 	90.1786 	117.702 	-0.58584 	265.308 	99.7398 	235.49 	285.838 	
35.5715 	0.208174 	-0.574973 	0.0532907 	2.83326 	0.953934 	-0.583298 	90.1786 	117.702 	-0.58584 	265.308 	99.7398 	235.49 	285.838 	
35.5815 	0.208174 	-0.574973 	0.0532907 	2.83326 	0.953934 	-0.583298 	90.1786 	117.702 	-0.58584 	265.308 	99.7398 	235.49 	285.838 	
35.5915 	0.208174 	-0.574973 	0.0532907 	2.83326 	0.953934 	-0.583298 	90.1786 	117.702 	-0.58584 	265.308 	99.7398 	235.49 	285.838 	
35.6015 	0.208174 	-0.574973 	0.0532907 	2.83326 	0.953934 	-0.583298 	90.1786 	117.702 	-0.58584 	265.308 	99.7398 	235.49 	285.838 	
35.6115 	0.208174 	-0.574973 	0.0532907 	2.83326 	0.953934 	-0.583298 	90.1786 	117.702 	-0.58584 	265.308 	99.7398 	235.49 	285.838 	
35.6215 	0.208174 	-0.574973 	0.0532907 	2.83326 	0.953934 	-0.583298 	90.1786 	117.702 	-0.58584 	265.308 	99.7398 	235.49 	285.838 	
35.6315 	0.208174 	-0.574973 	0.0532907 	2.83326 	0.953934 	-0.583298 	90.1786 	117.702 	-0.58584 	265.308 	99.7398 	235.49 	285.838 	
35.6415 	0.208174 	-0.574973 	0.0532907 	2.83326 	0.953934 	-0.583298 	90.1786 	117.702 	-0.58584 	265.308 	99.7398 	235.49 	285.838 	
35.6515 	0.208174 	-0.574973 	0.0532907 	2.83326 	0.953934 	-0.583298 	90.1786 	117.702 	-0.58584 	265.308 	99.7398 	235.49 	285.838 	
35.6615 	0.208174 	-0.574973 	0.0532907 	2.83326 	0.953934 	-0.583298 	90.1786 	117.702 	-0.58584 	265.308 	99.7398 	235.49 	285.838 	
35.6715 	0.208174 	-0.574973 	0.0532907 	2.83326 	0.953934 	-0.583298 	90.1786 	117.702 	-0.58584 	265.308 	99.7398 	235.49 	285.838 	
35.6815 	0.208174 	-0.574973 	0.0532907 	2.83326 	0.953934 	-0.583298 	90.1786 	117.702 	-0.58584 	265.308 	99.7398 	235.49 	285.838 	
35.6915 	0.208174 	-0.574973 	0.0532907 	2.83326 	0.953934 	-0.583298 	90.1786 	117.702 	-0.58584 	265.308 	99.7398 	235.49 	285.838 	
35.7015 	0.208174 	-0.574973 	0.0532907 	2.83326 	0.953934 	-0.583298 	90.1786 	117.702 	-0.58584 	265.308 	99.7398 	235.49 	285.838 	
35.7115 	0.208174 	-0.574973 	0.0532907 	2.83326 	0.953934 	-0.583298 	90.1786 	117.702 	-0.58584 	265.308 	99.7398 	235.49 	285.838 	
35.7215 	0.208174 	-0.574973 	0.0532907 	2.83326 	0.953934 	-0.583298 	90.1786 	117.702 	-0.58584 	265.308 	99.7398 	235.49 	285.838 	
35.7315 	0.208174 	-0.574973 	0.0532907 	2.83326 	0.953934 	-0.583298 	90.1786 	117.702 	-0.58584 	265.308 	99.7398 	235.49 	285.838 	
35.7415 	0.208174 	-0.574973 	0.0532907 	2.83326 	0.953934 	-0.583298 	90.1786 	117.702 	-0.58584 	265.308 	99.7398 	235.49 	285.838 	
35.7515 	0.208174 	-0.574973 	0.0532907 	2.83326 	0.953934 	-0.583298 	90.1786 	117.702 	-0.58584 	265.308 	99.7398 	235.49 	285.838 	
35.7615 	0.208174 	-0.574973 	0.0532907 	2.83326 	0.953934 	-0.583298 	90.1786 	117.702 	-0.58584 	265.308 	99.7398 	235.49 	285.838 	
35.7715 	0.208174 	-0.574973 	0.0532907 	2.83326 	0.953934 	-0.583298 	90.1786 	117.702 	-0.58584 	265.308 	99.7398 	235.49 	285.838 	
35.7815 	0.208174 	-0.574973 	0.0532907 	2.83326 	0.953934 	-0.583298 	90.1786 	117.702 	-0.58584 	265.308 	99.7398 	235.49 	285.838 	
35.7915 	0.208174 	-0.574973 	0.0532907 	2.83326 	0.953934 	-0.583298 	90.1786 	117.702 	-0.58584 	265.308 	99.7398 	235.49 	285.838 	
35.8015 	0.208174 	-0.574973 	0.0532907 	2.83326 	0.953934 	-0.583298 	90.1786 	117.702 	-0.58584 	265.308 	99.7398 	235.49 	285.838 	
35.8115 	0.208174 	-0.574973 	0.0532907 	2.83326 	0.953934 	-0.583298 	90.1786 	117.702 	-0.58584 	265.308 	99.7398 	235.49 	285.838 	
35.8215 	0.208174 	-0.574973 	0.0532907 	2.83326 	0.953934 	-0.583298 	90.1786 	117.702 	-0.58584 	265.308 	99.7398 	235.49 	285.838 	
35.8315 	0.208174 	-0.574973 	0.0532907 	2.83326 	0.953934 	-0.583298 	90.1786 	117.702 	-0.58584 	265.308 	99.7398 	235.49 	285.838 	
35.8415 	0.208174 	-0.574973 	0.0532907 	2.83326 	0.953934 	-0.583298 	90.1786 	117.702 	-0.58584 	265.308 	99.7398 	235.49 	285.838 	
35.8515 	0.208174 	-0.574973 	0.0532907 	2.83326 	0.953934 	-0.583298 	90.1786 	117.702 	-0.58584 	265.308 	99.7398 	235.49 	285.838 	
35.8615 	0.208174 	-0.574973 	0.0532907 	2.83326 	0.953934 	-0.583298 	90.1786 	117.702 	-0.58584 	265.308 	99.7398 	235.49 	285.838 	
35.8715 	0.208174 	-0.574973 	0.0532907 	2.83326 	0.953934 	-0.583298 	90.1786 	117.702 	-0.58584 	265.308 	99.7398 	235.49 	285.838 	
35.8815 	0.208174 	-0.574973 	0.0532907 	2.83326 	0.953934 	-0.583298 	90.1786 	117.702 	-0.58584 	265.308 	99.7398 	235.49 	285.838 	
35.8915 	0.208174 	-0.574973 	0.0532907 	2.83326 	0.953934 	-0.583298 	90.1786 	117.702 	-0.58584 	265.308 	99.7398 	235.49 	285.838 	
35.9015 	0.208174 	-0.574973 	0.0532907 	2.83326 	0.953934 	-0.583298 	90.1786 	117.702 	-0.58584 	265.308 	99.7398 	235.49 	285.838 	
35.9115 	0.208174 	-0.574973 	0.0532907 	2.83326 	0.953934 	-0.583298 	90.1786 	117.702 	-0.58584 	265.308 	99.7398 	235.49 	285.838 	
35.9215 	0.208174 	-0.574973 	0.0532907 	2.83326 	0.953934 	-0.583298 	90.1786 	117.702 	-0.58584 	265.308 	99.7398 	235.49 	285.838 	
35.9315 	0.208174 	-0.574973 	0.0532907 	2.83326 	0.953934 	-0.583298 	90.1786 	117.702 	-0.58584 	265.308 	99.7398 	235.49 	285.838 	
35.9415 	0.208174 	-0.574973 	0.0532907 	2.83326 	0.953934 	-0.583298 	90.1786 	117.702 	-0.58584 	265.308 	99.7398 	235.49 	285.838 	
35.9515 	0.208174 	-0.574973 	0.0532907 	2.83326 	0.953934 	-0.583298 	90.1786 	117.702 	-0.58584 	265.308 	99.7398 	235.49 	285.838 	
35.9615 	0.208174 	-0.574973 	0.0532907 	2.83326 	0.953934 	-0.583298 	90.1786 	117.702 	-0.58584 	265.308 	99.7398 	235.49 	285.838 	
35.9715 	0.208174 	-0.574973 	0.0532907 	2.83326 	0.953934 	-0.583298 	90.1786 	117.702 	-0.58584 	265.308 	99.7398 	235.49 	285.838 	
35.9815 	0.208174 	-0.574973 	0.0532907 	2.83326 	0.953934 	-0.583298 	90.1786 	117.702 	-0.58584 	265.308 	99.7398 	235.49 	285.838 	
35.9915 	0.208174 	-0.574973 	0.0532907 	2.83326 	0.953934 	-0.583298 	90.1786 	117.702 	-0.58584 	265.308 	99.7398 	235.49 	285.838 	
36.0015 	0.208174 	-0.574973 	0.0532907 	2.83326 	0.953934 	-0.583298 	90.1786 	117.702 	-0.58584 	265.308 	99.7398 	235.49 	285.838 	
36.0115 	0.208174 	-0.574973 	0.0532907 	2.83326 	0.953934 	-0.583298 	90.1786 	117.702 	-0.58584 	265.308 	99.7398 	235.49 	285.838 	
36.0215 	0.208174 	-0.574973 	0.0532907 	2.83326 	0.953934 	-0.583298 	90.1786 	117.702 	-0.58584 	265.308 	99.7398 	235.49 	285.838 	
36.0315 	0.208174 	-0.574973 	0.0532907 	2.83326 	0.953934 	-0.583298 	90.1786 	117.702 	-0.58584 	265.308 	99.7398 	235.49 	285.838 	
36.0415 	0.208174 	-0.574973 	0.0532907 	2.83326 	0.953934 	-0.583298 	90.1786 	117.702 	-0.58584 	265.308 	99.7398 	235.49 	285.838 	
36.0515 	0.208174 	-0.574973 	0.0532907 	2.83326 	0.953934 	-0.583298 	90.1786 	117.702 	-0.58584 	265.308 	99.7398 	235.49 	285.838 	
36.0615 	0.208174 	-0.574973 	0.0532907 	2.83326 	0.953934 	-0.583298 	90.1786 	117.702 	-0.58584 	265.308 	99.7398 	235.49 	285.838 	
36.0715 	0.208174 	-0.574973 	0.0532907 	2.83326 	0.953934 	-0.583298 	90.1786 	117.702 	-0.58584 	265.308 	99.7398 	235.49 	285.838 	
36.0815 	0.208174 	-0.574973 	0.0532907 	2.83326 	0.953934 	-0.583298 	90.1786 	117.702 	-0.58584 	265.308 	99.7398 	235.49 	285.838 	
36.0915 	0.208174 	-0.574973 	0.0532907 	2.83326 	0.953934 	-0.583298 	90.1786 	117.702 	-0.58584 	265.308 	99.7398 	235.49 	285.838 	
36.1015 	0.208174 	-0.574973 	0.0532907 	2.83326 	0.953934 	-0.583298 	90.1786 	117.702 	-0.58584 	265.308 	99.7398 	235.49 	285.838 	
36.1115 	0.208174 	-0.574973 	0.0532907 	2.83326 	0.953934 	-0.583298 	90.1786 	117.702 	-0.58584 	265.308 	99.7398 	235.49 	285.838 	
36.1215 	0.208174 	-0.574973 	0.0532907 	2.83326 	0.953934 	-0.583298 	90.1786 	117.702 	-0.58584 	265.308 	99.7398 	235.49 	285.838 	
36.1315 	0.208174 	-0.574973 	0.0532907 	2.83326 	0.953934 	-0.583298 	90.1786 	117.702 	-0.58584 	265.308 	99.7398 	235.49 	285.838 	
36.1415 	0.208174 	-0.574973 	0.0532907 	2.83326 	0.953934 	-0.583298 	90.1786 	117.702 	-0.58584 	265.308 	99.7398 	235.49 	285.838 	
36.1515 	0.208174 	-0.574973 	0.0532907 	2.83326 	0.953934 	-0.583298 	90.1786 	117.702 	-0.58584 	265.308 	99.7398 	235.49 	285.838 	
36.1615 	0.208174 	-0.574973 	0.0532907 	2.83326 	0.953934 	-0.583298 	90.1786 	117.702 	-0.58584 	265.308 	99.7398 	235.49 	285.838 	
36.1715 	0.208174 	-0.574973 	0.0532907 	2.83326 	0.953934 	-0.583298 	90.1786 	117.702 	-0.58584 	265.308 	99.7398 	235.49 	285.838 	
36.1815 	0.208174 	-0.574973 	0.0532907 	2.83326 	0.953934 	-0.583298 	90.1786 	117.702 	-0.58584 	265.308 	99.7398 	235.49 	285.838 	
36.1915 	0.208174 	-0.574973 	0.0532907 	2.83326 	0.953934 	-0.583298 	90.1786 	117.702 	-0.58584 	265.308 	99.7398 	235.49 	285.838 	
36.2015 	0.208174 	-0.574973 	0.0532907 	2.83326 	0.953934 	-0.583298 	90.1786 	117.702 	-0.58584 	265.308 	99.7398 	235.49 	285.838 	
36.2115 	0.208174 	-0.574973 	0.0532907 	2.83326 	0.953934 	-0.583298 	90.1786 	117.702 	-0.58584 	265.308 	99.7398 	235.49 	285.838 	
36.2215 	0.208174 	-0.574973 	0.0532907 	2.83326 	0.953934 	-0.583298 	90.1786 	117.702 	-0.58584 	265.308 	99.7398 	235.49 	285.838 	
36.2315 	0.208174 	-0.574973 	0.0532907 	2.83326 	0.953934 	-0.583298 	90.1786 	117.702 	-0.58584 	265.308 	99.7398 	235.49 	285.838 	
36.2415 	0.208174 	-0.574973 	0.0532907 	2.83326 	0.953934 	-0.583298 	90.1786 	117.702 	-0.58584 	265.308 	99.7398 	235.49 	285.838 	
36.2515 	0.208174 	-0.574973 	0.0532907 	2.83326 	0.953934 	-0.583298 	90.1786 	117.702 	-0.58584 	265.308 	99.7398 	235.49 	285.838 	
36.2615 	0.208174 	-0.574973 	0.0532907 	2.83326 	0.953934 	-0.583298 	90.1786 	117.702 	-0.58584 	265.308 	99.7398 	235.49 	285.838 	
36.2715 	0.208174 	-0.574973 	0.0532907 	2.83326 	0.953934 	-0.583298 	90.1786 	117.702 	-0.58584 	265.308 	99.7398 	235.49 	285.838 	
36.2815 	0.208174 	-0.574973 	0.0532907 	2.83326 	0.953934 	-0.583298 	90.1786 	117.702 	-0.58584 	265.308 	99.7398 	235.49 	285.838 	
36.2915 	0.208174 	-0.574973 	0.0532907 	2.83326 	0.953934 	-0.583298 	90.1786 	117.702 	-0.58584 	265.308 	99.7398 	235.49 	285.838 	
36.3015 	0.208174 	-0.574973 	0.0532907 	2.83326 	0.953934 	-0.583298 	90.1786 	117.702 	-0.58584 	265.308 	99.7398 	235.49 	285.838 	
36.3115 	0.208174 	-0.574973 	0.0532907 	2.83326 	0.953934 	-0.583298 	90.1786 	117.702 	-0.58584 	265.308 	99.7398 	235.49 	285.838 	
36.3215 	0.208174 	-0.574973 	0.0532907 	2.83326 	0.953934 	-0.583298 	90.1786 	117.702 	-0.58584 	265.308 	99.7398 	235.49 	285.838 	
36.3315 	0.208174 	-0.574973 	0.0532907 	2.83326 	0.953934 	-0.583298 	90.1786 	117.702 	-0.58584 	265.308 	99.7398 	235.49 	285.838 	
36.3415 	0.208174 	-0.574973 	0.0532907 	2.83326 	0.953934 	-0.583298 	90.1786 	117.702 	-0.58584 	265.308 	99.7398 	235.49 	285.838 	
36.3515 	0.208174 	-0.574973 	0.0532907 	2.83326 	0.953934 	-0.583298 	90.1786 	117.702 	-0.58584 	265.308 	99.7398 	235.49 	285.838 	
36.3615 	0.208174 	-0.574973 	0.0532907 	2.83326 	0.953934 	-0.583298 	90.1786 	117.702 	-0.58584 	265.308 	99.7398 	235.49 	285.838 	
36.3715 	0.208174 	-0.574973 	0.0532907 	2.83326 	0.953934 	-0.583298 	90.1786 	117.702 	-0.58584 	265.308 	99.7398 	235.49 	285.838 	
36.3815 	0.208174 	-0.574973 	0.0532907 	2.83326 	0.953934 	-0.583298 	90.1786 	117.702 	-0.58584 	265.308 	99.7398 	235.49 	285.838 	
36.3915 	0.208174 	-0.574973 	0.0532907 	2.83326 	0.953934 	-0.583298 	90.1786 	117.702 	-0.58584 	265.308 	99.7398 	235.49 	285.838 	
36.4015 	0.208174 	-0.574973 	0.0532907 	2.83326 	0.953934 	-0.583298 	90.1786 	117.702 	-0.58584 	265.308 	99.7398 	235.49 	285.838 	
36.4115 	0.208174 	-0.574973 	0.0532907 	2.83326 	0.953934 	-0.583298 	90.1786 	117.702 	-0.58584 	265.308 	99.7398 	235.49 	285.838 	
36.4215 	0.208174 	-0.574973 	0.0532907 	2.83326 	0.953934 	-0.583298 	90.1786 	117.702 	-0.58584 	265.308 	99.7398 	235.49 	285.838 	
36.4315 	0.208174 	-0.574973 	0.0532907 	2.83326 	0.953934 	-0.583298 	90.1786 	117.702 	-0.58584 	265.308 	99.7398 	235.49 	285.838 	
36.4415 	0.208174 	-0.574973 	0.0532907 	2.83326 	0.953934 	-0.583298 	90.1786 	117.702 	-0.58584 	265.308 	99.7398 	235.49 	285.838 	
36.4515 	0.208174 	-0.574973 	0.0532907 	2.83326 	0.953934 	-0.583298 	90.1786 	117.702 	-0.58584 	265.308 	99.7398 	235.49 	285.838 	
36.4615 	0.208174 	-0.574973 	0.0532907 	2.83326 	0.953934 	-0.583298 	90.1786 	117.702 	-0.58584 	265.308 	99.7398 	235.49 	285.838 	
36.4715 	0.208174 	-0.574973 	0.0532907 	2.83326 	0.953934 	-0.583298 	90.1786 	117.702 	-0.58584 	265.308 	99.7398 	235.49 	285.838 	
36.4815 	0.208174 	-0.574973 	0.0532907 	2.83326 	0.953934 	-0.583298 	90.1786 	117.702 	-0.58584 	265.308 	99.7398 	235.49 	285.838 	
36.4915 	0.208174 	-0.574973 	0.0532907 	2.83326 	0.953934 	-0.583298 	90.1786 	117.702 	-0.58584 	265.308 	99.7398 	235.49 	285.838 	
36.5015 	0.208174 	-0.574973 	0.0532907 	2.83326 	0.953934 	-0.583298 	90.1786 	117.702 	-0.58584 	265.308 	99.7398 	235.49 	285.838 	
36.5115 	0.208174 	-0.574973 	0.0532907 	2.83326 	0.953934 	-0.583298 	90.1786 	117.702 	-0.58584 	265.308 	99.7398 	235.49 	285.838 	
36.5215 	0.208174 	-0.574973 	0.0532907 	2.83326 	0.953934 	-0.583298 	90.1786 	117.702 	-0.58584 	265.308 	99.7398 	235.49 	285.838 	
36.5315 	0.208174 	-0.574973 	0.0532907 	2.83326 	0.953934 	-0.583298 	90.1786 	117.702 	-0.58584 	265.308 	99.7398 	235.49 	285.838 	
36.5415 	0.208174 	-0.574973 	0.0532907 	2.83326 	0.953934 	-0.583298 	90.1786 	117.702 	-0.58584 	265.308 	99.7398 	235.49 	285.838 	
36.5515 	0.208174 	-0.574973 	0.0532907 	2.83326 	0.953934 	-0.583298 	90.1786 	117.702 	-0.58584 	265.308 	99.7398 	235.49 	285.838 	
36.5615 	0.208174 	-0.574973 	0.0532907 	2.83326 	0.953934 	-0.583298 	90.1786 	117.702 	-0.58584 	265.308 	99.7398 	235.49 	285.838 	
36.5715 	0.208174 	-0.574973 	0.0532907 	2.83326 	0.953934 	-0.583298 	90.1786 	117.702 	-0.58584 	265.308 	99.7398 	235.49 	285.838 	
36.5815 	0.208174 	-0.574973 	0.0532907 	2.83326 	0.953934 	-0.583298 	90.1786 	117.702 	-0.58584 	265.308 	99.7398 	235.49 	285.838 	
36.5915 	0.208174 	-0.574973 	0.0532907 	2.83326 	0.953934 	-0.583298 	90.1786 	117.702 	-0.58584 	265.308 	99.7398 	235.49 	285.838 	
36.6015 	0.208174 	-0.574973 	0.0532907 	2.83326 	0.953934 	-0.583298 	90.1786 	117.702 	-0.58584 	265.308 	99.7398 	235.49 	285.838 	
36.6115 	0.208174 	-0.574973 	0.0532907 	2.83326 	0.953934 	-0.583298 	90.1786 	117.702 	-0.58584 	265.308 	99.7398 	235.49 	285.838 	
36.6215 	0.208174 	-0.574973 	0.0532907 	2.83326 	0.953934 	-0.583298 	90.1786 	117.702 	-0.58584 	265.308 	99.7398 	235.49 	285.838 	
36.6315 	0.208174 	-0.574973 	0.0532907 	2.83326 	0.953934 	-0.583298 	90.1786 	117.702 	-0.58584 	265.308 	99.7398 	235.49 	285.838 	
36.6414 	0.208174 	-0.574973 	0.0532907 	2.83326 	0.953934 	-0.583298 	90.1786 	117.702 	-0.58584 	265.308 	99.7398 	235.49 	285.838 	
36.6515 	0.208174 	-0.574973 	0.0532907 	2.83326 	0.953934 	-0.583298 	90.1786 	117.702 	-0.58584 	265.308 	99.7398 	235.49 	285.838 	
36.6615 	0.208174 	-0.574973 	0.0532907 	2.83326 	0.953934 	-0.583298 	90.1786 	117.702 	-0.58584 	265.308 	99.7398 	235.49 	285.838 	
36.6715 	0.208174 	-0.574973 	0.0532907 	2.83326 	0.953934 	-0.583298 	90.1786 	117.702 	-0.58584 	265.308 	99.7398 	235.49 	285.838 	
36.6814 	0.208174 	-0.574973 	0.0532907 	2.83326 	0.953934 	-0.583298 	90.1786 	117.702 	-0.58584 	265.308 	99.7398 	235.49 	285.838 	
36.6915 	0.208174 	-0.574973 	0.0532907 	2.83326 	0.953934 	-0.583298 	90.1786 	117.702 	-0.58584 	265.308 	99.7398 	235.49 	285.838 	
36.7015 	0.208174 	-0.574973 	0.0532907 	2.83326 	0.953934 	-0.583298 	90.1786 	117.702 	-0.58584 	265.308 	99.7398 	235.49 	285.838 	
36.7115 	0.208174 	-0.574973 	0.0532907 	2.83326 	0.953934 	-0.583298 	90.1786 	117.702 	-0.58584 	265.308 	99.7398 	235.49 	285.838 	
36.7215 	0.208174 	-0.574973 	0.0532907 	2.83326 	0.953934 	-0.583298 	90.1786 	117.702 	-0.58584 	265.308 	99.7398 	235.49 	285.838 	
36.7315 	0.208174 	-0.574973 	0.0532907 	2.83326 	0.953934 	-0.583298 	90.1786 	117.702 	-0.58584 	265.308 	99.7398 	235.49 	285.838 	
36.7414 	0.208174 	-0.574973 	0.0532907 	2.83326 	0.953934 	-0.583298 	90.1786 	117.702 	-0.58584 	265.308 	99.7398 	235.49 	285.838 	
36.7515 	0.208174 	-0.574973 	0.0532907 	2.83326 	0.953934 	-0.583298 	90.1786 	117.702 	-0.58584 	265.308 	99.7398 	235.49 	285.838 	
36.7615 	0.208174 	-0.574973 	0.0532907 	2.83326 	0.953934 	-0.583298 	90.1786 	117.702 	-0.58584 	265.308 	99.7398 	235.49 	285.838 	
36.7715 	0.208174 	-0.574973 	0.0532907 	2.83326 	0.953934 	-0.583298 	90.1786 	117.702 	-0.58584 	265.308 	99.7398 	235.49 	285.838 	
36.7815 	0.208174 	-0.574973 	0.0532907 	2.83326 	0.953934 	-0.583298 	90.1786 	117.702 	-0.58584 	265.308 	99.7398 	235.49 	285.838 	
36.7915 	0.208174 	-0.574973 	0.0532907 	2.83326 	0.953934 	-0.583298 	90.1786 	117.702 	-0.58584 	265.308 	99.7398 	235.49 	285.838 	
36.8015 	0.208174 	-0.574973 	0.0532907 	2.83326 	0.953934 	-0.583298 	90.1786 	117.702 	-0.58584 	265.308 	99.7398 	235.49 	285.838 	
36.8115 	0.208174 	-0.574973 	0.0532907 	2.83326 	0.953934 	-0.583298 	90.1786 	117.702 	-0.58584 	265.308 	99.7398 	235.49 	285.838 	
36.8215 	0.208174 	-0.574973 	0.0532907 	2.83326 	0.953934 	-0.583298 	90.1786 	117.702 	-0.58584 	265.308 	99.7398 	235.49 	285.838 	
36.8314 	0.208174 	-0.574973 	0.0532907 	2.83326 	0.953934 	-0.583298 	90.1786 	117.702 	-0.58584 	265.308 	99.7398 	235.49 	285.838 	
36.8415 	0.208174 	-0.574973 	0.0532907 	2.83326 	0.953934 	-0.583298 	90.1786 	117.702 	-0.58584 	265.308 	99.7398 	235.49 	285.838 	
36.8515 	0.208174 	-0.574973 	0.0532907 	2.83326 	0.953934 	-0.583298 	90.1786 	117.702 	-0.58584 	265.308 	99.7398 	235.49 	285.838 	
36.8615 	0.208174 	-0.574973 	0.0532907 	2.83326 	0.953934 	-0.583298 	90.1786 	117.702 	-0.58584 	265.308 	99.7398 	235.49 	285.838 	
36.8715 	0.208174 	-0.574973 	0.0532907 	2.83326 	0.953934 	-0.583298 	90.1786 	117.702 	-0.58584 	265.308 	99.7398 	235.49 	285.838 	
36.8815 	0.208174 	-0.574973 	0.0532907 	2.83326 	0.953934 	-0.583298 	90.1786 	117.702 	-0.58584 	265.307 	99.7398 	235.49 	285.838 	
36.8915 	0.208174 	-0.574973 	0.0532907 	2.83326 	0.953934 	-0.583298 	90.1786 	117.702 	-0.58584 	265.307 	99.7398 	235.49 	285.838 	
36.9015 	0.208174 	-0.574973 	0.0532907 	2.83326 	0.953934 	-0.583298 	90.1786 	117.702 	-0.58584 	265.307 	99.7398 	235.49 	285.838 	
36.9115 	0.208174 	-0.574973 	0.0532907 	2.83326 	0.953934 	-0.583298 	90.1786 	117.702 	-0.58584 	265.307 	99.7398 	235.49 	285.838 	
36.9215 	0.208174 	-0.574973 	0.0532907 	2.83326 	0.953934 	-0.583298 	90.1786 	117.702 	-0.58584 	265.307 	99.7398 	235.49 	285.838 	
36.9315 	0.208174 	-0.574973 	0.0532907 	2.83326 	0.953934 	-0.583298 	90.1786 	117.702 	-0.58584 	265.307 	99.7398 	235.49 	285.838 	
36.9414 	0.208174 	-0.574973 	0.0532907 	2.83326 	0.953934 	-0.583298 	90.1786 	117.702 	-0.58584 	265.307 	99.7398 	235.49 	285.838 	
36.9515 	0.208174 	-0.574973 	0.0532907 	2.83326 	0.953934 	-0.583298 	90.1786 	117.702 	-0.58584 	265.307 	99.7398 	235.49 	285.838 	
36.9615 	0.208174 	-0.574973 	0.0532907 	2.83326 	0.953934 	-0.583298 	90.1786 	117.702 	-0.58584 	265.307 	99.7398 	235.49 	285.838 	
36.9715 	0.208174 	-0.574973 	0.0532907 	2.83326 	0.953934 	-0.583298 	90.1786 	117.702 	-0.58584 	265.307 	99.7398 	235.49 	285.838 	
36.9815 	0.208174 	-0.574973 	0.0532907 	2.83326 	0.953934 	-0.583298 	90.1786 	117.702 	-0.58584 	265.307 	99.7398 	235.49 	285.838 	
36.9915 	0.208174 	-0.574973 	0.0532907 	2.83326 	0.953934 	-0.583298 	90.1786 	117.702 	-0.58584 	265.307 	99.7398 	235.49 	285.838 	
37.0015 	0.208174 	-0.574973 	0.0532907 	2.83326 	0.953934 	-0.583298 	90.1786 	117.702 	-0.58584 	265.307 	99.7398 	235.49 	285.838 	
37.0115 	0.208174 	-0.574973 	0.0532907 	2.83326 	0.953934 	-0.583298 	90.1786 	117.702 	-0.58584 	265.307 	99.7398 	235.49 	285.838 	
37.0215 	0.208174 	-0.574973 	0.0532907 	2.83326 	0.953934 	-0.583298 	90.1786 	117.702 	-0.58584 	265.307 	99.7398 	235.49 	285.838 	
37.0315 	0.208174 	-0.574973 	0.0532907 	2.83326 	0.953934 	-0.583298 	90.1786 	117.702 	-0.58584 	265.307 	99.7398 	235.49 	285.838 	
37.0415 	0.208174 	-0.574973 	0.0532907 	2.83326 	0.953934 	-0.583298 	90.1786 	117.702 	-0.58584 	265.307 	99.7398 	235.49 	285.838 	
37.0515 	0.208174 	-0.574973 	0.0532907 	2.83326 	0.953934 	-0.583298 	90.1786 	117.702 	-0.58584 	265.307 	99.7398 	235.49 	285.838 	
37.0615 	0.208174 	-0.574973 	0.0532907 	2.83326 	0.953934 	-0.583298 	90.1786 	117.702 	-0.58584 	265.307 	99.7398 	235.49 	285.838 	
37.0716 	0.208174 	-0.574973 	0.0532907 	2.83326 	0.953934 	-0.583298 	90.1786 	117.702 	-0.58584 	265.307 	99.7398 	235.49 	285.838 	
37.0815 	0.208174 	-0.574973 	0.0532907 	2.83326 	0.953934 	-0.583298 	90.1786 	117.702 	-0.58584 	265.307 	99.7398 	235.49 	285.838 	
37.0915 	0.208174 	-0.574973 	0.0532907 	2.83326 	0.953934 	-0.583298 	90.1786 	117.702 	-0.58584 	265.307 	99.7398 	235.49 	285.838 	
37.1015 	0.208174 	-0.574973 	0.0532907 	2.83326 	0.953934 	-0.583298 	90.1786 	117.702 	-0.58584 	265.307 	99.7398 	235.49 	285.838 	
37.1115 	0.208174 	-0.574973 	0.0532907 	2.83326 	0.953934 	-0.583298 	90.1786 	117.702 	-0.58584 	265.307 	99.7398 	235.49 	285.838 	
37.1215 	0.208174 	-0.574973 	0.0532907 	2.83326 	0.953934 	-0.583298 	90.1786 	117.702 	-0.58584 	265.307 	99.7398 	235.49 	285.838 	
37.1315 	0.208174 	-0.574973 	0.0532907 	2.83326 	0.953934 	-0.583298 	90.1786 	117.702 	-0.58584 	265.307 	99.7398 	235.49 	285.838 	
37.1415 	0.208174 	-0.574973 	0.0532907 	2.83326 	0.953934 	-0.583298 	90.1786 	117.702 	-0.58584 	265.307 	99.7398 	235.49 	285.838 	
37.1515 	0.208174 	-0.574973 	0.0532907 	2.83326 	0.953934 	-0.583298 	90.1786 	117.702 	-0.58584 	265.307 	99.7398 	235.49 	285.838 	
37.1615 	0.208174 	-0.574973 	0.0532907 	2.83326 	0.953934 	-0.583298 	90.1786 	117.702 	-0.58584 	265.307 	99.7398 	235.49 	285.838 	
37.1715 	0.208174 	-0.574973 	0.0532907 	2.83326 	0.953934 	-0.583298 	90.1786 	117.702 	-0.58584 	265.307 	99.7398 	235.49 	285.838 	
37.1816 	0.208174 	-0.574973 	0.0532907 	2.83326 	0.953934 	-0.583298 	90.1786 	117.702 	-0.58584 	265.307 	99.7399 	235.49 	285.838 	
37.1915 	0.208174 	-0.574973 	0.0532907 	2.83326 	0.953934 	-0.583298 	90.1786 	117.702 	-0.58584 	265.307 	99.7399 	235.49 	285.838 	
37.2015 	0.208174 	-0.574973 	0.0532907 	2.83326 	0.953934 	-0.583298 	90.1786 	117.702 	-0.58584 	265.307 	99.7399 	235.49 	285.838 	
37.2115 	0.208174 	-0.574973 	0.0532907 	2.83326 	0.953934 	-0.583298 	90.1786 	117.702 	-0.58584 	265.307 	99.7399 	235.49 	285.838 	
37.2215 	0.208174 	-0.574973 	0.0532907 	2.83326 	0.953934 	-0.583298 	90.1786 	117.702 	-0.58584 	265.307 	99.7399 	235.49 	285.838 	
37.2315 	0.208174 	-0.574973 	0.0532907 	2.83326 	0.953934 	-0.583298 	90.1786 	117.702 	-0.58584 	265.307 	99.7399 	235.49 	285.838 	
37.2415 	0.208174 	-0.574973 	0.0532907 	2.83326 	0.953934 	-0.583298 	90.1786 	117.702 	-0.58584 	265.307 	99.7399 	235.49 	285.838 	
37.2515 	0.208174 	-0.574973 	0.0532907 	2.83326 	0.953934 	-0.583298 	90.1786 	117.702 	-0.58584 	265.307 	99.7399 	235.49 	285.838 	
37.2615 	0.208174 	-0.574973 	0.0532907 	2.83326 	0.953934 	-0.583298 	90.1786 	117.702 	-0.58584 	265.307 	99.7399 	235.49 	285.838 	
37.2715 	0.208174 	-0.574973 	0.0532907 	2.83326 	0.953934 	-0.583298 	90.1786 	117.702 	-0.58584 	265.307 	99.7399 	235.49 	285.838 	
37.2815 	0.208174 	-0.574973 	0.0532907 	2.83326 	0.953934 	-0.583298 	90.1786 	117.702 	-0.58584 	265.307 	99.7399 	235.49 	285.838 	
37.2915 	0.208174 	-0.574973 	0.0532907 	2.83326 	0.953934 	-0.583298 	90.1786 	117.702 	-0.58584 	265.307 	99.7399 	235.49 	285.838 	
37.3015 	0.208174 	-0.574973 	0.0532907 	2.83326 	0.953934 	-0.583298 	90.1786 	117.702 	-0.58584 	265.307 	99.7399 	235.49 	285.838 	
37.3115 	0.208174 	-0.574973 	0.0532907 	2.83326 	0.953934 	-0.583298 	90.1786 	117.702 	-0.58584 	265.307 	99.7399 	235.49 	285.838 	
37.3215 	0.208174 	-0.574973 	0.0532907 	2.83326 	0.953934 	-0.583298 	90.1786 	117.702 	-0.58584 	265.307 	99.7399 	235.49 	285.838 	
37.3314 	0.208174 	-0.574973 	0.0532907 	2.83326 	0.953934 	-0.583298 	90.1786 	117.702 	-0.58584 	265.307 	99.7399 	235.49 	285.838 	
37.3414 	0.208174 	-0.574973 	0.0532907 	2.83326 	0.953934 	-0.583298 	90.1786 	117.702 	-0.58584 	265.307 	99.7399 	235.49 	285.838 	
