RISC-NYUAD/HeavyPayloadDrone/projects/kinova-ros/devel/lib/ne_kinova_demo/VulcanTrajectory/Vulcan1_Vicon_y19m11d14h14min33.csv
time (NSec) 	Kinova Tip Position (t_x) 	t_y 	t_z 	Kinova Tip Angle (theta_x) 	Kinova Tip Angle (theta_y) 	Kinova Tip Angle (theta_z) 	Kinova Joint Angle (j1) 	(j2) 	(j3) 	(j4) 	Kinova Joint Angle (j5) 	(j6) 	(j7)
0.0264521 	-0.00383036 	-0.485763 	-0.243215 	1.76538 	0.0102515 	-3.10831 	90.1274 	63.1656 	-0.603711 	268.904 	360.829 	285.138 	539.208 	
0.0687797 	-0.0038306 	-0.485937 	-0.243052 	1.76505 	0.0102515 	-3.10866 	90.1274 	63.1659 	-0.603711 	268.904 	360.829 	285.138 	539.209 	
0.0880401 	-0.0038306 	-0.485937 	-0.243052 	1.76505 	0.0102515 	-3.10866 	90.1274 	63.1658 	-0.603711 	268.904 	360.829 	285.138 	539.209 	
0.191635 	-0.00381493 	-0.486901 	-0.241233 	1.7654 	0.0103148 	-3.11668 	90.1274 	63.3797 	-0.603711 	269.108 	360.829 	285.138 	539.432 	
0.294806 	-0.00376783 	-0.490098 	-0.234831 	1.76539 	0.0105086 	-3.12535 	90.1273 	64.3461 	-0.603809 	269.92 	360.829 	285.138 	539.686 	
0.397778 	-0.00372142 	-0.493184 	-0.228375 	1.76539 	0.0107033 	-3.1253 	90.1274 	65.3034 	-0.603711 	270.988 	360.829 	285.138 	539.695 	
0.5008 	-0.00367573 	-0.496157 	-0.221866 	1.76539 	0.0108989 	-3.12525 	90.1274 	66.3154 	-0.603711 	271.979 	360.829 	285.138 	539.696 	
0.603655 	-0.00363075 	-0.499015 	-0.215306 	1.76539 	0.0110953 	-3.12521 	90.1274 	67.3207 	-0.603711 	272.982 	360.829 	285.138 	539.697 	
0.707115 	-0.00358652 	-0.501759 	-0.208697 	1.76539 	0.0112924 	-3.12517 	90.1274 	68.4144 	-0.603711 	274.075 	360.829 	285.138 	539.698 	
0.809663 	-0.00354304 	-0.504386 	-0.202042 	1.76539 	0.0114901 	-3.12513 	90.1268 	69.4247 	-0.603809 	275.076 	360.829 	285.138 	539.698 	
0.912627 	-0.00350033 	-0.506898 	-0.195341 	1.76539 	0.0116885 	-3.1251 	90.1197 	70.4143 	-0.603516 	276.072 	360.829 	285.138 	539.699 	
1.01553 	-0.00345839 	-0.509291 	-0.188598 	1.76539 	0.0118874 	-3.12507 	90.1239 	71.5312 	-0.603418 	277.18 	360.829 	285.138 	539.699 	
1.11875 	-0.00341725 	-0.511567 	-0.181814 	1.76539 	0.0120868 	-3.12505 	90.1262 	72.5439 	-0.603809 	278.173 	360.829 	285.138 	539.699 	
1.22196 	-0.00337691 	-0.513724 	-0.174991 	1.76539 	0.0122866 	-3.12502 	90.1246 	73.546 	-0.604102 	279.176 	360.829 	285.138 	539.699 	
1.32466 	-0.00333738 	-0.515762 	-0.168132 	1.76539 	0.0124868 	-3.125 	90.1245 	74.6229 	-0.603613 	280.183 	360.829 	285.138 	539.7 	
1.42774 	-0.00329869 	-0.517679 	-0.161238 	1.76539 	0.0126872 	-3.12499 	90.1245 	75.6688 	-0.603516 	281.274 	360.829 	285.138 	539.7 	
1.53107 	-0.00326083 	-0.519477 	-0.154311 	1.76539 	0.0128879 	-3.12498 	90.1241 	76.7147 	-0.603906 	282.269 	360.829 	285.138 	539.7 	
1.63907 	-0.00322383 	-0.521152 	-0.147355 	1.76539 	0.0130888 	-3.12497 	90.1241 	77.8337 	-0.603711 	283.372 	360.829 	285.138 	539.7 	
1.74177 	-0.00318769 	-0.522707 	-0.14037 	1.76539 	0.0132898 	-3.12496 	90.1249 	78.7904 	-0.603418 	284.378 	360.829 	285.138 	539.7 	
1.84495 	-0.00315242 	-0.524138 	-0.133359 	1.76539 	0.0134908 	-3.12496 	90.1265 	79.8748 	-0.603027 	285.386 	360.829 	285.138 	539.7 	
1.9476 	-0.00311804 	-0.525448 	-0.126324 	1.76539 	0.0136919 	-3.12496 	90.1268 	80.8546 	-0.603027 	286.487 	360.829 	285.138 	539.7 	
2.05229 	-0.00308455 	-0.526634 	-0.119268 	1.76539 	0.0138929 	-3.12497 	90.1269 	81.8655 	-0.603125 	287.476 	360.829 	285.138 	539.7 	
2.15649 	-0.0030203 	-0.528637 	-0.105098 	1.76539 	0.0142944 	-3.12499 	90.1268 	82.9571 	-0.603418 	288.573 	360.829 	285.138 	539.7 	
2.25912 	-0.00298956 	-0.529452 	-0.0979889 	1.76539 	0.0144948 	-3.12501 	90.1239 	83.934 	-0.603906 	289.58 	360.829 	285.138 	539.7 	
2.36257 	-0.00295976 	-0.530144 	-0.0908666 	1.76539 	0.0146948 	-3.12503 	90.1217 	84.8845 	-0.604297 	290.584 	360.829 	285.138 	539.7 	
2.46608 	-0.00293089 	-0.53071 	-0.0837336 	1.76539 	0.0148946 	-3.12505 	90.1217 	85.9425 	-0.604004 	291.686 	360.829 	285.138 	539.7 	
2.5722 	-0.00290298 	-0.531153 	-0.0765915 	1.76539 	0.0150938 	-3.12508 	90.1214 	86.99 	-0.604102 	292.679 	360.829 	285.138 	539.7 	
2.67562 	-0.00287603 	-0.53147 	-0.069443 	1.7654 	0.0152926 	-3.12511 	90.1254 	88.1631 	-0.603613 	293.773 	360.829 	285.138 	539.7 	
2.77868 	-0.00285005 	-0.531663 	-0.06229 	1.7654 	0.0154909 	-3.12514 	90.1252 	89.1913 	-0.603613 	294.781 	360.829 	285.138 	539.7 	
2.88158 	-0.00282504 	-0.531731 	-0.0551347 	1.7654 	0.0156885 	-3.12518 	90.1247 	90.1931 	-0.603613 	295.777 	360.829 	285.138 	539.7 	
2.98458 	-0.00280102 	-0.531674 	-0.0479793 	1.7654 	0.0158854 	-3.12522 	90.1203 	91.3116 	-0.603613 	296.781 	360.829 	285.138 	539.7 	
3.0876 	-0.00277799 	-0.531492 	-0.040826 	1.7654 	0.0160816 	-3.12526 	90.1211 	92.2768 	-0.603223 	297.881 	360.829 	285.138 	539.7 	
3.1907 	-0.00275596 	-0.531185 	-0.0336768 	1.7654 	0.016277 	-3.12531 	90.1257 	93.2564 	-0.603516 	298.892 	360.829 	285.138 	539.7 	
3.29379 	-0.00273493 	-0.530754 	-0.0265343 	1.7654 	0.0164716 	-3.12536 	90.1186 	94.237 	-0.604199 	299.894 	360.829 	285.138 	539.7 	
3.39689 	-0.00271492 	-0.530198 	-0.0194003 	1.7654 	0.0166652 	-3.12541 	90.1044 	95.3351 	-0.605176 	300.989 	360.829 	285.138 	539.7 	
3.49959 	-0.00269592 	-0.529518 	-0.0122771 	1.7654 	0.0168579 	-3.12547 	90.1028 	96.3703 	-0.604688 	301.982 	360.829 	285.138 	539.7 	
3.60281 	-0.00267795 	-0.528713 	-0.00516681 	1.7654 	0.0170495 	-3.12553 	90.1058 	97.3656 	-0.604297 	302.983 	360.829 	285.138 	539.7 	
3.70565 	-0.00266101 	-0.527784 	0.00192839 	1.76541 	0.0172401 	-3.1256 	90.0986 	98.4538 	-0.604395 	304.09 	360.829 	285.138 	539.7 	
3.80871 	-0.0026451 	-0.526732 	0.00900608 	1.76541 	0.0174295 	-3.12566 	90.0986 	99.4005 	-0.604395 	305.089 	360.829 	285.138 	539.7 	
3.91177 	-0.00263023 	-0.525556 	0.0160646 	1.76541 	0.0176176 	-3.12573 	90.099 	100.374 	-0.60459 	306.088 	360.829 	285.138 	539.7 	
4.01479 	-0.00261641 	-0.524257 	0.0231013 	1.76541 	0.0178046 	-3.12581 	90.0964 	101.483 	-0.604785 	307.097 	360.829 	285.138 	539.7 	
4.11777 	-0.00260363 	-0.522836 	0.0301144 	1.76541 	0.0179902 	-3.12589 	90.0921 	102.519 	-0.60498 	308.196 	360.829 	285.138 	539.7 	
4.22099 	-0.0025919 	-0.521293 	0.0371016 	1.76541 	0.0181744 	-3.12597 	90.0922 	103.541 	-0.605078 	309.205 	360.829 	285.138 	539.7 	
4.32345 	-0.00258123 	-0.519627 	0.0440608 	1.76541 	0.0183572 	-3.12605 	90.0925 	104.568 	-0.60498 	310.201 	360.829 	285.138 	539.7 	
4.4269 	-0.00257162 	-0.517841 	0.0509898 	1.76542 	0.0185385 	-3.12614 	90.0914 	105.646 	-0.605176 	311.288 	360.829 	285.138 	539.7 	
4.52993 	-0.00256307 	-0.515934 	0.0578866 	1.76542 	0.0187182 	-3.12623 	90.0915 	106.624 	-0.605078 	312.293 	360.829 	285.138 	539.7 	
4.63911 	-0.00255559 	-0.513907 	0.0647492 	1.76542 	0.0188964 	-3.12632 	90.0914 	107.702 	-0.60498 	313.391 	360.829 	285.138 	539.7 	
4.74153 	-0.00254859 	-0.511539 	0.0722558 	1.76542 	0.0190904 	-3.12643 	90.0919 	108.675 	-0.604785 	314.385 	360.829 	285.138 	539.7 	
4.84457 	-0.00254382 	-0.509495 	0.0783628 	1.76542 	0.0192477 	-3.12652 	90.0917 	109.813 	-0.60498 	315.385 	360.829 	285.138 	539.7 	
4.94746 	-0.00253954 	-0.507111 	0.0851098 	1.76543 	0.0194207 	-3.12662 	90.0914 	110.829 	-0.605176 	316.482 	360.829 	285.138 	539.7 	
5.05158 	-0.00253633 	-0.50461 	0.0918142 	1.76543 	0.0195919 	-3.12672 	90.0917 	111.863 	-0.604883 	317.226 	360.829 	285.138 	539.7 	
5.15581 	-0.00253817 	-0.505635 	0.0998389 	1.75438 	0.0196514 	-3.12678 	90.093 	112.925 	-0.604688 	317.348 	360.829 	285.138 	539.7 	
5.25825 	-0.0025463 	-0.511457 	0.117592 	1.71948 	0.0196434 	-3.12683 	90.0945 	113.916 	-0.604492 	317.371 	360.829 	285.138 	539.7 	
5.36021 	-0.00255004 	-0.514135 	0.126542 	1.70203 	0.01964 	-3.12685 	90.096 	114.919 	-0.604297 	317.391 	360.829 	285.138 	539.7 	
5.46315 	-0.00255356 	-0.516656 	0.135538 	1.68457 	0.019637 	-3.12688 	90.0975 	115.91 	-0.604492 	317.393 	360.829 	285.138 	539.7 	
5.48921 	-0.00255356 	-0.516656 	0.135538 	1.68457 	0.019637 	-3.12688 	90.0976 	116.21 	-0.604395 	317.393 	360.829 	285.138 	539.7 	
5.59261 	-0.00255812 	-0.520173 	0.143386 	1.66572 	0.0195833 	-3.12687 	90.0976 	117.032 	-0.604199 	317.193 	360.829 	285.138 	539.7 	
5.6958 	-0.00256699 	-0.526783 	0.150714 	1.63954 	0.0194092 	-3.1268 	90.0979 	117.549 	-0.604199 	316.291 	360.829 	285.138 	539.7 	
5.7987 	-0.00257544 	-0.532211 	0.153593 	1.62209 	0.0192348 	-3.12672 	90.098 	117.608 	-0.604199 	315.317 	360.829 	285.138 	539.7 	
5.90177 	-0.00258505 	-0.537588 	0.156567 	1.60463 	0.0190591 	-3.12665 	90.0984 	117.635 	-0.604004 	314.308 	360.829 	285.138 	539.7 	
6.00482 	-0.00259582 	-0.542912 	0.159634 	1.58718 	0.0188821 	-3.12657 	90.1015 	117.643 	-0.603711 	313.301 	360.829 	285.138 	539.7 	
6.10762 	-0.00260775 	-0.548182 	0.162793 	1.56972 	0.0187039 	-3.12651 	90.1046 	117.652 	-0.603125 	312.193 	360.829 	285.138 	539.7 	
6.21077 	-0.00262084 	-0.553396 	0.166044 	1.55227 	0.0185245 	-3.12644 	90.1107 	117.66 	-0.600488 	311.184 	360.829 	285.138 	539.7 	
6.31387 	-0.00263507 	-0.558552 	0.169385 	1.53482 	0.0183439 	-3.12638 	90.1233 	117.661 	-0.599121 	310.188 	360.829 	285.138 	539.701 	
6.41643 	-0.00265045 	-0.563649 	0.172815 	1.51736 	0.0181623 	-3.12632 	90.1344 	117.661 	-0.598828 	309.081 	360.829 	285.138 	539.701 	
6.51956 	-0.00266697 	-0.568686 	0.176335 	1.49991 	0.0179797 	-3.12626 	90.1356 	117.662 	-0.59873 	308.085 	360.829 	285.138 	539.701 	
6.62281 	-0.00268463 	-0.57366 	0.179941 	1.48245 	0.0177961 	-3.12621 	90.1357 	117.662 	-0.598828 	307.079 	360.829 	285.138 	539.701 	
6.7256 	-0.00270341 	-0.57857 	0.183634 	1.465 	0.0176117 	-3.12616 	90.1363 	117.662 	-0.598633 	305.98 	360.829 	285.138 	539.701 	
6.82849 	-0.00272332 	-0.583416 	0.187412 	1.44754 	0.0174263 	-3.12611 	90.1478 	117.681 	-0.59707 	304.977 	360.829 	285.138 	539.701 	
6.932 	-0.00274436 	-0.588195 	0.191274 	1.43009 	0.0172402 	-3.12607 	90.1489 	117.69 	-0.596387 	303.969 	360.829 	285.138 	539.701 	
7.03914 	-0.0027665 	-0.592905 	0.195218 	1.41264 	0.0170534 	-3.12603 	90.149 	117.69 	-0.596289 	302.873 	360.829 	285.138 	539.701 	
7.14254 	-0.00278975 	-0.597546 	0.199245 	1.39518 	0.0168659 	-3.12599 	90.1491 	117.69 	-0.596191 	301.859 	360.829 	285.138 	539.701 	
7.24732 	-0.00281409 	-0.602116 	0.203351 	1.37773 	0.0166778 	-3.12596 	90.1509 	117.69 	-0.595801 	300.758 	360.829 	285.138 	539.701 	
7.35129 	-0.00283953 	-0.606614 	0.207537 	1.36027 	0.0164891 	-3.12593 	90.1517 	117.69 	-0.595508 	299.76 	360.829 	285.138 	539.701 	
7.45747 	-0.00289364 	-0.615387 	0.216141 	1.32537 	0.0161102 	-3.12587 	90.152 	117.69 	-0.59541 	298.652 	360.829 	285.138 	539.701 	
7.56043 	-0.00292231 	-0.619659 	0.220557 	1.30791 	0.0159202 	-3.12585 	90.1546 	117.691 	-0.594727 	297.644 	360.829 	285.138 	539.701 	
7.66348 	-0.00295203 	-0.623854 	0.225046 	1.29046 	0.0157299 	-3.12584 	90.1743 	117.695 	-0.59209 	296.642 	360.829 	285.138 	539.701 	
7.76678 	-0.0029828 	-0.62797 	0.229608 	1.27301 	0.0155392 	-3.12582 	90.1771 	117.695 	-0.591699 	295.535 	360.829 	285.138 	539.701 	
7.87353 	-0.00301461 	-0.632005 	0.234241 	1.25555 	0.0153484 	-3.12581 	90.1802 	117.695 	-0.591211 	294.529 	360.829 	285.138 	539.701 	
7.97643 	-0.00304745 	-0.635959 	0.238944 	1.2381 	0.0151574 	-3.1258 	90.182 	117.695 	-0.591016 	293.427 	360.829 	285.138 	539.701 	
8.07961 	-0.00308131 	-0.63983 	0.243715 	1.22065 	0.0149663 	-3.1258 	90.1833 	117.697 	-0.59082 	292.427 	360.829 	285.138 	539.701 	
8.18272 	-0.00311617 	-0.643618 	0.248553 	1.20319 	0.0147752 	-3.1258 	90.1844 	117.698 	-0.590723 	291.416 	360.829 	285.138 	539.701 	
8.28539 	-0.00315204 	-0.64732 	0.253456 	1.18574 	0.0145841 	-3.1258 	90.185 	117.698 	-0.590723 	290.316 	360.829 	285.138 	539.701 	
8.3885 	-0.0031889 	-0.650937 	0.258423 	1.16829 	0.014393 	-3.12581 	90.1852 	117.698 	-0.590723 	289.317 	360.829 	285.138 	539.701 	
8.4916 	-0.00322673 	-0.654466 	0.263452 	1.15083 	0.0142021 	-3.12582 	90.1854 	117.699 	-0.590625 	288.315 	360.829 	285.138 	539.701 	
8.5949 	-0.00326553 	-0.657906 	0.268543 	1.13338 	0.0140114 	-3.12583 	90.1859 	117.699 	-0.59043 	287.31 	360.829 	285.138 	539.701 	
8.69727 	-0.00330528 	-0.661258 	0.273692 	1.11593 	0.013821 	-3.12585 	90.1859 	117.699 	-0.590527 	286.21 	360.829 	285.138 	539.701 	
8.80061 	-0.00334597 	-0.664519 	0.278899 	1.09847 	0.0136309 	-3.12587 	90.186 	117.701 	-0.590527 	285.198 	360.829 	285.138 	539.701 	
8.90366 	-0.00338759 	-0.667688 	0.284163 	1.08102 	0.0134411 	-3.12589 	90.1859 	117.705 	-0.590625 	284.193 	360.829 	285.138 	539.701 	
9.00708 	-0.00343013 	-0.670766 	0.289481 	1.06357 	0.0132517 	-3.12592 	90.1858 	117.715 	-0.590723 	283.096 	360.829 	285.138 	539.701 	
9.10947 	-0.00347357 	-0.673749 	0.294851 	1.04611 	0.0130629 	-3.12595 	90.1858 	117.728 	-0.590723 	282.095 	360.829 	285.138 	539.701 	
9.21269 	-0.00351791 	-0.676639 	0.300273 	1.02866 	0.0128745 	-3.12598 	90.186 	117.736 	-0.590625 	281.079 	360.829 	285.138 	539.701 	
9.31579 	-0.00356311 	-0.679434 	0.305745 	1.01121 	0.0126868 	-3.12601 	90.1861 	117.739 	-0.590527 	279.976 	360.829 	285.138 	539.701 	
9.41882 	-0.00360918 	-0.682133 	0.311265 	0.993756 	0.0124997 	-3.12605 	90.186 	117.739 	-0.590527 	278.981 	360.829 	285.138 	539.701 	
9.5216 	-0.0036561 	-0.684735 	0.31683 	0.976303 	0.0123134 	-3.1261 	90.186 	117.739 	-0.590625 	277.969 	360.829 	285.138 	539.701 	
9.62469 	-0.00370386 	-0.687239 	0.322441 	0.95885 	0.0121278 	-3.12614 	90.1859 	117.74 	-0.590723 	276.975 	360.829 	285.138 	539.701 	
9.7277 	-0.00375243 	-0.689645 	0.328094 	0.941398 	0.011943 	-3.12619 	90.1859 	117.741 	-0.590723 	275.862 	360.829 	285.138 	539.701 	
9.83074 	-0.00380181 	-0.691952 	0.333788 	0.923945 	0.0117592 	-3.12624 	90.186 	117.741 	-0.590625 	274.85 	360.829 	285.138 	539.701 	
9.9386 	-0.00385198 	-0.69416 	0.339522 	0.906492 	0.0115762 	-3.1263 	90.186 	117.741 	-0.590625 	273.758 	360.829 	285.138 	539.701 	
10.0414 	-0.00390292 	-0.696267 	0.345294 	0.88904 	0.0113943 	-3.12636 	90.1859 	117.741 	-0.59082 	272.751 	360.829 	285.138 	539.701 	
10.1446 	-0.00395463 	-0.698273 	0.351101 	0.871587 	0.0112134 	-3.12642 	90.1859 	117.742 	-0.59082 	271.749 	360.829 	285.138 	539.701 	
10.2502 	-0.00400707 	-0.700177 	0.356942 	0.854135 	0.0110336 	-3.12648 	90.1859 	117.743 	-0.59082 	270.652 	360.829 	285.138 	539.701 	
10.3534 	-0.00411414 	-0.703678 	0.36872 	0.819229 	0.0106775 	-3.12662 	90.1859 	117.743 	-0.59082 	269.647 	360.829 	285.138 	539.701 	
10.4572 	-0.00416872 	-0.705274 	0.374653 	0.801777 	0.0105014 	-3.1267 	90.1859 	117.744 	-0.590918 	268.536 	360.829 	285.138 	539.701 	
10.5606 	-0.00422398 	-0.706766 	0.380613 	0.784324 	0.0103265 	-3.12677 	90.1859 	117.744 	-0.59082 	267.54 	360.829 	285.138 	539.701 	
10.6632 	-0.0042799 	-0.708154 	0.386598 	0.766872 	0.0101531 	-3.12685 	90.1858 	117.744 	-0.590918 	266.528 	360.829 	285.138 	539.701 	
10.7666 	-0.00433646 	-0.709437 	0.392607 	0.749419 	0.00998103 	-3.12694 	90.1854 	117.745 	-0.591016 	265.424 	360.829 	285.138 	539.701 	
10.8733 	-0.00439365 	-0.710615 	0.398637 	0.731967 	0.00981048 	-3.12702 	90.185 	117.745 	-0.591211 	264.429 	360.829 	285.138 	539.701 	
10.9767 	-0.00445146 	-0.711688 	0.404686 	0.714514 	0.00964146 	-3.12711 	90.185 	117.745 	-0.591211 	263.311 	360.829 	285.138 	539.701 	
11.0795 	-0.00450985 	-0.712655 	0.410754 	0.697062 	0.00947402 	-3.1272 	90.1846 	117.745 	-0.591309 	262.322 	360.829 	285.138 	539.701 	
11.1825 	-0.00456882 	-0.713516 	0.416837 	0.679609 	0.00930821 	-3.1273 	90.1843 	117.746 	-0.591309 	261.314 	360.829 	285.138 	539.701 	
11.2855 	-0.00462834 	-0.71427 	0.422934 	0.662157 	0.00914409 	-3.1274 	90.184 	117.747 	-0.591406 	260.198 	360.829 	285.138 	539.701 	
11.3883 	-0.00468841 	-0.714918 	0.429044 	0.644705 	0.00898171 	-3.1275 	90.177 	117.766 	-0.591797 	259.198 	360.829 	285.138 	539.701 	
11.4916 	-0.00474899 	-0.71546 	0.435164 	0.627252 	0.00882111 	-3.1276 	90.1773 	117.789 	-0.591699 	258.186 	360.829 	285.138 	539.701 	
11.5946 	-0.00481008 	-0.715894 	0.441292 	0.6098 	0.00866234 	-3.12771 	90.1752 	117.792 	-0.591992 	257.179 	360.829 	285.138 	539.701 	
11.6975 	-0.00487165 	-0.716221 	0.447428 	0.592348 	0.00850545 	-3.12782 	90.1752 	117.794 	-0.591895 	256.078 	360.829 	285.137 	539.701 	
11.8008 	-0.00493368 	-0.716442 	0.453568 	0.574895 	0.00835049 	-3.12793 	90.1743 	117.794 	-0.591992 	255.088 	360.829 	285.137 	539.701 	
11.9036 	-0.00499616 	-0.716554 	0.45971 	0.557443 	0.00819751 	-3.12804 	90.149 	117.797 	-0.593652 	254.085 	360.829 	285.137 	539.701 	
12.0065 	-0.00505906 	-0.71656 	0.465854 	0.539991 	0.00804655 	-3.12816 	90.1386 	117.797 	-0.595117 	252.985 	360.829 	285.137 	539.701 	
12.1096 	-0.00512237 	-0.716459 	0.471997 	0.522538 	0.00789766 	-3.12828 	90.1413 	117.798 	-0.594336 	251.974 	360.829 	285.137 	539.701 	
12.2125 	-0.00518607 	-0.71625 	0.478138 	0.505086 	0.00775088 	-3.1284 	90.1422 	117.799 	-0.594434 	250.969 	360.829 	285.137 	539.701 	
12.3155 	-0.00525013 	-0.715934 	0.484273 	0.487634 	0.00760626 	-3.12853 	90.1378 	117.798 	-0.59541 	249.878 	360.829 	285.136 	539.701 	
12.4187 	-0.00531455 	-0.715511 	0.490403 	0.470181 	0.00746385 	-3.12866 	90.1371 	117.798 	-0.595605 	248.881 	360.829 	285.136 	539.701 	
12.5215 	-0.0053793 	-0.714982 	0.496523 	0.452729 	0.00732368 	-3.12879 	90.1372 	117.798 	-0.595508 	247.877 	360.829 	285.136 	539.701 	
12.6246 	-0.00544435 	-0.714345 	0.502634 	0.435276 	0.0071858 	-3.12892 	90.1372 	117.799 	-0.595508 	246.871 	360.829 	285.136 	539.701 	
12.7278 	-0.00550969 	-0.713602 	0.508733 	0.417824 	0.00705025 	-3.12905 	90.1372 	117.799 	-0.595605 	245.778 	360.829 	285.136 	539.701 	
12.8309 	-0.00557531 	-0.712753 	0.514818 	0.400372 	0.00691707 	-3.12919 	90.1371 	117.799 	-0.595605 	244.768 	360.829 	285.136 	539.701 	
12.9388 	-0.00564117 	-0.711797 	0.520887 	0.382919 	0.00678631 	-3.12933 	90.137 	117.801 	-0.595605 	243.66 	360.829 	285.136 	539.701 	
13.0414 	-0.00570727 	-0.710736 	0.526938 	0.365467 	0.00665799 	-3.12947 	90.1365 	117.802 	-0.595703 	242.668 	360.829 	285.136 	539.701 	
13.1444 	-0.00577357 	-0.709569 	0.53297 	0.348015 	0.00653218 	-3.12962 	90.1368 	117.802 	-0.595508 	241.669 	360.829 	285.136 	539.701 	
13.2473 	-0.00584006 	-0.708297 	0.538981 	0.330562 	0.00640889 	-3.12976 	90.1371 	117.803 	-0.59541 	240.571 	360.829 	285.135 	539.701 	
13.35 	-0.00590673 	-0.706921 	0.544969 	0.31311 	0.00628817 	-3.12991 	90.1373 	117.803 	-0.59541 	239.565 	360.829 	285.135 	539.701 	
13.4535 	-0.00597354 	-0.70544 	0.550931 	0.295658 	0.00617005 	-3.13006 	90.1373 	117.803 	-0.59541 	238.564 	360.829 	285.135 	539.701 	
13.5571 	-0.00610752 	-0.702167 	0.562775 	0.260753 	0.00594177 	-3.13037 	90.1373 	117.803 	-0.59541 	237.459 	360.829 	285.135 	539.701 	
13.6604 	-0.00617466 	-0.700376 	0.568652 	0.2433 	0.00583168 	-3.13052 	90.1373 	117.803 	-0.59541 	236.457 	360.829 	285.135 	539.701 	
13.7633 	-0.00624186 	-0.698483 	0.574497 	0.225848 	0.00572433 	-3.13068 	90.1372 	117.804 	-0.59541 	235.457 	360.829 	285.135 	539.701 	
13.8665 	-0.00630911 	-0.696488 	0.580307 	0.208396 	0.00561976 	-3.13084 	90.1375 	117.804 	-0.595312 	234.354 	360.829 	285.134 	539.701 	
13.9733 	-0.00637638 	-0.694392 	0.586083 	0.190943 	0.00551799 	-3.131 	90.1377 	117.804 	-0.595312 	233.362 	360.829 	285.134 	539.701 	
14.0764 	-0.00644367 	-0.692195 	0.59182 	0.173491 	0.00541907 	-3.13117 	90.1403 	117.804 	-0.595312 	232.259 	360.829 	285.134 	539.701 	
14.1794 	-0.00651093 	-0.689899 	0.597519 	0.156038 	0.00532301 	-3.13133 	90.1402 	117.804 	-0.595312 	231.258 	360.829 	285.134 	539.701 	
14.2827 	-0.00657816 	-0.687503 	0.603176 	0.138586 	0.00522985 	-3.1315 	90.1406 	117.804 	-0.595215 	230.256 	360.829 	285.134 	539.701 	
14.3857 	-0.00664534 	-0.685009 	0.608791 	0.121133 	0.00513962 	-3.13167 	90.1399 	117.804 	-0.595312 	229.156 	360.829 	285.134 	539.701 	
14.4884 	-0.00671244 	-0.682418 	0.614362 	0.103681 	0.00505234 	-3.13184 	90.1401 	117.805 	-0.595215 	228.15 	360.829 	285.133 	539.701 	
14.5914 	-0.00677944 	-0.679729 	0.619886 	0.0862286 	0.00496804 	-3.13201 	90.1415 	117.817 	-0.595117 	227.15 	360.829 	285.133 	539.701 	
14.6944 	-0.00684633 	-0.676945 	0.625363 	0.0687761 	0.00488675 	-3.13218 	90.1436 	117.82 	-0.595215 	226.158 	360.829 	285.133 	539.701 	
14.7972 	-0.00691307 	-0.674065 	0.63079 	0.0513236 	0.00480849 	-3.13236 	90.1452 	117.82 	-0.59502 	225.063 	360.829 	285.133 	539.701 	
14.9005 	-0.00697967 	-0.671091 	0.636166 	0.0338711 	0.00473329 	-3.13253 	90.1448 	117.822 	-0.595117 	224.052 	360.829 	285.133 	539.701 	
15.0034 	-0.00704608 	-0.668024 	0.64149 	0.0164185 	0.00466116 	-3.13271 	90.144 	117.825 	-0.595215 	223.051 	360.829 	285.133 	539.701 	
15.1066 	-0.00711229 	-0.664864 	0.646759 	-0.00103397 	0.00459213 	-3.13289 	90.1445 	117.825 	-0.595117 	221.949 	360.829 	285.133 	539.701 	
15.2095 	-0.00717829 	-0.661613 	0.651972 	-0.0184862 	0.00452623 	-3.13307 	90.14 	117.825 	-0.595312 	220.957 	360.829 	285.132 	539.701 	
15.3124 	-0.00724404 	-0.658272 	0.657127 	-0.0359388 	0.00446347 	-3.13325 	90.1403 	117.825 	-0.595312 	219.959 	360.829 	285.132 	539.701 	
15.4156 	-0.00730954 	-0.654841 	0.662224 	-0.0533913 	0.00440386 	-3.13343 	90.1421 	117.825 	-0.595215 	218.858 	360.829 	285.131 	539.701 	
15.5186 	-0.00737476 	-0.651321 	0.667259 	-0.0708438 	0.00434743 	-3.13361 	90.1432 	117.826 	-0.595215 	217.859 	360.829 	285.131 	539.701 	
15.6214 	-0.00743969 	-0.647714 	0.672233 	-0.0882963 	0.0042942 	-3.13379 	90.1435 	117.826 	-0.595215 	216.856 	360.829 	285.131 	539.701 	
15.7244 	-0.00750429 	-0.644021 	0.677143 	-0.105749 	0.00424418 	-3.13398 	90.1442 	117.826 	-0.595215 	215.856 	360.829 	285.131 	539.701 	
15.8276 	-0.00756855 	-0.640242 	0.681988 	-0.123202 	0.00419739 	-3.13416 	90.1443 	117.826 	-0.595215 	214.756 	360.829 	285.13 	539.701 	
15.9307 	-0.00763246 	-0.63638 	0.686766 	-0.140654 	0.00415384 	-3.13435 	90.1442 	117.826 	-0.595215 	213.75 	360.829 	285.107 	539.701 	
16.0388 	-0.00769599 	-0.632435 	0.691476 	-0.158107 	0.00411355 	-3.13454 	90.1441 	117.826 	-0.595215 	212.659 	360.829 	285.079 	539.701 	
16.1427 	-0.00775913 	-0.628408 	0.696116 	-0.175559 	0.00407652 	-3.13472 	90.1441 	117.826 	-0.595215 	211.654 	360.829 	285.065 	539.701 	
16.2461 	-0.00782185 	-0.624301 	0.700685 	-0.193012 	0.00404277 	-3.13491 	90.1441 	117.826 	-0.595215 	210.552 	360.829 	285.062 	539.701 	
16.3501 	-0.00794597 	-0.615851 	0.709605 	-0.227917 	0.00398513 	-3.13529 	90.1441 	117.826 	-0.595215 	209.562 	360.829 	285.061 	539.701 	
16.4531 	-0.00800733 	-0.61151 	0.713953 	-0.245369 	0.00396127 	-3.13548 	90.1441 	117.826 	-0.595215 	208.563 	360.829 	285.06 	539.701 	
16.5565 	-0.00806819 	-0.607094 	0.718225 	-0.262822 	0.00394073 	-3.13567 	90.1441 	117.826 	-0.595215 	207.459 	360.829 	285.059 	539.701 	
16.6591 	-0.00812855 	-0.602604 	0.722419 	-0.280274 	0.0039235 	-3.13586 	90.144 	117.826 	-0.595215 	206.461 	360.829 	285.058 	539.701 	
16.7621 	-0.00818838 	-0.598042 	0.726534 	-0.297727 	0.0039096 	-3.13605 	90.1439 	117.826 	-0.595215 	205.46 	360.829 	285.057 	539.701 	
16.8655 	-0.00824767 	-0.593408 	0.730568 	-0.315179 	0.00389902 	-3.13624 	90.1439 	117.826 	-0.595215 	204.367 	360.829 	285.056 	539.701 	
16.9734 	-0.00830639 	-0.588705 	0.734522 	-0.332632 	0.00389178 	-3.13643 	90.1439 	117.826 	-0.595215 	203.359 	360.829 	285.055 	539.701 	
17.0763 	-0.00836452 	-0.583934 	0.738392 	-0.350085 	0.00388787 	-3.13662 	90.1439 	117.826 	-0.595215 	202.26 	360.829 	285.054 	539.701 	
17.1793 	-0.00842206 	-0.579096 	0.742179 	-0.367537 	0.0038873 	-3.13682 	90.1439 	117.826 	-0.595215 	201.268 	360.829 	285.053 	539.701 	
17.2827 	-0.00847898 	-0.574192 	0.74588 	-0.38499 	0.00389006 	-3.13701 	90.1439 	117.826 	-0.595215 	200.271 	360.829 	285.052 	539.701 	
17.3854 	-0.00853527 	-0.569224 	0.749496 	-0.402442 	0.00389616 	-3.1372 	90.144 	117.826 	-0.595215 	199.162 	360.829 	285.05 	539.701 	
17.4885 	-0.0085909 	-0.564194 	0.753024 	-0.419895 	0.00390559 	-3.13739 	90.144 	117.826 	-0.595215 	198.165 	360.829 	285.032 	539.701 	
17.5916 	-0.00864587 	-0.559104 	0.756464 	-0.437348 	0.00391835 	-3.13758 	90.1439 	117.826 	-0.595215 	197.173 	360.829 	285.022 	539.701 	
17.6943 	-0.00870015 	-0.553954 	0.759814 	-0.4548 	0.00393444 	-3.13777 	90.1439 	117.826 	-0.595215 	196.17 	360.829 	285.009 	539.701 	
17.7974 	-0.00875372 	-0.548746 	0.763074 	-0.472253 	0.00395385 	-3.13796 	90.1439 	117.826 	-0.595215 	195.068 	360.829 	285.004 	539.701 	
17.9004 	-0.00880658 	-0.543482 	0.766243 	-0.489705 	0.00397657 	-3.13815 	90.1439 	117.826 	-0.595215 	194.073 	360.829 	285.002 	539.701 	
18.0035 	-0.0088587 	-0.538164 	0.76932 	-0.507158 	0.0040026 	-3.13834 	90.144 	117.826 	-0.595215 	193.086 	360.829 	285 	539.701 	
18.1066 	-0.00891008 	-0.532793 	0.772303 	-0.52461 	0.00403194 	-3.13853 	90.1439 	117.826 	-0.595312 	191.986 	360.829 	284.997 	539.701 	
18.2095 	-0.00896069 	-0.527371 	0.775192 	-0.542063 	0.00406456 	-3.13872 	90.1439 	117.826 	-0.595312 	190.982 	360.829 	284.996 	539.701 	
18.3124 	-0.00901051 	-0.521898 	0.777985 	-0.559515 	0.00410046 	-3.1389 	90.1439 	117.826 	-0.595312 	189.979 	360.829 	284.995 	539.701 	
18.4156 	-0.00905954 	-0.516379 	0.780683 	-0.576968 	0.00413964 	-3.13909 	90.144 	117.826 	-0.595312 	188.885 	360.829 	284.994 	539.701 	
18.5185 	-0.00910776 	-0.510812 	0.783284 	-0.594421 	0.00418208 	-3.13928 	90.1441 	117.826 	-0.595312 	187.886 	360.829 	284.992 	539.701 	
18.6215 	-0.00915515 	-0.505202 	0.785788 	-0.611873 	0.00422776 	-3.13946 	90.1438 	117.826 	-0.595312 	186.887 	360.829 	284.991 	539.701 	
18.7245 	-0.0092017 	-0.499548 	0.788193 	-0.629325 	0.00427667 	-3.13965 	90.142 	117.826 	-0.595312 	185.896 	360.829 	284.991 	539.701 	
18.8277 	-0.00924739 	-0.493853 	0.790499 	-0.646778 	0.0043288 	-3.13983 	90.1434 	117.826 	-0.595312 	184.779 	360.829 	284.989 	539.701 	
18.9306 	-0.00929222 	-0.488119 	0.792706 	-0.66423 	0.00438413 	-3.14001 	90.1442 	117.826 	-0.595312 	183.79 	360.829 	284.986 	539.701 	
19.0385 	-0.00933617 	-0.482347 	0.794812 	-0.681683 	0.00444265 	-3.1402 	90.144 	117.826 	-0.595312 	182.708 	360.829 	284.969 	539.701 	
19.1426 	-0.00937921 	-0.47654 	0.796817 	-0.699136 	0.00450433 	-3.14038 	90.1439 	117.826 	-0.595312 	181.715 	360.829 	284.946 	539.701 	
19.2462 	-0.00942135 	-0.470698 	0.79872 	-0.716588 	0.00456916 	-3.14056 	90.144 	117.826 	-0.595312 	180.604 	360.829 	284.939 	539.701 	
19.3512 	-0.00946257 	-0.464824 	0.800522 	-0.734041 	0.00463712 	-3.14074 	90.144 	117.826 	-0.595312 	179.616 	360.829 	284.936 	539.701 	
19.4555 	-0.00950285 	-0.458919 	0.80222 	-0.751493 	0.00470818 	-3.14091 	90.144 	117.826 	-0.595312 	178.526 	360.829 	284.934 	539.701 	
19.5593 	-0.00954219 	-0.452986 	0.803815 	-0.768945 	0.00478233 	-3.14109 	90.1439 	117.826 	-0.595312 	177.53 	360.829 	284.934 	539.701 	
19.6626 	-0.00961797 	-0.44104 	0.806693 	-0.80385 	0.0049398 	-3.14144 	90.144 	117.826 	-0.59541 	176.524 	360.829 	284.933 	539.701 	
19.7656 	-0.0096544 	-0.435031 	0.807975 	-0.821303 	0.00502307 	3.14158 	90.1439 	117.825 	-0.59541 	175.438 	360.829 	284.933 	539.701 	
19.8736 	-0.00968983 	-0.429001 	0.809153 	-0.838755 	0.00510932 	3.14141 	90.1439 	117.826 	-0.59541 	174.438 	360.829 	284.932 	539.701 	
19.9766 	-0.00972426 	-0.422951 	0.810224 	-0.856208 	0.00519854 	3.14124 	90.1439 	117.825 	-0.59541 	173.341 	360.829 	284.931 	539.701 	
20.0793 	-0.00975767 	-0.416883 	0.81119 	-0.87366 	0.0052907 	3.14107 	90.144 	117.825 	-0.59541 	172.338 	360.829 	284.931 	539.701 	
20.1826 	-0.00979006 	-0.4108 	0.81205 	-0.891113 	0.00538577 	3.1409 	90.1439 	117.825 	-0.59541 	171.343 	360.829 	284.931 	539.701 	
20.2856 	-0.00982142 	-0.404702 	0.812804 	-0.908565 	0.00548371 	3.14074 	90.1439 	117.825 	-0.59541 	170.251 	360.829 	284.93 	539.701 	
20.3882 	-0.00985173 	-0.398592 	0.813451 	-0.926017 	0.0055845 	3.14058 	90.1439 	117.825 	-0.59541 	169.254 	360.829 	284.93 	539.701 	
20.4913 	-0.00988099 	-0.392472 	0.813992 	-0.94347 	0.00568812 	3.14042 	90.1439 	117.825 	-0.59541 	168.261 	360.829 	284.929 	539.701 	
20.5945 	-0.00990919 	-0.386343 	0.814425 	-0.960922 	0.00579452 	3.14026 	90.1439 	117.825 	-0.59541 	167.266 	360.829 	284.929 	539.701 	
20.6974 	-0.00993632 	-0.380207 	0.814752 	-0.978375 	0.00590367 	3.1401 	90.1439 	117.825 	-0.59541 	166.17 	360.829 	284.929 	539.701 	
20.8004 	-0.00996236 	-0.374067 	0.814971 	-0.995827 	0.00601555 	3.13995 	90.1439 	117.825 	-0.59541 	165.176 	360.829 	284.928 	539.701 	
20.9034 	-0.00998733 	-0.367924 	0.815083 	-1.01328 	0.00613011 	3.13979 	90.144 	117.825 	-0.59541 	164.178 	360.829 	284.928 	539.701 	
21.0062 	-0.0100112 	-0.36178 	0.815088 	-1.03073 	0.00624733 	3.13964 	90.1439 	117.825 	-0.59541 	163.077 	360.829 	284.928 	539.701 	
21.1094 	-0.010034 	-0.355637 	0.814986 	-1.04818 	0.00636716 	3.13949 	90.1439 	117.825 	-0.595508 	162.079 	360.829 	284.927 	539.701 	
21.2123 	-0.0100556 	-0.349496 	0.814777 	-1.06564 	0.00648957 	3.13935 	90.1439 	117.825 	-0.595508 	161.08 	360.829 	284.927 	539.701 	
21.3155 	-0.0100762 	-0.34336 	0.81446 	-1.08309 	0.00661453 	3.1392 	90.1438 	117.825 	-0.59541 	159.99 	360.829 	284.926 	539.701 	
21.4183 	-0.0100956 	-0.337231 	0.814036 	-1.10054 	0.00674199 	3.13906 	90.1438 	117.825 	-0.595508 	158.999 	360.829 	284.926 	539.701 	
21.5213 	-0.0101139 	-0.331109 	0.813506 	-1.11799 	0.00687191 	3.13892 	90.1438 	117.825 	-0.595508 	157.994 	360.829 	284.925 	539.701 	
21.6242 	-0.010131 	-0.324998 	0.812868 	-1.13545 	0.00700427 	3.13878 	90.1438 	117.825 	-0.59541 	157.004 	360.829 	284.924 	539.701 	
21.7274 	-0.0101471 	-0.318899 	0.812124 	-1.1529 	0.00713901 	3.13865 	90.1438 	117.824 	-0.595508 	155.911 	360.829 	284.922 	539.701 	
21.8307 	-0.0101619 	-0.312814 	0.811274 	-1.17035 	0.00727609 	3.13851 	90.1439 	117.824 	-0.595508 	154.915 	360.829 	284.906 	539.701 	
21.9385 	-0.0101757 	-0.306745 	0.810318 	-1.1878 	0.00741548 	3.13838 	90.1438 	117.824 	-0.595508 	153.812 	360.829 	284.895 	539.701 	
22.0412 	-0.0101882 	-0.300694 	0.809256 	-1.20526 	0.00755713 	3.13825 	90.1438 	117.824 	-0.595508 	152.824 	360.829 	284.879 	539.701 	
22.1442 	-0.0101997 	-0.294661 	0.808088 	-1.22271 	0.007701 	3.13813 	90.1438 	117.824 	-0.595508 	151.823 	360.829 	284.864 	539.701 	
22.2477 	-0.0102099 	-0.28865 	0.806816 	-1.24016 	0.00784704 	3.138 	90.1438 	117.824 	-0.595508 	150.725 	360.829 	284.858 	539.701 	
22.3524 	-0.010227 	-0.2767 	0.803957 	-1.27506 	0.00814546 	3.13776 	90.1438 	117.824 	-0.595508 	149.732 	360.829 	284.855 	539.701 	
22.4555 	-0.0102338 	-0.270764 	0.802371 	-1.29252 	0.00829776 	3.13765 	90.1438 	117.824 	-0.595605 	148.641 	360.829 	284.854 	539.701 	
22.5588 	-0.0102394 	-0.264856 	0.800682 	-1.30997 	0.00845204 	3.13754 	90.1438 	117.823 	-0.595508 	147.636 	360.829 	284.853 	539.701 	
22.6622 	-0.0102438 	-0.258979 	0.798891 	-1.32742 	0.00860827 	3.13743 	90.1438 	117.823 	-0.595508 	146.644 	360.829 	284.852 	539.701 	
22.7654 	-0.010247 	-0.253134 	0.796997 	-1.34487 	0.0087664 	3.13732 	90.1438 	117.823 	-0.595605 	145.551 	360.829 	284.852 	539.701 	
22.8735 	-0.0102491 	-0.247323 	0.795001 	-1.36233 	0.00892638 	3.13721 	90.1438 	117.823 	-0.595605 	144.546 	360.829 	284.852 	539.701 	
22.9761 	-0.01025 	-0.241548 	0.792904 	-1.37978 	0.00908815 	3.13711 	90.1438 	117.823 	-0.595605 	143.457 	360.829 	284.851 	539.701 	
23.0794 	-0.0102498 	-0.23581 	0.790707 	-1.39723 	0.00925169 	3.13701 	90.1438 	117.822 	-0.595605 	142.46 	360.829 	284.851 	539.701 	
23.1823 	-0.0102483 	-0.230111 	0.78841 	-1.41468 	0.00941692 	3.13692 	90.1438 	117.821 	-0.595605 	141.456 	360.829 	284.851 	539.701 	
23.2852 	-0.0102457 	-0.224453 	0.786014 	-1.43214 	0.0095838 	3.13682 	90.1438 	117.815 	-0.595605 	140.371 	360.829 	284.851 	539.701 	
23.3882 	-0.0102419 	-0.218838 	0.783519 	-1.44959 	0.00975229 	3.13673 	90.1438 	117.813 	-0.595703 	139.37 	360.829 	284.851 	539.701 	
23.4914 	-0.010237 	-0.213268 	0.780927 	-1.46704 	0.00992232 	3.13665 	90.1438 	117.812 	-0.595605 	138.375 	360.829 	284.85 	539.701 	
23.5944 	-0.0102309 	-0.207743 	0.778238 	-1.48449 	0.0100939 	3.13656 	90.1437 	117.812 	-0.595508 	137.38 	360.829 	284.85 	539.701 	
23.6973 	-0.0102236 	-0.202267 	0.775453 	-1.50195 	0.0102668 	3.13648 	90.1439 	117.811 	-0.595996 	136.279 	360.829 	284.85 	539.701 	
23.8002 	-0.0102151 	-0.196839 	0.772573 	-1.5194 	0.0104412 	3.1364 	90.1437 	117.811 	-0.595703 	135.288 	360.829 	284.85 	539.701 	
23.9034 	-0.0102055 	-0.191463 	0.769598 	-1.53685 	0.0106169 	3.13633 	90.1437 	117.81 	-0.595703 	134.289 	360.829 	284.85 	539.701 	
24.0064 	-0.0101947 	-0.18614 	0.766531 	-1.5543 	0.0107939 	3.13626 	90.1437 	117.81 	-0.595801 	133.19 	360.829 	284.85 	539.701 	
24.1094 	-0.0101828 	-0.18087 	0.76337 	-1.57176 	0.0109721 	3.13619 	90.1437 	117.809 	-0.595898 	132.195 	360.829 	284.85 	539.701 	
24.213 	-0.0101697 	-0.175657 	0.760119 	-1.58921 	0.0111515 	3.13612 	90.1437 	117.794 	-0.595801 	131.199 	360.829 	284.85 	539.701 	
24.3153 	-0.0101554 	-0.170502 	0.756776 	-1.60666 	0.0113321 	3.13606 	90.1437 	117.788 	-0.595801 	130.199 	360.829 	284.85 	539.701 	
24.4183 	-0.01014 	-0.165405 	0.753345 	-1.62411 	0.0115137 	3.136 	90.1437 	117.785 	-0.595801 	129.101 	360.829 	284.85 	539.701 	
24.5212 	-0.0101235 	-0.160369 	0.749825 	-1.64157 	0.0116963 	3.13594 	90.1437 	117.784 	-0.595898 	128.108 	360.829 	284.85 	539.701 	
24.6243 	-0.0101058 	-0.155396 	0.746217 	-1.65902 	0.0118798 	3.13589 	90.1436 	117.783 	-0.595703 	127.115 	360.829 	284.85 	539.701 	
24.7276 	-0.010087 	-0.150487 	0.742524 	-1.67647 	0.0120643 	3.13584 	90.1437 	117.782 	-0.595801 	126.021 	360.829 	284.85 	539.701 	
24.8304 	-0.0100671 	-0.145642 	0.738745 	-1.69392 	0.0122496 	3.13579 	90.1437 	117.779 	-0.595801 	125.017 	360.829 	284.85 	539.701 	
24.9396 	-0.0100461 	-0.140865 	0.734883 	-1.71137 	0.0124356 	3.13575 	90.1436 	117.774 	-0.595703 	123.928 	360.829 	284.85 	539.701 	
25.0421 	-0.0100239 	-0.136155 	0.730938 	-1.72882 	0.0126225 	3.13571 	90.1436 	117.773 	-0.595996 	122.932 	360.829 	284.85 	539.701 	
25.1451 	-0.0100006 	-0.131515 	0.726911 	-1.74628 	0.01281 	3.13567 	90.1436 	117.772 	-0.595898 	121.932 	360.829 	284.85 	539.701 	
25.2479 	-0.00997629 	-0.126946 	0.722804 	-1.76373 	0.0129981 	3.13564 	90.1436 	117.771 	-0.595898 	120.839 	360.829 	284.85 	539.701 	
25.3511 	-0.00995084 	-0.12245 	0.718617 	-1.78118 	0.0131867 	3.13561 	90.1436 	117.771 	-0.595801 	119.838 	360.829 	284.85 	539.701 	
25.4555 	-0.00992431 	-0.118027 	0.714353 	-1.79863 	0.0133759 	3.13558 	90.1436 	117.769 	-0.595801 	118.851 	360.829 	284.85 	539.701 	
25.558 	-0.00986803 	-0.109408 	0.705597 	-1.83353 	0.0137555 	3.13554 	90.1436 	117.762 	-0.595898 	117.752 	360.829 	284.85 	539.701 	
25.6612 	-0.00983831 	-0.105214 	0.701107 	-1.85099 	0.0139459 	3.13552 	90.1436 	117.739 	-0.595801 	116.754 	360.829 	284.85 	539.701 	
25.764 	-0.00980753 	-0.1011 	0.696544 	-1.86844 	0.0141365 	3.1355 	90.1436 	117.736 	-0.595801 	115.753 	360.829 	284.85 	539.701 	
25.8675 	-0.00977571 	-0.0970652 	0.691911 	-1.88589 	0.0143273 	3.13549 	90.1435 	117.731 	-0.595801 	114.664 	360.829 	284.85 	539.701 	
25.8883 	-0.00977571 	-0.0970652 	0.691911 	-1.88589 	0.0143273 	3.13549 	90.1435 	117.731 	-0.595801 	114.484 	360.829 	284.85 	539.701 	
25.9913 	-0.00976666 	-0.0944634 	0.69047 	-1.89044 	0.0144015 	3.13541 	90.1435 	117.725 	-0.595801 	113.883 	360.829 	284.478 	539.701 	
26.0943 	-0.00982499 	-0.0917365 	0.69809 	-1.86007 	0.0141843 	3.13496 	90.1435 	117.72 	-0.595898 	113.728 	360.829 	282.731 	539.701 	
26.1975 	-0.00989632 	-0.0892638 	0.706958 	-1.82516 	0.0139138 	3.13447 	90.1435 	117.719 	-0.595801 	113.692 	360.829 	280.522 	539.701 	
26.3001 	-0.00997213 	-0.087102 	0.715907 	-1.79025 	0.0136263 	3.13399 	90.1435 	117.716 	-0.595801 	113.672 	360.829 	278.498 	539.701 	
26.4033 	-0.0100523 	-0.085254 	0.724926 	-1.75533 	0.0133223 	3.13352 	90.1435 	117.715 	-0.595898 	113.67 	360.829 	276.519 	539.701 	
26.5062 	-0.0101368 	-0.0837218 	0.734004 	-1.72042 	0.013002 	3.13306 	90.1435 	117.712 	-0.595801 	113.669 	360.829 	274.309 	539.701 	
26.6092 	-0.0102254 	-0.0825074 	0.74313 	-1.68551 	0.0126659 	3.13261 	90.1435 	117.703 	-0.595898 	113.669 	360.829 	272.317 	539.701 	
26.7123 	-0.0103181 	-0.0816122 	0.752292 	-1.65061 	0.0123143 	3.13218 	90.1435 	117.7 	-0.595703 	113.668 	360.829 	270.303 	539.701 	
26.8154 	-0.0104148 	-0.0810374 	0.761481 	-1.6157 	0.0119478 	3.13175 	90.1435 	117.7 	-0.595801 	113.668 	360.829 	268.319 	539.701 	
26.9182 	-0.0105153 	-0.0807836 	0.770683 	-1.58079 	0.0115667 	3.13134 	90.1435 	117.698 	-0.595898 	113.668 	360.829 	266.119 	539.701 	
27.0215 	-0.0106196 	-0.0808511 	0.779889 	-1.54588 	0.0111714 	3.13095 	90.1435 	117.696 	-0.595703 	113.668 	360.829 	264.111 	539.701 	
27.1242 	-0.0107274 	-0.0812399 	0.789087 	-1.51097 	0.0107626 	3.13056 	90.1435 	117.694 	-0.595801 	113.668 	360.829 	262.112 	539.701 	
27.2272 	-0.0108387 	-0.0819494 	0.798266 	-1.47606 	0.0103407 	3.1302 	90.1435 	117.694 	-0.595898 	113.667 	360.829 	259.911 	539.701 	
27.33 	-0.0109533 	-0.082979 	0.807414 	-1.44115 	0.00990617 	3.12984 	90.1435 	117.693 	-0.595898 	113.667 	360.829 	257.904 	539.701 	
27.4334 	-0.011071 	-0.0843271 	0.816521 	-1.40625 	0.00945957 	3.1295 	90.1435 	117.693 	-0.595801 	113.667 	360.829 	255.901 	539.701 	
27.5393 	-0.0111919 	-0.0859922 	0.825574 	-1.37134 	0.00900146 	3.12918 	90.1435 	117.693 	-0.595801 	113.667 	360.829 	253.699 	539.701 	
27.6422 	-0.0113156 	-0.0879722 	0.834564 	-1.33644 	0.00853241 	3.12888 	90.1435 	117.693 	-0.595898 	113.666 	360.829 	251.722 	539.701 	
27.7455 	-0.011442 	-0.0902648 	0.843479 	-1.30153 	0.00805296 	3.12859 	90.1435 	117.693 	-0.595801 	113.666 	360.829 	249.71 	539.701 	
27.8483 	-0.0115711 	-0.092867 	0.852309 	-1.26663 	0.00756371 	3.12831 	90.1435 	117.693 	-0.595898 	113.665 	360.829 	247.518 	539.701 	
27.9529 	-0.0118363 	-0.0989877 	0.869669 	-1.19682 	0.00655816 	3.12782 	90.1435 	117.693 	-0.595801 	113.666 	360.829 	245.498 	539.701 	
28.0573 	-0.0119721 	-0.102499 	0.878178 	-1.16192 	0.00604309 	3.1276 	90.1435 	117.692 	-0.595801 	113.665 	360.829 	243.326 	539.701 	
28.1602 	-0.0121099 	-0.106305 	0.886559 	-1.12702 	0.00552067 	3.1274 	90.1435 	117.692 	-0.595801 	113.665 	360.829 	241.314 	539.701 	
28.2633 	-0.0122495 	-0.1104 	0.894802 	-1.09211 	0.00499152 	3.12722 	90.1435 	117.692 	-0.595801 	113.665 	360.829 	239.315 	539.701 	
28.3663 	-0.0123906 	-0.114782 	0.902898 	-1.05721 	0.00445629 	3.12705 	90.1435 	117.692 	-0.595996 	113.664 	360.829 	237.127 	539.701 	
28.4732 	-0.0125332 	-0.119443 	0.910835 	-1.02231 	0.00391563 	3.1269 	90.1435 	117.692 	-0.595703 	113.664 	360.829 	235.125 	539.701 	
28.5764 	-0.0126771 	-0.124378 	0.918605 	-0.987408 	0.00337021 	3.12678 	90.1435 	117.693 	-0.595996 	113.663 	360.829 	232.948 	539.701 	
28.6794 	-0.012822 	-0.129582 	0.926198 	-0.952505 	0.00282067 	3.12667 	90.1435 	117.692 	-0.595703 	113.664 	360.829 	230.934 	539.701 	
28.7823 	-0.0129679 	-0.135047 	0.933605 	-0.917604 	0.0022677 	3.12658 	90.1435 	117.693 	-0.596094 	113.663 	360.829 	228.955 	539.701 	
28.8853 	-0.0131144 	-0.140767 	0.940816 	-0.882702 	0.00171197 	3.12651 	90.1435 	117.692 	-0.595801 	113.662 	360.829 	226.965 	539.701 	
28.9882 	-0.0132616 	-0.146736 	0.947824 	-0.8478 	0.00115416 	3.12646 	90.1434 	117.693 	-0.595801 	113.662 	360.829 	224.736 	539.701 	
29.0912 	-0.013409 	-0.152946 	0.954619 	-0.812899 	0.000594938 	3.12643 	90.1434 	117.693 	-0.595801 	113.662 	360.829 	222.756 	539.701 	
29.1945 	-0.0135567 	-0.159389 	0.961192 	-0.777997 	3.49958e-05 	3.12642 	90.1435 	117.692 	-0.595996 	113.662 	360.829 	220.76 	539.701 	
29.2972 	-0.0137044 	-0.166057 	0.967538 	-0.743096 	-0.000524993 	3.12643 	90.1435 	117.693 	-0.595898 	113.662 	360.829 	218.553 	539.701 	
29.4001 	-0.013852 	-0.172943 	0.973646 	-0.708194 	-0.00108434 	3.12646 	90.1435 	117.693 	-0.595898 	113.661 	360.829 	216.563 	539.701 	
29.5037 	-0.0139991 	-0.180038 	0.97951 	-0.673292 	-0.00164237 	3.1265 	90.1435 	117.693 	-0.595996 	113.661 	360.829 	214.569 	539.701 	
29.6062 	-0.0141458 	-0.187334 	0.985123 	-0.638391 	-0.0021984 	3.12657 	90.1435 	117.693 	-0.595801 	113.66 	360.829 	212.391 	539.701 	
29.7093 	-0.0142917 	-0.19482 	0.990479 	-0.603489 	-0.00275175 	3.12666 	90.1435 	117.693 	-0.595996 	113.659 	360.829 	210.385 	539.701 	
29.8124 	-0.0144368 	-0.20249 	0.995569 	-0.568587 	-0.00330174 	3.12676 	90.1434 	117.693 	-0.595703 	113.659 	360.829 	208.403 	539.701 	
29.9153 	-0.0145808 	-0.210332 	1.00039 	-0.533685 	-0.00384772 	3.12689 	90.1435 	117.693 	-0.595996 	113.658 	360.829 	206.413 	539.701 	
30.0182 	-0.0147236 	-0.218337 	1.00493 	-0.498783 	-0.00438901 	3.12703 	90.1435 	117.693 	-0.595996 	113.657 	360.829 	204.216 	539.701 	
30.1212 	-0.0148649 	-0.226497 	1.00919 	-0.463881 	-0.00492495 	3.12719 	90.1435 	117.693 	-0.595898 	113.653 	360.829 	202.21 	539.701 	
30.2239 	-0.0150047 	-0.2348 	1.01317 	-0.428978 	-0.0054549 	3.12737 	90.1434 	117.693 	-0.595703 	113.651 	360.829 	200.218 	539.701 	
30.3274 	-0.0151427 	-0.243237 	1.01685 	-0.394075 	-0.0059782 	3.12757 	90.1435 	117.693 	-0.595898 	113.646 	360.829 	198.03 	539.701 	
30.4307 	-0.0152788 	-0.251797 	1.02023 	-0.359173 	-0.00649422 	3.12779 	90.1435 	117.693 	-0.595898 	113.641 	360.829 	196.033 	539.701 	
30.5397 	-0.0154128 	-0.26047 	1.02332 	-0.324269 	-0.00700233 	3.12803 	90.1434 	117.693 	-0.595801 	113.635 	360.829 	193.848 	539.701 	
30.6419 	-0.0155446 	-0.269245 	1.0261 	-0.289366 	-0.00750191 	3.12828 	90.1434 	117.693 	-0.595801 	113.632 	360.829 	191.843 	539.701 	
30.7449 	-0.0156739 	-0.278112 	1.02857 	-0.254462 	-0.00799235 	3.12855 	90.1434 	117.693 	-0.595898 	113.63 	360.829 	189.844 	539.701 	
30.8479 	-0.0158007 	-0.28706 	1.03073 	-0.219558 	-0.00847305 	3.12884 	90.1435 	117.693 	-0.595996 	113.629 	360.829 	187.669 	539.701 	
30.9526 	-0.0159248 	-0.296079 	1.03257 	-0.184654 	-0.00894344 	3.12914 	90.1434 	117.693 	-0.595801 	113.627 	360.829 	185.657 	539.701 	
31.0559 	-0.016046 	-0.305156 	1.0341 	-0.14975 	-0.00940293 	3.12946 	90.1434 	117.693 	-0.595898 	113.627 	360.829 	183.455 	539.701 	
31.16 	-0.0161641 	-0.314281 	1.03532 	-0.114845 	-0.00985097 	3.1298 	90.1434 	117.693 	-0.595898 	113.626 	360.829 	181.49 	539.701 	
31.2631 	-0.0163908 	-0.33263 	1.03679 	-0.0450343 	-0.0107105 	3.13052 	90.1434 	117.693 	-0.595898 	113.625 	360.829 	179.481 	539.701 	
31.3658 	-0.0164991 	-0.341832 	1.03704 	-0.0101287 	-0.011121 	3.1309 	90.1434 	117.693 	-0.595898 	113.624 	360.829 	177.278 	539.701 	
31.4731 	-0.0166037 	-0.351037 	1.03697 	0.0247775 	-0.0115179 	3.13129 	90.1434 	117.693 	-0.595898 	113.624 	360.829 	175.301 	539.701 	
31.5761 	-0.0167047 	-0.360234 	1.03658 	0.0596839 	-0.0119008 	3.1317 	90.1434 	117.693 	-0.595898 	113.623 	360.829 	173.101 	539.701 	
31.6792 	-0.0168019 	-0.369412 	1.03587 	0.0945904 	-0.0122691 	3.13212 	90.1434 	117.693 	-0.595801 	113.623 	360.829 	171.111 	539.701 	
31.7822 	-0.0168951 	-0.37856 	1.03484 	0.129497 	-0.0126226 	3.13256 	90.1434 	117.693 	-0.595996 	113.622 	360.829 	169.113 	539.701 	
31.8853 	-0.0169842 	-0.387666 	1.03349 	0.164405 	-0.0129606 	3.133 	90.1434 	117.693 	-0.595996 	113.622 	360.829 	167.119 	539.701 	
31.9881 	-0.0170692 	-0.396719 	1.03182 	0.199312 	-0.0132829 	3.13346 	90.1434 	117.694 	-0.595605 	113.621 	360.829 	164.924 	539.701 	
32.0913 	-0.0171499 	-0.405709 	1.02984 	0.23422 	-0.013589 	3.13393 	90.1434 	117.694 	-0.595898 	113.62 	360.829 	162.93 	539.701 	
32.1943 	-0.0172263 	-0.414625 	1.02755 	0.269128 	-0.0138785 	3.13441 	90.1434 	117.694 	-0.595801 	113.62 	360.829 	160.927 	539.701 	
32.2972 	-0.0172982 	-0.423455 	1.02495 	0.304037 	-0.0141511 	3.1349 	90.1434 	117.694 	-0.595898 	113.618 	360.829 	158.775 	539.701 	
32.4002 	-0.0173656 	-0.432189 	1.02204 	0.338945 	-0.0144065 	3.1354 	90.1434 	117.694 	-0.595996 	113.617 	360.829 	156.777 	539.701 	
32.5035 	-0.0174283 	-0.440816 	1.01882 	0.373854 	-0.0146443 	3.13591 	90.1434 	117.694 	-0.596094 	113.612 	360.829 	154.783 	539.701 	
32.6063 	-0.0174863 	-0.449325 	1.01531 	0.408764 	-0.0148643 	3.13642 	90.1432 	117.694 	-0.595996 	113.612 	360.829 	152.576 	539.701 	
32.7093 	-0.0175395 	-0.457707 	1.0115 	0.443673 	-0.0150662 	3.13694 	90.1433 	117.694 	-0.596094 	113.611 	360.829 	150.582 	539.701 	
32.8123 	-0.0175879 	-0.465951 	1.00741 	0.478582 	-0.0152497 	3.13747 	90.1434 	117.694 	-0.596289 	113.61 	360.829 	148.598 	539.701 	
32.9154 	-0.0176314 	-0.474047 	1.00303 	0.513492 	-0.0154147 	3.13801 	90.1434 	117.694 	-0.596094 	113.61 	360.829 	146.603 	539.701 	
33.0185 	-0.01767 	-0.481985 	0.998364 	0.548402 	-0.0155608 	3.13855 	90.1427 	117.694 	-0.595703 	113.609 	360.829 	144.394 	539.701 	
33.1212 	-0.0177035 	-0.489756 	0.993428 	0.583312 	-0.015688 	3.13909 	90.1429 	117.694 	-0.596289 	113.608 	360.829 	142.432 	539.701 	
33.2238 	-0.017732 	-0.49735 	0.988224 	0.618222 	-0.0157961 	3.13964 	90.1432 	117.694 	-0.596191 	113.601 	360.829 	140.424 	539.701 	
33.3276 	-0.0177554 	-0.504757 	0.982758 	0.653133 	-0.015885 	3.1402 	90.143 	117.694 	-0.595996 	113.589 	360.829 	138.238 	539.701 	
33.4303 	-0.0177738 	-0.51197 	0.977036 	0.688043 	-0.0159544 	3.14075 	90.1427 	117.694 	-0.595996 	113.583 	360.829 	136.255 	539.701 	
33.5391 	-0.017787 	-0.518978 	0.971067 	0.722954 	-0.0160045 	3.14131 	90.1427 	117.694 	-0.595996 	113.581 	360.829 	134.061 	539.701 	
33.642 	-0.017795 	-0.525774 	0.964856 	0.757864 	-0.016035 	-3.14132 	90.1431 	117.694 	-0.596191 	113.58 	360.829 	132.058 	539.701 	
33.745 	-0.0177979 	-0.532349 	0.958413 	0.792775 	-0.016046 	-3.14076 	90.1432 	117.695 	-0.596289 	113.579 	360.829 	130.064 	539.701 	
33.8515 	-0.0177957 	-0.538695 	0.951743 	0.827685 	-0.0160375 	-3.1402 	90.1434 	117.695 	-0.596191 	113.578 	360.829 	127.864 	539.701 	
33.9534 	-0.0177775 	-0.549979 	0.938623 	0.893317 	-0.0159686 	-3.13914 	90.1432 	117.695 	-0.596094 	113.578 	360.829 	125.988 	539.701 	
34.0556 	-0.0177687 	-0.553115 	0.934648 	0.912519 	-0.0159354 	-3.13884 	90.1433 	117.695 	-0.596094 	113.578 	360.829 	124.565 	539.701 	
