RISC-NYUAD/HeavyPayloadDrone/projects/kinova-ros/devel/lib/ne_kinova_demo/VulcanTrajectory/Vulcan1_Vicon_y19m11d27h13min9.csv
time (NSec) 	Kinova Tip Position (t_x) 	t_y 	t_z 	Kinova Tip Angle (theta_x) 	Kinova Tip Angle (theta_y) 	Kinova Tip Angle (theta_z) 	Kinova Joint Angle (j1) 	(j2) 	(j3) 	(j4) 	Kinova Joint Angle (j5) 	(j6) 	(j7)
0.139669 	0.0692388 	-0.0212821 	1.16772 	0.55416 	0.205548 	-3.072 	94.6514 	173.417 	178.942 	218.021 	164.616 	116.561 	180 	
0.242911 	0.0691166 	-0.0213088 	1.16777 	0.553694 	0.205539 	-3.07181 	94.3802 	173.166 	178.671 	218.32 	164.862 	116.827 	180.208 	
0.346914 	0.0519439 	-0.0199866 	1.17518 	0.492287 	0.179824 	-3.08422 	93.4376 	172.239 	177.734 	219.299 	166.704 	118.707 	182.083 	
0.453531 	0.0405505 	-0.0187664 	1.17933 	0.45519 	0.158232 	-3.09876 	92.3516 	171.111 	176.741 	220.271 	168.718 	120.705 	184.075 	
0.556352 	0.0287864 	-0.0178603 	1.18284 	0.41953 	0.13489 	-3.11467 	91.3571 	170.122 	175.653 	221.357 	170.921 	122.914 	186.271 	
0.658695 	0.0165875 	-0.0174 	1.18569 	0.385948 	0.107675 	-3.13759 	90.5396 	169.106 	174.645 	222.368 	172.93 	124.921 	188.28 	
0.761888 	0.00392213 	-0.0172103 	1.18788 	0.354331 	0.0756688 	3.11117 	90.2643 	168.099 	173.651 	223.372 	174.925 	126.93 	190.265 	
0.864923 	-0.0090045 	-0.0169929 	1.1894 	0.32333 	0.0428923 	3.07384 	90.2237 	166.999 	172.542 	224.472 	177.129 	129.128 	192.27 	
0.974251 	-0.0221345 	-0.0167417 	1.19022 	0.29276 	0.0098372 	3.03455 	90.2025 	165.888 	171.554 	225.476 	179.114 	131.137 	194.46 	
1.07751 	-0.0354262 	-0.0164674 	1.19035 	0.262534 	-0.0233938 	2.99327 	90.1981 	164.888 	170.435 	226.577 	181.34 	133.357 	196.667 	
1.18079 	-0.0488361 	-0.0161799 	1.18979 	0.232564 	-0.0566934 	2.94993 	90.1972 	163.867 	169.442 	227.585 	183.332 	135.367 	198.668 	
1.28401 	-0.0623196 	-0.0158872 	1.18852 	0.202755 	-0.0899503 	2.9045 	90.1969 	162.862 	168.435 	228.592 	185.344 	137.387 	200.672 	
1.38713 	-0.0758306 	-0.0155976 	1.18657 	0.173014 	-0.123047 	2.85692 	90.1967 	161.744 	167.337 	229.685 	187.531 	139.599 	202.879 	
1.49026 	-0.0893226 	-0.0153175 	1.18393 	0.143244 	-0.155862 	2.80714 	90.1966 	160.743 	166.326 	230.697 	189.573 	141.617 	204.865 	
1.59352 	-0.102748 	-0.0150537 	1.18061 	0.113353 	-0.188268 	2.75511 	90.1964 	159.734 	165.322 	231.696 	191.574 	143.611 	206.859 	
1.69647 	-0.11606 	-0.0148114 	1.17664 	0.0832462 	-0.22013 	2.70078 	90.1962 	158.626 	164.227 	232.816 	193.763 	145.81 	208.876 	
1.80014 	-0.129211 	-0.0145952 	1.17202 	0.052834 	-0.251311 	2.64409 	90.1962 	157.618 	163.215 	233.813 	195.769 	147.826 	211.065 	
1.90289 	-0.142154 	-0.0144099 	1.16678 	0.022035 	-0.281667 	2.585 	90.1961 	156.608 	162.217 	234.821 	197.779 	149.832 	213.066 	
2.00619 	-0.154845 	-0.0142595 	1.16094 	-0.00922531 	-0.311049 	2.52346 	90.196 	155.491 	161.207 	235.82 	199.779 	151.856 	215.076 	
2.10918 	-0.167238 	-0.0141482 	1.15453 	-0.0410075 	-0.339302 	2.45946 	90.1957 	154.48 	160.107 	236.93 	201.989 	154.062 	217.267 	
2.21261 	-0.179291 	-0.0140799 	1.14759 	-0.0733574 	-0.366271 	2.39296 	90.1957 	153.48 	159.107 	237.931 	203.975 	156.062 	219.285 	
2.31573 	-0.190964 	-0.0140592 	1.14014 	-0.1063 	-0.391796 	2.32397 	90.1956 	152.462 	158.092 	238.931 	205.977 	158.059 	221.28 	
2.41899 	-0.202217 	-0.014091 	1.13223 	-0.139837 	-0.415717 	2.25251 	90.1956 	151.363 	156.991 	240.042 	208.185 	160.269 	223.471 	
2.52219 	-0.213016 	-0.0141802 	1.12388 	-0.173942 	-0.437879 	2.17861 	90.1956 	150.34 	155.983 	241.05 	210.186 	162.282 	225.476 	
2.62548 	-0.223327 	-0.0143334 	1.11516 	-0.208555 	-0.458126 	2.10237 	90.1955 	149.343 	154.988 	242.057 	212.177 	164.276 	227.46 	
2.72863 	-0.233122 	-0.0145573 	1.10609 	-0.243582 	-0.476315 	2.02387 	90.1955 	148.23 	153.881 	243.15 	214.387 	166.487 	229.483 	
2.83541 	-0.242374 	-0.0148603 	1.09673 	-0.27889 	-0.492312 	1.94327 	90.1954 	147.229 	152.884 	244.162 	216.371 	168.47 	231.687 	
2.93856 	-0.251062 	-0.0152516 	1.08711 	-0.314309 	-0.505998 	1.86073 	90.1954 	146.124 	151.769 	245.269 	218.578 	170.682 	233.668 	
3.04182 	-0.259168 	-0.015742 	1.0773 	-0.34963 	-0.517274 	1.77647 	90.1952 	145.112 	150.763 	246.273 	220.567 	172.674 	235.873 	
3.14803 	-0.266677 	-0.0163435 	1.06733 	-0.384611 	-0.526063 	1.69072 	90.1951 	144.007 	149.763 	247.285 	222.569 	174.68 	237.89 	
3.25138 	-0.279269 	-0.0178433 	1.04813 	-0.44915 	-0.535753 	1.52468 	90.1951 	142.996 	148.653 	248.383 	224.757 	176.888 	240.085 	
3.35383 	-0.285009 	-0.0188507 	1.03798 	-0.481544 	-0.537146 	1.43619 	90.1949 	141.99 	147.641 	249.384 	226.756 	178.869 	242.081 	
3.45593 	-0.290139 	-0.0200316 	1.02785 	-0.512454 	-0.536021 	1.34732 	90.1949 	140.985 	146.642 	250.393 	228.748 	180.87 	244.07 	
3.5581 	-0.294666 	-0.0214059 	1.01779 	-0.54158 	-0.532443 	1.25836 	90.1948 	139.991 	145.736 	251.294 	230.554 	182.67 	245.877 	
3.66074 	-0.298603 	-0.0229948 	1.00784 	-0.568636 	-0.526507 	1.16958 	90.1948 	138.881 	144.523 	252.49 	232.952 	185.066 	248.276 	
3.76371 	-0.301965 	-0.0248211 	0.998028 	-0.59336 	-0.518333 	1.08122 	90.1947 	137.871 	143.53 	253.492 	234.935 	187.046 	250.255 	
3.86743 	-0.304772 	-0.0269082 	0.988395 	-0.615522 	-0.508066 	0.993481 	90.1947 	136.865 	142.521 	254.493 	236.927 	189.057 	252.287 	
3.97413 	-0.307047 	-0.0292813 	0.97897 	-0.634922 	-0.495869 	0.906551 	90.1947 	135.76 	141.42 	255.595 	239.128 	191.255 	254.495 	
4.07774 	-0.308818 	-0.0319651 	0.969775 	-0.651399 	-0.481921 	0.820565 	90.1946 	134.757 	140.411 	256.59 	241.121 	193.253 	256.474 	
4.18061 	-0.310115 	-0.0349866 	0.960833 	-0.664824 	-0.466414 	0.735628 	90.1946 	133.656 	139.304 	257.697 	243.319 	195.428 	258.485 	
4.28364 	-0.310972 	-0.0383715 	0.952157 	-0.675106 	-0.449545 	0.651813 	90.1944 	132.643 	138.3 	258.696 	245.324 	197.433 	260.672 	
4.38686 	-0.311425 	-0.0421456 	0.94376 	-0.682181 	-0.431519 	0.569162 	90.194 	131.646 	137.287 	259.7 	247.316 	199.43 	262.679 	
4.48994 	-0.311513 	-0.046335 	0.935645 	-0.686017 	-0.412542 	0.487693 	90.194 	130.632 	136.288 	260.7 	249.291 	201.418 	264.679 	
4.59328 	-0.311275 	-0.0509638 	0.927811 	-0.686604 	-0.39282 	0.407401 	90.1939 	129.529 	135.177 	261.795 	251.505 	203.616 	266.874 	
4.69641 	-0.310753 	-0.0560562 	0.920253 	-0.683953 	-0.372556 	0.328267 	90.1938 	128.526 	134.178 	262.797 	253.492 	205.614 	268.864 	
4.79984 	-0.309991 	-0.061633 	0.912957 	-0.678094 	-0.351949 	0.250259 	90.1937 	127.521 	133.166 	263.788 	255.483 	207.612 	270.865 	
4.90269 	-0.309032 	-0.0677146 	0.905907 	-0.669068 	-0.331194 	0.173338 	90.1937 	126.416 	132.072 	264.879 	257.671 	209.792 	273.059 	
5.00622 	-0.30792 	-0.0743186 	0.899077 	-0.65693 	-0.310478 	0.0974645 	90.1935 	125.406 	131.061 	265.886 	259.663 	211.788 	275.082 	
5.10903 	-0.306697 	-0.0814595 	0.89244 	-0.641745 	-0.289981 	0.0225983 	90.1935 	124.404 	130.059 	266.88 	261.669 	213.814 	277.074 	
5.21243 	-0.305406 	-0.0891486 	0.88596 	-0.623585 	-0.269878 	-0.0512977 	90.1934 	123.297 	128.959 	267.975 	263.888 	215.807 	279.079 	
5.3154 	-0.30409 	-0.0975461 	0.879697 	-0.602244 	-0.250341 	-0.123971 	90.1934 	122.303 	127.95 	268.703 	265.874 	217.986 	281.28 	
5.41843 	-0.302805 	-0.113442 	0.877797 	-0.565533 	-0.231755 	-0.182755 	90.1933 	121.297 	126.947 	268.84 	267.867 	219.988 	283.259 	
5.52182 	-0.301539 	-0.130437 	0.875875 	-0.526017 	-0.213627 	-0.239362 	90.1932 	120.182 	125.945 	268.868 	269.872 	222 	285.27 	
5.62503 	-0.300295 	-0.147965 	0.873515 	-0.484808 	-0.195948 	-0.294812 	90.1929 	119.164 	124.837 	268.876 	272.079 	224.177 	287.475 	
5.72823 	-0.299079 	-0.166003 	0.870651 	-0.441997 	-0.178734 	-0.349108 	90.1929 	118.166 	123.839 	268.877 	274.085 	226.178 	289.466 	
5.83544 	-0.297895 	-0.184517 	0.867219 	-0.397676 	-0.161989 	-0.402251 	90.1928 	117.048 	122.727 	268.877 	276.3 	228.41 	291.717 	
5.93826 	-0.296742 	-0.20347 	0.863157 	-0.351935 	-0.145711 	-0.454237 	90.1926 	116.043 	121.728 	268.876 	278.291 	230.401 	293.668 	
6.04168 	-0.295619 	-0.222819 	0.858405 	-0.304865 	-0.129885 	-0.505062 	90.1926 	115.026 	120.722 	268.877 	280.313 	232.408 	295.668 	
6.14802 	-0.294521 	-0.242515 	0.852906 	-0.256556 	-0.114493 	-0.554715 	90.1924 	113.928 	119.623 	268.876 	282.504 	234.595 	297.875 	
6.25219 	-0.29237 	-0.282725 	0.83946 	-0.156577 	-0.0848819 	-0.650473 	90.1923 	112.918 	118.629 	268.876 	284.503 	236.594 	299.886 	
6.355 	-0.291297 	-0.303115 	0.831422 	-0.105086 	-0.0705822 	-0.696557 	90.1923 	111.814 	117.528 	268.876 	286.705 	238.794 	302.064 	
6.45812 	-0.290208 	-0.323606 	0.822455 	-0.052711 	-0.0565557 	-0.741431 	90.1922 	110.799 	116.525 	268.875 	288.729 	240.808 	304.045 	
6.56124 	-0.289089 	-0.344126 	0.812525 	0.000458837 	-0.0427453 	-0.785089 	90.1921 	109.794 	115.519 	268.875 	290.734 	242.801 	306.053 	
6.66425 	-0.287924 	-0.364599 	0.801609 	0.0543364 	-0.0290892 	-0.827524 	90.192 	108.682 	114.41 	268.875 	292.963 	244.813 	308.076 	
6.76761 	-0.286695 	-0.384948 	0.789688 	0.108834 	-0.015522 	-0.868732 	90.192 	107.674 	113.412 	268.874 	294.962 	247.025 	310.249 	
6.8737 	-0.285384 	-0.40509 	0.776748 	0.163866 	-0.00197361 	-0.908715 	90.1919 	106.675 	112.417 	268.874 	296.975 	249.018 	312.265 	
6.97699 	-0.283972 	-0.424946 	0.762787 	0.219346 	0.0116298 	-0.947474 	90.1919 	105.559 	111.313 	268.873 	299.185 	251.22 	314.473 	
7.0802 	-0.282438 	-0.444431 	0.747808 	0.275187 	0.0253619 	-0.985017 	90.1914 	104.552 	110.307 	268.873 	301.217 	253.236 	316.457 	
7.18338 	-0.280763 	-0.463464 	0.731822 	0.331303 	0.0393 	-1.02135 	90.1914 	103.536 	109.308 	268.872 	303.207 	255.232 	318.453 	
7.28638 	-0.278926 	-0.48196 	0.714847 	0.387612 	0.0535229 	-1.0565 	90.1913 	102.431 	108.206 	268.871 	305.403 	257.445 	320.68 	
7.38968 	-0.276908 	-0.49984 	0.69691 	0.444026 	0.068106 	-1.09047 	90.1909 	101.418 	107.203 	268.871 	307.433 	259.45 	322.693 	
7.49288 	-0.274689 	-0.517023 	0.678046 	0.500462 	0.0831241 	-1.12328 	90.1905 	100.421 	106.201 	268.87 	309.46 	261.471 	324.675 	
7.59597 	-0.272251 	-0.533431 	0.658296 	0.556836 	0.0986506 	-1.15497 	90.1906 	99.3015 	105.093 	268.87 	311.66 	263.471 	326.661 	
7.69911 	-0.269576 	-0.548992 	0.63771 	0.613064 	0.114757 	-1.18556 	90.1898 	98.3055 	104.105 	268.869 	313.666 	265.663 	328.881 	
7.80238 	-0.266648 	-0.563634 	0.616344 	0.669063 	0.13151 	-1.21508 	90.1897 	97.3082 	103.109 	268.868 	315.668 	267.661 	330.875 	
7.90571 	-0.263452 	-0.577291 	0.59426 	0.72475 	0.148973 	-1.24355 	90.1895 	96.3031 	102.109 	268.867 	317.678 	269.678 	332.873 	
8.00869 	-0.259976 	-0.589903 	0.571528 	0.780044 	0.167206 	-1.27102 	90.1893 	95.1982 	101.001 	268.867 	319.888 	271.869 	335.074 	
8.11169 	-0.256208 	-0.601415 	0.548223 	0.834861 	0.186262 	-1.29751 	90.1892 	94.183 	99.9971 	268.866 	321.888 	273.869 	337.085 	
8.21497 	-0.252139 	-0.611776 	0.524425 	0.889123 	0.20619 	-1.32305 	90.1888 	93.1849 	98.9966 	268.865 	323.909 	275.878 	339.091 	
8.31822 	-0.247763 	-0.620944 	0.500218 	0.942747 	0.227034 	-1.34767 	90.1887 	92.0833 	97.9033 	268.864 	326.12 	278.085 	341.28 	
8.42086 	-0.243076 	-0.628884 	0.475692 	0.995654 	0.248828 	-1.3714 	90.1886 	91.0879 	96.897 	268.863 	328.115 	280.072 	343.259 	
8.5244 	-0.238076 	-0.635566 	0.450938 	1.04776 	0.271604 	-1.39427 	90.1881 	90.0906 	95.9039 	268.862 	330.123 	282.078 	345.268 	
8.62769 	-0.232765 	-0.640969 	0.426051 	1.09899 	0.295386 	-1.41629 	90.1879 	88.9876 	94.8121 	268.86 	332.327 	284.018 	347.268 	
8.73477 	-0.229593 	-0.645745 	0.401596 	1.14865 	0.310433 	-1.43728 	90.1869 	87.9871 	93.8014 	268.858 	334.324 	284.837 	349.47 	
8.83791 	-0.232214 	-0.651139 	0.3781 	1.19641 	0.30208 	-1.45716 	90.1868 	86.8883 	92.7081 	268.856 	336.533 	284.881 	351.48 	
8.94083 	-0.234668 	-0.655664 	0.354325 	1.24413 	0.294039 	-1.47653 	90.1868 	85.8807 	91.7022 	268.846 	338.523 	284.903 	353.688 	
9.0439 	-0.236773 	-0.659259 	0.330286 	1.29187 	0.287021 	-1.49547 	90.1867 	84.8788 	90.7049 	268.83 	340.52 	284.906 	355.674 	
9.14794 	-0.238521 	-0.661913 	0.306033 	1.3396 	0.281044 	-1.51401 	90.1866 	83.7828 	89.6084 	268.827 	342.727 	284.906 	357.672 	
9.25117 	-0.240843 	-0.664326 	0.259541 	1.43027 	0.272624 	-1.54832 	90.1866 	82.7819 	88.6098 	268.826 	344.744 	284.906 	359.879 	
9.35311 	-0.24153 	-0.664202 	0.234951 	1.47795 	0.269763 	-1.56598 	90.1867 	81.786 	87.6037 	268.825 	346.761 	284.906 	361.871 	
9.45567 	-0.241842 	-0.663113 	0.210344 	1.52559 	0.268001 	-1.58344 	90.1866 	80.7841 	86.6041 	268.824 	348.754 	284.906 	363.875 	
9.55874 	-0.241778 	-0.661058 	0.185772 	1.57316 	0.267345 	-1.60074 	90.1866 	79.6883 	85.5018 	268.823 	350.953 	284.906 	365.887 	
9.66218 	-0.241335 	-0.658043 	0.161286 	1.62065 	0.267802 	-1.61792 	90.1866 	78.696 	84.5041 	268.822 	352.943 	284.906 	368.086 	
9.76521 	-0.240514 	-0.654072 	0.136937 	1.66805 	0.269373 	-1.63504 	90.1866 	77.6945 	83.5055 	268.821 	354.954 	284.906 	370.06 	
9.87319 	-0.239315 	-0.649154 	0.112776 	1.71534 	0.27206 	-1.65214 	90.1866 	76.599 	82.4033 	268.82 	357.132 	284.906 	372.279 	
9.97645 	-0.237739 	-0.6433 	0.0888537 	1.7625 	0.27586 	-1.66927 	90.1866 	75.6002 	81.4152 	268.819 	359.137 	284.906 	374.284 	
10.0795 	-0.236118 	-0.637064 	0.0670702 	1.80191 	0.279467 	-1.68636 	90.1866 	74.4966 	80.3043 	268.818 	360.733 	284.905 	376.296 	
10.1828 	-0.235411 	-0.632087 	0.0517088 	1.8157 	0.2791 	-1.70312 	90.1866 	73.4971 	79.3078 	268.817 	360.94 	284.905 	378.471 	
10.286 	-0.234692 	-0.626879 	0.0368036 	1.82813 	0.278408 	-1.71986 	90.1866 	72.5143 	78.3151 	268.817 	360.986 	284.905 	380.479 	
10.3891 	-0.233902 	-0.621349 	0.0220255 	1.84057 	0.277629 	-1.7366 	90.1866 	71.5154 	77.3252 	268.816 	360.998 	284.905 	382.489 	
10.4925 	-0.233039 	-0.6155 	0.0073824 	1.85302 	0.276763 	-1.75336 	90.1866 	70.4115 	76.2141 	268.814 	361.004 	284.905 	384.684 	
10.5953 	-0.232106 	-0.609334 	-0.00711796 	1.8655 	0.275811 	-1.77012 	90.1866 	69.414 	75.2212 	268.813 	361.005 	284.905 	386.665 	
10.6984 	-0.231102 	-0.602857 	-0.021468 	1.87799 	0.274772 	-1.7869 	90.1866 	68.428 	74.2154 	268.812 	361.006 	284.905 	388.67 	
10.8019 	-0.230027 	-0.596071 	-0.0356602 	1.89051 	0.273648 	-1.80368 	90.1866 	67.3322 	73.1224 	268.812 	361.006 	284.904 	390.858 	
10.9051 	-0.228882 	-0.588983 	-0.0496872 	1.90305 	0.272438 	-1.82048 	90.1866 	66.3433 	72.1262 	268.812 	361.006 	284.904 	392.88 	
11.0083 	-0.227667 	-0.581595 	-0.0635418 	1.91562 	0.271143 	-1.83729 	90.1866 	65.3528 	71.1295 	268.811 	361.006 	284.904 	394.877 	
11.1114 	-0.226382 	-0.573913 	-0.0772169 	1.92821 	0.269764 	-1.85412 	90.1866 	64.2585 	70.0261 	268.808 	361.006 	284.904 	396.877 	
11.2144 	-0.225028 	-0.565942 	-0.0907055 	1.94083 	0.268301 	-1.87096 	90.1866 	63.2673 	69.0305 	268.799 	361.006 	284.904 	399.09 	
11.3176 	-0.223607 	-0.558348 	-0.103026 	1.95174 	0.266754 	-1.88781 	90.1866 	62.5144 	68.0384 	268.781 	361.007 	284.903 	401.058 	
11.4207 	-0.222125 	-0.554877 	-0.108956 	1.95144 	0.265116 	-1.90471 	90.1866 	62.3103 	67.0326 	268.778 	361.007 	284.903 	403.059 	
11.5239 	-0.220579 	-0.553113 	-0.112373 	1.94672 	0.263393 	-1.92162 	90.1866 	62.2844 	65.9454 	268.777 	361.007 	284.903 	405.267 	
11.6268 	-0.218966 	-0.551362 	-0.115765 	1.94202 	0.261588 	-1.93856 	90.1866 	62.2802 	64.9446 	268.777 	361.007 	284.903 	407.274 	
11.7363 	-0.217286 	-0.549624 	-0.119132 	1.93737 	0.259702 	-1.95551 	90.1866 	62.2795 	63.8464 	268.777 	361.007 	284.903 	409.478 	
11.8391 	-0.215541 	-0.5479 	-0.122473 	1.93275 	0.257735 	-1.97248 	90.1866 	62.2794 	62.8459 	268.777 	361.007 	284.903 	411.476 	
11.9441 	-0.21373 	-0.546191 	-0.125785 	1.92817 	0.255689 	-1.98947 	90.1866 	62.2789 	61.7459 	268.777 	361.007 	284.903 	413.675 	
12.0473 	-0.211854 	-0.544496 	-0.12907 	1.92364 	0.253564 	-2.00648 	90.1866 	62.279 	60.7448 	268.777 	361.007 	284.902 	415.678 	
12.1513 	-0.207911 	-0.541153 	-0.135548 	1.9147 	0.24908 	-2.04055 	90.1866 	62.2788 	59.749 	268.777 	361.007 	284.902 	417.675 	
12.254 	-0.205845 	-0.539506 	-0.138741 	1.91029 	0.246722 	-2.05762 	90.1866 	62.2789 	58.6459 	268.777 	361.007 	284.902 	419.664 	
12.3568 	-0.203716 	-0.537876 	-0.141901 	1.90593 	0.244289 	-2.07472 	90.1866 	62.2789 	57.6523 	268.777 	361.007 	284.902 	421.867 	
12.4603 	-0.201526 	-0.536263 	-0.145028 	1.90162 	0.241781 	-2.09183 	90.1866 	62.2789 	56.6544 	268.777 	361.007 	284.902 	423.875 	
12.5632 	-0.199274 	-0.534668 	-0.14812 	1.89736 	0.239199 	-2.10897 	90.1866 	62.279 	55.5607 	268.777 	361.007 	284.902 	425.868 	
12.6665 	-0.196962 	-0.533092 	-0.151177 	1.89315 	0.236544 	-2.12612 	90.1866 	62.2789 	54.5657 	268.777 	361.007 	284.902 	428.083 	
12.7736 	-0.19459 	-0.531534 	-0.154198 	1.889 	0.233817 	-2.14331 	90.1866 	62.279 	53.461 	268.777 	361.007 	284.901 	430.066 	
12.8766 	-0.19216 	-0.529996 	-0.157182 	1.88489 	0.231019 	-2.16051 	90.1866 	62.279 	52.4747 	268.777 	361.007 	284.901 	432.28 	
12.9796 	-0.189671 	-0.528477 	-0.160127 	1.88084 	0.22815 	-2.17774 	90.1866 	62.279 	51.4717 	268.777 	361.007 	284.901 	434.277 	
13.083 	-0.187125 	-0.526979 	-0.163034 	1.87684 	0.225213 	-2.19499 	90.1866 	62.279 	50.4711 	268.777 	361.007 	284.901 	436.282 	
13.1861 	-0.184522 	-0.525501 	-0.1659 	1.87291 	0.222207 	-2.21227 	90.1866 	62.279 	49.3724 	268.777 	361.007 	284.901 	438.475 	
13.2893 	-0.181863 	-0.524045 	-0.168726 	1.86902 	0.219133 	-2.22957 	90.1866 	62.279 	48.3746 	268.777 	361.007 	284.901 	440.481 	
13.3925 	-0.179149 	-0.52261 	-0.171511 	1.8652 	0.215994 	-2.2469 	90.1866 	62.279 	47.3699 	268.777 	361.007 	284.9 	442.471 	
13.4956 	-0.176381 	-0.521197 	-0.174252 	1.86144 	0.212789 	-2.26425 	90.1866 	62.279 	46.2819 	268.777 	361.007 	284.9 	444.483 	
13.5986 	-0.17356 	-0.519807 	-0.176951 	1.85774 	0.209521 	-2.28162 	90.1866 	62.2791 	45.2844 	268.777 	361.007 	284.9 	446.677 	
13.702 	-0.170686 	-0.51844 	-0.179605 	1.8541 	0.206189 	-2.29902 	90.1866 	62.2791 	44.2853 	268.777 	361.007 	284.9 	448.679 	
13.8053 	-0.16776 	-0.517096 	-0.182215 	1.85052 	0.202796 	-2.31645 	90.1866 	62.2791 	43.1865 	268.777 	361.007 	284.9 	450.68 	
13.9081 	-0.164783 	-0.515775 	-0.184779 	1.847 	0.199342 	-2.3339 	90.1866 	62.2791 	42.1957 	268.777 	361.007 	284.899 	452.86 	
14.0114 	-0.161757 	-0.514479 	-0.187296 	1.84355 	0.195829 	-2.35137 	90.1866 	62.2792 	41.2003 	268.777 	361.007 	284.899 	454.874 	
14.1144 	-0.158681 	-0.513208 	-0.189766 	1.84017 	0.192257 	-2.36887 	90.1866 	62.2792 	40.2043 	268.777 	361.007 	284.899 	456.882 	
14.2179 	-0.155558 	-0.511961 	-0.192188 	1.83685 	0.188628 	-2.38639 	90.1866 	62.2793 	39.1046 	268.777 	361.007 	284.899 	459.076 	
14.3207 	-0.152388 	-0.510739 	-0.194561 	1.8336 	0.184943 	-2.40394 	90.1866 	62.2792 	38.1052 	268.777 	361.007 	284.899 	461.059 	
14.4241 	-0.149171 	-0.509544 	-0.196885 	1.83042 	0.181203 	-2.42151 	90.1866 	62.2792 	37.1172 	268.777 	361.007 	284.899 	463.079 	
14.5271 	-0.145909 	-0.508374 	-0.199159 	1.8273 	0.177409 	-2.43911 	90.1866 	62.2792 	36.0097 	268.777 	361.007 	284.898 	465.094 	
14.6358 	-0.142604 	-0.507231 	-0.201381 	1.82425 	0.173563 	-2.45673 	90.1866 	62.2793 	35.0181 	268.777 	361.007 	284.898 	467.265 	
14.7382 	-0.139255 	-0.506114 	-0.203552 	1.82128 	0.169665 	-2.47437 	90.1866 	62.2793 	33.9187 	268.777 	361.007 	284.898 	469.483 	
14.8416 	-0.135864 	-0.505024 	-0.205671 	1.81837 	0.165718 	-2.49203 	90.1866 	62.2794 	32.9223 	268.777 	361.006 	284.898 	471.49 	
14.9474 	-0.132432 	-0.503962 	-0.207737 	1.81554 	0.161721 	-2.50972 	90.1866 	62.2794 	31.8293 	268.777 	361.006 	284.897 	473.293 	
15.0517 	-0.125448 	-0.501921 	-0.211708 	1.81009 	0.153588 	-2.54517 	90.1866 	62.2794 	31.0303 	268.777 	361.006 	284.897 	475.667 	
15.1547 	-0.121899 	-0.500943 	-0.213612 	1.80747 	0.149453 	-2.56292 	90.1866 	62.2794 	29.8314 	268.777 	361.006 	284.896 	477.682 	
15.2581 	-0.118314 	-0.499994 	-0.215461 	1.80493 	0.145274 	-2.5807 	90.1866 	62.2794 	28.732 	268.777 	361.006 	284.895 	479.675 	
15.3611 	-0.114692 	-0.499073 	-0.217253 	1.80246 	0.141053 	-2.5985 	90.1866 	62.2794 	27.7397 	268.777 	361.006 	284.89 	481.87 	
15.4642 	-0.111036 	-0.498182 	-0.21899 	1.80007 	0.13679 	-2.61632 	90.1866 	62.2795 	26.7434 	268.777 	361.006 	284.885 	483.875 	
15.5675 	-0.107346 	-0.49732 	-0.220669 	1.79775 	0.132488 	-2.63416 	90.1866 	62.2795 	25.6431 	268.777 	361.006 	284.883 	485.884 	
15.6735 	-0.103624 	-0.496488 	-0.222291 	1.79551 	0.128147 	-2.65202 	90.1866 	62.2794 	24.6557 	268.777 	361.006 	284.882 	488.092 	
15.7767 	-0.0998707 	-0.495686 	-0.223855 	1.79334 	0.123769 	-2.6699 	90.1866 	62.2795 	23.6493 	268.777 	361.006 	284.882 	490.073 	
15.88 	-0.0960873 	-0.494914 	-0.225361 	1.79125 	0.119355 	-2.68779 	90.1866 	62.2795 	22.5512 	268.777 	361.006 	284.881 	492.277 	
15.9831 	-0.092275 	-0.494173 	-0.226807 	1.78924 	0.114906 	-2.70571 	90.1866 	62.2795 	21.5552 	268.777 	361.006 	284.88 	494.281 	
16.0862 	-0.0888201 	-0.493532 	-0.228059 	1.78749 	0.110874 	-2.72185 	90.1866 	62.2795 	20.5552 	268.777 	361.006 	284.88 	496.279 	
16.1895 	-0.0845681 	-0.492783 	-0.229522 	1.78544 	0.10591 	-2.74159 	90.1866 	62.2795 	19.4627 	268.777 	361.006 	284.88 	498.286 	
16.2926 	-0.0810662 	-0.492198 	-0.230666 	1.78384 	0.101821 	-2.75776 	90.1866 	62.2795 	18.4685 	268.777 	361.006 	284.879 	500.469 	
16.3957 	-0.0767594 	-0.491517 	-0.231997 	1.78196 	0.0967916 	-2.77754 	90.1866 	62.2795 	17.4729 	268.777 	361.006 	284.879 	502.481 	
16.4988 	-0.0732148 	-0.490989 	-0.233031 	1.7805 	0.092651 	-2.79374 	90.1866 	62.2795 	16.3702 	268.777 	361.006 	284.879 	504.489 	
16.602 	-0.0692556 	-0.490431 	-0.234122 	1.77894 	0.088025 	-2.81175 	90.1866 	62.2796 	15.3743 	268.777 	361.006 	284.879 	506.682 	
16.7049 	-0.0648764 	-0.489855 	-0.235251 	1.77733 	0.082907 	-2.83158 	90.1866 	62.2796 	14.3841 	268.777 	361.006 	284.878 	508.683 	
16.8082 	-0.0612759 	-0.489413 	-0.23612 	1.77608 	0.078698 	-2.84781 	90.1866 	62.2796 	13.3859 	268.777 	361.006 	284.878 	510.694 	
16.9111 	-0.057258 	-0.488952 	-0.237025 	1.77477 	0.0739997 	-2.86586 	90.1866 	62.2796 	12.2862 	268.777 	361.006 	284.878 	512.886 	
17.0146 	-0.0532229 	-0.488523 	-0.237868 	1.77353 	0.0692799 	-2.88392 	90.1866 	62.2796 	11.29 	268.777 	361.006 	284.878 	514.87 	
17.1177 	-0.0491719 	-0.488127 	-0.238649 	1.77238 	0.0645402 	-2.902 	90.1866 	62.2796 	10.2962 	268.777 	361.006 	284.878 	516.895 	
17.2209 	-0.0451063 	-0.487763 	-0.239366 	1.77131 	0.0597818 	-2.92008 	90.1866 	62.2796 	9.19189 	268.777 	361.006 	284.878 	518.883 	
17.3239 	-0.0410273 	-0.487432 	-0.240021 	1.77032 	0.055006 	-2.93818 	90.1866 	62.2796 	8.19395 	268.777 	361.006 	284.878 	521.065 	
17.4269 	-0.0369361 	-0.487133 	-0.240612 	1.7694 	0.0502143 	-2.95628 	90.1866 	62.2796 	7.20137 	268.777 	361.006 	284.878 	523.094 	
17.5366 	-0.0328339 	-0.486868 	-0.241139 	1.76857 	0.045408 	-2.97439 	90.1866 	62.2797 	6.11191 	268.777 	361.006 	284.877 	525.297 	
17.6392 	-0.0283104 	-0.486613 	-0.241646 	1.76775 	0.0401058 	-2.99432 	90.1866 	62.2796 	5.10693 	268.777 	361.006 	284.877 	527.286 	
17.7435 	-0.0246018 	-0.486435 	-0.242003 	1.76716 	0.0357569 	-3.01063 	90.1866 	62.2796 	4.00693 	268.777 	361.006 	284.877 	529.491 	
17.848 	-0.0204744 	-0.486269 	-0.24234 	1.76657 	0.030915 	-3.02876 	90.1866 	62.2797 	3.01279 	268.777 	361.006 	284.877 	531.477 	
17.9523 	-0.0122031 	-0.486035 	-0.24282 	1.76564 	0.021205 	-3.06504 	90.1866 	62.2797 	1.91484 	268.778 	361.006 	284.877 	533.691 	
18.055 	-0.00806165 	-0.485968 	-0.242964 	1.7653 	0.0163396 	-3.08319 	90.1866 	62.2797 	0.925586 	268.777 	361.006 	284.877 	535.688 	
18.1576 	-0.00449828 	-0.485937 	-0.243036 	1.76507 	0.0121514 	-3.10368 	90.1866 	62.2797 	-0.00625 	268.778 	361.006 	284.877 	537.685 	
18.2601 	-0.00358656 	-0.485933 	-0.243047 	1.76502 	0.0110795 	-3.12467 	90.1866 	62.2797 	-0.471875 	268.777 	361.006 	284.877 	539.361 	
18.2867 	-0.00358656 	-0.485933 	-0.243047 	1.76502 	0.0110795 	-3.12467 	90.1866 	62.2798 	-0.512207 	268.777 	361.006 	284.877 	539.546 	
18.3892 	-0.0038208 	-0.4869 	-0.241233 	1.7654 	0.0103029 	-3.1254 	90.1844 	62.4951 	-0.546289 	269.015 	361.002 	284.862 	539.688 	
18.4923 	-0.00377373 	-0.490098 	-0.234831 	1.76539 	0.0104968 	-3.12535 	90.1843 	63.4017 	-0.555273 	269.943 	361.002 	284.841 	539.722 	
18.5957 	-0.00372736 	-0.493184 	-0.228375 	1.76539 	0.0106915 	-3.1253 	90.1843 	64.3984 	-0.563086 	270.907 	361.001 	284.84 	539.725 	
18.6985 	-0.0036817 	-0.496157 	-0.221866 	1.76539 	0.0108871 	-3.12525 	90.1843 	65.3603 	-0.566602 	271.896 	361.001 	284.839 	539.726 	
18.802 	-0.00363676 	-0.499015 	-0.215306 	1.76539 	0.0110835 	-3.12521 	90.1842 	66.4698 	-0.567383 	273.001 	361.001 	284.838 	539.727 	
18.905 	-0.00359256 	-0.501759 	-0.208697 	1.76539 	0.0112806 	-3.12517 	90.1842 	67.458 	-0.567773 	274.001 	361 	284.837 	539.727 	
19.0081 	-0.00354912 	-0.504386 	-0.202042 	1.76539 	0.0114783 	-3.12513 	90.1842 	68.454 	-0.568164 	274.995 	361 	284.837 	539.727 	
19.1113 	-0.00350643 	-0.506897 	-0.195341 	1.76539 	0.0116767 	-3.1251 	90.1842 	69.4504 	-0.568555 	275.998 	361 	284.837 	539.728 	
19.2144 	-0.00346452 	-0.509291 	-0.188598 	1.76539 	0.0118756 	-3.12507 	90.1842 	70.5496 	-0.568652 	277.097 	361 	284.836 	539.728 	
19.3175 	-0.00342341 	-0.511567 	-0.181814 	1.76539 	0.012075 	-3.12504 	90.1841 	71.5351 	-0.568848 	278.099 	360.999 	284.836 	539.728 	
19.4206 	-0.00338309 	-0.513724 	-0.174991 	1.76539 	0.0122748 	-3.12502 	90.1841 	72.5375 	-0.568848 	279.104 	360.999 	284.836 	539.728 	
19.5239 	-0.00334359 	-0.515762 	-0.168132 	1.76539 	0.0124749 	-3.125 	90.1841 	73.6306 	-0.569043 	280.204 	360.999 	284.836 	539.728 	
19.6268 	-0.00330492 	-0.517679 	-0.161238 	1.76539 	0.0126754 	-3.12499 	90.1841 	74.6378 	-0.569043 	281.196 	360.999 	284.836 	539.728 	
19.7366 	-0.00326709 	-0.519476 	-0.154311 	1.76539 	0.0128761 	-3.12497 	90.1841 	75.7265 	-0.569141 	282.303 	360.999 	284.836 	539.728 	
19.8391 	-0.0032301 	-0.521152 	-0.147355 	1.76539 	0.013077 	-3.12497 	90.1841 	76.7278 	-0.569238 	283.297 	360.999 	284.836 	539.728 	
19.943 	-0.00319398 	-0.522706 	-0.14037 	1.76539 	0.013278 	-3.12496 	90.1841 	77.8313 	-0.569238 	284.4 	360.999 	284.836 	539.729 	
20.0476 	-0.00315873 	-0.524138 	-0.133359 	1.76539 	0.013479 	-3.12496 	90.1841 	78.8134 	-0.569336 	285.389 	360.999 	284.836 	539.729 	
20.1518 	-0.00309089 	-0.526634 	-0.119268 	1.76539 	0.013881 	-3.12497 	90.1841 	79.8236 	-0.569336 	286.395 	360.999 	284.836 	539.729 	
20.2544 	-0.00305832 	-0.527697 	-0.112191 	1.76539 	0.0140819 	-3.12498 	90.1841 	80.9029 	-0.569434 	287.501 	360.999 	284.836 	539.729 	
20.3564 	-0.00302667 	-0.528637 	-0.105098 	1.76539 	0.0142825 	-3.12499 	90.1841 	81.9115 	-0.569434 	288.502 	360.999 	284.835 	539.729 	
20.4603 	-0.00299594 	-0.529452 	-0.0979889 	1.76539 	0.0144829 	-3.12501 	90.1841 	82.8937 	-0.569531 	289.505 	360.999 	284.835 	539.729 	
20.5631 	-0.00296614 	-0.530144 	-0.0908666 	1.76539 	0.014683 	-3.12502 	90.1841 	83.9082 	-0.569629 	290.498 	360.999 	284.835 	539.729 	
20.6663 	-0.00293728 	-0.53071 	-0.0837336 	1.76539 	0.0148828 	-3.12505 	90.1841 	84.9975 	-0.569727 	291.599 	360.999 	284.835 	539.729 	
20.7744 	-0.00290937 	-0.531153 	-0.0765915 	1.76539 	0.015082 	-3.12507 	90.1841 	86.1052 	-0.569727 	292.694 	360.999 	284.835 	539.729 	
20.8774 	-0.00288243 	-0.53147 	-0.069443 	1.7654 	0.0152808 	-3.1251 	90.1841 	87.0941 	-0.569824 	293.704 	360.999 	284.835 	539.729 	
20.9808 	-0.00285645 	-0.531663 	-0.06229 	1.7654 	0.0154791 	-3.12514 	90.1841 	88.0926 	-0.569824 	294.7 	360.999 	284.835 	539.729 	
21.0838 	-0.00283144 	-0.531731 	-0.0551347 	1.7654 	0.0156767 	-3.12518 	90.184 	89.104 	-0.569922 	295.703 	360.999 	284.835 	539.729 	
21.1869 	-0.00280742 	-0.531674 	-0.0479793 	1.7654 	0.0158736 	-3.12522 	90.184 	90.1967 	-0.569922 	296.8 	360.999 	284.835 	539.729 	
21.29 	-0.00278439 	-0.531492 	-0.040826 	1.7654 	0.0160698 	-3.12526 	90.184 	91.201 	-0.569922 	297.795 	360.999 	284.835 	539.729 	
21.3932 	-0.00276235 	-0.531185 	-0.0336768 	1.7654 	0.0162652 	-3.12531 	90.184 	92.1876 	-0.57002 	298.803 	360.999 	284.835 	539.729 	
21.4964 	-0.00274132 	-0.530754 	-0.0265343 	1.7654 	0.0164598 	-3.12536 	90.184 	93.2953 	-0.57002 	299.899 	360.999 	284.835 	539.729 	
21.5996 	-0.0027213 	-0.530198 	-0.0194003 	1.7654 	0.0166534 	-3.12541 	90.184 	94.281 	-0.57002 	300.902 	360.999 	284.835 	539.729 	
21.7027 	-0.0027023 	-0.529517 	-0.0122771 	1.7654 	0.0168461 	-3.12547 	90.184 	95.3016 	-0.570117 	301.896 	360.999 	284.835 	539.729 	
21.8061 	-0.00268432 	-0.528713 	-0.00516681 	1.7654 	0.0170377 	-3.12553 	90.184 	96.385 	-0.570117 	302.901 	360.999 	284.835 	539.729 	
21.9089 	-0.00266737 	-0.527784 	0.00192839 	1.76541 	0.0172282 	-3.12559 	90.184 	97.4041 	-0.570117 	303.999 	360.999 	284.835 	539.729 	
22.012 	-0.00265144 	-0.526732 	0.00900608 	1.76541 	0.0174176 	-3.12566 	90.184 	98.3924 	-0.570117 	304.998 	360.999 	284.835 	539.729 	
22.1152 	-0.00263656 	-0.525556 	0.0160646 	1.76541 	0.0176058 	-3.12573 	90.184 	99.4011 	-0.570117 	306.001 	360.999 	284.835 	539.729 	
22.2184 	-0.00262272 	-0.524257 	0.0231013 	1.76541 	0.0177928 	-3.12581 	90.184 	100.502 	-0.570215 	307.101 	360.999 	284.835 	539.729 	
22.3214 	-0.00260992 	-0.522836 	0.0301144 	1.76541 	0.0179783 	-3.12588 	90.184 	101.494 	-0.570215 	308.109 	360.999 	284.835 	539.729 	
22.4245 	-0.00259818 	-0.521293 	0.0371016 	1.76541 	0.0181626 	-3.12596 	90.184 	102.51 	-0.570215 	309.105 	360.999 	284.835 	539.729 	
22.5277 	-0.00258749 	-0.519627 	0.0440608 	1.76541 	0.0183454 	-3.12605 	90.184 	103.594 	-0.570215 	310.201 	360.999 	284.835 	539.729 	
22.6321 	-0.00257786 	-0.517841 	0.0509898 	1.76542 	0.0185267 	-3.12614 	90.184 	104.611 	-0.570215 	311.203 	360.999 	284.835 	539.729 	
22.7361 	-0.00256929 	-0.515934 	0.0578866 	1.76542 	0.0187064 	-3.12623 	90.184 	105.597 	-0.570215 	312.205 	360.999 	284.835 	539.729 	
22.8389 	-0.00256178 	-0.513907 	0.0647492 	1.76542 	0.0188846 	-3.12632 	90.184 	106.723 	-0.570215 	313.295 	360.999 	284.835 	539.729 	
22.9419 	-0.00255533 	-0.51176 	0.0715753 	1.76542 	0.0190611 	-3.12641 	90.184 	107.708 	-0.570215 	314.311 	360.999 	284.835 	539.729 	
23.0475 	-0.00254564 	-0.507111 	0.0851098 	1.76543 	0.0194089 	-3.12662 	90.184 	108.819 	-0.570312 	315.3 	360.999 	284.835 	539.729 	
23.1517 	-0.0025424 	-0.50461 	0.0918142 	1.76543 	0.0195801 	-3.12672 	90.1839 	109.805 	-0.570312 	316.401 	360.999 	284.835 	539.729 	
23.2541 	-0.00254426 	-0.505635 	0.0998389 	1.75438 	0.0196396 	-3.12678 	90.1839 	110.82 	-0.570312 	317.136 	360.999 	284.835 	539.729 	
23.3562 	-0.00254806 	-0.508331 	0.107803 	1.73868 	0.0196357 	-3.1268 	90.1839 	111.832 	-0.570312 	317.278 	360.999 	284.835 	539.729 	
23.4597 	-0.00255246 	-0.511457 	0.117592 	1.71948 	0.0196315 	-3.12683 	90.1839 	112.924 	-0.570312 	317.305 	360.999 	284.835 	539.729 	
23.5627 	-0.00255623 	-0.514135 	0.126542 	1.70203 	0.019628 	-3.12685 	90.1839 	113.926 	-0.570312 	317.308 	360.999 	284.835 	539.729 	
23.6659 	-0.00255944 	-0.516411 	0.134636 	1.68632 	0.0196253 	-3.12687 	90.1839 	114.925 	-0.570312 	317.312 	360.999 	284.835 	539.729 	
23.7741 	-0.00256311 	-0.51902 	0.144576 	1.66712 	0.0196224 	-3.1269 	90.1839 	116.026 	-0.570312 	317.318 	360.999 	284.835 	539.729 	
23.7968 	-0.00256311 	-0.51902 	0.144576 	1.66712 	0.0196224 	-3.1269 	90.1839 	116.214 	-0.570312 	317.319 	360.999 	284.835 	539.729 	
23.9005 	-0.00238345 	-0.520671 	0.147309 	1.65941 	0.0199352 	-3.12692 	90.1749 	116.563 	-0.570312 	317.072 	360.999 	284.835 	539.729 	
24.0034 	-0.00238937 	-0.526701 	0.150362 	1.64021 	0.0197455 	-3.12682 	90.1634 	116.606 	-0.570312 	316.249 	360.999 	284.835 	539.729 	
24.1066 	-0.00239599 	-0.53213 	0.153237 	1.62276 	0.0195714 	-3.12674 	90.1516 	116.606 	-0.570312 	315.276 	360.999 	284.834 	539.729 	
24.2095 	-0.00240379 	-0.537509 	0.156207 	1.6053 	0.0193959 	-3.12666 	90.15 	116.608 	-0.570312 	314.196 	360.999 	284.834 	539.729 	
24.3129 	-0.00241182 	-0.542305 	0.15896 	1.58959 	0.0192368 	-3.12659 	90.1493 	116.609 	-0.570312 	313.206 	360.999 	284.834 	539.729 	
24.4159 	-0.00242186 	-0.547582 	0.162106 	1.57214 	0.0190588 	-3.12651 	90.1491 	116.609 	-0.57041 	312.203 	360.999 	284.834 	539.729 	
24.5191 	-0.00243308 	-0.552804 	0.165344 	1.55468 	0.0188794 	-3.12644 	90.1488 	116.609 	-0.57041 	311.203 	360.999 	284.834 	539.729 	
24.6225 	-0.00244676 	-0.558482 	0.169011 	1.53548 	0.0186807 	-3.12636 	90.1486 	116.609 	-0.57041 	310.113 	360.999 	284.834 	539.729 	
24.7252 	-0.002459 	-0.563074 	0.172091 	1.51978 	0.018517 	-3.1263 	90.1485 	116.609 	-0.57041 	309.11 	360.999 	284.834 	539.729 	
24.8287 	-0.00247371 	-0.568119 	0.175598 	1.50232 	0.0183342 	-3.12624 	90.1483 	116.609 	-0.57041 	308.117 	360.999 	284.834 	539.729 	
24.936 	-0.00248958 	-0.573102 	0.179193 	1.48487 	0.0181502 	-3.12618 	90.1483 	116.609 	-0.57041 	307.021 	360.999 	284.834 	539.729 	
25.0395 	-0.00250837 	-0.57851 	0.183247 	1.46567 	0.0179467 	-3.12612 	90.1483 	116.609 	-0.57041 	306.021 	360.999 	284.834 	539.729 	
25.1436 	-0.00252477 	-0.582876 	0.18664 	1.44996 	0.0177793 	-3.12607 	90.1482 	116.609 	-0.57041 	304.925 	360.999 	284.834 	539.729 	
25.2484 	-0.00254607 	-0.588139 	0.19088 	1.43076 	0.0175738 	-3.12602 	90.1482 	116.609 	-0.57041 	303.934 	360.999 	284.834 	539.729 	
25.3521 	-0.00258609 	-0.597035 	0.198439 	1.3976 	0.0172165 	-3.12593 	90.1482 	116.609 	-0.57041 	302.839 	360.999 	284.834 	539.729 	
25.4551 	-0.00260879 	-0.601615 	0.202534 	1.38014 	0.0170273 	-3.12589 	90.1482 	116.609 	-0.57041 	301.837 	360.999 	284.834 	539.729 	
25.5579 	-0.00263261 	-0.606122 	0.206709 	1.36269 	0.0168375 	-3.12586 	90.1481 	116.609 	-0.57041 	300.848 	360.999 	284.834 	539.729 	
25.6603 	-0.00265753 	-0.610557 	0.210962 	1.34523 	0.0166471 	-3.12582 	90.1481 	116.609 	-0.57041 	299.849 	360.999 	284.834 	539.729 	
25.7634 	-0.00268355 	-0.614916 	0.215292 	1.32778 	0.0164561 	-3.12579 	90.148 	116.609 	-0.57041 	298.761 	360.999 	284.834 	539.729 	
25.8667 	-0.00271067 	-0.619199 	0.219697 	1.31033 	0.0162646 	-3.12577 	90.148 	116.609 	-0.57041 	297.757 	360.999 	284.834 	539.729 	
25.9738 	-0.00273887 	-0.623405 	0.224177 	1.29287 	0.0160727 	-3.12574 	90.148 	116.609 	-0.57041 	296.665 	360.999 	284.834 	539.729 	
26.0771 	-0.00276815 	-0.627531 	0.228728 	1.27542 	0.0158805 	-3.12573 	90.1479 	116.609 	-0.57041 	295.664 	360.999 	284.834 	539.729 	
26.18 	-0.0027985 	-0.631578 	0.233352 	1.25797 	0.0156879 	-3.12571 	90.1479 	116.609 	-0.57041 	294.672 	360.999 	284.834 	539.729 	
26.2834 	-0.0028299 	-0.635543 	0.238045 	1.24051 	0.015495 	-3.1257 	90.1479 	116.608 	-0.57041 	293.568 	360.999 	284.834 	539.729 	
26.3862 	-0.00286235 	-0.639426 	0.242806 	1.22306 	0.015302 	-3.12569 	90.1479 	116.608 	-0.57041 	292.572 	360.999 	284.834 	539.729 	
26.4893 	-0.00289585 	-0.643225 	0.247635 	1.20561 	0.0151088 	-3.12568 	90.1479 	116.608 	-0.57041 	291.574 	360.999 	284.834 	539.729 	
26.5926 	-0.00293037 	-0.64694 	0.252529 	1.18815 	0.0149155 	-3.12568 	90.1479 	116.608 	-0.57041 	290.486 	360.999 	284.834 	539.729 	
26.6956 	-0.00296591 	-0.650568 	0.257488 	1.1707 	0.0147222 	-3.12568 	90.1479 	116.608 	-0.57041 	289.492 	360.999 	284.834 	539.729 	
26.7985 	-0.00300245 	-0.654109 	0.262509 	1.15325 	0.0145289 	-3.12568 	90.1479 	116.608 	-0.57041 	288.494 	360.999 	284.834 	539.729 	
26.9022 	-0.00304 	-0.657562 	0.267591 	1.13579 	0.0143357 	-3.12569 	90.1478 	116.608 	-0.57041 	287.494 	360.999 	284.834 	539.729 	
27.0051 	-0.00307852 	-0.660926 	0.272732 	1.11834 	0.0141427 	-3.1257 	90.1478 	116.608 	-0.57041 	286.397 	360.999 	284.834 	539.729 	
27.1082 	-0.00311803 	-0.6642 	0.277932 	1.10089 	0.0139499 	-3.12571 	90.1478 	116.608 	-0.57041 	285.405 	360.999 	284.834 	539.729 	
27.2114 	-0.00315849 	-0.667382 	0.283187 	1.08343 	0.0137574 	-3.12573 	90.1478 	116.608 	-0.57041 	284.407 	360.999 	284.834 	539.729 	
27.3144 	-0.0031999 	-0.670472 	0.288498 	1.06598 	0.0135652 	-3.12575 	90.1478 	116.607 	-0.570508 	283.305 	360.999 	284.834 	539.729 	
27.4176 	-0.00324224 	-0.673469 	0.293861 	1.04853 	0.0133733 	-3.12577 	90.1478 	116.607 	-0.570508 	282.31 	360.999 	284.834 	539.729 	
27.5207 	-0.00328551 	-0.676372 	0.299276 	1.03107 	0.013182 	-3.1258 	90.1478 	116.607 	-0.570508 	281.313 	360.999 	284.834 	539.729 	
27.6238 	-0.00332969 	-0.67918 	0.304741 	1.01362 	0.0129911 	-3.12583 	90.1478 	116.607 	-0.570508 	280.221 	360.999 	284.834 	539.729 	
27.7271 	-0.00337477 	-0.681892 	0.310254 	0.996168 	0.0128008 	-3.12586 	90.1478 	116.607 	-0.570508 	279.226 	360.999 	284.834 	539.729 	
27.8351 	-0.00342073 	-0.684507 	0.315814 	0.978715 	0.0126111 	-3.1259 	90.1478 	116.607 	-0.570508 	278.129 	360.998 	284.834 	539.729 	
27.9392 	-0.00346756 	-0.687025 	0.321418 	0.961263 	0.0124221 	-3.12594 	90.1478 	116.606 	-0.570508 	277.132 	360.998 	284.834 	539.729 	
28.0422 	-0.00351524 	-0.689445 	0.327065 	0.94381 	0.0122338 	-3.12599 	90.1478 	116.606 	-0.570508 	276.132 	360.998 	284.834 	539.729 	
28.1485 	-0.00356376 	-0.691766 	0.332754 	0.926357 	0.0120464 	-3.12603 	90.1477 	116.606 	-0.570508 	275.035 	360.998 	284.834 	539.729 	
28.2516 	-0.00361311 	-0.693987 	0.338482 	0.908905 	0.0118597 	-3.12608 	90.1477 	116.606 	-0.570508 	274.043 	360.998 	284.834 	539.729 	
28.3543 	-0.00366327 	-0.696108 	0.344249 	0.891452 	0.011674 	-3.12614 	90.1477 	116.606 	-0.570508 	272.948 	360.998 	284.834 	539.73 	
28.4566 	-0.00376595 	-0.700046 	0.355888 	0.856547 	0.0113055 	-3.12625 	90.1477 	116.606 	-0.570508 	271.947 	360.998 	284.834 	539.73 	
28.5599 	-0.00381845 	-0.701863 	0.361757 	0.839094 	0.0111229 	-3.12632 	90.1477 	116.605 	-0.570508 	270.951 	360.998 	284.834 	539.73 	
28.663 	-0.00387169 	-0.703576 	0.367658 	0.821641 	0.0109413 	-3.12638 	90.1476 	116.605 	-0.570508 	269.95 	360.998 	284.834 	539.73 	
28.7662 	-0.00392567 	-0.705186 	0.373587 	0.804189 	0.010761 	-3.12645 	90.1476 	116.605 	-0.570508 	268.858 	360.998 	284.834 	539.73 	
28.8741 	-0.00398036 	-0.706693 	0.379543 	0.786737 	0.0105819 	-3.12653 	90.1476 	116.605 	-0.570508 	267.856 	360.998 	284.834 	539.73 	
28.9773 	-0.00403575 	-0.708095 	0.385525 	0.769284 	0.0104041 	-3.1266 	90.1476 	116.605 	-0.570508 	266.769 	360.998 	284.834 	539.73 	
29.0805 	-0.00409182 	-0.709393 	0.39153 	0.751832 	0.0102277 	-3.12668 	90.1476 	116.604 	-0.570508 	265.765 	360.998 	284.834 	539.73 	
29.1835 	-0.00414855 	-0.710585 	0.397557 	0.734379 	0.0100526 	-3.12676 	90.1476 	116.604 	-0.570508 	264.779 	360.998 	284.834 	539.73 	
29.2866 	-0.00420593 	-0.711673 	0.403604 	0.716927 	0.00987902 	-3.12685 	90.1476 	116.604 	-0.570605 	263.678 	360.998 	284.834 	539.73 	
29.3898 	-0.00426394 	-0.712654 	0.409669 	0.699474 	0.00970694 	-3.12694 	90.1476 	116.604 	-0.570605 	262.682 	360.998 	284.834 	539.73 	
29.493 	-0.00432257 	-0.71353 	0.41575 	0.682022 	0.00953643 	-3.12703 	90.1476 	116.603 	-0.570605 	261.676 	360.998 	284.834 	539.73 	
29.5961 	-0.00438178 	-0.714299 	0.421846 	0.664569 	0.00936753 	-3.12712 	90.1476 	116.603 	-0.570605 	260.579 	360.998 	284.834 	539.73 	
29.6994 	-0.00444158 	-0.714962 	0.427954 	0.647117 	0.0092003 	-3.12722 	90.1475 	116.602 	-0.570605 	259.579 	360.998 	284.834 	539.73 	
29.8026 	-0.00450193 	-0.715518 	0.434072 	0.629665 	0.00903479 	-3.12732 	90.1475 	116.601 	-0.570605 	258.586 	360.998 	284.834 	539.73 	
29.9056 	-0.00456282 	-0.715967 	0.4402 	0.612212 	0.00887104 	-3.12742 	90.1475 	116.6 	-0.570605 	257.586 	360.998 	284.834 	539.73 	
30.0086 	-0.00462423 	-0.716309 	0.446334 	0.59476 	0.00870911 	-3.12753 	90.1475 	116.599 	-0.570605 	256.491 	360.998 	284.834 	539.73 	
30.1117 	-0.00468614 	-0.716545 	0.452474 	0.577308 	0.00854904 	-3.12764 	90.1475 	116.598 	-0.570605 	255.494 	360.998 	284.834 	539.73 	
30.2153 	-0.00474854 	-0.716672 	0.458616 	0.559855 	0.0083909 	-3.12775 	90.1475 	116.597 	-0.570605 	254.497 	360.998 	284.834 	539.73 	
30.3181 	-0.0048114 	-0.716693 	0.46476 	0.542403 	0.00823471 	-3.12786 	90.1475 	116.596 	-0.570605 	253.403 	360.998 	284.834 	539.73 	
30.4211 	-0.0048747 	-0.716606 	0.470903 	0.524951 	0.00808054 	-3.12798 	90.1475 	116.596 	-0.570605 	252.404 	360.998 	284.834 	539.73 	
30.5241 	-0.00493844 	-0.716413 	0.477044 	0.507498 	0.00792842 	-3.1281 	90.1474 	116.595 	-0.570605 	251.408 	360.998 	284.834 	539.73 	
30.6276 	-0.00500257 	-0.716112 	0.483181 	0.490046 	0.00777842 	-3.12822 	90.1474 	116.594 	-0.570703 	250.308 	360.998 	284.835 	539.73 	
30.7383 	-0.0050671 	-0.715704 	0.489311 	0.472594 	0.00763056 	-3.12834 	90.1474 	116.594 	-0.570703 	249.305 	360.998 	284.835 	539.73 	
30.8412 	-0.00513199 	-0.715189 	0.495433 	0.455141 	0.0074849 	-3.12847 	90.1474 	116.593 	-0.570703 	248.207 	360.998 	284.835 	539.73 	
30.9474 	-0.00519723 	-0.714567 	0.501545 	0.437689 	0.00734148 	-3.1286 	90.1474 	116.592 	-0.570703 	247.106 	360.998 	284.835 	539.73 	
31.0514 	-0.0052628 	-0.713839 	0.507646 	0.420236 	0.00720034 	-3.12873 	90.1474 	116.592 	-0.570703 	246.116 	360.998 	284.835 	539.73 	
31.1533 	-0.00539484 	-0.712063 	0.519804 	0.385332 	0.00692508 	-3.129 	90.1474 	116.591 	-0.570703 	245.109 	360.998 	284.835 	539.73 	
31.2559 	-0.00546127 	-0.711016 	0.525858 	0.36788 	0.00679105 	-3.12914 	90.1474 	116.59 	-0.570703 	244.111 	360.998 	284.835 	539.73 	
31.3591 	-0.00552794 	-0.709864 	0.531893 	0.350427 	0.00665946 	-3.12928 	90.1474 	116.589 	-0.570703 	243.012 	360.998 	284.835 	539.73 	
31.4621 	-0.00559485 	-0.708607 	0.537907 	0.332975 	0.00653037 	-3.12943 	90.1474 	116.588 	-0.570703 	242.021 	360.998 	284.835 	539.73 	
31.5652 	-0.00566196 	-0.707245 	0.543898 	0.315523 	0.00640381 	-3.12957 	90.1474 	116.586 	-0.570801 	241.029 	360.998 	284.836 	539.73 	
31.6731 	-0.00572926 	-0.705778 	0.549864 	0.29807 	0.00627982 	-3.12972 	90.1474 	116.584 	-0.570801 	239.933 	360.998 	284.836 	539.73 	
31.7765 	-0.00579672 	-0.704208 	0.555804 	0.280618 	0.00615844 	-3.12987 	90.1474 	116.583 	-0.570801 	238.929 	360.998 	284.836 	539.73 	
31.8798 	-0.00586432 	-0.702534 	0.561715 	0.263165 	0.00603969 	-3.13002 	90.1474 	116.582 	-0.570801 	237.83 	360.998 	284.836 	539.73 	
31.9827 	-0.00592528 	-0.70094 	0.56701 	0.247458 	0.00593512 	-3.13016 	90.1474 	116.581 	-0.570801 	236.827 	360.998 	284.836 	539.73 	
32.0859 	-0.00599989 	-0.698878 	0.573446 	0.228261 	0.00581029 	-3.13034 	90.1474 	116.58 	-0.570801 	235.829 	360.998 	284.836 	539.73 	
32.189 	-0.00606781 	-0.696897 	0.579261 	0.210808 	0.00569969 	-3.13049 	90.1474 	116.579 	-0.570801 	234.732 	360.998 	284.836 	539.73 	
32.2917 	-0.00612899 	-0.695028 	0.584465 	0.195101 	0.00560253 	-3.13064 	90.1473 	116.579 	-0.570801 	233.731 	360.998 	284.836 	539.73 	
32.3952 	-0.00619701 	-0.692855 	0.590212 	0.177649 	0.00549726 	-3.1308 	90.1473 	116.578 	-0.570801 	232.735 	360.998 	284.836 	539.73 	
32.4986 	-0.00626505 	-0.690583 	0.59592 	0.160196 	0.00539482 	-3.13096 	90.1473 	116.578 	-0.570801 	231.737 	360.998 	284.837 	539.73 	
32.6016 	-0.0063331 	-0.688211 	0.601587 	0.142744 	0.00529527 	-3.13113 	90.1473 	116.578 	-0.570898 	230.632 	360.998 	284.837 	539.73 	
32.7043 	-0.00640792 	-0.685488 	0.607773 	0.123547 	0.00518911 	-3.13131 	90.1473 	116.577 	-0.570898 	229.636 	360.998 	284.837 	539.73 	
32.8079 	-0.00646911 	-0.683172 	0.612794 	0.107839 	0.0051049 	-3.13147 	90.1473 	116.577 	-0.570898 	228.643 	360.998 	284.837 	539.73 	
32.9108 	-0.00654382 	-0.680235 	0.61888 	0.0886417 	0.00500524 	-3.13165 	90.1473 	116.577 	-0.570898 	227.535 	360.998 	284.837 	539.73 	
33.0142 	-0.00660488 	-0.677745 	0.623818 	0.0729344 	0.00492639 	-3.13181 	90.1473 	116.577 	-0.570898 	226.542 	360.998 	284.838 	539.73 	
33.1171 	-0.00667263 	-0.674888 	0.629257 	0.055482 	0.00484166 	-3.13198 	90.1473 	116.577 	-0.570898 	225.534 	360.998 	284.838 	539.73 	
33.2202 	-0.00674025 	-0.671937 	0.634645 	0.0380296 	0.00475996 	-3.13216 	90.1473 	116.576 	-0.570898 	224.448 	360.998 	284.838 	539.73 	
33.3233 	-0.00680773 	-0.668892 	0.639981 	0.0205771 	0.00468134 	-3.13234 	90.1473 	116.576 	-0.570898 	223.44 	360.998 	284.838 	539.73 	
33.4263 	-0.00688177 	-0.665435 	0.645789 	0.00137927 	0.00459843 	-3.13253 	90.1473 	116.576 	-0.570996 	222.432 	360.998 	284.838 	539.73 	
33.5298 	-0.00694218 	-0.662524 	0.65049 	-0.0143279 	0.0045334 	-3.13269 	90.1473 	116.576 	-0.570996 	221.439 	360.998 	284.838 	539.73 	
33.6356 	-0.00701579 	-0.658867 	0.656173 	-0.0335255 	0.00445737 	-3.13289 	90.1473 	116.576 	-0.570996 	220.335 	360.998 	284.839 	539.73 	
33.7385 	-0.00708248 	-0.655448 	0.661278 	-0.0509779 	0.00439157 	-3.13307 	90.1473 	116.576 	-0.570996 	219.339 	360.998 	284.839 	539.73 	
33.8417 	-0.00714228 	-0.652296 	0.665821 	-0.0666852 	0.00433508 	-3.13324 	90.1473 	116.576 	-0.570996 	218.24 	360.998 	284.839 	539.73 	
33.9476 	-0.00721508 	-0.648346 	0.671305 	-0.0858831 	0.00426954 	-3.13344 	90.1473 	116.576 	-0.570996 	217.245 	360.998 	284.839 	539.73 	
34.0526 	-0.00733999 	-0.641279 	0.680595 	-0.119043 	0.00416554 	-3.13379 	90.1473 	116.576 	-0.570996 	216.144 	360.998 	284.839 	539.73 	
34.155 	-0.00740528 	-0.637436 	0.685389 	-0.136495 	0.00411551 	-3.13398 	90.1473 	116.576 	-0.570996 	215.139 	360.998 	284.84 	539.73 	
34.2581 	-0.00747021 	-0.633511 	0.690115 	-0.153948 	0.00406874 	-3.13417 	90.1472 	116.576 	-0.570996 	214.141 	360.998 	284.84 	539.73 	
34.3612 	-0.00753478 	-0.629503 	0.694772 	-0.1714 	0.00402526 	-3.13435 	90.1472 	116.576 	-0.571094 	213.05 	360.998 	284.841 	539.73 	
34.4639 	-0.00759897 	-0.625415 	0.699358 	-0.188853 	0.00398507 	-3.13454 	90.1472 	116.575 	-0.571094 	212.042 	360.998 	284.843 	539.73 	
34.5657 	-0.00766275 	-0.621248 	0.703873 	-0.206305 	0.00394818 	-3.13473 	90.1472 	116.575 	-0.571094 	211.039 	360.998 	284.858 	539.73 	
34.6735 	-0.00772611 	-0.617002 	0.708313 	-0.223758 	0.00391461 	-3.13492 	90.1472 	116.575 	-0.571094 	209.928 	360.998 	284.862 	539.73 	
34.7767 	-0.00778903 	-0.61268 	0.71268 	-0.24121 	0.00388437 	-3.13511 	90.1472 	116.575 	-0.571094 	208.925 	360.998 	284.863 	539.73 	
34.8799 	-0.00785148 	-0.608281 	0.71697 	-0.258663 	0.00385747 	-3.13531 	90.1472 	116.575 	-0.571094 	207.928 	360.998 	284.864 	539.73 	
34.983 	-0.00791345 	-0.603809 	0.721182 	-0.276116 	0.00383391 	-3.1355 	90.1472 	116.575 	-0.571094 	206.829 	360.998 	284.865 	539.73 	
35.0862 	-0.00797493 	-0.599264 	0.725316 	-0.293568 	0.0038137 	-3.13569 	90.1472 	116.575 	-0.571094 	205.828 	360.998 	284.866 	539.73 	
35.1894 	-0.00803588 	-0.594647 	0.72937 	-0.311021 	0.00379685 	-3.13588 	90.1472 	116.575 	-0.571094 	204.828 	360.998 	284.867 	539.73 	
35.2924 	-0.0080963 	-0.589961 	0.733343 	-0.328473 	0.00378336 	-3.13608 	90.1472 	116.575 	-0.571094 	203.735 	360.998 	284.868 	539.73 	
35.3955 	-0.00815616 	-0.585206 	0.737233 	-0.345926 	0.00377324 	-3.13627 	90.1472 	116.575 	-0.571094 	202.739 	360.998 	284.869 	539.73 	
35.4985 	-0.00821545 	-0.580383 	0.74104 	-0.363378 	0.00376649 	-3.13646 	90.1472 	116.575 	-0.571094 	201.732 	360.998 	284.871 	539.73 	
35.6019 	-0.00827414 	-0.575495 	0.744762 	-0.380831 	0.00376311 	-3.13666 	90.1472 	116.575 	-0.571094 	200.724 	360.998 	284.898 	539.73 	
35.7045 	-0.00833223 	-0.570542 	0.748398 	-0.398283 	0.00376311 	-3.13685 	90.1472 	116.575 	-0.571094 	199.633 	360.998 	284.909 	539.73 	
35.808 	-0.00838969 	-0.565527 	0.751947 	-0.415736 	0.00376648 	-3.13704 	90.1472 	116.575 	-0.571094 	198.619 	360.998 	284.911 	539.73 	
35.9111 	-0.0084465 	-0.560451 	0.755408 	-0.433189 	0.00377322 	-3.13724 	90.1472 	116.575 	-0.571094 	197.614 	360.998 	284.913 	539.73 	
36.0144 	-0.00850265 	-0.555315 	0.75878 	-0.450641 	0.00378334 	-3.13743 	90.1472 	116.575 	-0.571094 	196.52 	360.998 	284.914 	539.73 	
36.1176 	-0.00855813 	-0.550121 	0.762062 	-0.468094 	0.00379682 	-3.13762 	90.1472 	116.575 	-0.571094 	195.511 	360.998 	284.915 	539.73 	
36.2203 	-0.0086129 	-0.54487 	0.765252 	-0.485546 	0.00381366 	-3.13781 	90.1471 	116.575 	-0.571094 	194.52 	360.998 	284.915 	539.73 	
36.3235 	-0.00866697 	-0.539565 	0.768351 	-0.502999 	0.00383386 	-3.13801 	90.1471 	116.575 	-0.571191 	193.41 	360.998 	284.917 	539.73 	
36.4267 	-0.0087203 	-0.534206 	0.771356 	-0.520451 	0.00385741 	-3.1382 	90.1471 	116.575 	-0.571191 	192.41 	360.998 	284.918 	539.73 	
36.5348 	-0.00877289 	-0.528796 	0.774267 	-0.537904 	0.00388431 	-3.13839 	90.1471 	116.575 	-0.571191 	191.308 	360.998 	284.92 	539.73 	
36.6378 	-0.00882471 	-0.523336 	0.777084 	-0.555356 	0.00391454 	-3.13858 	90.1471 	116.575 	-0.571191 	190.319 	360.998 	284.922 	539.73 	
36.7409 	-0.00887576 	-0.517827 	0.779805 	-0.572809 	0.0039481 	-3.13877 	90.1471 	116.575 	-0.571191 	189.315 	360.998 	284.924 	539.73 	
36.8437 	-0.00892602 	-0.512272 	0.782429 	-0.590262 	0.00398498 	-3.13896 	90.1471 	116.575 	-0.571191 	188.211 	360.998 	284.926 	539.73 	
36.9481 	-0.00897546 	-0.506671 	0.784956 	-0.607714 	0.00402517 	-3.13915 	90.1471 	116.575 	-0.571191 	187.205 	360.998 	284.927 	539.73 	
37.051 	-0.00907187 	-0.495343 	0.789715 	-0.642619 	0.00411541 	-3.13953 	90.1471 	116.575 	-0.571191 	186.193 	360.998 	284.93 	539.73 	
37.1539 	-0.00911881 	-0.489618 	0.791945 	-0.660072 	0.00416543 	-3.13971 	90.1471 	116.576 	-0.571191 	185.097 	360.998 	284.933 	539.73 	
37.256 	-0.00916487 	-0.483855 	0.794075 	-0.677524 	0.00421871 	-3.1399 	90.1471 	116.576 	-0.571289 	184.089 	360.998 	284.935 	539.73 	
37.3582 	-0.00921006 	-0.478056 	0.796104 	-0.694977 	0.00427522 	-3.14008 	90.1471 	116.576 	-0.571289 	183.082 	360.998 	284.938 	539.73 	
37.4605 	-0.00925435 	-0.472222 	0.798032 	-0.712429 	0.00433495 	-3.14027 	90.1471 	116.576 	-0.571289 	182.085 	360.998 	284.943 	539.73 	
37.5636 	-0.00929773 	-0.466355 	0.799857 	-0.729882 	0.00439787 	-3.14045 	90.1471 	116.576 	-0.571289 	181.079 	360.998 	284.947 	539.73 	
37.667 	-0.00934019 	-0.460458 	0.80158 	-0.747334 	0.00446398 	-3.14063 	90.1471 	116.576 	-0.571289 	179.979 	360.998 	284.949 	539.73 	
37.774 	-0.00938171 	-0.454531 	0.8032 	-0.764787 	0.00453325 	-3.14081 	90.1471 	116.576 	-0.571289 	178.986 	360.998 	284.951 	539.73 	
37.877 	-0.00942229 	-0.448577 	0.804716 	-0.782239 	0.00460565 	-3.14099 	90.1471 	116.576 	-0.571289 	177.872 	360.998 	284.953 	539.73 	
37.9802 	-0.00946191 	-0.442597 	0.806128 	-0.799691 	0.00468117 	-3.14117 	90.1471 	116.576 	-0.571289 	176.872 	360.998 	284.956 	539.73 	
38.0835 	-0.00950056 	-0.436594 	0.807435 	-0.817144 	0.00475979 	-3.14135 	90.1471 	116.576 	-0.571387 	175.864 	360.998 	284.966 	539.73 	
38.1863 	-0.00953822 	-0.430569 	0.808637 	-0.834596 	0.00484148 	-3.14152 	90.1471 	116.576 	-0.571387 	174.762 	360.998 	284.979 	539.73 	
38.2895 	-0.00957489 	-0.424523 	0.809734 	-0.852049 	0.00492621 	3.14149 	90.1471 	116.576 	-0.571387 	173.759 	360.998 	284.987 	539.73 	
38.3925 	-0.00961055 	-0.41846 	0.810726 	-0.869501 	0.00501396 	3.14132 	90.1471 	116.576 	-0.571387 	172.756 	360.998 	284.992 	539.73 	
38.4957 	-0.0096452 	-0.41238 	0.811611 	-0.886954 	0.0051047 	3.14115 	90.1471 	116.576 	-0.571387 	171.647 	360.998 	284.994 	539.73 	
38.5986 	-0.00967881 	-0.406285 	0.81239 	-0.904406 	0.00519841 	3.14098 	90.147 	116.576 	-0.571484 	170.646 	360.998 	284.995 	539.73 	
38.702 	-0.00971139 	-0.400178 	0.813063 	-0.921859 	0.00529506 	3.14081 	90.147 	116.576 	-0.571484 	169.641 	360.998 	284.996 	539.73 	
38.8051 	-0.00974293 	-0.39406 	0.813629 	-0.939311 	0.00539461 	3.14065 	90.147 	116.576 	-0.571484 	168.638 	360.998 	284.997 	539.73 	
38.9083 	-0.0097734 	-0.387933 	0.814088 	-0.956763 	0.00549703 	3.14048 	90.147 	116.576 	-0.571484 	167.533 	360.998 	284.998 	539.73 	
39.0112 	-0.00980281 	-0.381799 	0.81444 	-0.974216 	0.0056023 	3.14032 	90.147 	116.576 	-0.571484 	166.53 	360.998 	284.998 	539.73 	
39.1145 	-0.00983115 	-0.37566 	0.814685 	-0.991668 	0.00571039 	3.14016 	90.147 	116.576 	-0.571582 	165.532 	360.998 	284.999 	539.73 	
39.2177 	-0.00985839 	-0.369517 	0.814822 	-1.00912 	0.00582126 	3.14 	90.147 	116.576 	-0.571582 	164.428 	360.998 	285 	539.73 	
39.3207 	-0.00988455 	-0.363373 	0.814853 	-1.02657 	0.00593487 	3.13985 	90.147 	116.576 	-0.571582 	163.426 	360.998 	285.001 	539.73 	
39.4238 	-0.00990961 	-0.35723 	0.814776 	-1.04403 	0.0060512 	3.13969 	90.147 	116.576 	-0.571582 	162.425 	360.998 	285.003 	539.73 	
39.527 	-0.00993356 	-0.351088 	0.814592 	-1.06148 	0.0061702 	3.13954 	90.147 	116.576 	-0.571582 	161.312 	360.998 	285.005 	539.73 	
39.6352 	-0.00995639 	-0.344951 	0.814301 	-1.07893 	0.00629184 	3.13939 	90.147 	116.576 	-0.571582 	160.308 	360.998 	285.012 	539.73 	
39.7379 	-0.0099781 	-0.33882 	0.813903 	-1.09638 	0.00641608 	3.13924 	90.147 	116.576 	-0.57168 	159.202 	360.998 	285.028 	539.73 	
39.8409 	-0.00999869 	-0.332696 	0.813398 	-1.11383 	0.00654289 	3.13909 	90.147 	116.576 	-0.57168 	158.202 	360.998 	285.039 	539.73 	
39.9474 	-0.0100181 	-0.326583 	0.812786 	-1.13129 	0.00667223 	3.13895 	90.147 	116.576 	-0.57168 	157.097 	360.998 	285.044 	539.73 	
40.0502 	-0.0100364 	-0.320481 	0.812067 	-1.14874 	0.00680406 	3.13881 	90.147 	116.576 	-0.57168 	156.098 	360.998 	285.048 	539.73 	
40.154 	-0.0100536 	-0.314392 	0.811242 	-1.16619 	0.00693833 	3.13867 	90.147 	116.576 	-0.57168 	155.086 	360.998 	285.05 	539.73 	
40.2564 	-0.0100845 	-0.302263 	0.809274 	-1.2011 	0.00721405 	3.1384 	90.147 	116.576 	-0.57168 	154.087 	360.998 	285.052 	539.73 	
40.3593 	-0.0100968 	-0.296829 	0.808251 	-1.2168 	0.00734117 	3.13828 	90.147 	116.576 	-0.57168 	152.977 	360.998 	285.054 	539.73 	
40.4628 	-0.0101107 	-0.29021 	0.806885 	-1.236 	0.00749905 	3.13814 	90.147 	116.577 	-0.57168 	151.973 	360.998 	285.056 	539.73 	
40.5659 	-0.010122 	-0.284216 	0.805532 	-1.25345 	0.00764493 	3.13801 	90.147 	116.577 	-0.57168 	150.974 	360.998 	285.057 	539.73 	
40.6738 	-0.0101322 	-0.278248 	0.804075 	-1.27091 	0.00779301 	3.13789 	90.147 	116.577 	-0.57168 	149.865 	360.998 	285.058 	539.73 	
40.777 	-0.0101412 	-0.272305 	0.802514 	-1.28836 	0.00794322 	3.13777 	90.147 	116.577 	-0.571777 	148.864 	360.998 	285.059 	539.73 	
40.8801 	-0.010149 	-0.26639 	0.80085 	-1.30581 	0.00809554 	3.13765 	90.147 	116.577 	-0.571777 	147.763 	360.998 	285.06 	539.73 	
40.983 	-0.0101557 	-0.260506 	0.799083 	-1.32326 	0.00824991 	3.13753 	90.147 	116.577 	-0.571777 	146.759 	360.998 	285.061 	539.73 	
41.0863 	-0.0101607 	-0.255237 	0.797405 	-1.33897 	0.00839056 	3.13743 	90.147 	116.577 	-0.571777 	145.751 	360.998 	285.062 	539.73 	
41.1895 	-0.0101654 	-0.248834 	0.795242 	-1.35817 	0.00856462 	3.13731 	90.147 	116.577 	-0.571777 	144.649 	360.998 	285.062 	539.73 	
41.2925 	-0.0101683 	-0.243626 	0.793381 	-1.37387 	0.00870876 	3.13721 	90.147 	116.577 	-0.571777 	143.64 	360.998 	285.063 	539.73 	
41.3955 	-0.0101703 	-0.237876 	0.791218 	-1.39133 	0.00887069 	3.1371 	90.147 	116.577 	-0.571777 	142.641 	360.998 	285.065 	539.73 	
41.4986 	-0.0101711 	-0.232164 	0.788954 	-1.40878 	0.00903443 	3.137 	90.147 	116.577 	-0.571875 	141.534 	360.998 	285.067 	539.73 	
41.6019 	-0.0101708 	-0.226492 	0.786592 	-1.42623 	0.00919994 	3.1369 	90.1469 	116.577 	-0.571875 	140.527 	360.998 	285.071 	539.73 	
41.7048 	-0.010169 	-0.220302 	0.783879 	-1.44543 	0.00938399 	3.13679 	90.1469 	116.577 	-0.571875 	139.524 	360.998 	285.076 	539.73 	
41.808 	-0.0101665 	-0.215277 	0.781571 	-1.46114 	0.00953607 	3.13671 	90.1469 	116.577 	-0.571875 	138.519 	360.998 	285.081 	539.73 	
41.9111 	-0.0101626 	-0.209736 	0.778915 	-1.47859 	0.00970658 	3.13662 	90.1469 	116.577 	-0.571875 	137.413 	360.998 	285.086 	539.73 	
42.0143 	-0.0101575 	-0.204243 	0.776162 	-1.49604 	0.00987865 	3.13653 	90.1469 	116.578 	-0.571875 	136.405 	360.998 	285.09 	539.73 	
42.1175 	-0.0101512 	-0.198799 	0.773314 	-1.51349 	0.0100522 	3.13644 	90.1469 	116.578 	-0.571973 	135.403 	360.998 	285.093 	539.73 	
42.2208 	-0.010143 	-0.192869 	0.770072 	-1.53269 	0.0102449 	3.13635 	90.1469 	116.578 	-0.571973 	134.3 	360.998 	285.097 	539.73 	
42.3237 	-0.0101351 	-0.188064 	0.767335 	-1.5484 	0.0104037 	3.13628 	90.1469 	116.578 	-0.571973 	133.296 	360.998 	285.1 	539.73 	
42.4267 	-0.0101253 	-0.182776 	0.764206 	-1.56585 	0.0105815 	3.13621 	90.1469 	116.578 	-0.571973 	132.3 	360.998 	285.102 	539.73 	
42.5351 	-0.0101143 	-0.177544 	0.760985 	-1.5833 	0.0107606 	3.13614 	90.1469 	116.578 	-0.571973 	131.186 	360.998 	285.104 	539.73 	
42.6379 	-0.0101022 	-0.172368 	0.757673 	-1.60076 	0.010941 	3.13607 	90.1469 	116.578 	-0.571973 	130.191 	360.998 	285.105 	539.73 	
42.7408 	-0.0100888 	-0.167252 	0.754272 	-1.61821 	0.0111225 	3.136 	90.1469 	116.578 	-0.57207 	129.086 	360.998 	285.105 	539.73 	
42.8472 	-0.0100587 	-0.157201 	0.747204 	-1.65311 	0.0114889 	3.13588 	90.1469 	116.578 	-0.57207 	128.077 	360.998 	285.106 	539.73 	
42.9522 	-0.0100419 	-0.152269 	0.743539 	-1.67056 	0.0116736 	3.13582 	90.1469 	116.579 	-0.57207 	126.975 	360.998 	285.106 	539.73 	
43.0554 	-0.0100239 	-0.147403 	0.739789 	-1.68802 	0.0118593 	3.13577 	90.1469 	116.579 	-0.57207 	125.969 	360.998 	285.106 	539.73 	
43.158 	-0.0100049 	-0.142603 	0.735955 	-1.70547 	0.0120459 	3.13571 	90.1469 	116.594 	-0.57207 	124.964 	360.998 	285.106 	539.73 	
43.2606 	-0.00998463 	-0.13787 	0.732038 	-1.72292 	0.0122334 	3.13567 	90.1469 	116.607 	-0.57207 	123.863 	360.998 	285.107 	539.73 	
43.3635 	-0.00996327 	-0.133206 	0.728038 	-1.74037 	0.0124216 	3.13562 	90.1469 	116.609 	-0.57207 	122.85 	360.998 	285.107 	539.73 	
43.467 	-0.00994079 	-0.128613 	0.723958 	-1.75782 	0.0126106 	3.13558 	90.1469 	116.611 	-0.57207 	121.847 	360.998 	285.107 	539.73 	
43.5735 	-0.00991718 	-0.124092 	0.719798 	-1.77527 	0.0128003 	3.13555 	90.1469 	116.612 	-0.57207 	120.75 	360.998 	285.107 	539.73 	
43.6769 	-0.00989247 	-0.119644 	0.71556 	-1.79272 	0.0129906 	3.13551 	90.1469 	116.613 	-0.57207 	119.748 	360.998 	285.107 	539.73 	
43.78 	-0.00986666 	-0.11527 	0.711246 	-1.81018 	0.0131814 	3.13548 	90.1469 	116.615 	-0.57207 	118.744 	360.998 	285.107 	539.73 	
43.883 	-0.00983975 	-0.110973 	0.706855 	-1.82763 	0.0133728 	3.13545 	90.1469 	116.617 	-0.572168 	117.639 	360.998 	285.107 	539.73 	
43.986 	-0.00981176 	-0.106753 	0.70239 	-1.84508 	0.0135646 	3.13543 	90.1469 	116.619 	-0.572168 	116.639 	360.998 	285.107 	539.73 	
44.0889 	-0.00978268 	-0.102612 	0.697852 	-1.86253 	0.0137568 	3.13541 	90.1469 	116.621 	-0.572168 	115.624 	360.998 	285.107 	539.73 	
44.1924 	-0.00975254 	-0.09855 	0.693243 	-1.87998 	0.0139493 	3.13539 	90.1469 	116.623 	-0.572168 	114.537 	360.998 	285.107 	539.73 	
44.2103 	-0.00975254 	-0.09855 	0.693243 	-1.87998 	0.0139493 	3.13539 	90.1469 	116.623 	-0.572168 	114.438 	360.998 	285.107 	539.73 	
44.3135 	-0.00972767 	-0.0953589 	0.689504 	-1.89394 	0.0141035 	3.13538 	90.1469 	116.63 	-0.572168 	113.686 	360.998 	285.107 	539.73 	
44.4166 	-0.00972198 	-0.0946482 	0.688657 	-1.89709 	0.0141382 	3.13538 	90.1469 	116.67 	-0.572168 	113.522 	360.998 	285.107 	539.73 	
44.5196 	-0.00972198 	-0.0946482 	0.688657 	-1.89709 	0.0141382 	3.13538 	90.1469 	116.677 	-0.572168 	113.498 	360.998 	285.107 	539.73 	
44.6227 	-0.00972198 	-0.0946482 	0.688657 	-1.89709 	0.0141382 	3.13538 	90.1469 	116.677 	-0.572266 	113.492 	360.998 	285.107 	539.73 	
44.7261 	-0.00972198 	-0.0946482 	0.688657 	-1.89709 	0.0141382 	3.13538 	90.1469 	116.677 	-0.572266 	113.491 	360.998 	285.107 	539.73 	
44.8293 	-0.00972198 	-0.0946482 	0.688657 	-1.89709 	0.0141382 	3.13538 	90.1469 	116.677 	-0.572266 	113.49 	360.998 	285.107 	539.73 	
44.9362 	-0.00972198 	-0.0946482 	0.688657 	-1.89709 	0.0141382 	3.13538 	90.1469 	116.678 	-0.572266 	113.489 	360.998 	285.107 	539.73 	
53.3616 	-0.00972198 	-0.0946482 	0.688657 	-1.89709 	0.0141382 	3.13538 	90.1468 	116.679 	-0.572559 	113.488 	360.998 	285.108 	539.73 	
53.3849 	-0.00972198 	-0.0946482 	0.688657 	-1.89709 	0.0141382 	3.13538 	90.147 	116.679 	-0.572559 	113.488 	360.998 	285.108 	539.73 	
53.4874 	-0.00976391 	-0.0957371 	0.690153 	-1.89199 	0.0143978 	3.13549 	90.147 	116.681 	-0.572559 	113.699 	360.998 	285.108 	539.73 	
53.5903 	-0.00979611 	-0.0997431 	0.694811 	-1.87454 	0.0142069 	3.1355 	90.147 	116.69 	-0.572559 	114.6 	360.998 	285.108 	539.73 	
53.6926 	-0.00982728 	-0.10383 	0.699398 	-1.85708 	0.0140162 	3.13551 	90.147 	116.702 	-0.572559 	115.571 	360.998 	285.108 	539.73 	
53.7957 	-0.0098574 	-0.107996 	0.703914 	-1.83963 	0.0138258 	3.13553 	90.147 	116.702 	-0.572559 	116.573 	360.998 	285.108 	539.73 	
53.8987 	-0.00988646 	-0.11224 	0.708355 	-1.82218 	0.0136357 	3.13555 	90.147 	116.702 	-0.572559 	117.57 	360.998 	285.108 	539.73 	
54.0019 	-0.00991446 	-0.116561 	0.712723 	-1.80473 	0.0134459 	3.13557 	90.147 	116.702 	-0.572559 	118.682 	360.998 	285.108 	539.73 	
54.105 	-0.00994139 	-0.120958 	0.717014 	-1.78728 	0.0132565 	3.1356 	90.147 	116.702 	-0.572559 	119.68 	360.998 	285.108 	539.73 	
54.2081 	-0.00996724 	-0.125429 	0.721227 	-1.76983 	0.0130676 	3.13563 	90.147 	116.702 	-0.572559 	120.681 	360.998 	285.108 	539.73 	
54.3111 	-0.009992 	-0.129973 	0.725362 	-1.75237 	0.0128793 	3.13566 	90.147 	116.702 	-0.572559 	121.786 	360.998 	285.108 	539.73 	
54.4143 	-0.0100157 	-0.134588 	0.729417 	-1.73492 	0.0126916 	3.13569 	90.147 	116.702 	-0.572559 	122.795 	360.998 	285.108 	539.73 	
54.5174 	-0.0100382 	-0.139274 	0.733391 	-1.71747 	0.0125045 	3.13573 	90.147 	116.702 	-0.572559 	123.807 	360.998 	285.108 	539.73 	
54.6204 	-0.0100597 	-0.144028 	0.737283 	-1.70002 	0.0123181 	3.13577 	90.147 	116.702 	-0.572559 	124.804 	360.998 	285.108 	539.73 	
54.7234 	-0.01008 	-0.148849 	0.741091 	-1.68257 	0.0121325 	3.13582 	90.147 	116.702 	-0.572559 	125.897 	360.998 	285.108 	539.73 	
54.8265 	-0.0100992 	-0.153736 	0.744814 	-1.66512 	0.0119478 	3.13587 	90.147 	116.702 	-0.572559 	126.909 	360.998 	285.108 	539.73 	
54.9535 	-0.0101343 	-0.163701 	0.752002 	-1.63021 	0.0115809 	3.13598 	90.147 	116.702 	-0.572559 	128.217 	360.998 	285.108 	539.73 	
55.0554 	-0.0101501 	-0.168776 	0.755465 	-1.61276 	0.0113989 	3.13604 	90.147 	116.702 	-0.572559 	129.228 	360.998 	285.108 	539.73 	
55.1575 	-0.0101648 	-0.173912 	0.758839 	-1.59531 	0.011218 	3.1361 	90.147 	116.702 	-0.572559 	130.224 	360.998 	285.108 	539.73 	
55.261 	-0.0101783 	-0.179105 	0.762122 	-1.57786 	0.0110381 	3.13616 	90.147 	116.702 	-0.572559 	131.227 	360.998 	285.108 	539.73 	
55.364 	-0.0101907 	-0.184355 	0.765314 	-1.5604 	0.0108595 	3.13623 	90.147 	116.702 	-0.572559 	132.335 	360.998 	285.108 	539.73 	
55.4672 	-0.0102019 	-0.189659 	0.768415 	-1.54295 	0.010682 	3.1363 	90.147 	116.701 	-0.572559 	133.339 	360.998 	285.108 	539.73 	
55.573 	-0.0102119 	-0.195017 	0.771422 	-1.5255 	0.0105058 	3.13637 	90.147 	116.701 	-0.572559 	134.448 	360.998 	285.108 	539.73 	
55.6751 	-0.0102208 	-0.200427 	0.774335 	-1.50805 	0.0103309 	3.13645 	90.147 	116.701 	-0.572559 	135.447 	360.998 	285.108 	539.73 	
55.7784 	-0.0102285 	-0.205886 	0.777153 	-1.49059 	0.0101574 	3.13653 	90.147 	116.701 	-0.572559 	136.45 	360.998 	285.108 	539.73 	
55.8817 	-0.0102351 	-0.211394 	0.779876 	-1.47314 	0.00998534 	3.13662 	90.147 	116.701 	-0.572559 	137.449 	360.998 	285.108 	539.73 	
55.9847 	-0.0102405 	-0.216949 	0.782502 	-1.45569 	0.00981474 	3.1367 	90.147 	116.701 	-0.572559 	138.554 	360.998 	285.108 	539.73 	
56.0877 	-0.0102447 	-0.222549 	0.785031 	-1.43824 	0.00964567 	3.13679 	90.147 	116.701 	-0.572559 	139.557 	360.998 	285.108 	539.73 	
56.1909 	-0.0102478 	-0.228192 	0.787462 	-1.42078 	0.00947818 	3.13688 	90.147 	116.701 	-0.572559 	140.567 	360.998 	285.108 	539.73 	
56.2941 	-0.0102496 	-0.233876 	0.789793 	-1.40333 	0.00931233 	3.13698 	90.147 	116.7 	-0.572559 	141.667 	360.998 	285.108 	539.73 	
56.3971 	-0.0102503 	-0.239601 	0.792026 	-1.38588 	0.00914816 	3.13708 	90.147 	116.7 	-0.572559 	142.683 	360.998 	285.108 	539.73 	
56.5 	-0.0102498 	-0.245363 	0.794158 	-1.36843 	0.00898572 	3.13718 	90.147 	116.7 	-0.572559 	143.675 	360.998 	285.108 	539.73 	
56.603 	-0.0102482 	-0.251162 	0.796189 	-1.35097 	0.00882506 	3.13728 	90.147 	116.7 	-0.572559 	144.785 	360.998 	285.108 	539.73 	
56.7063 	-0.0102454 	-0.256995 	0.798118 	-1.33352 	0.00866624 	3.13739 	90.147 	116.7 	-0.572559 	145.793 	360.998 	285.108 	539.73 	
56.8095 	-0.0102414 	-0.262861 	0.799946 	-1.31607 	0.0085093 	3.1375 	90.147 	116.7 	-0.572559 	146.796 	360.998 	285.108 	539.73 	
56.9126 	-0.0102362 	-0.268758 	0.801671 	-1.29862 	0.00835428 	3.13761 	90.147 	116.7 	-0.572559 	147.792 	360.998 	285.108 	539.73 	
57.0157 	-0.0102299 	-0.274685 	0.803292 	-1.28116 	0.00820124 	3.13772 	90.147 	116.699 	-0.572559 	148.897 	360.998 	285.108 	539.73 	
57.1186 	-0.0102223 	-0.280638 	0.80481 	-1.26371 	0.00805022 	3.13784 	90.147 	116.699 	-0.572559 	149.907 	360.998 	285.108 	539.73 	
57.2219 	-0.0102137 	-0.286618 	0.806224 	-1.24626 	0.00790127 	3.13796 	90.147 	116.699 	-0.572559 	150.901 	360.998 	285.108 	539.73 	
57.3249 	-0.0102038 	-0.292621 	0.807533 	-1.22881 	0.00775443 	3.13808 	90.147 	116.699 	-0.572559 	152.017 	360.998 	285.108 	539.73 	
57.4281 	-0.0101928 	-0.298646 	0.808738 	-1.21135 	0.00760975 	3.13821 	90.147 	116.698 	-0.572559 	153.007 	360.998 	285.108 	539.73 	
57.5363 	-0.0101807 	-0.304691 	0.809837 	-1.1939 	0.00746727 	3.13833 	90.147 	116.698 	-0.572559 	154.124 	360.998 	285.108 	539.73 	
57.639 	-0.0101674 	-0.310754 	0.81083 	-1.17645 	0.00732703 	3.13846 	90.147 	116.698 	-0.572559 	155.122 	360.998 	285.108 	539.73 	
57.742 	-0.0101529 	-0.316834 	0.811717 	-1.159 	0.00718909 	3.1386 	90.147 	116.698 	-0.572559 	156.136 	360.998 	285.108 	539.73 	
57.8477 	-0.0101206 	-0.329035 	0.813173 	-1.12409 	0.00692022 	3.13887 	90.147 	116.698 	-0.572559 	157.237 	360.998 	285.108 	539.73 	
57.9511 	-0.0101027 	-0.335153 	0.813741 	-1.10664 	0.00678939 	3.13901 	90.147 	116.697 	-0.572559 	158.248 	360.998 	285.108 	539.73 	
58.0543 	-0.0100837 	-0.34128 	0.814202 	-1.08919 	0.00666101 	3.13915 	90.147 	116.697 	-0.572559 	159.345 	360.998 	285.108 	539.73 	
58.1571 	-0.0100636 	-0.347414 	0.814556 	-1.07174 	0.00653512 	3.13929 	90.147 	116.697 	-0.572559 	160.355 	360.998 	285.108 	539.73 	
58.2605 	-0.0100423 	-0.353553 	0.814803 	-1.05428 	0.00641176 	3.13944 	90.147 	116.697 	-0.572559 	161.359 	360.998 	285.108 	539.73 	
58.3636 	-0.01002 	-0.359695 	0.814943 	-1.03683 	0.00629096 	3.13959 	90.147 	116.696 	-0.572559 	162.351 	360.998 	285.108 	539.73 	
58.4668 	-0.0099965 	-0.36584 	0.814975 	-1.01938 	0.00617277 	3.13974 	90.147 	116.696 	-0.572559 	163.457 	360.998 	285.108 	539.73 	
58.5738 	-0.00997194 	-0.371983 	0.814901 	-1.00193 	0.00605722 	3.13989 	90.147 	116.696 	-0.572559 	164.456 	360.998 	285.108 	539.73 	
58.6769 	-0.0099463 	-0.378125 	0.814719 	-0.984474 	0.00594434 	3.14004 	90.147 	116.695 	-0.572559 	165.569 	360.998 	285.108 	539.73 	
58.78 	-0.00991957 	-0.384262 	0.81443 	-0.967022 	0.00583417 	3.1402 	90.147 	116.695 	-0.572559 	166.571 	360.998 	285.108 	539.73 	
58.8831 	-0.00989176 	-0.390393 	0.814033 	-0.94957 	0.00572675 	3.14036 	90.147 	116.694 	-0.572656 	167.58 	360.998 	285.108 	539.73 	
58.9861 	-0.00986289 	-0.396517 	0.81353 	-0.932117 	0.0056221 	3.14052 	90.147 	116.688 	-0.572656 	168.673 	360.998 	285.108 	539.73 	
59.0892 	-0.00983297 	-0.402631 	0.81292 	-0.914665 	0.00552025 	3.14068 	90.147 	116.684 	-0.572656 	169.696 	360.998 	285.108 	539.73 	
59.1924 	-0.009802 	-0.408733 	0.812204 	-0.897212 	0.00542125 	3.14084 	90.147 	116.678 	-0.572656 	170.694 	360.998 	285.108 	539.73 	
59.2954 	-0.00976998 	-0.414822 	0.811381 	-0.87976 	0.00532511 	3.14101 	90.147 	116.674 	-0.572656 	171.806 	360.998 	285.108 	539.73 	
59.3988 	-0.00973695 	-0.420895 	0.810452 	-0.862307 	0.00523187 	3.14117 	90.147 	116.672 	-0.572656 	172.801 	360.998 	285.108 	539.73 	
59.5017 	-0.00970289 	-0.426951 	0.809417 	-0.844855 	0.00514156 	3.14134 	90.147 	116.671 	-0.572656 	173.804 	360.998 	285.108 	539.73 	
59.6048 	-0.00966783 	-0.432989 	0.808277 	-0.827402 	0.0050542 	3.14151 	90.147 	116.669 	-0.572656 	174.805 	360.998 	285.108 	539.73 	
59.7077 	-0.00963177 	-0.439005 	0.807031 	-0.80995 	0.00496982 	-3.1415 	90.147 	116.668 	-0.572656 	175.918 	360.998 	285.108 	539.73 	
59.811 	-0.00959472 	-0.444999 	0.805681 	-0.792498 	0.00488845 	-3.14133 	90.147 	116.667 	-0.572656 	176.918 	360.998 	285.108 	539.73 	
59.914 	-0.0095567 	-0.450968 	0.804226 	-0.775045 	0.00481011 	-3.14115 	90.147 	116.666 	-0.572656 	177.91 	360.998 	285.108 	539.73 	
60.0171 	-0.00951771 	-0.456911 	0.802667 	-0.757593 	0.00473482 	-3.14098 	90.147 	116.665 	-0.572656 	179.022 	360.997 	285.108 	539.73 	
60.1202 	-0.00947778 	-0.462826 	0.801005 	-0.74014 	0.00466261 	-3.1408 	90.147 	116.665 	-0.572656 	180.029 	360.997 	285.108 	539.73 	
60.2234 	-0.0094369 	-0.468711 	0.79924 	-0.722688 	0.0045935 	-3.14062 	90.147 	116.664 	-0.572656 	181.041 	360.997 	285.108 	539.73 	
60.3264 	-0.0093951 	-0.474564 	0.797372 	-0.705235 	0.00452751 	-3.14044 	90.147 	116.663 	-0.572656 	182.132 	360.997 	285.108 	539.73 	
60.4298 	-0.00935238 	-0.480384 	0.795402 	-0.687783 	0.00446466 	-3.14026 	90.147 	116.662 	-0.572656 	183.139 	360.997 	285.108 	539.73 	
60.5347 	-0.00930877 	-0.486169 	0.793331 	-0.67033 	0.00440497 	-3.14008 	90.147 	116.662 	-0.572656 	184.14 	360.997 	285.108 	539.73 	
60.6376 	-0.00926426 	-0.491916 	0.79116 	-0.652878 	0.00434846 	-3.1399 	90.147 	116.661 	-0.572656 	185.251 	360.997 	285.108 	539.73 	
60.7404 	-0.00921889 	-0.497625 	0.788888 	-0.635425 	0.00429514 	-3.13972 	90.147 	116.66 	-0.572656 	186.257 	360.997 	285.108 	539.73 	
60.8435 	-0.00917265 	-0.503293 	0.786518 	-0.617973 	0.00424504 	-3.13953 	90.147 	116.66 	-0.572656 	187.252 	360.997 	285.108 	539.73 	
60.9476 	-0.00912556 	-0.508919 	0.784048 	-0.60052 	0.00419816 	-3.13935 	90.147 	116.659 	-0.572656 	188.354 	360.997 	285.108 	539.73 	
61.0517 	-0.00902892 	-0.520037 	0.778817 	-0.565615 	0.00411413 	-3.13897 	90.147 	116.659 	-0.572656 	189.35 	360.997 	285.107 	539.73 	
61.1545 	-0.00897938 	-0.525526 	0.776057 	-0.548162 	0.00407701 	-3.13879 	90.147 	116.658 	-0.572656 	190.365 	360.997 	285.107 	539.73 	
61.2571 	-0.00892906 	-0.530966 	0.773201 	-0.53071 	0.00404318 	-3.1386 	90.147 	116.658 	-0.572656 	191.463 	360.997 	285.107 	539.73 	
61.3605 	-0.00887796 	-0.536356 	0.770251 	-0.513257 	0.00401262 	-3.13841 	90.147 	116.657 	-0.572656 	192.468 	360.997 	285.107 	539.73 	
61.4631 	-0.00882611 	-0.541692 	0.767207 	-0.495805 	0.00398537 	-3.13822 	90.147 	116.656 	-0.572656 	193.467 	360.997 	285.107 	539.73 	
61.5663 	-0.00877352 	-0.546975 	0.76407 	-0.478352 	0.00396142 	-3.13803 	90.147 	116.655 	-0.572656 	194.474 	360.997 	285.107 	539.73 	
61.6731 	-0.00872021 	-0.552203 	0.760842 	-0.4609 	0.00394079 	-3.13784 	90.147 	116.654 	-0.572656 	195.57 	360.997 	285.106 	539.73 	
61.7752 	-0.00866618 	-0.557373 	0.757523 	-0.443447 	0.00392347 	-3.13765 	90.147 	116.653 	-0.572656 	196.57 	360.997 	285.106 	539.73 	
61.8785 	-0.00861147 	-0.562485 	0.754114 	-0.425994 	0.00390948 	-3.13746 	90.147 	116.653 	-0.572656 	197.668 	360.997 	285.106 	539.73 	
61.9815 	-0.00855608 	-0.567536 	0.750617 	-0.408542 	0.00389882 	-3.13727 	90.147 	116.652 	-0.572656 	198.676 	360.997 	285.106 	539.73 	
62.0847 	-0.00850003 	-0.572526 	0.747032 	-0.391089 	0.00389149 	-3.13708 	90.147 	116.652 	-0.572656 	199.67 	360.997 	285.106 	539.73 	
62.1877 	-0.00844334 	-0.577452 	0.74336 	-0.373637 	0.00388749 	-3.13689 	90.147 	116.651 	-0.572656 	200.781 	360.997 	285.106 	539.73 	
62.2907 	-0.00838603 	-0.582313 	0.739603 	-0.356184 	0.00388683 	-3.13669 	90.147 	116.651 	-0.572656 	201.775 	360.997 	285.106 	539.73 	
62.3934 	-0.00832811 	-0.587108 	0.735762 	-0.338732 	0.00388951 	-3.1365 	90.147 	116.65 	-0.572656 	202.78 	360.997 	285.106 	539.73 	
62.4969 	-0.00826959 	-0.591835 	0.731837 	-0.321279 	0.00389552 	-3.13631 	90.147 	116.649 	-0.572656 	203.786 	360.997 	285.105 	539.73 	
62.6001 	-0.00821051 	-0.596493 	0.727831 	-0.303827 	0.00390486 	-3.13612 	90.147 	116.648 	-0.572656 	204.881 	360.997 	285.105 	539.73 	
62.7032 	-0.00815088 	-0.601081 	0.723744 	-0.286374 	0.00391754 	-3.13593 	90.147 	116.647 	-0.572656 	205.886 	360.997 	285.105 	539.73 	
62.8064 	-0.00809071 	-0.605596 	0.719577 	-0.268921 	0.00393354 	-3.13574 	90.147 	116.647 	-0.572656 	206.881 	360.997 	285.105 	539.73 	
62.9095 	-0.00803003 	-0.610038 	0.715333 	-0.251469 	0.00395286 	-3.13555 	90.147 	116.646 	-0.572656 	207.99 	360.997 	285.105 	539.73 	
63.0125 	-0.00796885 	-0.614405 	0.711011 	-0.234016 	0.0039755 	-3.13536 	90.147 	116.645 	-0.572656 	208.991 	360.997 	285.105 	539.73 	
63.1155 	-0.00790718 	-0.618696 	0.706614 	-0.216564 	0.00400144 	-3.13517 	90.147 	116.644 	-0.572656 	209.988 	360.997 	285.104 	539.73 	
63.2184 	-0.00784506 	-0.62291 	0.702143 	-0.199111 	0.00403069 	-3.13498 	90.147 	116.643 	-0.572656 	211.083 	360.997 	285.104 	539.73 	
63.3218 	-0.0077825 	-0.627045 	0.697599 	-0.181659 	0.00406323 	-3.13479 	90.147 	116.641 	-0.572656 	212.087 	360.997 	285.104 	539.73 	
63.4248 	-0.00771951 	-0.6311 	0.692983 	-0.164206 	0.00409905 	-3.13461 	90.147 	116.635 	-0.572656 	213.09 	360.997 	285.104 	539.73 	
63.5284 	-0.00765612 	-0.635073 	0.688298 	-0.146754 	0.00413814 	-3.13442 	90.147 	116.614 	-0.572656 	214.086 	360.997 	285.104 	539.73 	
63.635 	-0.00759235 	-0.638965 	0.683543 	-0.129301 	0.0041805 	-3.13423 	90.147 	116.611 	-0.572656 	215.185 	360.997 	285.103 	539.73 	
63.7391 	-0.00752821 	-0.642773 	0.678722 	-0.111848 	0.00422609 	-3.13405 	90.147 	116.61 	-0.572656 	216.29 	360.997 	285.103 	539.73 	
63.8427 	-0.00746373 	-0.646496 	0.673834 	-0.0943958 	0.00427492 	-3.13386 	90.147 	116.609 	-0.572656 	217.289 	360.997 	285.103 	539.73 	
63.9478 	-0.00739892 	-0.650133 	0.668883 	-0.0769433 	0.00432697 	-3.13368 	90.147 	116.609 	-0.572656 	218.291 	360.997 	285.102 	539.73 	
64.0511 	-0.0073338 	-0.653683 	0.663869 	-0.059491 	0.00438222 	-3.1335 	90.147 	116.609 	-0.572656 	219.389 	360.997 	285.102 	539.73 	
64.1542 	-0.00720274 	-0.660518 	0.653658 	-0.0245859 	0.00450225 	-3.13313 	90.147 	116.609 	-0.572656 	220.392 	360.997 	285.101 	539.73 	
64.2572 	-0.00714342 	-0.663477 	0.648987 	-0.00887868 	0.00456039 	-3.13297 	90.147 	116.609 	-0.572656 	221.396 	360.997 	285.098 	539.73 	
64.3604 	-0.00707068 	-0.666993 	0.643215 	0.0103191 	0.00463488 	-3.13277 	90.147 	116.608 	-0.572656 	222.49 	360.997 	285.072 	539.73 	
64.4633 	-0.00700434 	-0.670093 	0.637911 	0.0277716 	0.00470587 	-3.1326 	90.147 	116.608 	-0.572656 	223.488 	360.997 	285.057 	539.73 	
64.5667 	-0.00693781 	-0.673099 	0.632553 	0.0452241 	0.00477994 	-3.13242 	90.147 	116.608 	-0.572656 	224.487 	360.997 	285.05 	539.73 	
64.6737 	-0.00687111 	-0.676012 	0.627143 	0.0626766 	0.00485708 	-3.13225 	90.147 	116.608 	-0.572656 	225.595 	360.997 	285.046 	539.73 	
64.7766 	-0.00681097 	-0.678552 	0.622232 	0.0783838 	0.0049291 	-3.13209 	90.147 	116.608 	-0.572656 	226.587 	360.997 	285.044 	539.73 	
64.8797 	-0.00674401 	-0.681284 	0.616729 	0.0958363 	0.00501199 	-3.13192 	90.147 	116.608 	-0.572656 	227.691 	360.997 	285.042 	539.73 	
64.983 	-0.00667695 	-0.683919 	0.611179 	0.113289 	0.00509788 	-3.13175 	90.147 	116.608 	-0.572656 	228.687 	360.997 	285.041 	539.73 	
65.0861 	-0.00660981 	-0.686457 	0.605584 	0.130741 	0.00518673 	-3.13158 	90.147 	116.608 	-0.572656 	229.686 	360.997 	285.04 	539.73 	
65.1891 	-0.0065426 	-0.688897 	0.599945 	0.148194 	0.00527852 	-3.13141 	90.147 	116.608 	-0.572656 	230.693 	360.997 	285.039 	539.73 	
65.2921 	-0.00647534 	-0.691238 	0.594265 	0.165646 	0.00537322 	-3.13124 	90.147 	116.608 	-0.572656 	231.794 	360.997 	285.037 	539.73 	
65.3952 	-0.00640806 	-0.693479 	0.588544 	0.183098 	0.00547081 	-3.13108 	90.147 	116.608 	-0.572656 	232.789 	360.997 	285.033 	539.73 	
65.4983 	-0.00634078 	-0.695621 	0.582786 	0.200551 	0.00557125 	-3.13092 	90.147 	116.608 	-0.572656 	233.794 	360.997 	285.017 	539.73 	
65.6012 	-0.00627352 	-0.697661 	0.576991 	0.218003 	0.00567451 	-3.13076 	90.147 	116.608 	-0.572656 	234.886 	360.997 	284.996 	539.73 	
65.7044 	-0.00620628 	-0.6996 	0.571161 	0.235456 	0.00578057 	-3.1306 	90.147 	116.607 	-0.572656 	235.889 	360.997 	284.989 	539.73 	
65.8075 	-0.00613911 	-0.701437 	0.565298 	0.252908 	0.00588938 	-3.13044 	90.147 	116.607 	-0.572656 	236.891 	360.997 	284.981 	539.73 	
65.9106 	-0.00607202 	-0.703172 	0.559404 	0.270361 	0.00600092 	-3.13028 	90.147 	116.607 	-0.572656 	237.98 	360.997 	284.974 	539.73 	
66.0137 	-0.00600502 	-0.704803 	0.553481 	0.287813 	0.00611515 	-3.13013 	90.147 	116.607 	-0.572656 	238.987 	360.997 	284.97 	539.73 	
66.1168 	-0.00593815 	-0.706331 	0.54753 	0.305265 	0.00623204 	-3.12998 	90.147 	116.607 	-0.572656 	239.98 	360.997 	284.965 	539.73 	
66.2198 	-0.00587141 	-0.707754 	0.541553 	0.322718 	0.00635154 	-3.12983 	90.147 	116.607 	-0.572656 	240.979 	360.997 	284.96 	539.73 	
66.3228 	-0.00580483 	-0.709073 	0.535553 	0.34017 	0.00647363 	-3.12968 	90.147 	116.607 	-0.572656 	242.08 	360.997 	284.949 	539.73 	
66.4261 	-0.00573844 	-0.710287 	0.52953 	0.357622 	0.00659828 	-3.12954 	90.147 	116.607 	-0.572656 	243.074 	360.997 	284.945 	539.73 	
66.5292 	-0.00567224 	-0.711396 	0.523487 	0.375074 	0.00672543 	-3.1294 	90.147 	116.607 	-0.572656 	244.084 	360.997 	284.941 	539.73 	
66.6363 	-0.00560626 	-0.712399 	0.517426 	0.392527 	0.00685505 	-3.12925 	90.147 	116.607 	-0.572656 	245.184 	360.997 	284.937 	539.73 	
66.739 	-0.00553396 	-0.71338 	0.510739 	0.411725 	0.00700044 	-3.1291 	90.147 	116.607 	-0.572656 	246.176 	360.997 	284.932 	539.73 	
66.8434 	-0.00547505 	-0.714087 	0.505255 	0.427432 	0.00712155 	-3.12898 	90.147 	116.607 	-0.572656 	247.274 	360.997 	284.928 	539.73 	
66.9482 	-0.00540985 	-0.714772 	0.49915 	0.444884 	0.00725835 	-3.12885 	90.147 	116.607 	-0.572656 	248.28 	360.997 	284.923 	539.73 	
67.0531 	-0.00528038 	-0.71582 	0.486907 	0.479789 	0.00753882 	-3.12859 	90.147 	116.607 	-0.572656 	249.374 	360.997 	284.92 	539.73 	
67.155 	-0.00521615 	-0.716184 	0.480774 	0.497241 	0.00768242 	-3.12846 	90.147 	116.607 	-0.572656 	250.367 	360.997 	284.918 	539.73 	
67.2585 	-0.00515227 	-0.716441 	0.474636 	0.514693 	0.00782819 	-3.12834 	90.147 	116.607 	-0.572656 	251.36 	360.997 	284.915 	539.73 	
67.3615 	-0.00508877 	-0.716591 	0.468494 	0.532146 	0.0079761 	-3.12822 	90.147 	116.607 	-0.572656 	252.465 	360.997 	284.913 	539.73 	
67.4648 	-0.00502567 	-0.716633 	0.46235 	0.549598 	0.0081261 	-3.1281 	90.147 	116.607 	-0.572656 	253.465 	360.997 	284.912 	539.73 	
67.5681 	-0.00496299 	-0.716568 	0.456206 	0.56705 	0.00827815 	-3.12798 	90.147 	116.607 	-0.572656 	254.459 	360.997 	284.91 	539.73 	
67.6738 	-0.00490074 	-0.716396 	0.450065 	0.584503 	0.00843219 	-3.12787 	90.147 	116.607 	-0.572656 	255.563 	360.997 	284.91 	539.73 	
67.7768 	-0.00483895 	-0.716117 	0.443928 	0.601955 	0.00858818 	-3.12776 	90.147 	116.608 	-0.572656 	256.563 	360.997 	284.909 	539.73 	
67.8801 	-0.00477764 	-0.715731 	0.437796 	0.619407 	0.00874608 	-3.12765 	90.147 	116.607 	-0.572656 	257.565 	360.997 	284.908 	539.73 	
67.983 	-0.00471681 	-0.715238 	0.431672 	0.63686 	0.00890583 	-3.12755 	90.147 	116.607 	-0.572656 	258.649 	360.997 	284.907 	539.73 	
68.0863 	-0.0046565 	-0.714638 	0.425557 	0.654312 	0.0090674 	-3.12744 	90.147 	116.608 	-0.572656 	259.657 	360.997 	284.907 	539.73 	
68.1891 	-0.00459672 	-0.713931 	0.419454 	0.671764 	0.00923071 	-3.12734 	90.147 	116.608 	-0.572656 	260.652 	360.997 	284.906 	539.73 	
68.2924 	-0.00453748 	-0.713118 	0.413364 	0.689217 	0.00939574 	-3.12725 	90.147 	116.608 	-0.572656 	261.743 	360.997 	284.905 	539.73 	
68.3953 	-0.00447881 	-0.712198 	0.40729 	0.706669 	0.00956242 	-3.12715 	90.147 	116.608 	-0.572656 	262.744 	360.997 	284.904 	539.73 	
68.4988 	-0.00442073 	-0.711173 	0.401232 	0.724122 	0.00973072 	-3.12706 	90.147 	116.608 	-0.572656 	263.732 	360.997 	284.903 	539.73 	
68.6014 	-0.00436324 	-0.710042 	0.395193 	0.741574 	0.00990057 	-3.12698 	90.147 	116.608 	-0.572656 	264.729 	360.997 	284.903 	539.73 	
68.7046 	-0.00430638 	-0.708806 	0.389175 	0.759027 	0.0100719 	-3.12689 	90.147 	116.608 	-0.572656 	265.82 	360.997 	284.901 	539.73 	
68.8079 	-0.00425015 	-0.707466 	0.383179 	0.776479 	0.0102447 	-3.12681 	90.147 	116.608 	-0.572656 	266.832 	360.997 	284.9 	539.73 	
68.9107 	-0.00419458 	-0.70602 	0.377207 	0.793932 	0.0104189 	-3.12673 	90.147 	116.608 	-0.572656 	267.821 	360.997 	284.897 	539.73 	
69.014 	-0.00413968 	-0.704471 	0.371262 	0.811384 	0.0105945 	-3.12666 	90.147 	116.608 	-0.572656 	268.926 	360.997 	284.894 	539.73 	
69.1169 	-0.00408546 	-0.702818 	0.365344 	0.828837 	0.0107713 	-3.12658 	90.147 	116.608 	-0.572656 	269.917 	360.997 	284.891 	539.73 	
69.2202 	-0.00403195 	-0.701062 	0.359457 	0.84629 	0.0109494 	-3.12651 	90.147 	116.608 	-0.572656 	270.911 	360.997 	284.89 	539.73 	
69.3227 	-0.00397915 	-0.699204 	0.3536 	0.863742 	0.0111287 	-3.12645 	90.147 	116.608 	-0.572656 	272.009 	360.997 	284.889 	539.73 	
69.4263 	-0.0039271 	-0.697244 	0.347778 	0.881195 	0.0113091 	-3.12638 	90.147 	116.608 	-0.572656 	272.997 	360.997 	284.889 	539.73 	
69.5298 	-0.00387579 	-0.695182 	0.34199 	0.898647 	0.0114905 	-3.12632 	90.147 	116.608 	-0.572656 	273.987 	360.997 	284.888 	539.73 	
69.6353 	-0.00382526 	-0.69302 	0.336239 	0.9161 	0.011673 	-3.12627 	90.147 	116.608 	-0.572656 	275.084 	360.997 	284.887 	539.73 	
69.7385 	-0.0037755 	-0.690757 	0.330527 	0.933553 	0.0118565 	-3.12621 	90.147 	116.608 	-0.572656 	276.079 	360.997 	284.887 	539.73 	
69.841 	-0.00372655 	-0.688396 	0.324855 	0.951005 	0.0120408 	-3.12616 	90.147 	116.608 	-0.572656 	277.078 	360.997 	284.887 	539.73 	
69.9466 	-0.0036784 	-0.685935 	0.319225 	0.968458 	0.012226 	-3.12612 	90.147 	116.608 	-0.572656 	277.977 	360.997 	284.886 	539.73 	
70.0498 	-0.00363109 	-0.683377 	0.313639 	0.985911 	0.0124121 	-3.12607 	90.147 	116.608 	-0.572656 	279.167 	360.997 	284.886 	539.73 	
70.1534 	-0.003539 	-0.67797 	0.302605 	1.02082 	0.0127862 	-3.12599 	90.147 	116.608 	-0.572656 	280.272 	360.997 	284.886 	539.73 	
70.2566 	-0.00349425 	-0.675123 	0.29716 	1.03827 	0.0129743 	-3.12596 	90.147 	116.608 	-0.572656 	281.256 	360.997 	284.885 	539.73 	
70.3597 	-0.00345039 	-0.672181 	0.291766 	1.05572 	0.0131629 	-3.12593 	90.147 	116.608 	-0.572656 	282.267 	360.997 	284.885 	539.73 	
70.4631 	-0.00340742 	-0.669146 	0.286425 	1.07317 	0.0133521 	-3.1259 	90.147 	116.608 	-0.572656 	283.26 	360.997 	284.885 	539.73 	
70.566 	-0.00336537 	-0.666018 	0.281136 	1.09063 	0.0135416 	-3.12588 	90.147 	116.608 	-0.572656 	284.352 	360.997 	284.885 	539.73 	
70.6739 	-0.00332424 	-0.662798 	0.275904 	1.10808 	0.0137316 	-3.12586 	90.147 	116.608 	-0.572656 	285.449 	360.997 	284.885 	539.73 	
70.7769 	-0.00328404 	-0.659487 	0.270728 	1.12553 	0.0139219 	-3.12584 	90.147 	116.609 	-0.572656 	286.44 	360.997 	284.885 	539.73 	
70.8803 	-0.00324479 	-0.656086 	0.265611 	1.14299 	0.0141125 	-3.12582 	90.147 	116.609 	-0.572656 	287.431 	360.997 	284.884 	539.73 	
70.9832 	-0.0032065 	-0.652597 	0.260554 	1.16044 	0.0143034 	-3.12581 	90.147 	116.609 	-0.572656 	288.425 	360.997 	284.884 	539.73 	
71.0862 	-0.00316918 	-0.649019 	0.255559 	1.17789 	0.0144944 	-3.12581 	90.147 	116.609 	-0.572656 	289.524 	360.997 	284.884 	539.73 	
71.1894 	-0.00313285 	-0.645356 	0.250627 	1.19535 	0.0146854 	-3.1258 	90.147 	116.609 	-0.572656 	290.516 	360.997 	284.884 	539.73 	
71.2925 	-0.00309751 	-0.641606 	0.245759 	1.2128 	0.0148766 	-3.1258 	90.147 	116.609 	-0.572656 	291.527 	360.997 	284.884 	539.73 	
71.3955 	-0.00306317 	-0.637772 	0.240958 	1.23025 	0.0150677 	-3.1258 	90.147 	116.609 	-0.572656 	292.615 	360.997 	284.884 	539.73 	
71.4985 	-0.00302985 	-0.633855 	0.236224 	1.24771 	0.0152588 	-3.12581 	90.147 	116.609 	-0.572656 	293.621 	360.997 	284.884 	539.73 	
71.6017 	-0.00299756 	-0.629856 	0.23156 	1.26516 	0.0154497 	-3.12582 	90.147 	116.609 	-0.572656 	294.608 	360.997 	284.883 	539.73 	
71.7047 	-0.0029663 	-0.625777 	0.226966 	1.28261 	0.0156404 	-3.12583 	90.147 	116.609 	-0.572656 	295.706 	360.997 	284.883 	539.73 	
71.8079 	-0.00293608 	-0.621617 	0.222444 	1.30007 	0.0158309 	-3.12584 	90.147 	116.61 	-0.572656 	296.707 	360.997 	284.883 	539.73 	
71.9109 	-0.00290692 	-0.617379 	0.217995 	1.31752 	0.0160211 	-3.12586 	90.147 	116.61 	-0.572656 	297.7 	360.997 	284.883 	539.73 	
72.0141 	-0.00287882 	-0.613065 	0.213621 	1.33497 	0.0162109 	-3.12589 	90.147 	116.61 	-0.572656 	298.7 	360.997 	284.883 	539.73 	
72.1171 	-0.00285179 	-0.608675 	0.209322 	1.35243 	0.0164004 	-3.12591 	90.147 	116.612 	-0.572656 	299.784 	360.997 	284.883 	539.73 	
72.2203 	-0.00282585 	-0.60421 	0.205101 	1.36988 	0.0165893 	-3.12594 	90.1469 	116.612 	-0.572656 	300.786 	360.997 	284.883 	539.73 	
72.3233 	-0.00280098 	-0.599672 	0.200959 	1.38734 	0.0167777 	-3.12597 	90.147 	116.612 	-0.572656 	301.781 	360.997 	284.883 	539.73 	
72.4263 	-0.00277722 	-0.595063 	0.196896 	1.40479 	0.0169655 	-3.12601 	90.147 	116.612 	-0.572656 	302.874 	360.997 	284.883 	539.73 	
72.5298 	-0.00275456 	-0.590383 	0.192915 	1.42224 	0.0171527 	-3.12605 	90.147 	116.612 	-0.572656 	303.875 	360.997 	284.883 	539.73 	
72.6357 	-0.002733 	-0.585635 	0.189015 	1.4397 	0.0173392 	-3.12609 	90.147 	116.613 	-0.572656 	304.977 	360.997 	284.883 	539.73 	
72.7386 	-0.00271256 	-0.580819 	0.1852 	1.45715 	0.0175249 	-3.12613 	90.147 	116.613 	-0.572656 	305.966 	360.997 	284.883 	539.73 	
72.8415 	-0.00269325 	-0.575938 	0.181468 	1.47461 	0.0177097 	-3.12618 	90.147 	116.613 	-0.572656 	306.962 	360.997 	284.883 	539.73 	
72.9473 	-0.002658 	-0.565983 	0.174265 	1.50951 	0.0180768 	-3.12629 	90.147 	116.614 	-0.572656 	308.06 	360.997 	284.883 	539.73 	
73.0516 	-0.00264208 	-0.560913 	0.170794 	1.52697 	0.0182589 	-3.12635 	90.147 	116.614 	-0.572656 	309.06 	360.997 	284.883 	539.73 	
73.1542 	-0.00262731 	-0.555783 	0.167412 	1.54442 	0.01844 	-3.12641 	90.147 	116.615 	-0.572656 	310.056 	360.997 	284.882 	539.73 	
73.2567 	-0.00261369 	-0.550595 	0.164121 	1.56188 	0.0186199 	-3.12647 	90.1469 	116.615 	-0.572656 	311.153 	360.997 	284.882 	539.73 	
73.3599 	-0.00260121 	-0.545351 	0.16092 	1.57933 	0.0187987 	-3.12654 	90.147 	116.615 	-0.572656 	312.147 	360.997 	284.882 	539.73 	
73.4628 	-0.0025899 	-0.540051 	0.157812 	1.59679 	0.0189763 	-3.12661 	90.1469 	116.616 	-0.572656 	313.145 	360.997 	284.882 	539.73 	
73.5662 	-0.00257974 	-0.534697 	0.154796 	1.61424 	0.0191526 	-3.12669 	90.1469 	116.617 	-0.572656 	314.244 	360.997 	284.882 	539.73 	
73.6741 	-0.00257074 	-0.529292 	0.151875 	1.6317 	0.0193277 	-3.12676 	90.147 	116.618 	-0.572656 	315.23 	360.997 	284.882 	539.73 	
73.7769 	-0.00256291 	-0.523837 	0.149048 	1.64915 	0.0195013 	-3.12684 	90.147 	116.62 	-0.572656 	316.326 	360.997 	284.882 	539.73 	
73.8009 	-0.00256291 	-0.523837 	0.149048 	1.64915 	0.0195013 	-3.12684 	90.1469 	116.62 	-0.572656 	316.538 	360.997 	284.882 	539.73 	
73.9042 	-0.00256089 	-0.521311 	0.14627 	1.65893 	0.0195625 	-3.12337 	90.1469 	116.452 	-0.572656 	316.797 	360.997 	284.883 	539.651 	
74.0072 	-0.00256511 	-0.524506 	0.139867 	1.65892 	0.0193912 	-3.11105 	90.1469 	115.58 	-0.572656 	316.029 	360.997 	284.883 	539.297 	
74.1106 	-0.0025704 	-0.527588 	0.133409 	1.65892 	0.0192181 	-3.10955 	90.147 	114.598 	-0.572656 	315.079 	360.997 	284.883 	539.252 	
74.2137 	-0.00257677 	-0.530558 	0.126899 	1.65892 	0.0190433 	-3.10945 	90.147 	113.588 	-0.572656 	314.083 	360.997 	284.883 	539.246 	
74.3167 	-0.00258421 	-0.533413 	0.120338 	1.65892 	0.0188667 	-3.10935 	90.147 	112.495 	-0.572656 	312.988 	360.997 	284.883 	539.244 	
74.4199 	-0.00259273 	-0.536153 	0.113727 	1.65892 	0.0186885 	-3.10926 	90.147 	111.495 	-0.572656 	311.987 	360.997 	284.883 	539.243 	
74.5229 	-0.00260232 	-0.538778 	0.10707 	1.65891 	0.0185086 	-3.10917 	90.1469 	110.478 	-0.572754 	310.985 	360.997 	284.883 	539.243 	
74.6259 	-0.00261297 	-0.541286 	0.100369 	1.65891 	0.0183273 	-3.10908 	90.1469 	109.486 	-0.572754 	309.984 	360.997 	284.883 	539.242 	
74.7292 	-0.00262469 	-0.543677 	0.0936242 	1.65891 	0.0181444 	-3.109 	90.1469 	108.392 	-0.572754 	308.885 	360.997 	284.883 	539.242 	
74.8355 	-0.00263746 	-0.545949 	0.0868391 	1.65891 	0.0179601 	-3.10892 	90.1469 	107.382 	-0.572754 	307.889 	360.997 	284.883 	539.242 	
74.9379 	-0.0026513 	-0.548103 	0.0800153 	1.65891 	0.0177745 	-3.10884 	90.1469 	106.284 	-0.572754 	306.784 	360.997 	284.883 	539.242 	
75.041 	-0.00266618 	-0.550137 	0.073155 	1.65891 	0.0175875 	-3.10877 	90.147 	105.283 	-0.572754 	305.78 	360.997 	284.883 	539.242 	
75.144 	-0.00268212 	-0.552052 	0.0662602 	1.6589 	0.0173993 	-3.1087 	90.147 	104.279 	-0.572754 	304.781 	360.997 	284.883 	539.241 	
75.2468 	-0.00269909 	-0.553846 	0.059333 	1.6589 	0.0172098 	-3.10863 	90.147 	103.172 	-0.572754 	303.686 	360.997 	284.883 	539.241 	
75.3501 	-0.0027171 	-0.555518 	0.0523756 	1.6589 	0.0170192 	-3.10857 	90.147 	102.186 	-0.572754 	302.691 	360.997 	284.883 	539.241 	
75.4532 	-0.00275622 	-0.558498 	0.0383785 	1.6589 	0.0166349 	-3.10845 	90.1469 	101.17 	-0.572754 	301.686 	360.997 	284.883 	539.241 	
75.556 	-0.00277731 	-0.559804 	0.0313431 	1.6589 	0.0164412 	-3.1084 	90.1469 	100.171 	-0.572754 	300.688 	360.997 	284.883 	539.241 	
75.6592 	-0.00279942 	-0.560987 	0.0242859 	1.6589 	0.0162466 	-3.10835 	90.1469 	99.0675 	-0.572754 	299.584 	360.997 	284.883 	539.241 	
75.7612 	-0.00282253 	-0.562047 	0.0172091 	1.6589 	0.0160512 	-3.1083 	90.1469 	98.0607 	-0.572754 	298.586 	360.997 	284.883 	539.241 	
75.8646 	-0.00284664 	-0.562983 	0.0101152 	1.65889 	0.0158549 	-3.10825 	90.1469 	97.0652 	-0.572754 	297.589 	360.997 	284.883 	539.241 	
75.9679 	-0.00287175 	-0.563795 	0.0030057 	1.65889 	0.015658 	-3.10821 	90.1469 	95.9516 	-0.572754 	296.487 	360.997 	284.883 	539.241 	
76.0736 	-0.00289518 	-0.56442 	-0.00340402 	1.65889 	0.0154801 	-3.10818 	90.1469 	94.9736 	-0.572754 	295.484 	360.997 	284.883 	539.241 	
76.1767 	-0.0029249 	-0.565047 	-0.0112501 	1.65889 	0.0152621 	-3.10814 	90.1469 	93.9632 	-0.572754 	294.489 	360.997 	284.883 	539.241 	
76.2801 	-0.00295294 	-0.565485 	-0.0183924 	1.65889 	0.0150632 	-3.10811 	90.1469 	92.8545 	-0.572754 	293.391 	360.997 	284.883 	539.241 	
76.3829 	-0.00298193 	-0.5658 	-0.025541 	1.65889 	0.0148639 	-3.10809 	90.1469 	91.8565 	-0.572754 	292.383 	360.997 	284.883 	539.24 	
76.4859 	-0.00300884 	-0.565976 	-0.0319787 	1.65889 	0.0146842 	-3.10807 	90.1469 	90.8641 	-0.572754 	291.39 	360.997 	284.883 	539.24 	
76.589 	-0.00304277 	-0.566054 	-0.0398495 	1.65889 	0.0144641 	-3.10804 	90.147 	89.7516 	-0.572754 	290.281 	360.997 	284.883 	539.24 	
76.6921 	-0.00307459 	-0.565993 	-0.0470049 	1.65889 	0.0142637 	-3.10803 	90.1469 	88.764 	-0.572754 	289.285 	360.997 	284.883 	539.24 	
76.7953 	-0.00310733 	-0.565808 	-0.0541581 	1.65889 	0.014063 	-3.10802 	90.1469 	87.756 	-0.572754 	288.283 	360.997 	284.883 	539.24 	
76.8983 	-0.00313758 	-0.565535 	-0.0605923 	1.65889 	0.0138823 	-3.10801 	90.1469 	86.6589 	-0.572754 	287.189 	360.997 	284.883 	539.24 	
77.0015 	-0.00317205 	-0.565112 	-0.0677355 	1.65889 	0.0136813 	-3.108 	90.1469 	85.6615 	-0.572754 	286.187 	360.997 	284.883 	539.24 	
77.1042 	-0.003211 	-0.564504 	-0.0755831 	1.65889 	0.0134602 	-3.108 	90.1469 	84.6644 	-0.572754 	285.185 	360.997 	284.883 	539.24 	
77.2073 	-0.00324734 	-0.56382 	-0.082706 	1.65889 	0.0132591 	-3.108 	90.1469 	83.6621 	-0.572754 	284.186 	360.997 	284.883 	539.24 	
77.3107 	-0.00328454 	-0.563012 	-0.0898159 	1.65889 	0.0130581 	-3.10801 	90.1469 	82.5722 	-0.572754 	283.086 	360.997 	284.883 	539.24 	
77.4136 	-0.00331876 	-0.562179 	-0.0962017 	1.65889 	0.0128773 	-3.10801 	90.1469 	81.5667 	-0.572754 	282.081 	360.997 	284.883 	539.24 	
77.5167 	-0.00335759 	-0.561136 	-0.103281 	1.65889 	0.0126766 	-3.10803 	90.1469 	80.5652 	-0.572754 	281.089 	360.997 	284.883 	539.24 	
77.6198 	-0.00339725 	-0.559969 	-0.110341 	1.65889 	0.0124761 	-3.10804 	90.1469 	79.4731 	-0.572754 	279.987 	360.997 	284.883 	539.24 	
77.7229 	-0.00344184 	-0.558544 	-0.118082 	1.65889 	0.012256 	-3.10806 	90.1469 	78.4681 	-0.572754 	278.989 	360.997 	284.883 	539.24 	
77.8262 	-0.00348322 	-0.557119 	-0.125094 	1.65889 	0.0120562 	-3.10808 	90.1469 	77.4804 	-0.572754 	277.986 	360.997 	284.883 	539.24 	
77.9288 	-0.00352114 	-0.555732 	-0.131383 	1.65889 	0.0118767 	-3.10811 	90.1469 	76.3743 	-0.572754 	276.883 	360.997 	284.883 	539.24 	
78.0352 	-0.00356836 	-0.553904 	-0.139039 	1.65889 	0.0116579 	-3.10814 	90.1469 	75.381 	-0.572754 	275.885 	360.997 	284.883 	539.24 	
78.1385 	-0.0036121 	-0.552114 	-0.145967 	1.65889 	0.0114596 	-3.10817 	90.1469 	74.3771 	-0.572754 	274.889 	360.997 	284.883 	539.24 	
78.2412 	-0.0036566 	-0.550204 	-0.152863 	1.65889 	0.0112619 	-3.10821 	90.1469 	73.2885 	-0.572852 	273.786 	360.997 	284.883 	539.24 	
78.3439 	-0.00370184 	-0.548173 	-0.159725 	1.65889 	0.0110648 	-3.10825 	90.1469 	72.2858 	-0.572852 	272.785 	360.997 	284.883 	539.24 	
78.4474 	-0.00374782 	-0.546023 	-0.16655 	1.65889 	0.0108685 	-3.10829 	90.1469 	71.2862 	-0.572754 	271.79 	360.997 	284.883 	539.24 	
78.5502 	-0.00378981 	-0.543987 	-0.172659 	1.65889 	0.0106924 	-3.10833 	90.1469 	70.2066 	-0.572852 	270.679 	360.997 	284.883 	539.24 	
78.6533 	-0.00383714 	-0.541612 	-0.179409 	1.65889 	0.0104976 	-3.10838 	90.1469 	69.1968 	-0.572852 	269.698 	360.997 	284.883 	539.24 	
78.7561 	-0.00389643 	-0.533079 	-0.194454 	1.66974 	0.010232 	-3.10844 	90.1469 	68.2046 	-0.572852 	269.055 	360.997 	284.883 	539.24 	
78.8595 	-0.00388487 	-0.524796 	-0.203686 	1.68719 	0.0102346 	-3.10842 	90.1469 	67.1169 	-0.572852 	268.899 	360.997 	284.883 	539.24 	
78.9621 	-0.00387308 	-0.516353 	-0.212772 	1.70465 	0.0102377 	-3.10839 	90.1469 	66.1093 	-0.572852 	268.874 	360.997 	284.883 	539.24 	
79.0644 	-0.00386107 	-0.507753 	-0.221709 	1.7221 	0.0102411 	-3.10837 	90.1469 	65.1152 	-0.572852 	268.871 	360.997 	284.883 	539.24 	
79.1679 	-0.00384884 	-0.498999 	-0.230495 	1.73955 	0.010245 	-3.10835 	90.1469 	64.1247 	-0.572852 	268.869 	360.997 	284.883 	539.24 	
