RISC-NYUAD/HeavyPayloadDrone/projects/kinova-ros/devel/lib/ne_kinova_demo/VulcanTrajectory/Vulcan1_Vicon_y19m11d13h19min3.csv
time (NSec) 	Kinova Tip Position (t_x) 	t_y 	t_z 	Kinova Tip Angle (theta_x) 	Kinova Tip Angle (theta_y) 	Kinova Tip Angle (theta_z) 	Kinova Joint Angle (j1) 	(j2) 	(j3) 	(j4) 	Kinova Joint Angle (j5) 	(j6) 	(j7)
1.18447 	-0.00383052 	-0.485876 	-0.243109 	1.76517 	0.0102515 	-3.10796 	90.1566 	62.3619 	-0.591113 	268.845 	360.634 	285.054 	539.159 	
1.20134 	-0.00383052 	-0.485876 	-0.243109 	1.76517 	0.0102515 	-3.10796 	90.1566 	62.362 	-0.591113 	268.845 	360.634 	285.054 	539.159 	
1.30474 	-0.003817 	-0.48689 	-0.241375 	1.76516 	0.010307 	-3.11284 	90.1566 	62.436 	-0.591113 	268.946 	360.634 	285.054 	539.176 	
1.40802 	-0.00379336 	-0.488505 	-0.238182 	1.76516 	0.0104037 	-3.12154 	90.1566 	62.8207 	-0.591113 	269.381 	360.634 	285.054 	539.492 	
1.51465 	-0.00376988 	-0.490092 	-0.234975 	1.76516 	0.0105007 	-3.12535 	90.1566 	63.2907 	-0.591113 	269.86 	360.634 	285.054 	539.743 	
1.61769 	-0.00374891 	-0.491497 	-0.232076 	1.76516 	0.0105882 	-3.12533 	90.1566 	63.8511 	-0.591113 	270.411 	360.634 	285.054 	539.78 	
1.72083 	-0.00372577 	-0.493032 	-0.228843 	1.76515 	0.0106856 	-3.1253 	90.1566 	64.3319 	-0.591113 	270.913 	360.634 	285.054 	539.788 	
1.82387 	-0.00370052 	-0.494687 	-0.225271 	1.76515 	0.010793 	-3.12528 	90.1566 	64.8471 	-0.591113 	271.41 	360.634 	285.054 	539.79 	
1.92671 	-0.00367776 	-0.496161 	-0.22201 	1.76514 	0.0108908 	-3.12525 	90.1566 	65.3214 	-0.591113 	271.914 	360.634 	285.054 	539.791 	
2.02985 	-0.00365742 	-0.497464 	-0.219064 	1.76514 	0.0109791 	-3.12523 	90.1566 	65.8941 	-0.591113 	272.462 	360.634 	285.054 	539.792 	
2.13289 	-0.00363277 	-0.499025 	-0.21545 	1.76514 	0.0110871 	-3.12521 	90.1566 	66.3682 	-0.591113 	272.964 	360.634 	285.054 	539.793 	
2.23575 	-0.00361055 	-0.500414 	-0.212151 	1.76513 	0.0111855 	-3.12519 	90.1566 	66.8902 	-0.591113 	273.458 	360.634 	285.054 	539.794 	
2.33911 	-0.00359072 	-0.50164 	-0.209173 	1.76513 	0.0112743 	-3.12517 	90.1566 	67.4171 	-0.591113 	274.01 	360.634 	285.054 	539.794 	
2.44199 	-0.00356668 	-0.503105 	-0.205519 	1.76513 	0.0113829 	-3.12515 	90.1566 	67.9271 	-0.591113 	274.511 	360.634 	285.054 	539.794 	
2.54498 	-0.00354718 	-0.504279 	-0.202519 	1.76512 	0.0114719 	-3.12514 	90.1566 	68.4216 	-0.591113 	275.008 	360.634 	285.054 	539.795 	
2.64792 	-0.00352356 	-0.505681 	-0.19884 	1.76512 	0.0115808 	-3.12512 	90.1566 	68.9708 	-0.591113 	275.561 	360.634 	285.054 	539.795 	
2.75344 	-0.0035023 	-0.506924 	-0.195485 	1.76512 	0.0116801 	-3.1251 	90.1566 	69.4698 	-0.591113 	276.06 	360.634 	285.054 	539.795 	
2.85662 	-0.00348332 	-0.508018 	-0.192455 	1.76511 	0.0117695 	-3.12509 	90.1566 	69.9537 	-0.591113 	276.559 	360.634 	285.054 	539.795 	
2.95977 	-0.00346034 	-0.509324 	-0.188741 	1.76511 	0.0118789 	-3.12507 	90.1566 	70.5241 	-0.591113 	277.109 	360.634 	285.054 	539.795 	
3.0627 	-0.00343966 	-0.510479 	-0.185354 	1.76511 	0.0119785 	-3.12506 	90.1566 	71.0015 	-0.591113 	277.612 	360.634 	285.054 	539.795 	
3.1665 	-0.00341918 	-0.511605 	-0.181957 	1.7651 	0.0120782 	-3.12505 	90.1566 	71.5215 	-0.591113 	278.105 	360.634 	285.054 	539.795 	
3.2709 	-0.00337881 	-0.513767 	-0.175134 	1.7651 	0.0122779 	-3.12502 	90.1566 	71.9948 	-0.591113 	278.611 	360.634 	285.054 	539.795 	
3.37373 	-0.00335894 	-0.514804 	-0.171708 	1.76509 	0.0123779 	-3.12501 	90.1566 	72.5621 	-0.591113 	279.155 	360.634 	285.053 	539.796 	
3.47686 	-0.00333927 	-0.51581 	-0.168274 	1.76509 	0.012478 	-3.125 	90.1566 	73.0406 	-0.591113 	279.662 	360.634 	285.053 	539.796 	
3.57963 	-0.00331981 	-0.516787 	-0.164831 	1.76509 	0.0125781 	-3.125 	90.1566 	73.6093 	-0.591113 	280.204 	360.634 	285.053 	539.796 	
3.68248 	-0.00330055 	-0.517734 	-0.161379 	1.76508 	0.0126784 	-3.12499 	90.1566 	74.0926 	-0.591113 	280.712 	360.634 	285.053 	539.796 	
3.78541 	-0.0032834 	-0.51856 	-0.158266 	1.76508 	0.0127686 	-3.12498 	90.1566 	74.601 	-0.591113 	281.204 	360.634 	285.053 	539.796 	
3.88886 	-0.00326267 	-0.519536 	-0.154453 	1.76508 	0.012879 	-3.12498 	90.1566 	75.1494 	-0.591113 	281.759 	360.634 	285.053 	539.796 	
3.99185 	-0.00324405 	-0.520392 	-0.150978 	1.76507 	0.0129794 	-3.12497 	90.1566 	75.647 	-0.591113 	282.26 	360.634 	285.053 	539.796 	
4.09473 	-0.00322564 	-0.521217 	-0.147495 	1.76507 	0.0130798 	-3.12497 	90.1566 	76.1525 	-0.591113 	282.759 	360.634 	285.053 	539.796 	
4.19772 	-0.00320745 	-0.522012 	-0.144006 	1.76507 	0.0131803 	-3.12497 	90.1566 	76.6813 	-0.591113 	283.303 	360.634 	285.053 	539.796 	
4.30068 	-0.00319126 	-0.522702 	-0.14086 	1.76506 	0.0132707 	-3.12496 	90.1566 	77.2001 	-0.591113 	283.807 	360.634 	285.053 	539.796 	
4.40392 	-0.00317172 	-0.523511 	-0.137007 	1.76506 	0.0133812 	-3.12496 	90.1566 	77.6812 	-0.591113 	284.31 	360.634 	285.053 	539.796 	
4.507 	-0.00315418 	-0.524214 	-0.133498 	1.76506 	0.0134817 	-3.12496 	90.1566 	78.2031 	-0.591113 	284.806 	360.634 	285.053 	539.796 	
4.61478 	-0.00313686 	-0.524887 	-0.129983 	1.76505 	0.0135822 	-3.12496 	90.1566 	78.7228 	-0.591113 	285.358 	360.634 	285.053 	539.796 	
4.71803 	-0.00311977 	-0.525529 	-0.126463 	1.76505 	0.0136827 	-3.12496 	90.1566 	79.2984 	-0.591113 	285.907 	360.634 	285.053 	539.796 	
4.8206 	-0.0031029 	-0.526141 	-0.122937 	1.76505 	0.0137832 	-3.12497 	90.1566 	79.7729 	-0.591113 	286.41 	360.634 	285.053 	539.796 	
4.92375 	-0.00308625 	-0.526721 	-0.119405 	1.76504 	0.0138836 	-3.12497 	90.1566 	80.2905 	-0.591113 	286.906 	360.634 	285.053 	539.796 	
5.02692 	-0.00306983 	-0.527271 	-0.115869 	1.76504 	0.013984 	-3.12497 	90.1566 	80.7846 	-0.591113 	287.409 	360.634 	285.053 	539.796 	
5.12984 	-0.00305364 	-0.52779 	-0.112328 	1.76504 	0.0140844 	-3.12498 	90.1566 	81.3328 	-0.591113 	287.956 	360.634 	285.053 	539.796 	
5.23293 	-0.00303926 	-0.52823 	-0.109138 	1.76503 	0.0141747 	-3.12498 	90.1566 	81.8308 	-0.591113 	288.458 	360.634 	285.053 	539.796 	
5.33589 	-0.0030235 	-0.52869 	-0.105589 	1.76503 	0.014275 	-3.12499 	90.1566 	82.327 	-0.591113 	288.958 	360.634 	285.053 	539.796 	
5.43899 	-0.00300643 	-0.52916 	-0.10168 	1.76503 	0.0143852 	-3.125 	90.1566 	82.8882 	-0.591113 	289.507 	360.634 	285.053 	539.796 	
5.54188 	-0.00299116 	-0.529555 	-0.0981235 	1.76502 	0.0144854 	-3.12501 	90.1566 	83.3708 	-0.591113 	290.011 	360.634 	285.053 	539.796 	
5.64494 	-0.00297612 	-0.529919 	-0.0945635 	1.76502 	0.0145854 	-3.12502 	90.1566 	83.8889 	-0.591113 	290.509 	360.634 	285.053 	539.796 	
5.74794 	-0.00296132 	-0.530252 	-0.0910003 	1.76502 	0.0146854 	-3.12503 	90.1566 	84.4207 	-0.591113 	291.056 	360.634 	285.053 	539.796 	
5.85504 	-0.00294675 	-0.530554 	-0.0874346 	1.76501 	0.0147853 	-3.12504 	90.1566 	84.9446 	-0.591113 	291.558 	360.634 	285.053 	539.796 	
5.95792 	-0.00293242 	-0.530824 	-0.0838661 	1.76501 	0.0148851 	-3.12505 	90.1566 	85.4628 	-0.591113 	292.106 	360.634 	285.053 	539.797 	
6.06053 	-0.00291832 	-0.531064 	-0.0802956 	1.76501 	0.0149848 	-3.12506 	90.1566 	85.9827 	-0.591113 	292.606 	360.634 	285.053 	539.797 	
6.16645 	-0.00290447 	-0.531272 	-0.076723 	1.76501 	0.0150843 	-3.12508 	90.1566 	86.4665 	-0.591113 	293.108 	360.634 	285.053 	539.797 	
6.26986 	-0.00289086 	-0.531449 	-0.0731488 	1.765 	0.0151838 	-3.12509 	90.1566 	87.0343 	-0.591113 	293.658 	360.634 	285.053 	539.797 	
6.37352 	-0.00286435 	-0.531709 	-0.0659965 	1.765 	0.0153822 	-3.12512 	90.1566 	87.5256 	-0.591113 	294.156 	360.634 	285.053 	539.797 	
6.47675 	-0.00285274 	-0.531786 	-0.0627767 	1.76499 	0.0154714 	-3.12514 	90.1566 	88.0242 	-0.591113 	294.654 	360.634 	285.053 	539.797 	
6.57965 	-0.00283881 	-0.531845 	-0.0588408 	1.76499 	0.0155801 	-3.12516 	90.1566 	88.574 	-0.591113 	295.207 	360.634 	285.053 	539.797 	
6.68336 	-0.00282764 	-0.531865 	-0.0556202 	1.76499 	0.015669 	-3.12517 	90.1566 	89.0752 	-0.591113 	295.702 	360.634 	285.053 	539.797 	
6.78572 	-0.00281426 	-0.531856 	-0.0516838 	1.76498 	0.0157774 	-3.1252 	90.1566 	89.5849 	-0.591113 	296.208 	360.634 	285.053 	539.797 	
6.88878 	-0.00280353 	-0.53182 	-0.0484633 	1.76498 	0.0158659 	-3.12521 	90.1566 	90.1192 	-0.591113 	296.753 	360.634 	285.053 	539.797 	
6.99219 	-0.00279069 	-0.531742 	-0.0445277 	1.76498 	0.0159739 	-3.12524 	90.1566 	90.631 	-0.591113 	297.257 	360.634 	285.053 	539.797 	
7.09483 	-0.00277928 	-0.531638 	-0.0409508 	1.76498 	0.0160719 	-3.12526 	90.1566 	91.1177 	-0.591113 	297.754 	360.634 	285.053 	539.797 	
7.19795 	-0.00276812 	-0.531503 	-0.0373748 	1.76497 	0.0161697 	-3.12528 	90.1566 	91.6885 	-0.591113 	298.306 	360.634 	285.053 	539.797 	
7.30085 	-0.00275721 	-0.531336 	-0.0338002 	1.76497 	0.0162673 	-3.12531 	90.1566 	92.1579 	-0.591113 	298.805 	360.634 	285.053 	539.797 	
7.40375 	-0.00274654 	-0.531139 	-0.0302272 	1.76497 	0.0163647 	-3.12533 	90.1566 	92.6807 	-0.591113 	299.302 	360.634 	285.053 	539.797 	
7.50714 	-0.00273613 	-0.53091 	-0.0266562 	1.76496 	0.0164619 	-3.12536 	90.1566 	93.169 	-0.591113 	299.801 	360.634 	285.053 	539.797 	
7.61454 	-0.00272598 	-0.53065 	-0.023087 	1.76496 	0.0165588 	-3.12538 	90.1566 	93.7313 	-0.591113 	300.354 	360.634 	285.053 	539.797 	
7.71635 	-0.00271705 	-0.53039 	-0.0198771 	1.76496 	0.0166458 	-3.12541 	90.1566 	94.224 	-0.591113 	300.854 	360.634 	285.053 	539.797 	
7.81833 	-0.00270738 	-0.530071 	-0.0163129 	1.76496 	0.0167423 	-3.12544 	90.1566 	94.7725 	-0.591113 	301.4 	360.634 	285.053 	539.797 	
7.9202 	-0.00269796 	-0.529721 	-0.0127517 	1.76495 	0.0168385 	-3.12547 	90.1566 	95.2763 	-0.591113 	301.906 	360.634 	285.053 	539.797 	
8.02233 	-0.0026888 	-0.52934 	-0.0091935 	1.76495 	0.0169345 	-3.1255 	90.1566 	95.7794 	-0.591113 	302.4 	360.634 	285.053 	539.797 	
8.12417 	-0.00267989 	-0.528927 	-0.00563894 	1.76495 	0.0170302 	-3.12553 	90.1566 	96.2883 	-0.591113 	302.899 	360.634 	285.053 	539.797 	
8.22629 	-0.00267124 	-0.528484 	-0.00208803 	1.76494 	0.0171256 	-3.12556 	90.1566 	96.7689 	-0.591113 	303.405 	360.634 	285.053 	539.797 	
8.32822 	-0.00266285 	-0.52801 	0.00145877 	1.76494 	0.0172208 	-3.12559 	90.1566 	97.3392 	-0.591113 	303.952 	360.634 	285.053 	539.797 	
8.43024 	-0.00265471 	-0.527505 	0.00500124 	1.76494 	0.0173157 	-3.12562 	90.1566 	97.8258 	-0.591113 	304.455 	360.634 	285.053 	539.797 	
8.53222 	-0.00264684 	-0.526969 	0.00853926 	1.76494 	0.0174102 	-3.12566 	90.1566 	98.3409 	-0.591113 	304.953 	360.634 	285.053 	539.797 	
8.63436 	-0.00263922 	-0.526402 	0.0120724 	1.76493 	0.0175045 	-3.12569 	90.1566 	98.8248 	-0.591113 	305.455 	360.634 	285.053 	539.797 	
8.73603 	-0.00263186 	-0.525805 	0.0156005 	1.76493 	0.0175985 	-3.12573 	90.1566 	99.3346 	-0.591113 	305.948 	360.634 	285.053 	539.797 	
8.83858 	-0.00262477 	-0.525176 	0.0191232 	1.76493 	0.0176922 	-3.12576 	90.1566 	99.8755 	-0.591113 	306.504 	360.634 	285.053 	539.797 	
8.94209 	-0.00261727 	-0.524449 	0.0229917 	1.76493 	0.0177948 	-3.12581 	90.1566 	100.389 	-0.591113 	307.003 	360.634 	285.053 	539.797 	
9.04476 	-0.00261072 	-0.523757 	0.0265023 	1.76492 	0.0178878 	-3.12584 	90.1566 	100.889 	-0.591113 	307.504 	360.634 	285.053 	539.797 	
9.14825 	-0.00260444 	-0.523033 	0.0300067 	1.76492 	0.0179804 	-3.12588 	90.1566 	101.434 	-0.591113 	308.002 	360.634 	285.053 	539.797 	
9.25505 	-0.00259841 	-0.522279 	0.0335047 	1.76492 	0.0180727 	-3.12592 	90.1566 	101.941 	-0.591113 	308.553 	360.634 	285.053 	539.797 	
9.35767 	-0.00259266 	-0.521495 	0.0369959 	1.76492 	0.0181647 	-3.12596 	90.1566 	102.485 	-0.591113 	309.05 	360.634 	285.053 	539.797 	
9.4613 	-0.00258716 	-0.52068 	0.0404801 	1.76491 	0.0182562 	-3.126 	90.1566 	102.997 	-0.591113 	309.603 	360.634 	285.053 	539.797 	
9.56408 	-0.00258193 	-0.519835 	0.0439572 	1.76491 	0.0183475 	-3.12605 	90.1566 	103.485 	-0.591113 	310.103 	360.634 	285.053 	539.797 	
9.66676 	-0.00257697 	-0.518959 	0.0474266 	1.76491 	0.0184383 	-3.12609 	90.1566 	103.994 	-0.591113 	310.604 	360.634 	285.053 	539.797 	
9.77059 	-0.00256783 	-0.517117 	0.054342 	1.7649 	0.0186189 	-3.12618 	90.1566 	104.542 	-0.591113 	311.154 	360.634 	285.053 	539.797 	
9.87366 	-0.00256366 	-0.516151 	0.0577872 	1.7649 	0.0187086 	-3.12622 	90.1566 	105.053 	-0.591113 	311.653 	360.634 	285.053 	539.797 	
9.97652 	-0.00255975 	-0.515155 	0.061224 	1.7649 	0.0187979 	-3.12627 	90.1566 	105.542 	-0.591113 	312.157 	360.634 	285.053 	539.797 	
10.0799 	-0.00255612 	-0.514129 	0.0646519 	1.7649 	0.0188868 	-3.12632 	90.1566 	106.102 	-0.591113 	312.703 	360.634 	285.053 	539.797 	
10.1828 	-0.00255274 	-0.513072 	0.0680707 	1.7649 	0.0189752 	-3.12636 	90.1566 	106.593 	-0.591113 	313.205 	360.634 	285.053 	539.797 	
10.2859 	-0.00254994 	-0.512097 	0.0711396 	1.76489 	0.0190545 	-3.12641 	90.1566 	107.103 	-0.591113 	313.702 	360.634 	285.053 	539.797 	
10.3885 	-0.0025468 	-0.510871 	0.07488 	1.76489 	0.0191509 	-3.12646 	90.1566 	107.653 	-0.591113 	314.251 	360.634 	285.053 	539.797 	
10.4916 	-0.00254423 	-0.509726 	0.07827 	1.76489 	0.0192381 	-3.12651 	90.1566 	108.152 	-0.591113 	314.751 	360.634 	285.053 	539.797 	
10.595 	-0.00254193 	-0.508552 	0.0816499 	1.76489 	0.0193249 	-3.12656 	90.1566 	108.66 	-0.591113 	315.25 	360.634 	285.053 	539.797 	
10.6979 	-0.00253989 	-0.507347 	0.0850193 	1.76488 	0.0194112 	-3.12661 	90.1566 	109.211 	-0.591113 	315.751 	360.634 	285.053 	539.797 	
10.8008 	-0.00253812 	-0.506114 	0.0883781 	1.76488 	0.0194971 	-3.12667 	90.1566 	109.718 	-0.591113 	316.301 	360.634 	285.053 	539.797 	
10.9037 	-0.00253676 	-0.504979 	0.0913917 	1.76488 	0.019574 	-3.12671 	90.1566 	110.204 	-0.591113 	316.804 	360.634 	285.053 	539.797 	
11.007 	-0.0025359 	-0.50401 	0.0952293 	1.76351 	0.0196538 	-3.12677 	90.1566 	110.713 	-0.591113 	317.224 	360.634 	285.053 	539.797 	
11.1149 	-0.00253807 	-0.505564 	0.0996348 	1.75479 	0.0196515 	-3.12678 	90.1566 	111.263 	-0.591113 	317.314 	360.634 	285.053 	539.797 	
11.218 	-0.00254019 	-0.507079 	0.104054 	1.74606 	0.0196493 	-3.12679 	90.1566 	111.824 	-0.591113 	317.318 	360.634 	285.053 	539.797 	
11.321 	-0.00254205 	-0.50841 	0.108042 	1.73821 	0.0196475 	-3.1268 	90.1566 	112.31 	-0.591113 	317.319 	360.634 	285.053 	539.797 	
11.4239 	-0.00254426 	-0.509994 	0.11293 	1.72861 	0.0196453 	-3.12681 	90.1566 	112.812 	-0.591113 	317.32 	360.634 	285.053 	539.797 	
11.5269 	-0.00254602 	-0.511255 	0.116941 	1.72075 	0.0196436 	-3.12683 	90.1566 	113.313 	-0.591113 	317.32 	360.634 	285.053 	539.797 	
11.6299 	-0.00254811 	-0.512754 	0.121856 	1.71115 	0.0196417 	-3.12684 	90.1566 	113.868 	-0.591113 	317.321 	360.634 	285.053 	539.797 	
11.7328 	-0.00254996 	-0.514075 	0.126337 	1.70243 	0.01964 	-3.12685 	90.1566 	114.368 	-0.591113 	317.322 	360.634 	285.053 	539.797 	
11.8359 	-0.00255175 	-0.515357 	0.130829 	1.6937 	0.0196385 	-3.12686 	90.1566 	114.865 	-0.591113 	317.322 	360.634 	285.053 	539.797 	
11.9395 	-0.00255349 	-0.5166 	0.135332 	1.68497 	0.019637 	-3.12687 	90.1566 	115.413 	-0.591113 	317.323 	360.634 	285.053 	539.797 	
11.9856 	-0.00255516 	-0.517804 	0.139846 	1.67624 	0.0196357 	-3.12689 	90.1566 	115.616 	-0.591113 	317.324 	360.634 	285.053 	539.797 	
12.0887 	-0.00255663 	-0.518854 	0.143917 	1.66839 	0.0196346 	-3.1269 	90.1566 	116.17 	-0.591113 	317.325 	360.634 	285.053 	539.797 	
12.1918 	-0.00255771 	-0.519625 	0.146998 	1.66246 	0.0196338 	-3.12691 	90.1566 	116.545 	-0.591113 	317.327 	360.634 	285.053 	539.797 	
12.2947 	-0.00255771 	-0.519625 	0.146998 	1.66246 	0.0196338 	-3.12691 	90.1566 	116.591 	-0.591113 	317.33 	360.634 	285.053 	539.797 	
12.3981 	-0.00255771 	-0.519625 	0.146998 	1.66246 	0.0196338 	-3.12691 	90.1566 	116.598 	-0.591113 	317.331 	360.634 	285.053 	539.797 	
12.5009 	-0.00255771 	-0.519625 	0.146998 	1.66246 	0.0196338 	-3.12691 	90.1566 	116.598 	-0.591113 	317.332 	360.634 	285.053 	539.797 	
12.6036 	-0.00255771 	-0.519625 	0.146998 	1.66246 	0.0196338 	-3.12691 	90.1566 	116.599 	-0.591113 	317.333 	360.634 	285.053 	539.797 	
12.707 	-0.00255771 	-0.519625 	0.146998 	1.66246 	0.0196338 	-3.12691 	90.1566 	116.599 	-0.591113 	317.333 	360.634 	285.053 	539.797 	
12.815 	-0.00255771 	-0.519625 	0.146998 	1.66246 	0.0196338 	-3.12691 	90.1566 	116.599 	-0.591113 	317.333 	360.634 	285.053 	539.797 	
12.9137 	-0.00255771 	-0.519625 	0.146998 	1.66246 	0.0196338 	-3.12691 	90.1566 	116.599 	-0.591113 	317.334 	360.634 	285.053 	539.797 	
13.0169 	-0.00255868 	-0.520462 	0.147251 	1.66001 	0.0196064 	-3.12689 	90.1566 	116.599 	-0.591113 	317.245 	360.634 	285.053 	539.797 	
13.1201 	-0.00256245 	-0.523484 	0.148761 	1.65042 	0.0195115 	-3.12685 	90.1566 	116.599 	-0.591113 	316.823 	360.634 	285.053 	539.797 	
13.2229 	-0.00256618 	-0.526219 	0.150158 	1.64169 	0.0194249 	-3.12681 	90.1566 	116.599 	-0.591113 	316.336 	360.634 	285.053 	539.797 	
13.3259 	-0.00257021 	-0.528942 	0.15158 	1.63297 	0.019338 	-3.12677 	90.1566 	116.599 	-0.591113 	315.84 	360.634 	285.053 	539.797 	
13.429 	-0.00257452 	-0.531651 	0.153025 	1.62424 	0.0192507 	-3.12673 	90.1566 	116.599 	-0.591113 	315.292 	360.634 	285.053 	539.797 	
13.532 	-0.00257913 	-0.534349 	0.154494 	1.61552 	0.0191631 	-3.12669 	90.1566 	116.599 	-0.591113 	314.795 	360.634 	285.053 	539.797 	
13.635 	-0.00258403 	-0.537033 	0.155986 	1.60679 	0.0190752 	-3.12665 	90.1566 	116.599 	-0.591113 	314.298 	360.634 	285.053 	539.797 	
13.7379 	-0.00258922 	-0.539704 	0.157501 	1.59807 	0.0189869 	-3.12662 	90.1566 	116.599 	-0.591113 	313.795 	360.634 	285.053 	539.797 	
13.841 	-0.0025947 	-0.542362 	0.15904 	1.58934 	0.0188983 	-3.12658 	90.1566 	116.599 	-0.591113 	313.252 	360.634 	285.053 	539.797 	
13.944 	-0.00260046 	-0.545006 	0.160602 	1.58062 	0.0188094 	-3.12654 	90.1566 	116.599 	-0.591113 	312.749 	360.634 	285.053 	539.797 	
14.0472 	-0.00260652 	-0.547637 	0.162187 	1.57189 	0.0187202 	-3.12651 	90.1566 	116.599 	-0.591113 	312.258 	360.634 	285.053 	539.797 	
14.1543 	-0.00261287 	-0.550254 	0.163795 	1.56317 	0.0186307 	-3.12648 	90.1566 	116.599 	-0.591113 	311.702 	360.634 	285.053 	539.797 	
14.2561 	-0.0026195 	-0.552856 	0.165425 	1.55444 	0.018541 	-3.12644 	90.1566 	116.599 	-0.591113 	311.207 	360.634 	285.053 	539.797 	
14.3588 	-0.00262571 	-0.555186 	0.166912 	1.54659 	0.0184599 	-3.12642 	90.1566 	116.599 	-0.591113 	310.656 	360.634 	285.053 	539.797 	
14.4628 	-0.00263362 	-0.558018 	0.168754 	1.53699 	0.0183606 	-3.12638 	90.1566 	116.599 	-0.591113 	310.162 	360.634 	285.053 	539.797 	
14.5667 	-0.00264112 	-0.560577 	0.170452 	1.52827 	0.01827 	-3.12635 	90.1566 	116.599 	-0.591113 	309.66 	360.634 	285.053 	539.797 	
14.6709 	-0.0026489 	-0.563121 	0.172173 	1.51955 	0.0181791 	-3.12632 	90.1566 	116.599 	-0.591113 	309.114 	360.634 	285.053 	539.797 	
14.7735 	-0.00265696 	-0.56565 	0.173915 	1.51082 	0.018088 	-3.12629 	90.1566 	116.599 	-0.591113 	308.618 	360.634 	285.053 	539.797 	
14.8769 	-0.00267394 	-0.570662 	0.177466 	1.49337 	0.017905 	-3.12624 	90.1566 	116.599 	-0.591113 	308.117 	360.634 	285.053 	539.797 	
14.9797 	-0.00268286 	-0.573145 	0.179274 	1.48465 	0.0178132 	-3.12621 	90.1566 	116.599 	-0.591113 	307.569 	360.634 	285.053 	539.797 	
15.083 	-0.00269206 	-0.575611 	0.181104 	1.47592 	0.0177211 	-3.12619 	90.1566 	116.599 	-0.591113 	307.075 	360.634 	285.053 	539.797 	
15.1857 	-0.00270154 	-0.578062 	0.182955 	1.4672 	0.0176288 	-3.12616 	90.1566 	116.599 	-0.591113 	306.574 	360.634 	285.053 	539.797 	
15.2891 	-0.0027113 	-0.580496 	0.184828 	1.45847 	0.0175363 	-3.12614 	90.1566 	116.599 	-0.591113 	306.029 	360.634 	285.053 	539.797 	
15.3919 	-0.00272134 	-0.582914 	0.186721 	1.44975 	0.0174436 	-3.12611 	90.1566 	116.599 	-0.591113 	305.533 	360.634 	285.053 	539.797 	
15.4948 	-0.00273166 	-0.585315 	0.188636 	1.44103 	0.0173507 	-3.12609 	90.1566 	116.599 	-0.591113 	305.03 	360.634 	285.053 	539.797 	
15.5979 	-0.00274226 	-0.5877 	0.190571 	1.4323 	0.0172577 	-3.12607 	90.1566 	116.599 	-0.591113 	304.532 	360.634 	285.053 	539.797 	
15.7009 	-0.00275314 	-0.590067 	0.192528 	1.42358 	0.0171644 	-3.12605 	90.1566 	116.599 	-0.591113 	303.982 	360.634 	285.053 	539.797 	
15.8039 	-0.0027643 	-0.592418 	0.194504 	1.41485 	0.0170709 	-3.12603 	90.1566 	116.599 	-0.591113 	303.488 	360.634 	285.053 	539.797 	
15.9072 	-0.00277457 	-0.594518 	0.196301 	1.407 	0.0169867 	-3.12601 	90.1566 	116.599 	-0.591113 	302.992 	360.634 	285.053 	539.797 	
16.0149 	-0.00278744 	-0.597066 	0.198519 	1.3974 	0.0168835 	-3.12599 	90.1566 	116.599 	-0.591113 	302.44 	360.634 	285.053 	539.797 	
16.1178 	-0.00279821 	-0.599135 	0.200352 	1.38955 	0.016799 	-3.12598 	90.1566 	116.599 	-0.591113 	301.939 	360.634 	285.053 	539.797 	
16.2208 	-0.00281044 	-0.601417 	0.202408 	1.38083 	0.0167049 	-3.12596 	90.1566 	116.599 	-0.591113 	301.392 	360.634 	285.053 	539.797 	
16.3239 	-0.00282294 	-0.603681 	0.204483 	1.3721 	0.0166107 	-3.12594 	90.1566 	116.599 	-0.591113 	300.896 	360.634 	285.053 	539.797 	
16.4269 	-0.00283701 	-0.60615 	0.206789 	1.36251 	0.0165069 	-3.12593 	90.1566 	116.599 	-0.591113 	300.398 	360.634 	285.053 	539.797 	
16.5299 	-0.00285008 	-0.608375 	0.208906 	1.35378 	0.0164124 	-3.12591 	90.1566 	116.599 	-0.591113 	299.849 	360.634 	285.053 	539.797 	
16.6328 	-0.00286342 	-0.610582 	0.211042 	1.34506 	0.0163178 	-3.1259 	90.1566 	116.599 	-0.591113 	299.35 	360.634 	285.053 	539.797 	
16.736 	-0.00287703 	-0.61277 	0.213197 	1.33633 	0.0162231 	-3.12589 	90.1566 	116.599 	-0.591113 	298.858 	360.634 	285.053 	539.797 	
16.8391 	-0.00289091 	-0.614939 	0.215371 	1.32761 	0.0161282 	-3.12588 	90.1566 	116.599 	-0.591113 	298.305 	360.634 	285.053 	539.797 	
16.9421 	-0.00290505 	-0.617089 	0.217564 	1.31889 	0.0160333 	-3.12586 	90.1566 	116.599 	-0.591113 	297.811 	360.634 	285.053 	539.797 	
17.0452 	-0.00291946 	-0.61922 	0.219775 	1.31016 	0.0159383 	-3.12585 	90.1566 	116.599 	-0.591113 	297.307 	360.634 	285.053 	539.797 	
17.1484 	-0.00293414 	-0.621332 	0.222005 	1.30144 	0.0158432 	-3.12585 	90.1566 	116.599 	-0.591113 	296.814 	360.634 	285.053 	539.797 	
17.2554 	-0.00294907 	-0.623424 	0.224254 	1.29271 	0.015748 	-3.12584 	90.1566 	116.599 	-0.591113 	296.264 	360.634 	285.053 	539.797 	
17.3577 	-0.00296428 	-0.625496 	0.22652 	1.28399 	0.0156528 	-3.12583 	90.1566 	116.599 	-0.591113 	295.768 	360.634 	285.053 	539.797 	
17.4607 	-0.00297974 	-0.627548 	0.228805 	1.27527 	0.0155575 	-3.12582 	90.1566 	116.599 	-0.591113 	295.215 	360.634 	285.053 	539.797 	
17.5666 	-0.00301144 	-0.631593 	0.233428 	1.25782 	0.0153667 	-3.12581 	90.1566 	116.599 	-0.591113 	294.718 	360.634 	285.053 	539.797 	
17.6731 	-0.00302768 	-0.633585 	0.235765 	1.24909 	0.0152712 	-3.12581 	90.1566 	116.599 	-0.591113 	294.173 	360.634 	285.053 	539.797 	
17.7759 	-0.00304418 	-0.635557 	0.23812 	1.24037 	0.0151757 	-3.1258 	90.1566 	116.599 	-0.591113 	293.678 	360.634 	285.053 	539.797 	
17.879 	-0.00306092 	-0.637507 	0.240492 	1.23165 	0.0150802 	-3.1258 	90.1566 	116.599 	-0.591113 	293.124 	360.634 	285.053 	539.797 	
17.9814 	-0.00307793 	-0.639437 	0.242881 	1.22292 	0.0149847 	-3.1258 	90.1566 	116.599 	-0.591113 	292.629 	360.634 	285.053 	539.797 	
18.0847 	-0.00309518 	-0.641347 	0.245286 	1.2142 	0.0148892 	-3.1258 	90.1566 	116.599 	-0.591113 	292.131 	360.634 	285.053 	539.797 	
18.1879 	-0.00311269 	-0.643235 	0.247708 	1.20547 	0.0147936 	-3.1258 	90.1566 	116.599 	-0.591113 	291.633 	360.634 	285.053 	539.797 	
18.291 	-0.00313045 	-0.645102 	0.250147 	1.19675 	0.0146981 	-3.1258 	90.1566 	116.598 	-0.591113 	291.086 	360.634 	285.053 	539.797 	
18.3939 	-0.00314846 	-0.646947 	0.252602 	1.18803 	0.0146026 	-3.1258 	90.1566 	116.598 	-0.591113 	290.587 	360.634 	285.053 	539.797 	
18.497 	-0.00316671 	-0.648771 	0.255072 	1.1793 	0.014507 	-3.1258 	90.1566 	116.598 	-0.591113 	290.087 	360.634 	285.053 	539.797 	
18.5999 	-0.00318521 	-0.650574 	0.257559 	1.17058 	0.0144116 	-3.12581 	90.1566 	116.598 	-0.591113 	289.541 	360.634 	285.053 	539.797 	
18.7029 	-0.00320395 	-0.652355 	0.260061 	1.16185 	0.0143161 	-3.12581 	90.1566 	116.598 	-0.591113 	289.04 	360.634 	285.053 	539.797 	
18.806 	-0.00322294 	-0.654113 	0.262579 	1.15313 	0.0142207 	-3.12582 	90.1566 	116.598 	-0.591113 	288.54 	360.634 	285.053 	539.797 	
18.9149 	-0.00324216 	-0.65585 	0.265112 	1.14441 	0.0141253 	-3.12582 	90.1566 	116.598 	-0.591113 	287.996 	360.634 	285.053 	539.797 	
19.0177 	-0.00326163 	-0.657565 	0.26766 	1.13568 	0.01403 	-3.12583 	90.1566 	116.598 	-0.591113 	287.501 	360.634 	285.053 	539.797 	
19.1211 	-0.00327936 	-0.659089 	0.269965 	1.12783 	0.0139443 	-3.12584 	90.1566 	116.598 	-0.591113 	286.955 	360.634 	285.053 	539.797 	
19.2238 	-0.00330128 	-0.660927 	0.2728 	1.11823 	0.0138396 	-3.12585 	90.1566 	116.598 	-0.591113 	286.451 	360.634 	285.053 	539.797 	
19.3272 	-0.00331943 	-0.662411 	0.275132 	1.11038 	0.013754 	-3.12585 	90.1566 	116.598 	-0.591113 	285.953 	360.634 	285.053 	539.797 	
19.4299 	-0.00334187 	-0.664199 	0.277998 	1.10079 	0.0136495 	-3.12586 	90.1566 	116.598 	-0.591113 	285.404 	360.634 	285.053 	539.797 	
19.533 	-0.00336044 	-0.665642 	0.280355 	1.09293 	0.013564 	-3.12587 	90.1566 	116.598 	-0.591113 	284.911 	360.634 	285.053 	539.797 	
19.6359 	-0.00338129 	-0.667223 	0.282988 	1.08421 	0.0134692 	-3.12589 	90.1566 	116.598 	-0.591113 	284.408 	360.634 	285.053 	539.797 	
19.7385 	-0.0034045 	-0.668936 	0.2859 	1.07461 	0.013365 	-3.1259 	90.1566 	116.598 	-0.591113 	283.863 	360.634 	285.053 	539.797 	
19.8408 	-0.00342369 	-0.670316 	0.288295 	1.06676 	0.0132798 	-3.12591 	90.1566 	116.598 	-0.591113 	283.361 	360.634 	285.053 	539.797 	
19.9434 	-0.00344522 	-0.671828 	0.290968 	1.05804 	0.0131853 	-3.12593 	90.1566 	116.598 	-0.591113 	282.871 	360.634 	285.053 	539.797 	
20.0455 	-0.00346699 	-0.673316 	0.293654 	1.04932 	0.0130909 	-3.12594 	90.1566 	116.598 	-0.591113 	282.365 	360.634 	285.053 	539.797 	
20.1488 	-0.00348897 	-0.674781 	0.296353 	1.04059 	0.0129966 	-3.12596 	90.1566 	116.598 	-0.591113 	281.814 	360.634 	285.053 	539.797 	
20.2534 	-0.00351341 	-0.676365 	0.299337 	1.031 	0.0128931 	-3.12597 	90.1566 	116.598 	-0.591113 	281.317 	360.634 	285.053 	539.797 	
20.3554 	-0.0035336 	-0.67764 	0.30179 	1.02314 	0.0128086 	-3.12599 	90.1566 	116.598 	-0.591113 	280.822 	360.634 	285.053 	539.797 	
20.4574 	-0.00355624 	-0.679034 	0.304526 	1.01442 	0.0127148 	-3.12601 	90.1566 	116.598 	-0.591113 	280.325 	360.634 	285.053 	539.797 	
20.5602 	-0.0035791 	-0.680404 	0.307275 	1.0057 	0.0126211 	-3.12603 	90.1566 	116.598 	-0.591113 	279.771 	360.634 	285.053 	539.797 	
20.6654 	-0.00360449 	-0.681883 	0.310312 	0.996101 	0.0125183 	-3.12605 	90.1566 	116.598 	-0.591113 	279.278 	360.634 	285.053 	539.797 	
20.7684 	-0.00364895 	-0.684369 	0.315591 	0.979525 	0.0123412 	-3.12609 	90.1566 	116.598 	-0.591113 	278.738 	360.634 	285.053 	539.797 	
20.8715 	-0.00367266 	-0.685642 	0.318386 	0.970802 	0.0122483 	-3.12611 	90.1566 	116.598 	-0.591113 	278.236 	360.634 	285.053 	539.797 	
20.9736 	-0.00369657 	-0.68689 	0.321192 	0.962078 	0.0121555 	-3.12613 	90.1566 	116.598 	-0.591113 	277.732 	360.634 	285.053 	539.797 	
21.0754 	-0.00372069 	-0.688115 	0.324008 	0.953354 	0.012063 	-3.12616 	90.1566 	116.598 	-0.591113 	277.232 	360.634 	285.053 	539.797 	
21.1776 	-0.00374501 	-0.689314 	0.326835 	0.944631 	0.0119707 	-3.12618 	90.1566 	116.598 	-0.591113 	276.733 	360.634 	285.053 	539.797 	
21.2795 	-0.00376954 	-0.690489 	0.329673 	0.935907 	0.0118786 	-3.12621 	90.1566 	116.598 	-0.591113 	276.188 	360.634 	285.053 	539.797 	
21.3816 	-0.00379426 	-0.691639 	0.33252 	0.927184 	0.0117867 	-3.12623 	90.1566 	116.598 	-0.591113 	275.69 	360.634 	285.053 	539.797 	
21.4835 	-0.00381918 	-0.692764 	0.335378 	0.91846 	0.0116951 	-3.12626 	90.1566 	116.598 	-0.591113 	275.189 	360.634 	285.053 	539.797 	
21.5855 	-0.0038443 	-0.693864 	0.338245 	0.909736 	0.0116037 	-3.12629 	90.1566 	116.598 	-0.591113 	274.696 	360.634 	285.053 	539.797 	
21.6874 	-0.00386961 	-0.694939 	0.341122 	0.901013 	0.0115125 	-3.12632 	90.1566 	116.598 	-0.591113 	274.193 	360.634 	285.053 	539.797 	
21.7894 	-0.00389511 	-0.695989 	0.344008 	0.892289 	0.0114216 	-3.12635 	90.1566 	116.598 	-0.591113 	273.653 	360.634 	285.053 	539.797 	
21.8915 	-0.00392081 	-0.697014 	0.346903 	0.883565 	0.011331 	-3.12638 	90.1566 	116.598 	-0.591113 	273.147 	360.634 	285.053 	539.797 	
21.9934 	-0.00394669 	-0.698013 	0.349807 	0.874842 	0.0112406 	-3.12641 	90.1566 	116.598 	-0.591113 	272.654 	360.634 	285.053 	539.797 	
22.0956 	-0.00397276 	-0.698987 	0.35272 	0.866118 	0.0111505 	-3.12644 	90.1566 	116.598 	-0.591113 	272.149 	360.634 	285.053 	539.797 	
22.1973 	-0.00399901 	-0.699936 	0.355641 	0.857394 	0.0110607 	-3.12647 	90.1566 	116.598 	-0.591113 	271.652 	360.634 	285.053 	539.797 	
22.2993 	-0.00402545 	-0.700859 	0.35857 	0.848671 	0.0109711 	-3.12651 	90.1566 	116.598 	-0.591113 	271.106 	360.634 	285.053 	539.797 	
22.402 	-0.00405206 	-0.701757 	0.361507 	0.839947 	0.0108819 	-3.12654 	90.1566 	116.598 	-0.591113 	270.605 	360.634 	285.053 	539.797 	
22.5051 	-0.00407886 	-0.702629 	0.364451 	0.831224 	0.010793 	-3.12657 	90.1566 	116.598 	-0.591113 	270.112 	360.634 	285.053 	539.797 	
22.608 	-0.00410583 	-0.703475 	0.367403 	0.8225 	0.0107043 	-3.12661 	90.1566 	116.598 	-0.591113 	269.608 	360.634 	285.053 	539.797 	
22.7148 	-0.00413297 	-0.704295 	0.370363 	0.813776 	0.010616 	-3.12665 	90.1566 	116.598 	-0.591113 	269.061 	360.634 	285.053 	539.797 	
22.818 	-0.00416029 	-0.705089 	0.373329 	0.805053 	0.010528 	-3.12668 	90.1566 	116.598 	-0.591113 	268.563 	360.634 	285.053 	539.797 	
22.9207 	-0.00418778 	-0.705858 	0.376303 	0.796329 	0.0104404 	-3.12672 	90.1566 	116.598 	-0.591113 	268.015 	360.634 	285.053 	539.797 	
23.024 	-0.00421544 	-0.706601 	0.379283 	0.787605 	0.010353 	-3.12676 	90.1566 	116.598 	-0.591113 	267.516 	360.634 	285.053 	539.797 	
23.1271 	-0.00424326 	-0.707317 	0.382269 	0.778882 	0.010266 	-3.1268 	90.1566 	116.598 	-0.591113 	267.022 	360.634 	285.053 	539.797 	
23.2301 	-0.00427124 	-0.708008 	0.385261 	0.770158 	0.0101794 	-3.12684 	90.1566 	116.598 	-0.591113 	266.467 	360.634 	285.053 	539.797 	
23.3332 	-0.00429939 	-0.708672 	0.38826 	0.761435 	0.0100931 	-3.12688 	90.1566 	116.598 	-0.591113 	265.969 	360.634 	285.053 	539.797 	
23.4361 	-0.00432769 	-0.70931 	0.391264 	0.752711 	0.0100072 	-3.12692 	90.1566 	116.598 	-0.591113 	265.468 	360.634 	285.053 	539.797 	
23.5391 	-0.00435616 	-0.709922 	0.394273 	0.743987 	0.00992161 	-3.12697 	90.1566 	116.598 	-0.591113 	264.924 	360.634 	285.053 	539.797 	
23.6419 	-0.00439052 	-0.710622 	0.397891 	0.733519 	0.00981943 	-3.12702 	90.1566 	116.598 	-0.591113 	264.427 	360.634 	285.053 	539.797 	
23.7448 	-0.00441355 	-0.711067 	0.400308 	0.72654 	0.00975162 	-3.12705 	90.1566 	116.597 	-0.591113 	263.931 	360.634 	285.053 	539.797 	
23.848 	-0.00444247 	-0.7116 	0.403332 	0.717817 	0.0096672 	-3.1271 	90.1566 	116.597 	-0.591113 	263.432 	360.634 	285.053 	539.797 	
23.955 	-0.00447154 	-0.712107 	0.406361 	0.709093 	0.00958318 	-3.12714 	90.1566 	116.597 	-0.591113 	262.878 	360.634 	285.053 	539.797 	
24.0577 	-0.00450369 	-0.712633 	0.409698 	0.699497 	0.00949121 	-3.12719 	90.1566 	116.597 	-0.591113 	262.389 	360.634 	285.053 	539.797 	
24.1609 	-0.00453013 	-0.71304 	0.412432 	0.691646 	0.00941633 	-3.12724 	90.1566 	116.597 	-0.591113 	261.833 	360.634 	285.053 	539.797 	
24.2643 	-0.00456259 	-0.713509 	0.415777 	0.68205 	0.00932527 	-3.12729 	90.1566 	116.597 	-0.591113 	261.341 	360.634 	285.053 	539.797 	
24.3667 	-0.00459225 	-0.713907 	0.418822 	0.673326 	0.00924293 	-3.12734 	90.1566 	116.597 	-0.591113 	260.832 	360.634 	285.053 	539.797 	
24.4711 	-0.00461905 	-0.714242 	0.421566 	0.665476 	0.00916919 	-3.12738 	90.1566 	116.597 	-0.591113 	260.293 	360.634 	285.053 	539.797 	
24.5737 	-0.00464897 	-0.714589 	0.424617 	0.656752 	0.00908766 	-3.12743 	90.1566 	116.597 	-0.591113 	259.793 	360.634 	285.053 	539.797 	
24.6768 	-0.0047092 	-0.715204 	0.430728 	0.639305 	0.00892592 	-3.12753 	90.1566 	116.597 	-0.591113 	259.293 	360.634 	285.053 	539.797 	
24.7797 	-0.00473951 	-0.715472 	0.433788 	0.630581 	0.00884572 	-3.12758 	90.1566 	116.597 	-0.591113 	258.74 	360.634 	285.053 	539.797 	
24.8829 	-0.00476995 	-0.715712 	0.436849 	0.621858 	0.00876597 	-3.12764 	90.1566 	116.597 	-0.591113 	258.248 	360.634 	285.053 	539.797 	
24.986 	-0.0048005 	-0.715926 	0.439913 	0.613134 	0.0086867 	-3.12769 	90.1566 	116.597 	-0.591113 	257.747 	360.634 	285.053 	539.797 	
25.089 	-0.00483118 	-0.716114 	0.442978 	0.604411 	0.00860788 	-3.12774 	90.1566 	116.597 	-0.591113 	257.196 	360.634 	285.053 	539.797 	
25.1916 	-0.00486198 	-0.716274 	0.446045 	0.595687 	0.00852954 	-3.1278 	90.1566 	116.597 	-0.591113 	256.696 	360.634 	285.053 	539.797 	
25.294 	-0.0048929 	-0.716408 	0.449113 	0.586963 	0.00845168 	-3.12785 	90.1566 	116.597 	-0.591113 	256.192 	360.634 	285.053 	539.797 	
25.397 	-0.00492394 	-0.716515 	0.452184 	0.578236 	0.00837428 	-3.12791 	90.1566 	116.597 	-0.591113 	255.711 	360.634 	285.053 	539.797 	
25.5 	-0.00495509 	-0.716595 	0.455254 	0.56951 	0.00829738 	-3.12797 	90.1566 	116.597 	-0.591113 	255.151 	360.634 	285.053 	539.797 	
25.6029 	-0.00498636 	-0.716648 	0.458326 	0.560784 	0.00822098 	-3.12803 	90.1566 	116.597 	-0.591113 	254.654 	360.634 	285.053 	539.797 	
25.7063 	-0.00501772 	-0.716675 	0.461398 	0.552058 	0.00814508 	-3.12808 	90.1566 	116.597 	-0.591113 	254.151 	360.634 	285.053 	539.797 	
25.815 	-0.0050492 	-0.716675 	0.46447 	0.543331 	0.00806969 	-3.12814 	90.1566 	116.597 	-0.591113 	253.61 	360.634 	285.053 	539.797 	
25.918 	-0.00508077 	-0.716648 	0.467542 	0.534605 	0.00799481 	-3.1282 	90.1566 	116.597 	-0.591113 	253.109 	360.634 	285.053 	539.797 	
26.0213 	-0.00511245 	-0.716594 	0.470613 	0.525879 	0.00792046 	-3.12826 	90.1566 	116.597 	-0.591113 	252.56 	360.634 	285.053 	539.797 	
26.124 	-0.00514422 	-0.716513 	0.473684 	0.517153 	0.00784663 	-3.12832 	90.1566 	116.597 	-0.591113 	252.056 	360.634 	285.053 	539.797 	
26.227 	-0.00517609 	-0.716406 	0.476754 	0.508427 	0.00777334 	-3.12838 	90.1566 	116.597 	-0.591113 	251.556 	360.634 	285.053 	539.797 	
26.3302 	-0.00521126 	-0.716256 	0.48013 	0.498828 	0.00769333 	-3.12845 	90.1566 	116.597 	-0.591113 	251.017 	360.634 	285.053 	539.797 	
26.4332 	-0.00524011 	-0.71611 	0.482891 	0.490975 	0.00762837 	-3.12851 	90.1565 	116.597 	-0.591113 	250.513 	360.634 	285.053 	539.797 	
26.5362 	-0.00527225 	-0.715922 	0.485957 	0.482248 	0.0075567 	-3.12857 	90.1566 	116.597 	-0.591113 	250.01 	360.634 	285.053 	539.797 	
26.6391 	-0.00530447 	-0.715708 	0.489021 	0.473522 	0.00748559 	-3.12864 	90.1566 	116.597 	-0.591113 	249.46 	360.634 	285.053 	539.797 	
26.7421 	-0.00534002 	-0.715441 	0.49239 	0.463923 	0.00740802 	-3.12871 	90.1565 	116.597 	-0.591113 	248.972 	360.634 	285.053 	539.797 	
26.8452 	-0.00536917 	-0.715198 	0.495144 	0.45607 	0.00734506 	-3.12876 	90.1566 	116.597 	-0.591113 	248.464 	360.634 	285.053 	539.797 	
26.9484 	-0.00540489 	-0.714873 	0.498508 	0.446471 	0.00726873 	-3.12884 	90.1566 	116.597 	-0.591113 	247.971 	360.634 	285.053 	539.797 	
27.0554 	-0.00543744 	-0.714549 	0.501562 	0.437745 	0.00719995 	-3.1289 	90.1565 	116.597 	-0.591113 	247.415 	360.634 	285.053 	539.797 	
27.1578 	-0.00547007 	-0.714198 	0.504614 	0.429019 	0.00713175 	-3.12897 	90.1566 	116.597 	-0.591113 	246.92 	360.634 	285.053 	539.797 	
27.2609 	-0.00549949 	-0.71386 	0.507358 	0.421165 	0.00707088 	-3.12903 	90.1566 	116.597 	-0.591113 	246.367 	360.634 	285.053 	539.797 	
27.364 	-0.00553553 	-0.713417 	0.510708 	0.411566 	0.00699712 	-3.12911 	90.1566 	116.597 	-0.591113 	245.869 	360.634 	285.053 	539.797 	
27.4667 	-0.00559795 	-0.712576 	0.516484 	0.394987 	0.00687144 	-3.12924 	90.1566 	116.597 	-0.591113 	245.367 	360.634 	285.053 	539.797 	
27.5698 	-0.0056342 	-0.712046 	0.519821 	0.385388 	0.00679967 	-3.12931 	90.1566 	116.597 	-0.591113 	244.821 	360.634 	285.053 	539.797 	
27.673 	-0.0056639 	-0.711588 	0.522548 	0.377534 	0.0067415 	-3.12938 	90.1566 	116.597 	-0.591113 	244.326 	360.634 	285.053 	539.797 	
27.7761 	-0.00570027 	-0.710999 	0.525875 	0.367936 	0.00667108 	-3.12946 	90.1566 	116.597 	-0.591113 	243.82 	360.634 	285.054 	539.797 	
27.8789 	-0.00573007 	-0.710494 	0.528593 	0.360082 	0.00661403 	-3.12952 	90.1566 	116.597 	-0.591113 	243.276 	360.634 	285.054 	539.797 	
27.982 	-0.00576656 	-0.709848 	0.53191 	0.350483 	0.00654498 	-3.1296 	90.1566 	116.597 	-0.591113 	242.768 	360.634 	285.054 	539.797 	
28.0852 	-0.00579645 	-0.709295 	0.534619 	0.342629 	0.00648906 	-3.12966 	90.1566 	116.597 	-0.591113 	242.278 	360.634 	285.054 	539.797 	
28.1882 	-0.00582971 	-0.708656 	0.537624 	0.333903 	0.00642753 	-3.12974 	90.1566 	116.597 	-0.591113 	241.773 	360.634 	285.054 	539.797 	
28.291 	-0.00586301 	-0.707991 	0.540623 	0.325177 	0.00636664 	-3.12981 	90.1566 	116.597 	-0.591113 	241.231 	360.634 	285.054 	539.797 	
28.3943 	-0.00589635 	-0.707299 	0.543616 	0.316451 	0.0063064 	-3.12989 	90.1566 	116.597 	-0.591113 	240.721 	360.634 	285.054 	539.797 	
28.4971 	-0.00592973 	-0.706582 	0.546603 	0.307725 	0.0062468 	-3.12996 	90.1566 	116.597 	-0.591113 	240.23 	360.634 	285.054 	539.797 	
28.5999 	-0.00596314 	-0.705838 	0.549584 	0.298999 	0.00618785 	-3.13004 	90.1566 	116.597 	-0.591113 	239.684 	360.634 	285.054 	539.797 	
28.7032 	-0.00599659 	-0.705069 	0.552558 	0.290272 	0.00612957 	-3.13011 	90.1566 	116.597 	-0.591113 	239.183 	360.634 	285.054 	539.797 	
28.8062 	-0.00603007 	-0.704274 	0.555525 	0.281546 	0.00607195 	-3.13019 	90.1566 	116.597 	-0.591113 	238.676 	360.634 	285.054 	539.797 	
28.9149 	-0.00606357 	-0.703452 	0.558485 	0.27282 	0.006015 	-3.13026 	90.1566 	116.597 	-0.591113 	238.126 	360.634 	285.054 	539.797 	
29.0181 	-0.0060971 	-0.702605 	0.561438 	0.264094 	0.00595872 	-3.13034 	90.1566 	116.597 	-0.591113 	237.635 	360.634 	285.054 	539.797 	
29.1209 	-0.00613066 	-0.701732 	0.564383 	0.255368 	0.00590312 	-3.13042 	90.1566 	116.597 	-0.591113 	237.082 	360.634 	285.054 	539.797 	
29.224 	-0.00616423 	-0.700834 	0.567321 	0.246642 	0.00584819 	-3.1305 	90.1566 	116.597 	-0.591113 	236.582 	360.634 	285.054 	539.797 	
29.3272 	-0.00619782 	-0.69991 	0.57025 	0.237915 	0.00579396 	-3.13058 	90.1566 	116.597 	-0.591113 	236.076 	360.634 	285.054 	539.797 	
29.43 	-0.00623479 	-0.698864 	0.573464 	0.228316 	0.00573509 	-3.13066 	90.1566 	116.597 	-0.591113 	235.54 	360.634 	285.054 	539.797 	
29.533 	-0.00626505 	-0.697985 	0.576085 	0.220463 	0.00568754 	-3.13073 	90.1566 	116.597 	-0.591113 	235.034 	360.634 	285.054 	539.797 	
29.6362 	-0.00629868 	-0.696985 	0.578989 	0.211737 	0.00563538 	-3.13081 	90.1566 	116.597 	-0.591113 	234.534 	360.634 	285.054 	539.797 	
29.7391 	-0.00633231 	-0.695959 	0.581885 	0.203011 	0.00558392 	-3.1309 	90.1566 	116.597 	-0.591113 	233.977 	360.634 	285.054 	539.797 	
29.8425 	-0.00636932 	-0.694801 	0.58506 	0.193412 	0.00552813 	-3.13098 	90.1566 	116.597 	-0.591113 	233.488 	360.634 	285.054 	539.797 	
29.9453 	-0.00640296 	-0.693723 	0.587936 	0.184685 	0.00547816 	-3.13107 	90.1566 	116.597 	-0.591113 	232.986 	360.634 	285.054 	539.797 	
30.0485 	-0.0064366 	-0.692619 	0.590803 	0.175959 	0.00542889 	-3.13115 	90.1566 	116.597 	-0.591113 	232.487 	360.634 	285.054 	539.797 	
30.1567 	-0.00647024 	-0.69149 	0.59366 	0.167233 	0.00538035 	-3.13123 	90.1566 	116.597 	-0.591113 	231.93 	360.634 	285.054 	539.797 	
30.259 	-0.00650388 	-0.690337 	0.596507 	0.158507 	0.00533252 	-3.13131 	90.1566 	116.596 	-0.591113 	231.383 	360.634 	285.054 	539.797 	
30.3629 	-0.00653414 	-0.689277 	0.599061 	0.150653 	0.0052901 	-3.13139 	90.1566 	116.596 	-0.591113 	230.891 	360.634 	285.054 	539.797 	
30.4682 	-0.00657112 	-0.687955 	0.60217 	0.141054 	0.00523904 	-3.13148 	90.1566 	116.596 	-0.591113 	230.39 	360.634 	285.054 	539.797 	
30.5709 	-0.00660472 	-0.686727 	0.604986 	0.132328 	0.0051934 	-3.13156 	90.1566 	116.596 	-0.591113 	229.838 	360.634 	285.054 	539.797 	
30.6739 	-0.00666852 	-0.684327 	0.610307 	0.115748 	0.0051087 	-3.13172 	90.1566 	116.596 	-0.591113 	229.33 	360.634 	285.054 	539.797 	
30.777 	-0.00670542 	-0.682897 	0.613368 	0.106149 	0.00506089 	-3.13182 	90.1566 	116.596 	-0.591113 	228.844 	360.634 	285.054 	539.797 	
30.88 	-0.00673559 	-0.681705 	0.615863 	0.0982959 	0.00502244 	-3.13189 	90.1566 	116.596 	-0.591113 	228.287 	360.634 	285.054 	539.797 	
30.983 	-0.00676909 	-0.680358 	0.618624 	0.0895697 	0.00498043 	-3.13198 	90.1566 	116.596 	-0.591113 	227.787 	360.634 	285.054 	539.797 	
31.086 	-0.00680256 	-0.678987 	0.621373 	0.0808436 	0.00493916 	-3.13207 	90.1566 	116.596 	-0.591113 	227.28 	360.634 	285.054 	539.797 	
31.189 	-0.006836 	-0.677592 	0.62411 	0.0721172 	0.00489866 	-3.13215 	90.1566 	116.596 	-0.591113 	226.738 	360.634 	285.054 	539.797 	
31.2922 	-0.0068694 	-0.676174 	0.626834 	0.0633911 	0.0048589 	-3.13224 	90.1566 	116.596 	-0.591113 	226.238 	360.634 	285.054 	539.797 	
31.3952 	-0.00690611 	-0.674585 	0.629817 	0.0537922 	0.00481606 	-3.13234 	90.1566 	116.596 	-0.591113 	225.743 	360.634 	285.054 	539.797 	
31.4983 	-0.0069361 	-0.673265 	0.632246 	0.0459387 	0.00478168 	-3.13242 	90.1566 	116.596 	-0.591113 	225.233 	360.634 	285.054 	539.797 	
31.6011 	-0.00696939 	-0.671775 	0.634933 	0.0372122 	0.00474422 	-3.1325 	90.1566 	116.596 	-0.591113 	224.686 	360.634 	285.054 	539.797 	
31.7042 	-0.00700596 	-0.670109 	0.637873 	0.0276134 	0.0047039 	-3.1326 	90.1566 	116.596 	-0.591113 	224.191 	360.634 	285.054 	539.798 	
31.8072 	-0.00703584 	-0.668726 	0.640266 	0.0197597 	0.0046716 	-3.13268 	90.1566 	116.596 	-0.591113 	223.689 	360.634 	285.055 	539.798 	
31.915 	-0.00706899 	-0.667166 	0.642913 	0.0110336 	0.00463646 	-3.13277 	90.1566 	116.596 	-0.591113 	223.144 	360.634 	285.055 	539.798 	
32.0181 	-0.00710209 	-0.665584 	0.645546 	0.00230743 	0.00460208 	-3.13286 	90.1566 	116.596 	-0.591113 	222.63 	360.634 	285.055 	539.798 	
32.1211 	-0.00713514 	-0.663978 	0.648165 	-0.00641893 	0.00456849 	-3.13295 	90.1566 	116.596 	-0.591113 	222.092 	360.634 	285.055 	539.798 	
32.2243 	-0.00716813 	-0.66235 	0.65077 	-0.0151451 	0.00453568 	-3.13304 	90.1566 	116.596 	-0.591113 	221.587 	360.634 	285.055 	539.798 	
32.3272 	-0.00720435 	-0.660533 	0.653619 	-0.024744 	0.0045005 	-3.13314 	90.1566 	116.596 	-0.591113 	221.094 	360.634 	285.055 	539.798 	
32.4304 	-0.00723721 	-0.658857 	0.656193 	-0.0334703 	0.00446934 	-3.13323 	90.1566 	116.596 	-0.591113 	220.541 	360.634 	285.055 	539.798 	
32.5328 	-0.00726673 	-0.65733 	0.658498 	-0.041324 	0.00444197 	-3.13331 	90.1566 	116.596 	-0.591113 	220.04 	360.634 	285.055 	539.798 	
32.6362 	-0.00729947 	-0.655611 	0.661044 	-0.0500501 	0.00441231 	-3.1334 	90.1566 	116.596 	-0.591113 	219.542 	360.634 	285.055 	539.798 	
32.7392 	-0.00733214 	-0.653871 	0.663576 	-0.0587766 	0.00438345 	-3.13349 	90.1566 	116.596 	-0.591113 	218.994 	360.634 	285.055 	539.798 	
32.8426 	-0.007368 	-0.651931 	0.666343 	-0.0683752 	0.00435262 	-3.13359 	90.1566 	116.596 	-0.591113 	218.484 	360.634 	285.055 	539.798 	
32.9451 	-0.00740052 	-0.650145 	0.668842 	-0.0771016 	0.00432543 	-3.13368 	90.1566 	116.596 	-0.591113 	217.981 	360.634 	285.055 	539.798 	
33.0486 	-0.00743296 	-0.648336 	0.671325 	-0.0858277 	0.00429904 	-3.13377 	90.1566 	116.596 	-0.591113 	217.495 	360.634 	285.055 	539.798 	
33.1553 	-0.00746532 	-0.646507 	0.673793 	-0.0945541 	0.00427345 	-3.13387 	90.1566 	116.596 	-0.591113 	216.939 	360.634 	285.055 	539.798 	
33.2581 	-0.0074976 	-0.644655 	0.676244 	-0.10328 	0.00424867 	-3.13396 	90.1566 	116.596 	-0.591113 	216.436 	360.634 	285.055 	539.798 	
33.3609 	-0.0075298 	-0.642783 	0.678679 	-0.112007 	0.0042247 	-3.13405 	90.1566 	116.596 	-0.591113 	215.879 	360.634 	285.055 	539.798 	
33.4641 	-0.00756191 	-0.640889 	0.681098 	-0.120733 	0.00420153 	-3.13414 	90.1566 	116.596 	-0.591113 	215.39 	360.634 	285.055 	539.798 	
33.5672 	-0.00759393 	-0.638974 	0.6835 	-0.129459 	0.00417917 	-3.13424 	90.1566 	116.596 	-0.591113 	214.884 	360.634 	285.055 	539.798 	
33.6711 	-0.00762267 	-0.637233 	0.685648 	-0.137313 	0.00415975 	-3.13432 	90.1566 	116.596 	-0.591113 	214.339 	360.634 	285.055 	539.798 	
33.7741 	-0.00768944 	-0.633105 	0.690605 	-0.155638 	0.00411698 	-3.13452 	90.1566 	116.596 	-0.591113 	213.832 	360.634 	285.055 	539.798 	
33.877 	-0.00772108 	-0.631108 	0.692939 	-0.164364 	0.00409788 	-3.13461 	90.1566 	116.596 	-0.591113 	213.334 	360.634 	285.055 	539.798 	
33.9801 	-0.00775262 	-0.62909 	0.695255 	-0.173091 	0.00407959 	-3.1347 	90.1566 	116.596 	-0.591113 	212.789 	360.634 	285.056 	539.798 	
34.0831 	-0.00778092 	-0.627256 	0.697325 	-0.180944 	0.00406384 	-3.13479 	90.1566 	116.596 	-0.591113 	212.287 	360.634 	285.056 	539.798 	
34.186 	-0.00781226 	-0.625201 	0.699608 	-0.18967 	0.00404712 	-3.13488 	90.1566 	116.596 	-0.591113 	211.783 	360.634 	285.056 	539.798 	
34.2891 	-0.0078435 	-0.623125 	0.701872 	-0.198397 	0.00403121 	-3.13498 	90.1566 	116.596 	-0.591113 	211.23 	360.634 	285.056 	539.798 	
34.3921 	-0.00787773 	-0.620819 	0.704342 	-0.207996 	0.00401467 	-3.13508 	90.1566 	116.596 	-0.591113 	210.737 	360.634 	285.056 	539.798 	
34.4953 	-0.00790563 	-0.618914 	0.706346 	-0.215849 	0.00400188 	-3.13517 	90.1566 	116.596 	-0.591113 	210.236 	360.634 	285.056 	539.798 	
34.598 	-0.00793653 	-0.61678 	0.708556 	-0.224576 	0.00398845 	-3.13526 	90.1566 	116.596 	-0.591113 	209.733 	360.634 	285.056 	539.798 	
34.7012 	-0.00796731 	-0.614627 	0.710747 	-0.233302 	0.00397584 	-3.13536 	90.1566 	116.596 	-0.591113 	209.176 	360.634 	285.056 	539.798 	
34.8042 	-0.00799797 	-0.612454 	0.712918 	-0.242028 	0.00396407 	-3.13545 	90.1566 	116.596 	-0.591113 	208.681 	360.634 	285.056 	539.798 	
34.9072 	-0.00802851 	-0.610262 	0.715071 	-0.250754 	0.00395312 	-3.13555 	90.1566 	116.596 	-0.591113 	208.184 	360.634 	285.056 	539.798 	
35.0152 	-0.00805892 	-0.608052 	0.717205 	-0.259481 	0.00394299 	-3.13564 	90.1566 	116.596 	-0.591113 	207.636 	360.634 	285.056 	539.798 	
35.1181 	-0.00808921 	-0.605824 	0.719319 	-0.268207 	0.0039337 	-3.13574 	90.1566 	116.596 	-0.591113 	207.127 	360.634 	285.056 	539.798 	
35.2212 	-0.00811936 	-0.603577 	0.721414 	-0.276933 	0.00392524 	-3.13583 	90.1566 	116.596 	-0.591113 	206.582 	360.634 	285.056 	539.798 	
35.3244 	-0.00814939 	-0.601311 	0.723489 	-0.285659 	0.00391761 	-3.13593 	90.1566 	116.596 	-0.591113 	206.079 	360.634 	285.056 	539.798 	
35.4271 	-0.00818226 	-0.598799 	0.725748 	-0.295258 	0.00391018 	-3.13603 	90.1566 	116.596 	-0.591113 	205.577 	360.634 	285.057 	539.798 	
35.5303 	-0.00821201 	-0.596496 	0.727781 	-0.303985 	0.0039043 	-3.13613 	90.1566 	116.596 	-0.591113 	205.021 	360.634 	285.057 	539.798 	
35.6335 	-0.00824161 	-0.594175 	0.729794 	-0.312711 	0.00389925 	-3.13622 	90.1566 	116.596 	-0.591113 	204.522 	360.634 	285.057 	539.798 	
35.7362 	-0.00826814 	-0.592072 	0.731589 	-0.320565 	0.00389542 	-3.13631 	90.1566 	116.596 	-0.591113 	204.03 	360.634 	285.057 	539.798 	
35.8394 	-0.00829747 	-0.589718 	0.733563 	-0.329291 	0.00389195 	-3.1364 	90.1566 	116.596 	-0.591113 	203.476 	360.634 	285.057 	539.798 	
35.9424 	-0.00832957 	-0.587109 	0.735711 	-0.33889 	0.0038891 	-3.13651 	90.1566 	116.596 	-0.591113 	202.975 	360.634 	285.057 	539.798 	
36.0455 	-0.0083586 	-0.58472 	0.737641 	-0.347616 	0.00388738 	-3.1366 	90.1566 	116.596 	-0.591113 	202.47 	360.634 	285.058 	539.798 	
36.1486 	-0.00838748 	-0.582314 	0.739551 	-0.356342 	0.0038865 	-3.1367 	90.1566 	116.596 	-0.591113 	201.976 	360.634 	285.058 	539.798 	
36.2552 	-0.00841621 	-0.579891 	0.74144 	-0.365069 	0.00388645 	-3.13679 	90.1566 	116.596 	-0.591113 	201.422 	360.634 	285.058 	539.798 	
36.3583 	-0.00844478 	-0.577452 	0.743307 	-0.373795 	0.00388724 	-3.13689 	90.1566 	116.596 	-0.591113 	200.928 	360.634 	285.058 	539.798 	
36.4616 	-0.0084732 	-0.574996 	0.745154 	-0.382521 	0.00388886 	-3.13699 	90.1566 	116.596 	-0.591113 	200.37 	360.634 	285.058 	539.798 	
36.5686 	-0.00850146 	-0.572525 	0.746978 	-0.391248 	0.00389131 	-3.13708 	90.1566 	116.596 	-0.591113 	199.871 	360.634 	285.059 	539.798 	
36.6719 	-0.00855749 	-0.567535 	0.750563 	-0.4087 	0.00389872 	-3.13727 	90.1566 	116.596 	-0.591113 	199.322 	360.634 	285.059 	539.798 	
36.7747 	-0.0085825 	-0.565269 	0.752147 	-0.416554 	0.00390314 	-3.13736 	90.1566 	116.596 	-0.591113 	198.82 	360.634 	285.059 	539.798 	
36.878 	-0.00861012 	-0.562737 	0.753887 	-0.42528 	0.00390884 	-3.13745 	90.1566 	116.596 	-0.591113 	198.314 	360.634 	285.059 	539.798 	
36.9809 	-0.00864031 	-0.559934 	0.755774 	-0.434879 	0.00391608 	-3.13756 	90.1566 	116.596 	-0.591113 	197.767 	360.634 	285.059 	539.798 	
37.0842 	-0.00866485 	-0.557628 	0.757299 	-0.442733 	0.00392275 	-3.13764 	90.1566 	116.596 	-0.591113 	197.269 	360.634 	285.059 	539.798 	
37.1871 	-0.00869196 	-0.555051 	0.758972 	-0.451459 	0.00393095 	-3.13774 	90.1566 	116.596 	-0.591113 	196.763 	360.634 	285.059 	539.798 	
37.2904 	-0.0087189 	-0.55246 	0.760622 	-0.460185 	0.00393997 	-3.13783 	90.1566 	116.596 	-0.591113 	196.209 	360.634 	285.059 	539.798 	
37.393 	-0.00874566 	-0.549855 	0.762249 	-0.468911 	0.00394983 	-3.13793 	90.1566 	116.596 	-0.591113 	195.71 	360.634 	285.059 	539.798 	
37.4958 	-0.00877223 	-0.547235 	0.763854 	-0.477638 	0.00396052 	-3.13802 	90.1566 	116.596 	-0.591113 	195.208 	360.634 	285.059 	539.798 	
37.5991 	-0.00879863 	-0.544601 	0.765435 	-0.486364 	0.00397204 	-3.13812 	90.1566 	116.596 	-0.591113 	194.659 	360.634 	285.059 	539.798 	
37.7024 	-0.00882485 	-0.541954 	0.766994 	-0.49509 	0.00398438 	-3.13821 	90.1566 	116.596 	-0.591113 	194.159 	360.634 	285.059 	539.798 	
37.8051 	-0.00885088 	-0.539293 	0.76853 	-0.503817 	0.00399755 	-3.13831 	90.1566 	116.596 	-0.591113 	193.652 	360.634 	285.059 	539.798 	
37.9084 	-0.00887672 	-0.53662 	0.770042 	-0.512543 	0.00401155 	-3.1384 	90.1566 	116.596 	-0.591113 	193.158 	360.634 	285.059 	539.798 	
38.0151 	-0.00890237 	-0.533932 	0.771531 	-0.521269 	0.00402637 	-3.1385 	90.1566 	116.596 	-0.591113 	192.605 	360.634 	285.059 	539.798 	
38.1181 	-0.00892783 	-0.531232 	0.772996 	-0.529995 	0.00404201 	-3.13859 	90.1566 	116.596 	-0.591113 	192.108 	360.634 	285.059 	539.798 	
38.2213 	-0.0089531 	-0.52852 	0.774438 	-0.538722 	0.00405848 	-3.13869 	90.1566 	116.596 	-0.591113 	191.549 	360.634 	285.059 	539.798 	
38.3245 	-0.00897818 	-0.525794 	0.775855 	-0.547448 	0.00407576 	-3.13878 	90.1566 	116.596 	-0.591113 	191.049 	360.634 	285.059 	539.798 	
38.4272 	-0.00900553 	-0.522782 	0.777388 	-0.557047 	0.00409573 	-3.13888 	90.1566 	116.596 	-0.591113 	190.554 	360.634 	285.06 	539.798 	
38.5303 	-0.00903019 	-0.520032 	0.778755 	-0.565773 	0.00411473 	-3.13898 	90.1566 	116.596 	-0.591113 	190.002 	360.634 	285.06 	539.798 	
38.6331 	-0.00905465 	-0.517269 	0.780099 	-0.574499 	0.00413455 	-3.13907 	90.1566 	116.596 	-0.591113 	189.498 	360.634 	285.06 	539.798 	
38.7363 	-0.00907649 	-0.514773 	0.781288 	-0.582353 	0.00415309 	-3.13915 	90.1566 	116.596 	-0.591113 	188.993 	360.634 	285.06 	539.798 	
38.8393 	-0.00910056 	-0.511989 	0.782586 	-0.591079 	0.00417446 	-3.13925 	90.1566 	116.596 	-0.591113 	188.443 	360.634 	285.06 	539.798 	
38.9426 	-0.00912681 	-0.508913 	0.783985 	-0.600678 	0.00419891 	-3.13935 	90.1566 	116.596 	-0.591113 	187.945 	360.634 	285.06 	539.798 	
39.0453 	-0.00915044 	-0.506105 	0.785231 	-0.609404 	0.00422198 	-3.13944 	90.1566 	116.596 	-0.591113 	187.446 	360.634 	285.06 	539.798 	
39.1488 	-0.00917154 	-0.503569 	0.786332 	-0.617258 	0.00424344 	-3.13953 	90.1566 	116.596 	-0.591113 	186.939 	360.634 	285.06 	539.798 	
39.2555 	-0.00919709 	-0.500457 	0.787651 	-0.626857 	0.00427055 	-3.13963 	90.1566 	116.596 	-0.591113 	186.39 	360.634 	285.06 	539.798 	
39.3579 	-0.00922009 	-0.497618 	0.788823 	-0.635583 	0.00429604 	-3.13972 	90.1566 	116.596 	-0.591113 	185.889 	360.634 	285.06 	539.798 	
39.4613 	-0.00924288 	-0.494768 	0.789971 	-0.64431 	0.00432234 	-3.13981 	90.1566 	116.596 	-0.591113 	185.34 	360.634 	285.06 	539.798 	
39.5669 	-0.00926545 	-0.491909 	0.791094 	-0.653036 	0.00434944 	-3.1399 	90.1566 	116.596 	-0.591113 	184.837 	360.634 	285.06 	539.798 	
39.6701 	-0.00928558 	-0.489327 	0.792083 	-0.660889 	0.00437451 	-3.13999 	90.1566 	116.596 	-0.591113 	184.283 	360.634 	285.06 	539.798 	
39.7731 	-0.00930994 	-0.486161 	0.793264 	-0.670488 	0.00440602 	-3.14009 	90.1566 	116.596 	-0.591113 	183.787 	360.634 	285.06 	539.798 	
39.8762 	-0.00935137 	-0.480666 	0.795233 	-0.687068 	0.00446273 	-3.14026 	90.1566 	116.596 	-0.591113 	183.286 	360.634 	285.06 	539.798 	
39.9791 	-0.00937286 	-0.477761 	0.796233 	-0.695794 	0.00449372 	-3.14035 	90.1566 	116.596 	-0.591113 	182.733 	360.634 	285.06 	539.798 	
40.0821 	-0.00939411 	-0.474848 	0.797207 	-0.704521 	0.00452549 	-3.14044 	90.1566 	116.596 	-0.591113 	182.227 	360.634 	285.06 	539.798 	
40.1851 	-0.00941514 	-0.471926 	0.798156 	-0.713247 	0.00455806 	-3.14053 	90.1566 	116.596 	-0.591113 	181.727 	360.634 	285.06 	539.798 	
40.2881 	-0.00943594 	-0.468996 	0.799079 	-0.721973 	0.0045914 	-3.14062 	90.1566 	116.596 	-0.591113 	181.233 	360.634 	285.06 	539.798 	
40.3912 	-0.00945651 	-0.466058 	0.799976 	-0.730699 	0.00462553 	-3.14071 	90.1566 	116.596 	-0.591113 	180.679 	360.634 	285.06 	539.798 	
40.4938 	-0.00947684 	-0.463112 	0.800848 	-0.739426 	0.00466043 	-3.1408 	90.1566 	116.596 	-0.591113 	180.171 	360.634 	285.06 	539.798 	
40.5972 	-0.00949694 	-0.460159 	0.801694 	-0.748152 	0.00469611 	-3.14089 	90.1566 	116.596 	-0.591113 	179.672 	360.634 	285.06 	539.798 	
40.7001 	-0.0095168 	-0.457198 	0.802515 	-0.756878 	0.00473256 	-3.14097 	90.1566 	116.596 	-0.591113 	179.125 	360.634 	285.06 	539.798 	
40.8032 	-0.00953643 	-0.454231 	0.803309 	-0.765604 	0.00476978 	-3.14106 	90.1566 	116.596 	-0.591113 	178.624 	360.634 	285.06 	539.798 	
40.9064 	-0.00955582 	-0.451256 	0.804078 	-0.774331 	0.00480777 	-3.14115 	90.1566 	116.596 	-0.591113 	178.116 	360.634 	285.06 	539.798 	
41.0143 	-0.00957496 	-0.448275 	0.80482 	-0.783057 	0.00484652 	-3.14124 	90.1566 	116.596 	-0.591113 	177.567 	360.634 	285.06 	539.798 	
41.1172 	-0.00959386 	-0.445288 	0.805537 	-0.791783 	0.00488603 	-3.14132 	90.1566 	116.596 	-0.591113 	177.063 	360.634 	285.06 	539.798 	
41.2204 	-0.00961252 	-0.442295 	0.806227 	-0.800509 	0.0049263 	-3.14141 	90.1566 	116.596 	-0.591113 	176.516 	360.634 	285.06 	539.798 	
41.3233 	-0.00963094 	-0.439295 	0.806892 	-0.809235 	0.00496733 	-3.1415 	90.1566 	116.596 	-0.591113 	176.011 	360.634 	285.06 	539.798 	
41.4263 	-0.00964911 	-0.43629 	0.80753 	-0.817962 	0.0050091 	-3.14158 	90.1566 	116.596 	-0.591113 	175.51 	360.634 	285.06 	539.798 	
41.5293 	-0.00966881 	-0.432978 	0.808201 	-0.827561 	0.00505592 	3.14151 	90.1566 	116.596 	-0.591113 	174.962 	360.634 	285.06 	539.798 	
41.6326 	-0.00968645 	-0.429962 	0.808784 	-0.836287 	0.00509926 	3.14142 	90.1566 	116.596 	-0.591113 	174.46 	360.634 	285.06 	539.798 	
41.7352 	-0.00970212 	-0.427243 	0.809286 	-0.84414 	0.00513891 	3.14135 	90.1566 	116.596 	-0.591113 	173.955 	360.634 	285.06 	539.798 	
41.838 	-0.00971929 	-0.424218 	0.809819 	-0.852867 	0.00518366 	3.14126 	90.1566 	116.596 	-0.591113 	173.449 	360.634 	285.06 	539.798 	
41.9415 	-0.0097362 	-0.421188 	0.810326 	-0.861593 	0.00522915 	3.14118 	90.1566 	116.596 	-0.591113 	172.903 	360.634 	285.06 	539.798 	
42.0441 	-0.00975452 	-0.41785 	0.810852 	-0.871192 	0.00528003 	3.14109 	90.1566 	116.596 	-0.591113 	172.4 	360.634 	285.06 	539.798 	
42.1476 	-0.0097709 	-0.414811 	0.811303 	-0.879918 	0.00532704 	3.141 	90.1566 	116.597 	-0.591113 	171.902 	360.634 	285.06 	539.798 	
42.2555 	-0.00978542 	-0.412073 	0.811686 	-0.887771 	0.00536998 	3.14093 	90.1566 	116.597 	-0.591113 	171.348 	360.634 	285.06 	539.798 	
42.3581 	-0.00980288 	-0.408722 	0.812125 	-0.89737 	0.00542325 	3.14084 	90.1566 	116.597 	-0.591113 	170.844 	360.634 	285.06 	539.798 	
42.4609 	-0.00981849 	-0.405672 	0.812496 	-0.906097 	0.00547243 	3.14076 	90.1566 	116.597 	-0.591113 	170.296 	360.634 	285.06 	539.798 	
42.5669 	-0.00983383 	-0.40262 	0.81284 	-0.914823 	0.00552232 	3.14067 	90.1566 	116.597 	-0.591113 	169.796 	360.634 	285.06 	539.798 	
42.6709 	-0.00986227 	-0.396812 	0.813421 	-0.931403 	0.00561907 	3.14052 	90.1566 	116.597 	-0.591113 	169.238 	360.634 	285.06 	539.798 	
42.7738 	-0.00987685 	-0.393751 	0.813688 	-0.940129 	0.00567101 	3.14044 	90.1566 	116.597 	-0.591113 	168.734 	360.634 	285.06 	539.798 	
42.877 	-0.00989116 	-0.390689 	0.813929 	-0.948855 	0.00572365 	3.14036 	90.1566 	116.597 	-0.591113 	168.239 	360.634 	285.06 	539.798 	
42.9801 	-0.00990521 	-0.387624 	0.814142 	-0.957581 	0.00577699 	3.14028 	90.1566 	116.597 	-0.591113 	167.686 	360.634 	285.06 	539.798 	
43.0831 	-0.009919 	-0.384558 	0.814329 	-0.966307 	0.00583101 	3.1402 	90.1566 	116.597 	-0.591113 	167.186 	360.634 	285.06 	539.798 	
43.1863 	-0.00993251 	-0.38149 	0.814489 	-0.975034 	0.00588572 	3.14012 	90.1566 	116.597 	-0.591113 	166.678 	360.634 	285.06 	539.798 	
43.2893 	-0.00994576 	-0.37842 	0.814623 	-0.98376 	0.0059411 	3.14005 	90.1566 	116.597 	-0.591113 	166.178 	360.634 	285.06 	539.798 	
43.3921 	-0.00995873 	-0.37535 	0.814729 	-0.992486 	0.00599717 	3.13997 	90.1566 	116.597 	-0.591113 	165.627 	360.634 	285.06 	539.798 	
43.4951 	-0.00997144 	-0.372279 	0.814809 	-1.00121 	0.00605391 	3.13989 	90.1566 	116.597 	-0.591211 	165.128 	360.634 	285.061 	539.798 	
43.5983 	-0.00998387 	-0.369207 	0.814862 	-1.00994 	0.00611132 	3.13982 	90.1566 	116.597 	-0.591211 	164.627 	360.634 	285.061 	539.798 	
43.7014 	-0.00999602 	-0.366135 	0.814888 	-1.01866 	0.0061694 	3.13974 	90.1566 	116.597 	-0.591211 	164.072 	360.634 	285.061 	539.798 	
43.8043 	-0.0100079 	-0.363063 	0.814887 	-1.02739 	0.00622813 	3.13966 	90.1566 	116.597 	-0.591211 	163.571 	360.634 	285.061 	539.798 	
43.9076 	-0.0100195 	-0.359991 	0.81486 	-1.03612 	0.00628752 	3.13959 	90.1566 	116.597 	-0.591211 	163.069 	360.634 	285.061 	539.798 	
44.0143 	-0.0100308 	-0.35692 	0.814806 	-1.04484 	0.00634756 	3.13952 	90.1566 	116.597 	-0.591211 	162.518 	360.634 	285.061 	539.798 	
44.1171 	-0.0100419 	-0.353849 	0.814725 	-1.05357 	0.00640825 	3.13944 	90.1566 	116.597 	-0.591211 	162.014 	360.634 	285.061 	539.798 	
44.2203 	-0.0100527 	-0.350779 	0.814617 	-1.0623 	0.00646958 	3.13937 	90.1566 	116.597 	-0.591211 	161.462 	360.634 	285.061 	539.798 	
44.3233 	-0.0100632 	-0.347709 	0.814482 	-1.07102 	0.00653155 	3.1393 	90.1566 	116.597 	-0.591211 	160.966 	360.634 	285.061 	539.798 	
44.4262 	-0.0100744 	-0.344335 	0.814303 	-1.08062 	0.00660045 	3.13922 	90.1566 	116.597 	-0.591211 	160.46 	360.634 	285.061 	539.798 	
44.5293 	-0.0100843 	-0.341269 	0.814112 	-1.08935 	0.00666373 	3.13914 	90.1566 	116.597 	-0.591211 	159.959 	360.634 	285.061 	539.798 	
44.6322 	-0.0100939 	-0.338204 	0.813894 	-1.09807 	0.00672764 	3.13907 	90.1566 	116.597 	-0.591211 	159.405 	360.634 	285.061 	539.798 	
44.7355 	-0.0101024 	-0.335448 	0.813676 	-1.10593 	0.00678569 	3.13901 	90.1566 	116.597 	-0.591211 	158.908 	360.634 	285.061 	539.798 	
44.8385 	-0.0101115 	-0.332388 	0.813407 	-1.11465 	0.00685078 	3.13894 	90.1566 	116.597 	-0.591211 	158.403 	360.634 	285.061 	539.798 	
44.9414 	-0.0101211 	-0.329024 	0.813081 	-1.12425 	0.00692307 	3.13886 	90.1566 	116.597 	-0.591211 	157.852 	360.634 	285.061 	539.798 	
45.0443 	-0.0101296 	-0.325969 	0.812757 	-1.13298 	0.00698942 	3.13879 	90.1566 	116.597 	-0.591211 	157.346 	360.634 	285.061 	539.798 	
45.1475 	-0.0101379 	-0.322917 	0.812406 	-1.1417 	0.00705637 	3.13873 	90.1566 	116.597 	-0.591211 	156.849 	360.634 	285.061 	539.798 	
45.2556 	-0.010145 	-0.320173 	0.812067 	-1.14956 	0.00711714 	3.13867 	90.1566 	116.597 	-0.591211 	156.294 	360.634 	285.061 	539.798 	
45.3586 	-0.0101534 	-0.316823 	0.811624 	-1.15916 	0.00719205 	3.13859 	90.1566 	116.597 	-0.591211 	155.792 	360.634 	285.061 	539.798 	
45.4612 	-0.0101608 	-0.313781 	0.811193 	-1.16788 	0.00726076 	3.13853 	90.1566 	116.597 	-0.591211 	155.239 	360.634 	285.061 	539.798 	
45.5644 	-0.0101679 	-0.310743 	0.810735 	-1.17661 	0.00733005 	3.13846 	90.1566 	116.597 	-0.591211 	154.737 	360.634 	285.061 	539.798 	
45.6672 	-0.0101747 	-0.30771 	0.810251 	-1.18533 	0.00739992 	3.13839 	90.1566 	116.597 	-0.591211 	154.24 	360.634 	285.061 	539.798 	
45.7728 	-0.0101868 	-0.301958 	0.809259 	-1.20191 	0.00753421 	3.13827 	90.1566 	116.597 	-0.591211 	153.738 	360.634 	285.061 	539.798 	
45.8748 	-0.0101927 	-0.298937 	0.808699 	-1.21064 	0.0076057 	3.13821 	90.1566 	116.597 	-0.591211 	153.179 	360.634 	285.061 	539.798 	
45.9771 	-0.0101984 	-0.295922 	0.808112 	-1.21937 	0.00767774 	3.13815 	90.1566 	116.597 	-0.591211 	152.681 	360.634 	285.061 	539.798 	
46.0798 	-0.0102042 	-0.292611 	0.807436 	-1.22897 	0.00775761 	3.13808 	90.1566 	116.597 	-0.591211 	152.132 	360.634 	285.061 	539.798 	
46.1831 	-0.0102088 	-0.289906 	0.806859 	-1.23682 	0.00782345 	3.13802 	90.1566 	116.597 	-0.591211 	151.627 	360.634 	285.061 	539.798 	
46.2863 	-0.0102136 	-0.286907 	0.806194 	-1.24555 	0.00789711 	3.13796 	90.1566 	116.597 	-0.591211 	151.121 	360.634 	285.061 	539.798 	
46.3889 	-0.0102181 	-0.283914 	0.805502 	-1.25427 	0.0079713 	3.1379 	90.1566 	116.597 	-0.591211 	150.62 	360.634 	285.061 	539.798 	
46.4921 	-0.0102223 	-0.280927 	0.804784 	-1.263 	0.00804601 	3.13784 	90.1566 	116.597 	-0.591211 	150.074 	360.634 	285.061 	539.798 	
46.5951 	-0.0102262 	-0.277946 	0.80404 	-1.27172 	0.00812124 	3.13778 	90.1566 	116.597 	-0.591211 	149.568 	360.634 	285.061 	539.798 	
46.6983 	-0.0102298 	-0.274972 	0.80327 	-1.28045 	0.00819698 	3.13772 	90.1566 	116.597 	-0.591211 	149.069 	360.634 	285.061 	539.798 	
46.8013 	-0.0102332 	-0.272005 	0.802474 	-1.28918 	0.00827323 	3.13767 	90.1566 	116.597 	-0.591211 	148.512 	360.634 	285.061 	539.798 	
46.9042 	-0.0102362 	-0.269045 	0.801653 	-1.2979 	0.00834997 	3.13761 	90.1566 	116.597 	-0.591211 	148.014 	360.634 	285.061 	539.798 	
47.0073 	-0.010239 	-0.266092 	0.800805 	-1.30663 	0.00842721 	3.13755 	90.1566 	116.597 	-0.591211 	147.514 	360.634 	285.061 	539.798 	
47.1141 	-0.0102414 	-0.263146 	0.799932 	-1.31535 	0.00850494 	3.1375 	90.1566 	116.597 	-0.591211 	146.96 	360.634 	285.061 	539.798 	
47.2171 	-0.0102436 	-0.260209 	0.799033 	-1.32408 	0.00858315 	3.13744 	90.1566 	116.597 	-0.591211 	146.457 	360.634 	285.061 	539.798 	
47.3202 	-0.0102454 	-0.257279 	0.798109 	-1.33281 	0.00866184 	3.13739 	90.1566 	116.597 	-0.591211 	145.908 	360.634 	285.061 	539.798 	
47.4232 	-0.010247 	-0.254357 	0.797159 	-1.34153 	0.00874099 	3.13734 	90.1566 	116.597 	-0.591211 	145.404 	360.634 	285.061 	539.798 	
47.5259 	-0.0102484 	-0.251153 	0.796085 	-1.35113 	0.0088286 	3.13728 	90.1566 	116.597 	-0.591211 	144.904 	360.634 	285.061 	539.798 	
47.6292 	-0.0102493 	-0.24854 	0.795183 	-1.35899 	0.0089007 	3.13723 	90.1566 	116.597 	-0.591211 	144.4 	360.634 	285.061 	539.798 	
47.7326 	-0.01025 	-0.245355 	0.794053 	-1.36858 	0.0089893 	3.13717 	90.1566 	116.597 	-0.591211 	143.85 	360.634 	285.061 	539.798 	
47.8354 	-0.0102504 	-0.242757 	0.793105 	-1.37644 	0.00906221 	3.13713 	90.1566 	116.597 	-0.591211 	143.348 	360.634 	285.061 	539.798 	
47.9385 	-0.0102505 	-0.23988 	0.792029 	-1.38516 	0.00914363 	3.13708 	90.1566 	116.597 	-0.591211 	142.845 	360.634 	285.061 	539.798 	
48.0414 	-0.0102503 	-0.237012 	0.790927 	-1.39389 	0.00922547 	3.13703 	90.1566 	116.597 	-0.591211 	142.293 	360.634 	285.061 	539.798 	
48.1449 	-0.0102498 	-0.233869 	0.789687 	-1.40349 	0.00931601 	3.13698 	90.1566 	116.597 	-0.591211 	141.788 	360.634 	285.061 	539.798 	
48.2464 	-0.010249 	-0.231022 	0.788533 	-1.41222 	0.00939875 	3.13693 	90.1566 	116.597 	-0.591211 	141.288 	360.634 	285.061 	539.798 	
48.3553 	-0.010248 	-0.228468 	0.787473 	-1.42007 	0.00947357 	3.13688 	90.1566 	116.597 	-0.591211 	140.736 	360.634 	285.061 	539.798 	
48.4582 	-0.0102465 	-0.225358 	0.78615 	-1.42967 	0.00956547 	3.13683 	90.1566 	116.597 	-0.591211 	140.234 	360.634 	285.061 	539.798 	
48.561 	-0.0102448 	-0.222542 	0.784922 	-1.43839 	0.00964943 	3.13679 	90.1566 	116.597 	-0.591211 	139.68 	360.634 	285.061 	539.798 	
48.6642 	-0.0102428 	-0.219737 	0.78367 	-1.44712 	0.00973379 	3.13674 	90.1566 	116.597 	-0.591211 	139.178 	360.634 	285.061 	539.798 	
48.7671 	-0.0102405 	-0.216943 	0.782393 	-1.45585 	0.00981854 	3.1367 	90.1566 	116.597 	-0.591211 	138.676 	360.634 	285.061 	539.798 	
48.871 	-0.0102354 	-0.211665 	0.779899 	-1.47243 	0.00998062 	3.13662 	90.1566 	116.597 	-0.591211 	138.124 	360.634 	285.061 	539.798 	
48.9743 	-0.0102323 	-0.208904 	0.778552 	-1.48115 	0.0100665 	3.13657 	90.1566 	116.597 	-0.591211 	137.621 	360.634 	285.061 	539.798 	
49.0771 	-0.0102289 	-0.206155 	0.777181 	-1.48988 	0.0101527 	3.13653 	90.1566 	116.597 	-0.591211 	137.118 	360.634 	285.061 	539.798 	
49.1802 	-0.0102252 	-0.203418 	0.775785 	-1.49861 	0.0102392 	3.13649 	90.1566 	116.597 	-0.591211 	136.57 	360.634 	285.061 	539.798 	
49.2832 	-0.0102212 	-0.200694 	0.774366 	-1.50733 	0.0103261 	3.13645 	90.1566 	116.597 	-0.591211 	136.067 	360.634 	285.061 	539.798 	
49.3863 	-0.0102169 	-0.197981 	0.772923 	-1.51606 	0.0104134 	3.13641 	90.1566 	116.597 	-0.591211 	135.567 	360.634 	285.061 	539.798 	
49.4893 	-0.0102123 	-0.195282 	0.771457 	-1.52478 	0.010501 	3.13638 	90.1566 	116.597 	-0.591211 	135.062 	360.634 	285.061 	539.798 	
49.5923 	-0.0102075 	-0.192595 	0.769967 	-1.53351 	0.0105889 	3.13634 	90.1566 	116.597 	-0.591211 	134.516 	360.634 	285.061 	539.798 	
49.695 	-0.0102023 	-0.189922 	0.768454 	-1.54224 	0.0106771 	3.1363 	90.1566 	116.597 	-0.591211 	134.01 	360.634 	285.061 	539.798 	
49.7986 	-0.0101969 	-0.187262 	0.766917 	-1.55096 	0.0107657 	3.13627 	90.1566 	116.597 	-0.591211 	133.506 	360.634 	285.061 	539.798 	
49.9011 	-0.0101911 	-0.184615 	0.765357 	-1.55969 	0.0108546 	3.13623 	90.1566 	116.598 	-0.591211 	132.956 	360.634 	285.061 	539.798 	
50.0042 	-0.0101851 	-0.181982 	0.763774 	-1.56842 	0.0109438 	3.1362 	90.1566 	116.598 	-0.591211 	132.453 	360.634 	285.061 	539.798 	
50.1073 	-0.0101788 	-0.179363 	0.762168 	-1.57714 	0.0110332 	3.13616 	90.1566 	116.598 	-0.591211 	131.956 	360.634 	285.061 	539.798 	
50.215 	-0.0101722 	-0.176758 	0.76054 	-1.58587 	0.011123 	3.13613 	90.1566 	116.598 	-0.591211 	131.402 	360.634 	285.061 	539.798 	
50.3184 	-0.0101653 	-0.174167 	0.758889 	-1.59459 	0.011213 	3.1361 	90.1566 	116.598 	-0.591211 	130.896 	360.634 	285.061 	539.798 	
50.4216 	-0.0101581 	-0.171591 	0.757215 	-1.60332 	0.0113034 	3.13607 	90.1566 	116.598 	-0.591211 	130.346 	360.634 	285.061 	539.798 	
50.5242 	-0.0101507 	-0.16903 	0.755519 	-1.61205 	0.0113939 	3.13604 	90.1566 	116.598 	-0.591211 	129.85 	360.634 	285.061 	539.798 	
50.6272 	-0.0101421 	-0.166229 	0.753627 	-1.62165 	0.0114939 	3.136 	90.1566 	116.598 	-0.591211 	129.342 	360.634 	285.061 	539.798 	
50.7304 	-0.0101341 	-0.1637 	0.751884 	-1.63037 	0.011585 	3.13598 	90.1566 	116.598 	-0.591211 	128.788 	360.634 	285.061 	539.798 	
50.8332 	-0.0101266 	-0.161436 	0.750297 	-1.63823 	0.0116673 	3.13595 	90.1566 	116.598 	-0.591211 	128.283 	360.634 	285.061 	539.798 	
50.9364 	-0.010118 	-0.158935 	0.748513 	-1.64695 	0.0117589 	3.13592 	90.1566 	116.598 	-0.591211 	127.787 	360.634 	285.061 	539.798 	
51.0393 	-0.0101091 	-0.15645 	0.746706 	-1.65568 	0.0118507 	3.1359 	90.1566 	116.598 	-0.591211 	127.281 	360.634 	285.061 	539.798 	
51.1425 	-0.0100999 	-0.153981 	0.744878 	-1.6644 	0.0119428 	3.13587 	90.1566 	116.598 	-0.591211 	126.728 	360.634 	285.061 	539.798 	
51.2456 	-0.0100895 	-0.151283 	0.742843 	-1.674 	0.0120443 	3.13584 	90.1566 	116.598 	-0.591211 	126.23 	360.634 	285.061 	539.798 	
51.3489 	-0.0100797 	-0.148848 	0.74097 	-1.68273 	0.0121368 	3.13582 	90.1566 	116.598 	-0.591211 	125.732 	360.634 	285.061 	539.798 	
51.4554 	-0.0100697 	-0.14643 	0.739076 	-1.69146 	0.0122295 	3.1358 	90.1566 	116.599 	-0.591211 	125.174 	360.634 	285.061 	539.798 	
51.5583 	-0.0100594 	-0.144027 	0.737161 	-1.70018 	0.0123224 	3.13577 	90.1566 	116.599 	-0.591211 	124.675 	360.634 	285.061 	539.798 	
51.6611 	-0.0100488 	-0.141642 	0.735225 	-1.70891 	0.0124155 	3.13575 	90.1566 	116.599 	-0.591211 	124.119 	360.634 	285.061 	539.798 	
51.7671 	-0.0100379 	-0.139274 	0.733268 	-1.71764 	0.0125088 	3.13573 	90.1566 	116.599 	-0.591211 	123.619 	360.634 	285.061 	539.798 	
51.8733 	-0.0100164 	-0.134821 	0.729494 	-1.73422 	0.0126866 	3.13569 	90.1566 	116.599 	-0.591211 	123.068 	360.634 	285.061 	539.798 	
51.9761 	-0.0100048 	-0.132503 	0.727478 	-1.74294 	0.0127804 	3.13568 	90.1566 	116.599 	-0.591211 	122.562 	360.634 	285.061 	539.798 	
52.0789 	-0.0099928 	-0.130203 	0.725442 	-1.75167 	0.0128743 	3.13566 	90.1566 	116.599 	-0.591211 	122.061 	360.634 	285.061 	539.798 	
52.1819 	-0.00998057 	-0.12792 	0.723386 	-1.7604 	0.0129684 	3.13564 	90.1566 	116.599 	-0.591211 	121.508 	360.634 	285.061 	539.798 	
52.2853 	-0.00996807 	-0.125656 	0.72131 	-1.76912 	0.0130627 	3.13563 	90.1566 	116.599 	-0.591211 	121.011 	360.634 	285.061 	539.798 	
52.3883 	-0.00995529 	-0.123409 	0.719214 	-1.77785 	0.013157 	3.13561 	90.1566 	116.599 	-0.591211 	120.503 	360.634 	285.061 	539.798 	
52.4912 	-0.00994224 	-0.121181 	0.717099 	-1.78657 	0.0132515 	3.1356 	90.1566 	116.599 	-0.591211 	119.954 	360.634 	285.061 	539.798 	
52.5939 	-0.00992893 	-0.118972 	0.714964 	-1.7953 	0.0133462 	3.13558 	90.1566 	116.599 	-0.591211 	119.448 	360.634 	285.061 	539.798 	
52.6967 	-0.00991534 	-0.116781 	0.71281 	-1.80403 	0.0134409 	3.13557 	90.1566 	116.6 	-0.591211 	118.952 	360.634 	285.061 	539.798 	
52.8003 	-0.00990148 	-0.114609 	0.710638 	-1.81275 	0.0135357 	3.13556 	90.1566 	116.6 	-0.591211 	118.397 	360.634 	285.061 	539.798 	
52.9032 	-0.00988736 	-0.112457 	0.708446 	-1.82148 	0.0136307 	3.13555 	90.1566 	116.6 	-0.591211 	117.891 	360.634 	285.061 	539.798 	
53.0064 	-0.00987298 	-0.110323 	0.706236 	-1.83021 	0.0137257 	3.13554 	90.1566 	116.61 	-0.591211 	117.394 	360.634 	285.061 	539.798 	
53.1146 	-0.00985832 	-0.108209 	0.704007 	-1.83893 	0.0138208 	3.13553 	90.1566 	116.612 	-0.591211 	116.839 	360.634 	285.061 	539.798 	
53.2172 	-0.00984341 	-0.106114 	0.70176 	-1.84766 	0.013916 	3.13552 	90.1566 	116.613 	-0.591211 	116.341 	360.634 	285.061 	539.798 	
53.3206 	-0.00982823 	-0.104039 	0.699494 	-1.85639 	0.0140113 	3.13551 	90.1566 	116.614 	-0.591211 	115.782 	360.634 	285.061 	539.798 	
53.4233 	-0.00981279 	-0.101984 	0.697211 	-1.86511 	0.0141066 	3.13551 	90.1566 	116.618 	-0.591211 	115.28 	360.634 	285.061 	539.798 	
56.4306 	-0.00975419 	-0.0946489 	0.68872 	-1.89699 	0.0144552 	3.13549 	90.1566 	116.65 	-0.591211 	113.501 	360.634 	285.061 	539.798 	
56.4515 	-0.00975419 	-0.0946489 	0.68872 	-1.89699 	0.0144552 	3.13549 	90.1566 	116.65 	-0.591211 	113.501 	360.634 	285.061 	539.798 	
56.5557 	-0.00975471 	-0.09463 	0.688836 	-1.89687 	0.0144513 	3.13549 	90.1566 	116.65 	-0.591211 	113.596 	360.634 	285.061 	539.798 	
56.6587 	-0.00976914 	-0.0963727 	0.690903 	-1.8892 	0.0143673 	3.13549 	90.1566 	116.651 	-0.591211 	113.984 	360.634 	285.061 	539.798 	
56.7618 	-0.00978528 	-0.0983722 	0.693236 	-1.88047 	0.0142718 	3.1355 	90.1566 	116.651 	-0.591211 	114.522 	360.634 	285.061 	539.798 	
56.8651 	-0.00980117 	-0.100392 	0.69555 	-1.87174 	0.0141764 	3.1355 	90.1566 	116.651 	-0.591211 	115.02 	360.634 	285.061 	539.798 	
56.9679 	-0.0098168 	-0.102432 	0.697847 	-1.86302 	0.014081 	3.13551 	90.1566 	116.651 	-0.591211 	115.52 	360.634 	285.061 	539.798 	
57.0709 	-0.00984728 	-0.106571 	0.702388 	-1.84556 	0.0138905 	3.13552 	90.1566 	116.651 	-0.591211 	116.073 	360.634 	285.061 	539.798 	
57.174 	-0.00986212 	-0.108671 	0.70463 	-1.83684 	0.0137953 	3.13553 	90.1566 	116.651 	-0.591211 	116.579 	360.634 	285.061 	539.798 	
57.2771 	-0.00987671 	-0.11079 	0.706855 	-1.82811 	0.0137002 	3.13554 	90.1566 	116.651 	-0.591211 	117.077 	360.634 	285.061 	539.798 	
57.3801 	-0.00989102 	-0.112928 	0.709061 	-1.81938 	0.0136052 	3.13555 	90.1566 	116.651 	-0.591211 	117.629 	360.634 	285.061 	539.798 	
57.483 	-0.00990507 	-0.115085 	0.711248 	-1.81066 	0.0135103 	3.13556 	90.1566 	116.651 	-0.591211 	118.129 	360.634 	285.061 	539.798 	
57.5859 	-0.00991885 	-0.117262 	0.713416 	-1.80193 	0.0134155 	3.13557 	90.1566 	116.651 	-0.591211 	118.632 	360.634 	285.061 	539.798 	
57.6888 	-0.00993237 	-0.119457 	0.715565 	-1.7932 	0.0133208 	3.13559 	90.1566 	116.651 	-0.591211 	119.138 	360.634 	285.061 	539.798 	
57.7909 	-0.00994561 	-0.121671 	0.717695 	-1.78448 	0.0132262 	3.1356 	90.1566 	116.651 	-0.591211 	119.687 	360.634 	285.061 	539.798 	
57.8942 	-0.00995859 	-0.123903 	0.719806 	-1.77575 	0.0131317 	3.13561 	90.1566 	116.651 	-0.591211 	120.19 	360.634 	285.061 	539.798 	
57.9972 	-0.00997129 	-0.126154 	0.721897 	-1.76702 	0.0130374 	3.13563 	90.1566 	116.651 	-0.591211 	120.691 	360.634 	285.061 	539.798 	
58.1001 	-0.00998372 	-0.128423 	0.723968 	-1.7583 	0.0129432 	3.13565 	90.1566 	116.651 	-0.591211 	121.248 	360.634 	285.061 	539.798 	
58.2034 	-0.00999588 	-0.13071 	0.726019 	-1.74957 	0.0128491 	3.13566 	90.1566 	116.651 	-0.591211 	121.744 	360.634 	285.061 	539.798 	
58.306 	-0.0100078 	-0.133014 	0.72805 	-1.74084 	0.0127552 	3.13568 	90.1566 	116.651 	-0.591211 	122.247 	360.634 	285.061 	539.798 	
58.4141 	-0.0100194 	-0.135337 	0.730062 	-1.73212 	0.0126615 	3.1357 	90.1566 	116.651 	-0.591211 	122.796 	360.634 	285.061 	539.798 	
58.5171 	-0.0100307 	-0.137676 	0.732052 	-1.72339 	0.0125679 	3.13572 	90.1566 	116.651 	-0.591211 	123.298 	360.634 	285.061 	539.798 	
58.6202 	-0.0100418 	-0.140033 	0.734023 	-1.71467 	0.0124745 	3.13574 	90.1566 	116.651 	-0.591211 	123.852 	360.634 	285.061 	539.798 	
58.7232 	-0.0100525 	-0.142408 	0.735972 	-1.70594 	0.0123813 	3.13576 	90.1566 	116.651 	-0.591211 	124.354 	360.634 	285.061 	539.798 	
58.8262 	-0.010063 	-0.144799 	0.737901 	-1.69721 	0.0122882 	3.13578 	90.1566 	116.651 	-0.591211 	124.856 	360.634 	285.061 	539.798 	
58.9292 	-0.0100732 	-0.147206 	0.739809 	-1.68849 	0.0121954 	3.1358 	90.1566 	116.651 	-0.591211 	125.359 	360.634 	285.061 	539.798 	
59.0326 	-0.0100832 	-0.149631 	0.741696 	-1.67976 	0.0121027 	3.13583 	90.1566 	116.651 	-0.591211 	125.912 	360.634 	285.061 	539.798 	
59.1353 	-0.0100928 	-0.152072 	0.743562 	-1.67103 	0.0120103 	3.13585 	90.1566 	116.651 	-0.591211 	126.41 	360.634 	285.061 	539.798 	
59.2384 	-0.0101022 	-0.154529 	0.745406 	-1.66231 	0.0119181 	3.13588 	90.1566 	116.651 	-0.591211 	126.915 	360.634 	285.061 	539.798 	
59.3415 	-0.0101113 	-0.157002 	0.747229 	-1.65358 	0.0118261 	3.1359 	90.1566 	116.651 	-0.591211 	127.465 	360.634 	285.061 	539.798 	
59.4443 	-0.0101201 	-0.15949 	0.74903 	-1.64485 	0.0117343 	3.13593 	90.1566 	116.651 	-0.591211 	127.968 	360.634 	285.061 	539.798 	
59.5476 	-0.0101287 	-0.161995 	0.750809 	-1.63613 	0.0116428 	3.13596 	90.1566 	116.651 	-0.591211 	128.472 	360.634 	285.061 	539.798 	
59.6554 	-0.0101369 	-0.164514 	0.752566 	-1.6274 	0.0115515 	3.13599 	90.1566 	116.651 	-0.591211 	129.023 	360.634 	285.061 	539.798 	
59.7583 	-0.0101456 	-0.167304 	0.754474 	-1.6178 	0.0114514 	3.13602 	90.1566 	116.651 	-0.591211 	129.525 	360.634 	285.061 	539.798 	
59.8621 	-0.0101525 	-0.1696 	0.756015 	-1.60995 	0.0113697 	3.13604 	90.1566 	116.651 	-0.591211 	130.075 	360.634 	285.061 	539.798 	
59.967 	-0.0101599 	-0.172165 	0.757705 	-1.60122 	0.0112792 	3.13608 	90.1566 	116.651 	-0.591211 	130.578 	360.634 	285.061 	539.798 	
60.0712 	-0.010167 	-0.174744 	0.759374 	-1.5925 	0.0111889 	3.13611 	90.1566 	116.651 	-0.591211 	131.134 	360.634 	285.061 	539.798 	
60.1738 	-0.0101738 	-0.177338 	0.76102 	-1.58377 	0.011099 	3.13614 	90.1566 	116.651 	-0.591211 	131.633 	360.634 	285.061 	539.798 	
60.2762 	-0.0101866 	-0.182569 	0.764243 	-1.56632 	0.0109199 	3.13621 	90.1566 	116.651 	-0.591211 	132.137 	360.634 	285.061 	539.798 	
60.3791 	-0.0101925 	-0.185205 	0.76582 	-1.55759 	0.0108308 	3.13624 	90.1566 	116.651 	-0.591211 	132.635 	360.634 	285.061 	539.798 	
60.4823 	-0.0101982 	-0.187855 	0.767374 	-1.54887 	0.010742 	3.13628 	90.1566 	116.651 	-0.591211 	133.191 	360.634 	285.061 	539.798 	
60.5854 	-0.0102036 	-0.190519 	0.768906 	-1.54014 	0.0106535 	3.13631 	90.1566 	116.651 	-0.591211 	133.686 	360.634 	285.061 	539.798 	
60.6882 	-0.0102086 	-0.193195 	0.770413 	-1.53141 	0.0105654 	3.13635 	90.1566 	116.651 	-0.591211 	134.196 	360.634 	285.061 	539.798 	
60.7911 	-0.0102134 	-0.195885 	0.771898 	-1.52269 	0.0104775 	3.13639 	90.1566 	116.651 	-0.591211 	134.744 	360.634 	285.061 	539.798 	
60.8942 	-0.0102179 	-0.198588 	0.773358 	-1.51396 	0.01039 	3.13643 	90.1566 	116.651 	-0.591211 	135.244 	360.634 	285.061 	539.798 	
60.9973 	-0.0102221 	-0.201303 	0.774796 	-1.50523 	0.0103029 	3.13646 	90.1566 	116.651 	-0.591211 	135.747 	360.634 	285.061 	539.798 	
61.1005 	-0.0102261 	-0.204031 	0.776209 	-1.49651 	0.0102161 	3.1365 	90.1566 	116.651 	-0.591211 	136.299 	360.634 	285.061 	539.798 	
61.2032 	-0.0102297 	-0.20677 	0.777599 	-1.48778 	0.0101296 	3.13655 	90.1566 	116.651 	-0.591211 	136.801 	360.634 	285.061 	539.798 	
61.3064 	-0.010233 	-0.209522 	0.778964 	-1.47906 	0.0100435 	3.13659 	90.1566 	116.651 	-0.591211 	137.305 	360.634 	285.061 	539.798 	
61.4144 	-0.010236 	-0.212286 	0.780306 	-1.47033 	0.00995776 	3.13663 	90.1566 	116.651 	-0.591211 	137.858 	360.634 	285.061 	539.798 	
61.5174 	-0.0102388 	-0.215061 	0.781623 	-1.4616 	0.00987239 	3.13667 	90.1566 	116.651 	-0.591211 	138.356 	360.634 	285.061 	539.798 	
61.6195 	-0.0102412 	-0.217848 	0.782916 	-1.45288 	0.0097874 	3.13672 	90.1566 	116.651 	-0.591211 	138.915 	360.634 	285.061 	539.798 	
61.7225 	-0.0102434 	-0.220646 	0.784185 	-1.44415 	0.00970279 	3.13676 	90.1566 	116.651 	-0.591211 	139.411 	360.634 	285.061 	539.798 	
61.8254 	-0.0102453 	-0.223455 	0.785429 	-1.43542 	0.00961858 	3.13681 	90.1566 	116.651 	-0.591211 	139.914 	360.634 	285.061 	539.798 	
61.9285 	-0.0102468 	-0.226275 	0.786649 	-1.4267 	0.00953477 	3.13685 	90.1566 	116.651 	-0.591211 	140.416 	360.634 	285.061 	539.798 	
62.0314 	-0.0102481 	-0.229105 	0.787844 	-1.41797 	0.00945136 	3.1369 	90.1566 	116.651 	-0.591211 	140.974 	360.634 	285.061 	539.798 	
62.1346 	-0.0102491 	-0.231945 	0.789014 	-1.40925 	0.00936835 	3.13695 	90.1566 	116.651 	-0.591211 	141.47 	360.634 	285.061 	539.798 	
62.2374 	-0.0102498 	-0.234796 	0.79016 	-1.40052 	0.00928577 	3.13699 	90.1566 	116.651 	-0.591211 	141.972 	360.634 	285.061 	539.798 	
62.3405 	-0.0102502 	-0.237656 	0.79128 	-1.39179 	0.0092036 	3.13704 	90.1566 	116.651 	-0.591211 	142.525 	360.634 	285.061 	539.798 	
62.4434 	-0.0102503 	-0.240526 	0.792376 	-1.38307 	0.00912187 	3.13709 	90.1566 	116.651 	-0.591211 	143.03 	360.634 	285.061 	539.798 	
62.5466 	-0.0102501 	-0.243406 	0.793446 	-1.37434 	0.00904058 	3.13714 	90.1566 	116.651 	-0.591211 	143.527 	360.634 	285.061 	539.798 	
62.6547 	-0.0102497 	-0.246295 	0.794492 	-1.36561 	0.00895972 	3.13719 	90.1566 	116.651 	-0.591211 	144.079 	360.634 	285.061 	539.798 	
62.7573 	-0.0102489 	-0.249193 	0.795512 	-1.35689 	0.00887931 	3.13724 	90.1566 	116.651 	-0.591211 	144.588 	360.634 	285.061 	539.798 	
62.8602 	-0.0102478 	-0.252099 	0.796507 	-1.34816 	0.00879935 	3.1373 	90.1566 	116.651 	-0.591211 	145.132 	360.634 	285.061 	539.798 	
62.9631 	-0.0102465 	-0.255014 	0.797476 	-1.33944 	0.00871986 	3.13735 	90.1566 	116.651 	-0.591211 	145.642 	360.634 	285.061 	539.798 	
63.0671 	-0.0102446 	-0.258231 	0.798513 	-1.32984 	0.00863295 	3.13741 	90.1566 	116.651 	-0.591211 	146.135 	360.634 	285.061 	539.798 	
63.1711 	-0.0102406 	-0.263809 	0.800231 	-1.31326 	0.00848419 	3.13751 	90.1566 	116.65 	-0.591211 	146.692 	360.634 	285.061 	539.798 	
63.274 	-0.0102381 	-0.266756 	0.801098 	-1.30453 	0.0084066 	3.13757 	90.1566 	116.65 	-0.591211 	147.191 	360.634 	285.061 	539.798 	
63.3772 	-0.0102353 	-0.269711 	0.801939 	-1.29581 	0.00832949 	3.13763 	90.1566 	116.65 	-0.591211 	147.698 	360.634 	285.061 	539.798 	
63.4801 	-0.0102321 	-0.272673 	0.802754 	-1.28708 	0.00825288 	3.13768 	90.1566 	116.65 	-0.591211 	148.243 	360.634 	285.061 	539.798 	
63.5829 	-0.0102287 	-0.275642 	0.803544 	-1.27835 	0.00817677 	3.13774 	90.1565 	116.65 	-0.591211 	148.752 	360.634 	285.061 	539.798 	
63.6853 	-0.010225 	-0.278618 	0.804307 	-1.26963 	0.00810117 	3.1378 	90.1566 	116.65 	-0.591211 	149.25 	360.634 	285.061 	539.798 	
63.7881 	-0.010221 	-0.2816 	0.805045 	-1.2609 	0.00802608 	3.13786 	90.1566 	116.65 	-0.591211 	149.753 	360.634 	285.061 	539.798 	
63.8912 	-0.0102167 	-0.284588 	0.805757 	-1.25217 	0.00795151 	3.13792 	90.1566 	116.65 	-0.591211 	150.307 	360.634 	285.061 	539.798 	
63.9936 	-0.0102117 	-0.287883 	0.806509 	-1.24258 	0.00787009 	3.13798 	90.1566 	116.65 	-0.591211 	150.806 	360.634 	285.061 	539.798 	
64.0958 	-0.0102073 	-0.290584 	0.807101 	-1.23472 	0.00780395 	3.13804 	90.1565 	116.65 	-0.591211 	151.314 	360.634 	285.061 	539.798 	
64.1993 	-0.0102021 	-0.29359 	0.807734 	-1.226 	0.00773097 	3.1381 	90.1566 	116.65 	-0.591211 	151.814 	360.634 	285.061 	539.798 	
64.3026 	-0.0101967 	-0.296601 	0.808341 	-1.21727 	0.00765854 	3.13816 	90.1566 	116.65 	-0.591211 	152.372 	360.634 	285.061 	539.798 	
64.4052 	-0.010191 	-0.299618 	0.808922 	-1.20854 	0.00758664 	3.13823 	90.1566 	116.65 	-0.591211 	152.864 	360.634 	285.061 	539.798 	
64.5081 	-0.0101849 	-0.30264 	0.809476 	-1.19982 	0.0075153 	3.13829 	90.1566 	116.65 	-0.591211 	153.377 	360.634 	285.061 	539.798 	
64.6139 	-0.0101786 	-0.305666 	0.810004 	-1.19109 	0.00744452 	3.13835 	90.1566 	116.65 	-0.591211 	153.923 	360.634 	285.061 	539.798 	
64.717 	-0.010172 	-0.308697 	0.810505 	-1.18236 	0.00737431 	3.13842 	90.1566 	116.65 	-0.591211 	154.432 	360.634 	285.061 	539.798 	
64.8204 	-0.0101651 	-0.311732 	0.81098 	-1.17364 	0.00730466 	3.13848 	90.1566 	116.65 	-0.591211 	154.978 	360.634 	285.061 	539.798 	
64.9233 	-0.010158 	-0.314772 	0.811428 	-1.16491 	0.00723558 	3.13855 	90.1566 	116.65 	-0.591211 	155.486 	360.634 	285.061 	539.798 	
65.0263 	-0.0101505 	-0.317815 	0.81185 	-1.15619 	0.00716708 	3.13862 	90.1566 	116.65 	-0.591211 	155.984 	360.634 	285.061 	539.798 	
65.1294 	-0.0101427 	-0.320861 	0.812246 	-1.14746 	0.00709917 	3.13868 	90.1566 	116.65 	-0.591211 	156.49 	360.634 	285.061 	539.798 	
65.2318 	-0.0101347 	-0.323911 	0.812614 	-1.13873 	0.00703184 	3.13875 	90.1566 	116.65 	-0.591211 	157.038 	360.634 	285.061 	539.798 	
65.3348 	-0.0101264 	-0.326964 	0.812956 	-1.13001 	0.00696511 	3.13882 	90.1566 	116.65 	-0.591211 	157.543 	360.634 	285.061 	539.798 	
65.4374 	-0.0101178 	-0.33002 	0.813272 	-1.12128 	0.00689899 	3.13889 	90.1566 	116.65 	-0.591211 	158.049 	360.634 	285.061 	539.798 	
65.5406 	-0.0101089 	-0.333079 	0.81356 	-1.11256 	0.00683346 	3.13896 	90.1566 	116.65 	-0.591211 	158.599 	360.634 	285.061 	539.798 	
65.6435 	-0.0100997 	-0.336139 	0.813822 	-1.10383 	0.00676855 	3.13903 	90.1566 	116.65 	-0.591211 	159.103 	360.634 	285.061 	539.798 	
65.7457 	-0.0100903 	-0.339202 	0.814058 	-1.0951 	0.00670424 	3.1391 	90.1566 	116.65 	-0.591211 	159.596 	360.634 	285.061 	539.798 	
65.8546 	-0.0100805 	-0.342268 	0.814266 	-1.08638 	0.00664056 	3.13917 	90.1566 	116.65 	-0.591211 	160.156 	360.634 	285.061 	539.798 	
65.9574 	-0.0100705 	-0.345334 	0.814448 	-1.07765 	0.0065775 	3.13924 	90.1566 	116.65 	-0.591211 	160.658 	360.634 	285.061 	539.798 	
66.0623 	-0.0100602 	-0.348402 	0.814603 	-1.06892 	0.00651507 	3.13932 	90.1566 	116.65 	-0.591211 	161.215 	360.634 	285.061 	539.798 	
66.1674 	-0.0100496 	-0.351472 	0.814731 	-1.0602 	0.00645328 	3.13939 	90.1566 	116.65 	-0.591211 	161.707 	360.634 	285.061 	539.798 	
66.2701 	-0.0100388 	-0.354542 	0.814833 	-1.05147 	0.00639212 	3.13946 	90.1566 	116.65 	-0.591211 	162.267 	360.634 	285.061 	539.798 	
66.3731 	-0.0100277 	-0.357614 	0.814907 	-1.04275 	0.00633161 	3.13954 	90.1566 	116.65 	-0.591211 	162.761 	360.634 	285.061 	539.798 	
66.475 	-0.0100046 	-0.363757 	0.814976 	-1.02529 	0.00621253 	3.13969 	90.1566 	116.65 	-0.591211 	163.269 	360.634 	285.061 	539.798 	
66.577 	-0.00999262 	-0.366829 	0.81497 	-1.01657 	0.00615398 	3.13976 	90.1566 	116.65 	-0.591211 	163.769 	360.634 	285.061 	539.798 	
66.6791 	-0.00998039 	-0.369901 	0.814938 	-1.00784 	0.00609608 	3.13984 	90.1566 	116.65 	-0.591211 	164.216 	360.634 	285.061 	539.798 	
66.7822 	-0.00996789 	-0.372973 	0.814878 	-0.999115 	0.00603885 	3.13991 	90.1566 	116.65 	-0.591211 	164.824 	360.634 	285.061 	539.798 	
66.8851 	-0.00995511 	-0.376044 	0.814792 	-0.990389 	0.0059823 	3.13999 	90.1566 	116.65 	-0.591211 	165.329 	360.634 	285.061 	539.798 	
66.9882 	-0.00994206 	-0.379114 	0.814679 	-0.981663 	0.00592641 	3.14007 	90.1566 	116.65 	-0.591211 	165.833 	360.634 	285.061 	539.798 	
67.0896 	-0.00992875 	-0.382183 	0.81454 	-0.972937 	0.0058712 	3.14015 	90.1566 	116.65 	-0.591211 	166.378 	360.634 	285.061 	539.798 	
67.1923 	-0.00991516 	-0.38525 	0.814373 	-0.96421 	0.00581668 	3.14022 	90.1566 	116.65 	-0.591211 	166.884 	360.634 	285.061 	539.798 	
67.2954 	-0.0099013 	-0.388316 	0.81418 	-0.955484 	0.00576285 	3.1403 	90.1566 	116.65 	-0.591211 	167.383 	360.634 	285.061 	539.798 	
67.3987 	-0.00988718 	-0.39138 	0.81396 	-0.946758 	0.0057097 	3.14038 	90.1566 	116.65 	-0.591211 	167.89 	360.634 	285.061 	539.798 	
67.5014 	-0.0098728 	-0.394442 	0.813713 	-0.938032 	0.00565725 	3.14046 	90.1566 	116.65 	-0.591211 	168.435 	360.634 	285.061 	539.798 	
67.6044 	-0.00985814 	-0.397502 	0.813439 	-0.929305 	0.0056055 	3.14054 	90.1566 	116.65 	-0.591211 	168.938 	360.634 	285.061 	539.798 	
67.7076 	-0.00984323 	-0.40056 	0.813139 	-0.920579 	0.00555445 	3.14062 	90.1566 	116.65 	-0.591211 	169.438 	360.634 	285.061 	539.798 	
67.8141 	-0.00982805 	-0.403614 	0.812812 	-0.911853 	0.00550411 	3.1407 	90.1566 	116.65 	-0.591211 	169.998 	360.634 	285.061 	539.798 	
67.9174 	-0.00981261 	-0.406666 	0.812459 	-0.903127 	0.00545448 	3.14079 	90.1566 	116.649 	-0.591211 	170.495 	360.634 	285.061 	539.798 	
68.0206 	-0.00979691 	-0.409715 	0.812079 	-0.894401 	0.00540557 	3.14087 	90.1566 	116.649 	-0.591211 	171.047 	360.634 	285.061 	539.798 	
68.1228 	-0.00978095 	-0.41276 	0.811672 	-0.885674 	0.00535737 	3.14095 	90.1565 	116.649 	-0.591211 	171.549 	360.634 	285.061 	539.798 	
68.2255 	-0.00976473 	-0.415801 	0.811239 	-0.876948 	0.0053099 	3.14103 	90.1566 	116.649 	-0.591211 	172.053 	360.634 	285.061 	539.798 	
68.3284 	-0.00974826 	-0.418838 	0.810779 	-0.868222 	0.00526315 	3.14112 	90.1565 	116.649 	-0.591211 	172.554 	360.634 	285.061 	539.798 	
68.4313 	-0.00973153 	-0.421872 	0.810292 	-0.859496 	0.00521713 	3.1412 	90.1566 	116.649 	-0.591211 	173.097 	360.634 	285.061 	539.798 	
68.5345 	-0.00971455 	-0.424901 	0.80978 	-0.85077 	0.00517184 	3.14129 	90.1566 	116.649 	-0.591211 	173.602 	360.634 	285.061 	539.798 	
68.6375 	-0.00969731 	-0.427925 	0.809241 	-0.842044 	0.00512729 	3.14137 	90.1566 	116.649 	-0.591211 	174.101 	360.634 	285.061 	539.798 	
68.7407 	-0.00967982 	-0.430945 	0.808675 	-0.833317 	0.00508348 	3.14145 	90.1566 	116.649 	-0.591211 	174.663 	360.634 	285.061 	539.798 	
68.8435 	-0.00966208 	-0.433959 	0.808083 	-0.824591 	0.00504041 	3.14154 	90.1566 	116.649 	-0.591211 	175.155 	360.634 	285.061 	539.798 	
68.947 	-0.0096441 	-0.436968 	0.807465 	-0.815865 	0.00499809 	-3.14156 	90.1566 	116.649 	-0.591211 	175.66 	360.634 	285.061 	539.798 	
69.0554 	-0.00962586 	-0.439972 	0.806821 	-0.807139 	0.00495651 	-3.14147 	90.1566 	116.649 	-0.591211 	176.208 	360.634 	285.061 	539.798 	
69.1584 	-0.00960552 	-0.44327 	0.806082 	-0.79754 	0.00491165 	-3.14138 	90.1566 	116.649 	-0.591211 	176.718 	360.634 	285.061 	539.798 	
69.2622 	-0.00958866 	-0.445962 	0.805453 	-0.789686 	0.00487562 	-3.1413 	90.1566 	116.649 	-0.591211 	177.26 	360.634 	285.061 	539.798 	
69.366 	-0.00956969 	-0.448948 	0.804731 	-0.78096 	0.00483632 	-3.14121 	90.1566 	116.649 	-0.591211 	177.764 	360.634 	285.061 	539.798 	
69.4692 	-0.00955048 	-0.451927 	0.803982 	-0.772233 	0.00479777 	-3.14113 	90.1566 	116.649 	-0.591211 	178.261 	360.634 	285.061 	539.798 	
69.573 	-0.00953103 	-0.4549 	0.803207 	-0.763507 	0.00475999 	-3.14104 	90.1566 	116.649 	-0.591211 	178.817 	360.634 	285.061 	539.798 	
69.6751 	-0.00949142 	-0.460825 	0.80158 	-0.746055 	0.00468674 	-3.14086 	90.1566 	116.649 	-0.591211 	179.321 	360.634 	285.061 	539.798 	
69.7782 	-0.00947125 	-0.463776 	0.800727 	-0.737329 	0.00465127 	-3.14077 	90.1566 	116.649 	-0.591211 	179.816 	360.634 	285.061 	539.798 	
69.8811 	-0.00945086 	-0.46672 	0.799849 	-0.728602 	0.00461657 	-3.14068 	90.1566 	116.649 	-0.591211 	180.366 	360.634 	285.061 	539.798 	
69.9845 	-0.00943023 	-0.469656 	0.798946 	-0.719876 	0.00458266 	-3.14059 	90.1566 	116.649 	-0.591211 	180.871 	360.634 	285.061 	539.798 	
70.0873 	-0.00940937 	-0.472584 	0.798016 	-0.71115 	0.00454952 	-3.1405 	90.1566 	116.649 	-0.591211 	181.379 	360.634 	285.061 	539.798 	
70.1905 	-0.00938828 	-0.475504 	0.797061 	-0.702424 	0.00451717 	-3.14041 	90.1566 	116.649 	-0.591211 	181.922 	360.634 	285.061 	539.798 	
70.2935 	-0.00936696 	-0.478416 	0.796081 	-0.693697 	0.0044856 	-3.14032 	90.1566 	116.649 	-0.591211 	182.425 	360.634 	285.061 	539.798 	
70.3963 	-0.00934542 	-0.481319 	0.795075 	-0.684971 	0.00445483 	-3.14023 	90.1566 	116.649 	-0.591211 	182.925 	360.634 	285.061 	539.798 	
70.4994 	-0.00932365 	-0.484212 	0.794045 	-0.676245 	0.00442484 	-3.14014 	90.1566 	116.649 	-0.591211 	183.433 	360.634 	285.061 	539.798 	
70.6025 	-0.00930166 	-0.487097 	0.792988 	-0.667519 	0.00439565 	-3.14005 	90.1566 	116.649 	-0.591211 	183.98 	360.634 	285.061 	539.798 	
70.7053 	-0.00927945 	-0.489973 	0.791907 	-0.658793 	0.00436725 	-3.13996 	90.1566 	116.648 	-0.591211 	184.483 	360.634 	285.061 	539.798 	
70.8087 	-0.00925701 	-0.492839 	0.790801 	-0.650066 	0.00433965 	-3.13987 	90.1566 	116.648 	-0.591211 	184.979 	360.634 	285.061 	539.798 	
70.9142 	-0.00923436 	-0.495695 	0.789669 	-0.64134 	0.00431285 	-3.13978 	90.1566 	116.648 	-0.591211 	185.535 	360.634 	285.061 	539.798 	
71.0173 	-0.00921149 	-0.498541 	0.788513 	-0.632614 	0.00428685 	-3.13969 	90.1566 	116.648 	-0.591211 	186.034 	360.634 	285.061 	539.798 	
71.1203 	-0.00918841 	-0.501377 	0.787332 	-0.623887 	0.00426166 	-3.13959 	90.1566 	116.648 	-0.591211 	186.585 	360.634 	285.061 	539.798 	
71.2233 	-0.00916512 	-0.504202 	0.786127 	-0.615161 	0.00423726 	-3.1395 	90.1566 	116.648 	-0.591211 	187.088 	360.634 	285.061 	539.798 	
71.3265 	-0.00914162 	-0.507017 	0.784896 	-0.606435 	0.00421368 	-3.13941 	90.1566 	116.648 	-0.591211 	187.585 	360.634 	285.061 	539.798 	
71.4296 	-0.0091179 	-0.509821 	0.783641 	-0.597708 	0.00419091 	-3.13932 	90.1566 	116.648 	-0.591211 	188.093 	360.634 	285.061 	539.798 	
71.5328 	-0.00909398 	-0.512614 	0.782362 	-0.588982 	0.00416894 	-3.13922 	90.1566 	116.648 	-0.591211 	188.637 	360.634 	285.061 	539.798 	
71.6346 	-0.00906985 	-0.515396 	0.781059 	-0.580256 	0.00414779 	-3.13913 	90.1566 	116.648 	-0.591211 	189.138 	360.634 	285.061 	539.798 	
71.7366 	-0.00904552 	-0.518166 	0.779731 	-0.57153 	0.00412745 	-3.13904 	90.1566 	116.648 	-0.591211 	189.638 	360.634 	285.061 	539.798 	
71.8392 	-0.00902099 	-0.520925 	0.778379 	-0.562804 	0.00410793 	-3.13894 	90.1566 	116.648 	-0.591211 	190.145 	360.634 	285.061 	539.798 	
71.9427 	-0.00899626 	-0.523672 	0.777003 	-0.554077 	0.00408923 	-3.13885 	90.1566 	116.648 	-0.591211 	190.691 	360.634 	285.061 	539.798 	
72.0459 	-0.00897133 	-0.526406 	0.775603 	-0.545351 	0.00407134 	-3.13875 	90.1566 	116.648 	-0.591211 	191.196 	360.634 	285.061 	539.798 	
72.1491 	-0.0089462 	-0.529128 	0.774179 	-0.536624 	0.00405428 	-3.13866 	90.1566 	116.648 	-0.591211 	191.69 	360.634 	285.061 	539.798 	
72.2573 	-0.00891834 	-0.532108 	0.772586 	-0.527026 	0.00403645 	-3.13856 	90.1566 	116.648 	-0.591211 	192.244 	360.634 	285.061 	539.798 	
72.3605 	-0.00889537 	-0.534535 	0.771261 	-0.519172 	0.00402261 	-3.13847 	90.1566 	116.648 	-0.591211 	192.796 	360.634 	285.061 	539.798 	
72.4633 	-0.00886966 	-0.537219 	0.769767 	-0.510446 	0.00400801 	-3.13838 	90.1566 	116.648 	-0.591211 	193.296 	360.634 	285.061 	539.798 	
72.5663 	-0.00884117 	-0.540156 	0.768096 	-0.500847 	0.00399291 	-3.13827 	90.1566 	116.648 	-0.591211 	193.8 	360.634 	285.061 	539.798 	
72.6706 	-0.00879143 	-0.545191 	0.765144 	-0.484267 	0.00396917 	-3.13809 	90.1566 	116.648 	-0.591211 	194.348 	360.634 	285.061 	539.798 	
72.7733 	-0.00876498 	-0.547821 	0.763556 	-0.475541 	0.00395788 	-3.138 	90.1566 	116.648 	-0.591211 	194.849 	360.634 	285.061 	539.798 	
72.8763 	-0.00873836 	-0.550438 	0.761946 	-0.466815 	0.00394741 	-3.1379 	90.1566 	116.648 	-0.591211 	195.346 	360.634 	285.061 	539.798 	
72.9791 	-0.00871155 	-0.55304 	0.760313 	-0.458088 	0.00393777 	-3.13781 	90.1566 	116.648 	-0.591211 	195.853 	360.634 	285.061 	539.798 	
73.0828 	-0.00868457 	-0.555628 	0.758658 	-0.449362 	0.00392897 	-3.13771 	90.1565 	116.648 	-0.591211 	196.396 	360.634 	285.061 	539.798 	
73.1851 	-0.00865742 	-0.558201 	0.75698 	-0.440636 	0.00392099 	-3.13762 	90.1566 	116.648 	-0.591211 	196.904 	360.634 	285.061 	539.798 	
73.2886 	-0.00863009 	-0.560759 	0.755279 	-0.431909 	0.00391385 	-3.13752 	90.1565 	116.648 	-0.591211 	197.404 	360.634 	285.061 	539.798 	
73.3911 	-0.00860259 	-0.563303 	0.753557 	-0.423183 	0.00390754 	-3.13743 	90.1566 	116.648 	-0.591211 	197.953 	360.634 	285.061 	539.798 	
73.4945 	-0.00857492 	-0.565831 	0.751812 	-0.414457 	0.00390206 	-3.13733 	90.1566 	116.648 	-0.591211 	198.454 	360.634 	285.061 	539.798 	
73.5974 	-0.00854709 	-0.568344 	0.750045 	-0.40573 	0.00389741 	-3.13724 	90.1566 	116.648 	-0.591211 	198.956 	360.634 	285.061 	539.798 	
73.7004 	-0.0085191 	-0.570842 	0.748256 	-0.397004 	0.0038936 	-3.13714 	90.1566 	116.648 	-0.591211 	199.502 	360.634 	285.061 	539.798 	
73.8032 	-0.00849094 	-0.573324 	0.746446 	-0.388278 	0.00389062 	-3.13705 	90.1565 	116.648 	-0.591211 	200.005 	360.634 	285.061 	539.798 	
73.9067 	-0.00846262 	-0.575789 	0.744614 	-0.379552 	0.00388847 	-3.13695 	90.1566 	116.648 	-0.591211 	200.508 	360.635 	285.061 	539.798 	
74.0145 	-0.00843415 	-0.578239 	0.74276 	-0.370825 	0.00388716 	-3.13685 	90.1566 	116.647 	-0.591211 	201.054 	360.635 	285.061 	539.798 	
74.1178 	-0.00840552 	-0.580673 	0.740886 	-0.362099 	0.00388668 	-3.13676 	90.1566 	116.647 	-0.591211 	201.557 	360.635 	285.061 	539.798 	
74.2206 	-0.00837673 	-0.58309 	0.73899 	-0.353373 	0.00388704 	-3.13666 	90.1566 	116.647 	-0.591211 	202.109 	360.635 	285.061 	539.798 	
74.3235 	-0.0083478 	-0.585491 	0.737073 	-0.344647 	0.00388823 	-3.13657 	90.1565 	116.647 	-0.591211 	202.611 	360.635 	285.061 	539.798 	
74.4264 	-0.00831872 	-0.587874 	0.735135 	-0.33592 	0.00389025 	-3.13647 	90.1566 	116.647 	-0.591211 	203.107 	360.635 	285.061 	539.798 	
74.5296 	-0.00828949 	-0.590241 	0.733176 	-0.327194 	0.00389311 	-3.13638 	90.1565 	116.647 	-0.591211 	203.612 	360.635 	285.061 	539.798 	
74.6321 	-0.00826012 	-0.59259 	0.731197 	-0.318468 	0.0038968 	-3.13628 	90.1566 	116.647 	-0.591211 	204.158 	360.635 	285.06 	539.798 	
74.7356 	-0.0082306 	-0.594922 	0.729198 	-0.309741 	0.00390132 	-3.13619 	90.1565 	116.647 	-0.591211 	204.663 	360.635 	285.06 	539.798 	
74.8383 	-0.00820094 	-0.597237 	0.727178 	-0.301015 	0.00390668 	-3.13609 	90.1566 	116.647 	-0.591211 	205.157 	360.635 	285.06 	539.798 	
74.941 	-0.00817115 	-0.599534 	0.725138 	-0.292289 	0.00391287 	-3.136 	90.1566 	116.647 	-0.591211 	205.712 	360.635 	285.06 	539.798 	
75.0447 	-0.00814123 	-0.601813 	0.723078 	-0.283563 	0.00391989 	-3.1359 	90.1566 	116.647 	-0.591211 	206.212 	360.635 	285.06 	539.798 	
75.1477 	-0.00810815 	-0.604299 	0.720789 	-0.273964 	0.00392857 	-3.1358 	90.1566 	116.647 	-0.591211 	206.717 	360.635 	285.06 	539.798 	
75.254 	-0.00808097 	-0.606316 	0.718899 	-0.26611 	0.00393643 	-3.13571 	90.1565 	116.647 	-0.591211 	207.261 	360.635 	285.06 	539.798 	
75.3576 	-0.00805065 	-0.608541 	0.71678 	-0.257384 	0.00394594 	-3.13561 	90.1566 	116.647 	-0.591211 	207.762 	360.635 	285.06 	539.798 	
75.4605 	-0.00802021 	-0.610746 	0.714642 	-0.248657 	0.00395628 	-3.13552 	90.1565 	116.647 	-0.591211 	208.316 	360.635 	285.06 	539.798 	
75.5642 	-0.00798964 	-0.612933 	0.712484 	-0.239931 	0.00396745 	-3.13542 	90.1566 	116.647 	-0.591211 	208.814 	360.635 	285.06 	539.798 	
75.668 	-0.00792814 	-0.61725 	0.708113 	-0.222479 	0.00399228 	-3.13524 	90.1566 	116.647 	-0.591211 	209.316 	360.635 	285.06 	539.798 	
75.7721 	-0.00789721 	-0.61938 	0.705899 	-0.213752 	0.00400593 	-3.13514 	90.1566 	116.647 	-0.591211 	209.865 	360.635 	285.06 	539.798 	
75.8741 	-0.00786617 	-0.62149 	0.703667 	-0.205026 	0.00402041 	-3.13505 	90.1566 	116.647 	-0.591211 	210.368 	360.635 	285.06 	539.798 	
75.9771 	-0.00783501 	-0.623581 	0.701416 	-0.1963 	0.00403571 	-3.13495 	90.1566 	116.647 	-0.591211 	210.863 	360.635 	285.06 	539.798 	
76.0806 	-0.00780375 	-0.625652 	0.699147 	-0.187573 	0.00405183 	-3.13486 	90.1566 	116.647 	-0.591211 	211.416 	360.635 	285.06 	539.798 	
76.183 	-0.00777238 	-0.627703 	0.69686 	-0.178847 	0.00406878 	-3.13476 	90.1565 	116.647 	-0.591211 	211.915 	360.635 	285.06 	539.798 	
76.2853 	-0.00774091 	-0.629734 	0.694555 	-0.170121 	0.00408654 	-3.13467 	90.1566 	116.647 	-0.591211 	212.415 	360.635 	285.06 	539.798 	
76.3884 	-0.00770933 	-0.631745 	0.692233 	-0.161395 	0.00410513 	-3.13458 	90.1566 	116.647 	-0.591211 	212.92 	360.635 	285.06 	539.798 	
76.4913 	-0.00767765 	-0.633736 	0.689893 	-0.152668 	0.00412453 	-3.13448 	90.1566 	116.647 	-0.591211 	213.47 	360.635 	285.06 	539.798 	
76.5945 	-0.00764588 	-0.635706 	0.687536 	-0.143942 	0.00414474 	-3.13439 	90.1566 	116.647 	-0.591211 	213.968 	360.635 	285.06 	539.798 	
76.6969 	-0.007614 	-0.637655 	0.685162 	-0.135216 	0.00416578 	-3.1343 	90.1566 	116.647 	-0.591211 	214.465 	360.635 	285.06 	539.798 	
76.7992 	-0.00758204 	-0.639584 	0.682771 	-0.12649 	0.00418762 	-3.1342 	90.1566 	116.647 	-0.591211 	214.967 	360.635 	285.06 	539.798 	
76.9011 	-0.00754999 	-0.641492 	0.680363 	-0.117763 	0.00421028 	-3.13411 	90.1566 	116.647 	-0.591211 	215.518 	360.635 	285.06 	539.798 	
77.004 	-0.00751785 	-0.643378 	0.677939 	-0.109037 	0.00423374 	-3.13402 	90.1566 	116.647 	-0.591211 	216.019 	360.635 	285.06 	539.798 	
77.1059 	-0.00748562 	-0.645244 	0.675498 	-0.100311 	0.00425801 	-3.13392 	90.1566 	116.647 	-0.591211 	216.516 	360.635 	285.06 	539.798 	
77.2144 	-0.00745331 	-0.647087 	0.673041 	-0.0915845 	0.00428309 	-3.13383 	90.1566 	116.647 	-0.591211 	217.071 	360.635 	285.06 	539.798 	
77.3175 	-0.00742092 	-0.64891 	0.670568 	-0.0828581 	0.00430897 	-3.13374 	90.1566 	116.647 	-0.591211 	217.568 	360.635 	285.06 	539.798 	
77.4207 	-0.00738845 	-0.650711 	0.668079 	-0.0741319 	0.00433565 	-3.13365 	90.1565 	116.647 	-0.591211 	218.122 	360.635 	285.06 	539.798 	
77.5231 	-0.0073559 	-0.65249 	0.665575 	-0.0654058 	0.00436314 	-3.13356 	90.1566 	116.647 	-0.591211 	218.617 	360.635 	285.06 	539.798 	
77.6266 	-0.00732329 	-0.654247 	0.663055 	-0.0566794 	0.00439142 	-3.13347 	90.1565 	116.647 	-0.591211 	219.121 	360.635 	285.06 	539.798 	
77.7297 	-0.0072906 	-0.655982 	0.66052 	-0.0479532 	0.00442049 	-3.13337 	90.1566 	116.647 	-0.591211 	219.616 	360.635 	285.06 	539.798 	
77.8329 	-0.00725456 	-0.657865 	0.657714 	-0.0383543 	0.00445339 	-3.13327 	90.1566 	116.647 	-0.591211 	220.171 	360.635 	285.06 	539.798 	
