RISC-NYUAD/HeavyPayloadDrone/projects/kinova-ros/devel/lib/ne_kinova_demo/VulcanTrajectory/Vulcan1_Vicon_y19m11d13h18min28.csv
time (NSec) 	Kinova Tip Position (t_x) 	t_y 	t_z 	Kinova Tip Angle (theta_x) 	Kinova Tip Angle (theta_y) 	Kinova Tip Angle (theta_z) 	Kinova Joint Angle (j1) 	(j2) 	(j3) 	(j4) 	Kinova Joint Angle (j5) 	(j6) 	(j7)
2.03975 	-0.00255779 	-0.519685 	0.147241 	1.66199 	0.0196338 	-3.12691 	90.1612 	116.613 	-0.591113 	317.361 	360.634 	284.632 	539.793 	
2.14217 	-0.00255994 	-0.520541 	0.145677 	1.66164 	0.0195848 	-3.12687 	90.1612 	116.566 	-0.591113 	317.257 	360.634 	284.632 	539.793 	
2.24522 	-0.00256183 	-0.52215 	0.142481 	1.66164 	0.0194995 	-3.12682 	90.1612 	116.183 	-0.591113 	316.824 	360.634 	284.632 	539.793 	
2.34852 	-0.00256399 	-0.523731 	0.139271 	1.66164 	0.0194138 	-3.12677 	90.1613 	115.702 	-0.591113 	316.331 	360.634 	284.632 	539.793 	
2.45616 	-0.00256642 	-0.525284 	0.136047 	1.66165 	0.0193276 	-3.12671 	90.1612 	115.158 	-0.591113 	315.789 	360.634 	284.632 	539.793 	
2.55896 	-0.00256911 	-0.526809 	0.13281 	1.66165 	0.0192409 	-3.12666 	90.1612 	114.653 	-0.591113 	315.284 	360.634 	284.632 	539.793 	
2.66197 	-0.00257208 	-0.528305 	0.12956 	1.66165 	0.0191539 	-3.12661 	90.1612 	114.157 	-0.591113 	314.787 	360.634 	284.632 	539.793 	
2.76494 	-0.00257532 	-0.529773 	0.126297 	1.66165 	0.0190664 	-3.12656 	90.1612 	113.599 	-0.591113 	314.238 	360.634 	284.632 	539.793 	
2.86834 	-0.00257882 	-0.531213 	0.123021 	1.66166 	0.0189784 	-3.12652 	90.1612 	113.1 	-0.591113 	313.735 	360.634 	284.632 	539.793 	
2.97116 	-0.00258259 	-0.532624 	0.119733 	1.66166 	0.0188901 	-3.12647 	90.1612 	112.596 	-0.591113 	313.234 	360.634 	284.632 	539.793 	
3.07426 	-0.00258663 	-0.534006 	0.116432 	1.66166 	0.0188013 	-3.12642 	90.1612 	112.052 	-0.591113 	312.737 	360.634 	284.632 	539.793 	
3.1773 	-0.00259094 	-0.535359 	0.11312 	1.66166 	0.0187121 	-3.12637 	90.1612 	111.542 	-0.591113 	312.187 	360.634 	284.632 	539.793 	
3.28029 	-0.00259551 	-0.536683 	0.109795 	1.66167 	0.0186225 	-3.12633 	90.1612 	111.041 	-0.591113 	311.683 	360.634 	284.632 	539.793 	
3.38339 	-0.00260036 	-0.537979 	0.10646 	1.66167 	0.0185325 	-3.12628 	90.1612 	110.539 	-0.591113 	311.183 	360.634 	284.632 	539.793 	
3.48642 	-0.00260547 	-0.539245 	0.103113 	1.66167 	0.0184422 	-3.12624 	90.1612 	109.986 	-0.591113 	310.634 	360.634 	284.632 	539.793 	
3.58901 	-0.00261084 	-0.540481 	0.0997554 	1.66167 	0.0183514 	-3.1262 	90.1612 	109.489 	-0.591113 	310.136 	360.634 	284.632 	539.793 	
3.69645 	-0.00261648 	-0.541689 	0.0963871 	1.66167 	0.0182603 	-3.12615 	90.1612 	108.934 	-0.591113 	309.584 	360.634 	284.632 	539.793 	
3.7992 	-0.00262239 	-0.542867 	0.0930083 	1.66168 	0.0181688 	-3.12611 	90.1612 	108.439 	-0.591113 	309.085 	360.634 	284.632 	539.793 	
3.90198 	-0.00262856 	-0.544015 	0.0896193 	1.66168 	0.018077 	-3.12607 	90.1612 	107.932 	-0.591113 	308.583 	360.634 	284.632 	539.793 	
4.00695 	-0.00264169 	-0.546224 	0.0828119 	1.66168 	0.0178922 	-3.12599 	90.1612 	107.387 	-0.591113 	308.037 	360.634 	284.632 	539.793 	
4.11102 	-0.00264866 	-0.547283 	0.0793941 	1.66169 	0.0177994 	-3.12595 	90.1612 	106.88 	-0.591113 	307.539 	360.634 	284.632 	539.793 	
4.21308 	-0.00265588 	-0.548313 	0.0759671 	1.66169 	0.0177062 	-3.12592 	90.1612 	106.383 	-0.591113 	307.037 	360.634 	284.632 	539.793 	
4.31592 	-0.00266337 	-0.549312 	0.0725311 	1.66169 	0.0176126 	-3.12588 	90.1612 	105.828 	-0.591113 	306.486 	360.634 	284.632 	539.793 	
4.41818 	-0.00267112 	-0.550282 	0.0690867 	1.6617 	0.0175188 	-3.12584 	90.1612 	105.327 	-0.591113 	305.984 	360.634 	284.632 	539.793 	
4.52136 	-0.00267913 	-0.551221 	0.065634 	1.6617 	0.0174246 	-3.12581 	90.1612 	104.825 	-0.591113 	305.492 	360.634 	284.632 	539.793 	
4.62431 	-0.0026874 	-0.552131 	0.062173 	1.6617 	0.0173301 	-3.12577 	90.1612 	104.275 	-0.591113 	304.984 	360.634 	284.632 	539.793 	
4.7271 	-0.00269594 	-0.55301 	0.0587044 	1.6617 	0.0172354 	-3.12574 	90.1612 	103.777 	-0.591113 	304.435 	360.634 	284.632 	539.793 	
4.83018 	-0.00270473 	-0.553858 	0.0552281 	1.66171 	0.0171403 	-3.12571 	90.1612 	103.271 	-0.591113 	303.933 	360.634 	284.632 	539.793 	
4.93336 	-0.00271378 	-0.554677 	0.0517445 	1.66171 	0.017045 	-3.12568 	90.1612 	102.771 	-0.591113 	303.442 	360.634 	284.632 	539.793 	
5.03649 	-0.00272308 	-0.555465 	0.048254 	1.66171 	0.0169494 	-3.12565 	90.1612 	102.221 	-0.591113 	302.885 	360.634 	284.632 	539.793 	
5.13921 	-0.00273265 	-0.556222 	0.0447566 	1.66171 	0.0168535 	-3.12562 	90.1612 	101.723 	-0.591113 	302.387 	360.634 	284.632 	539.793 	
5.24235 	-0.00274247 	-0.556949 	0.0412528 	1.66172 	0.0167574 	-3.12559 	90.1612 	101.215 	-0.591113 	301.885 	360.634 	284.632 	539.793 	
5.34524 	-0.00275255 	-0.557646 	0.0377429 	1.66172 	0.016661 	-3.12556 	90.1612 	100.668 	-0.591113 	301.338 	360.634 	284.632 	539.793 	
5.44827 	-0.00276288 	-0.558311 	0.0342269 	1.66172 	0.0165644 	-3.12553 	90.1612 	100.166 	-0.591113 	300.84 	360.634 	284.632 	539.793 	
5.5562 	-0.00277347 	-0.558946 	0.0307053 	1.66172 	0.0164675 	-3.1255 	90.1612 	99.6175 	-0.591113 	300.289 	360.634 	284.632 	539.793 	
5.6593 	-0.00278431 	-0.559551 	0.0271782 	1.66173 	0.0163704 	-3.12548 	90.1612 	99.1112 	-0.591113 	299.787 	360.634 	284.632 	539.793 	
5.76207 	-0.0027954 	-0.560124 	0.0236459 	1.66173 	0.0162731 	-3.12545 	90.1612 	98.6143 	-0.591113 	299.29 	360.634 	284.632 	539.793 	
5.86532 	-0.00280674 	-0.560667 	0.0201088 	1.66173 	0.0161756 	-3.12543 	90.1612 	98.0643 	-0.591113 	298.741 	360.634 	284.632 	539.793 	
5.9681 	-0.00281834 	-0.561178 	0.0165672 	1.66174 	0.0160778 	-3.1254 	90.1612 	97.5644 	-0.591113 	298.236 	360.634 	284.632 	539.793 	
6.07134 	-0.00283018 	-0.561659 	0.013021 	1.66174 	0.0159799 	-3.12538 	90.1612 	97.0622 	-0.591113 	297.737 	360.634 	284.632 	539.793 	
6.17424 	-0.00284228 	-0.562109 	0.00947095 	1.66174 	0.0158818 	-3.12536 	90.1612 	96.511 	-0.591113 	297.235 	360.634 	284.632 	539.793 	
6.27745 	-0.00285462 	-0.562528 	0.00591703 	1.66174 	0.0157835 	-3.12534 	90.1612 	96.0093 	-0.591113 	296.692 	360.634 	284.632 	539.793 	
6.38035 	-0.00286721 	-0.562916 	0.0023596 	1.66175 	0.015685 	-3.12532 	90.1612 	95.5123 	-0.591113 	296.19 	360.634 	284.632 	539.793 	
6.48326 	-0.00288005 	-0.563272 	-0.00120107 	1.66175 	0.0155863 	-3.1253 	90.1612 	95.0134 	-0.591113 	295.688 	360.634 	284.632 	539.793 	
6.58638 	-0.00289313 	-0.563598 	-0.00476477 	1.66175 	0.0154875 	-3.12528 	90.1612 	94.459 	-0.591113 	295.136 	360.634 	284.632 	539.793 	
6.68927 	-0.00290646 	-0.563892 	-0.00833116 	1.66176 	0.0153885 	-3.12526 	90.1612 	93.9619 	-0.591113 	294.64 	360.634 	284.632 	539.793 	
6.79607 	-0.00292003 	-0.564156 	-0.0119001 	1.66176 	0.0152893 	-3.12525 	90.1612 	93.4145 	-0.591113 	294.087 	360.634 	284.632 	539.793 	
6.89927 	-0.00293384 	-0.564388 	-0.0154711 	1.66176 	0.0151901 	-3.12523 	90.1612 	92.914 	-0.591113 	293.589 	360.634 	284.632 	539.793 	
7.00303 	-0.00294789 	-0.564589 	-0.019044 	1.66176 	0.0150907 	-3.12522 	90.1612 	92.4071 	-0.591113 	293.087 	360.634 	284.632 	539.793 	
7.10796 	-0.00296218 	-0.564759 	-0.0226185 	1.66177 	0.0149911 	-3.1252 	90.1612 	91.8569 	-0.591113 	292.538 	360.634 	284.632 	539.793 	
7.21207 	-0.00297671 	-0.564898 	-0.0261944 	1.66177 	0.0148915 	-3.12519 	90.1612 	91.3592 	-0.591113 	292.04 	360.634 	284.632 	539.793 	
7.31496 	-0.00299148 	-0.565005 	-0.0297714 	1.66177 	0.0147917 	-3.12518 	90.1612 	90.8109 	-0.591113 	291.492 	360.634 	284.632 	539.793 	
7.41729 	-0.00302173 	-0.565126 	-0.0369276 	1.66178 	0.0145919 	-3.12516 	90.1612 	90.3063 	-0.591113 	290.988 	360.634 	284.632 	539.793 	
7.52033 	-0.00303721 	-0.56514 	-0.0405062 	1.66178 	0.0144919 	-3.12515 	90.1612 	89.805 	-0.591113 	290.489 	360.634 	284.632 	539.793 	
7.62339 	-0.00305292 	-0.565123 	-0.0440848 	1.66179 	0.0143918 	-3.12514 	90.1612 	89.3087 	-0.591113 	289.992 	360.634 	284.632 	539.793 	
7.72629 	-0.00306886 	-0.565074 	-0.0476631 	1.66179 	0.0142916 	-3.12513 	90.1612 	88.7585 	-0.591113 	289.44 	360.634 	284.632 	539.793 	
7.82929 	-0.00308504 	-0.564994 	-0.0512408 	1.66179 	0.0141913 	-3.12512 	90.1612 	88.257 	-0.591113 	288.939 	360.634 	284.632 	539.793 	
7.93241 	-0.00310144 	-0.564883 	-0.0548178 	1.6618 	0.014091 	-3.12512 	90.1612 	87.7583 	-0.591113 	288.44 	360.634 	284.632 	539.793 	
8.03542 	-0.00311807 	-0.564741 	-0.0583936 	1.6618 	0.0139906 	-3.12511 	90.1612 	87.2114 	-0.591113 	287.89 	360.634 	284.632 	539.793 	
8.13836 	-0.00313493 	-0.564567 	-0.0619682 	1.6618 	0.0138902 	-3.12511 	90.1612 	86.7115 	-0.591113 	287.394 	360.634 	284.632 	539.793 	
8.24124 	-0.00315201 	-0.564363 	-0.0655409 	1.66181 	0.0137898 	-3.1251 	90.1612 	86.2087 	-0.591113 	286.889 	360.634 	284.632 	539.793 	
8.34422 	-0.00316932 	-0.564127 	-0.0691119 	1.66181 	0.0136893 	-3.1251 	90.1612 	85.7106 	-0.591113 	286.393 	360.634 	284.632 	539.793 	
8.44704 	-0.00318685 	-0.56386 	-0.0726806 	1.66181 	0.0135889 	-3.1251 	90.1612 	85.1593 	-0.591113 	285.839 	360.634 	284.632 	539.793 	
8.55046 	-0.00320461 	-0.563562 	-0.0762469 	1.66182 	0.0134884 	-3.1251 	90.1612 	84.6604 	-0.591113 	285.341 	360.634 	284.632 	539.793 	
8.65626 	-0.00322258 	-0.563233 	-0.0798105 	1.66182 	0.0133879 	-3.1251 	90.1612 	84.1044 	-0.591113 	284.788 	360.634 	284.632 	539.793 	
8.75952 	-0.00324078 	-0.562872 	-0.083371 	1.66182 	0.0132874 	-3.1251 	90.1612 	83.6087 	-0.591113 	284.291 	360.634 	284.632 	539.793 	
8.8624 	-0.00325919 	-0.562481 	-0.0869282 	1.66182 	0.0131869 	-3.1251 	90.1612 	83.11 	-0.591113 	283.795 	360.634 	284.632 	539.793 	
8.96546 	-0.00327782 	-0.562059 	-0.090482 	1.66183 	0.0130864 	-3.12511 	90.1612 	82.5621 	-0.591113 	283.246 	360.634 	284.632 	539.793 	
9.06848 	-0.00329666 	-0.561605 	-0.094032 	1.66183 	0.012986 	-3.12511 	90.1612 	82.0619 	-0.591113 	282.74 	360.634 	284.632 	539.793 	
9.1714 	-0.00331572 	-0.561121 	-0.0975778 	1.66183 	0.0128856 	-3.12511 	90.1612 	81.561 	-0.591113 	282.242 	360.634 	284.632 	539.793 	
9.27433 	-0.00333499 	-0.560605 	-0.101119 	1.66184 	0.0127853 	-3.12512 	90.1612 	81.0641 	-0.591113 	281.738 	360.634 	284.632 	539.793 	
9.37746 	-0.00335447 	-0.560059 	-0.104656 	1.66184 	0.0126849 	-3.12512 	90.1612 	80.5109 	-0.591113 	281.191 	360.634 	284.632 	539.793 	
9.4804 	-0.00337416 	-0.559482 	-0.108188 	1.66184 	0.0125847 	-3.12513 	90.1612 	80.0164 	-0.591113 	280.692 	360.634 	284.632 	539.793 	
9.58341 	-0.00339405 	-0.558874 	-0.111715 	1.66185 	0.0124845 	-3.12514 	90.1612 	79.5114 	-0.591113 	280.191 	360.634 	284.632 	539.793 	
9.68619 	-0.00341416 	-0.558236 	-0.115236 	1.66185 	0.0123844 	-3.12515 	90.1612 	78.9683 	-0.591113 	279.644 	360.634 	284.632 	539.793 	
9.78966 	-0.00343446 	-0.557567 	-0.118752 	1.66185 	0.0122844 	-3.12516 	90.1612 	78.46 	-0.591113 	279.143 	360.634 	284.632 	539.793 	
9.89616 	-0.00345497 	-0.556867 	-0.122262 	1.66186 	0.0121844 	-3.12517 	90.1612 	77.9224 	-0.591113 	278.591 	360.634 	284.632 	539.793 	
9.99931 	-0.00347569 	-0.556136 	-0.125765 	1.66186 	0.0120846 	-3.12518 	90.1612 	77.4145 	-0.591113 	278.088 	360.634 	284.632 	539.793 	
10.103 	-0.0034966 	-0.555375 	-0.129262 	1.66187 	0.0119849 	-3.12519 	90.1612 	76.923 	-0.591113 	277.595 	360.634 	284.632 	539.793 	
10.206 	-0.00353902 	-0.553761 	-0.136236 	1.66187 	0.0117857 	-3.12522 	90.1612 	76.3644 	-0.591113 	277.038 	360.634 	284.632 	539.793 	
10.31 	-0.00356052 	-0.552909 	-0.139712 	1.66188 	0.0116864 	-3.12523 	90.1612 	75.8723 	-0.591113 	276.544 	360.634 	284.632 	539.793 	
10.412 	-0.00358222 	-0.552026 	-0.14318 	1.66188 	0.0115871 	-3.12525 	90.1612 	75.3722 	-0.591113 	276.043 	360.634 	284.632 	539.793 	
10.5144 	-0.00360411 	-0.551114 	-0.14664 	1.66188 	0.011488 	-3.12527 	90.1612 	74.8697 	-0.591113 	275.545 	360.634 	284.632 	539.793 	
10.6175 	-0.00362618 	-0.55017 	-0.150093 	1.66189 	0.011389 	-3.12528 	90.1612 	74.325 	-0.591113 	274.992 	360.634 	284.632 	539.793 	
10.7205 	-0.00364845 	-0.549197 	-0.153537 	1.66189 	0.0112902 	-3.1253 	90.1612 	73.8254 	-0.591113 	274.492 	360.634 	284.632 	539.793 	
10.8235 	-0.0036709 	-0.548194 	-0.156972 	1.66189 	0.0111916 	-3.12532 	90.1612 	73.3308 	-0.591113 	273.997 	360.634 	284.632 	539.793 	
10.9261 	-0.00369354 	-0.547161 	-0.160399 	1.6619 	0.0110931 	-3.12534 	90.1612 	72.773 	-0.591113 	273.445 	360.634 	284.632 	539.793 	
11.0295 	-0.00371636 	-0.546098 	-0.163816 	1.6619 	0.0109948 	-3.12536 	90.1612 	72.2808 	-0.591113 	272.943 	360.634 	284.632 	539.793 	
11.1324 	-0.00373937 	-0.545005 	-0.167224 	1.6619 	0.0108967 	-3.12539 	90.1612 	71.7696 	-0.591113 	272.444 	360.634 	284.632 	539.793 	
11.2357 	-0.00376255 	-0.543883 	-0.170623 	1.66191 	0.0107988 	-3.12541 	90.1612 	71.2318 	-0.591113 	271.896 	360.634 	284.632 	539.793 	
11.3382 	-0.00378591 	-0.542731 	-0.174011 	1.66191 	0.0107011 	-3.12543 	90.1612 	70.7276 	-0.591113 	271.39 	360.634 	284.632 	539.793 	
11.4412 	-0.00380945 	-0.541549 	-0.177389 	1.66191 	0.0106037 	-3.12546 	90.1612 	70.2336 	-0.591113 	270.896 	360.634 	284.632 	539.793 	
11.5444 	-0.00383316 	-0.540338 	-0.180757 	1.66192 	0.0105064 	-3.12548 	90.1612 	69.7334 	-0.591113 	270.391 	360.634 	284.632 	539.793 	
11.6471 	-0.00385705 	-0.539098 	-0.184114 	1.66192 	0.0104093 	-3.12551 	90.1612 	69.1819 	-0.591113 	269.847 	360.634 	284.632 	539.793 	
11.7505 	-0.00388111 	-0.537828 	-0.187461 	1.66193 	0.0103125 	-3.12553 	90.1612 	68.69 	-0.591113 	269.347 	360.634 	284.632 	539.793 	
11.8567 	-0.00389934 	-0.535978 	-0.191066 	1.66367 	0.0102354 	-3.12555 	90.1612 	68.1355 	-0.591113 	268.946 	360.634 	284.632 	539.793 	
11.9595 	-0.00389493 	-0.532007 	-0.195668 	1.67202 	0.0102323 	-3.12554 	90.1612 	67.6456 	-0.591113 	268.884 	360.634 	284.632 	539.793 	
12.0625 	-0.00388916 	-0.527875 	-0.200293 	1.68075 	0.0102336 	-3.12553 	90.1612 	67.1444 	-0.591113 	268.882 	360.634 	284.632 	539.793 	
12.1656 	-0.00388334 	-0.523702 	-0.204881 	1.68947 	0.010235 	-3.12552 	90.1612 	66.6049 	-0.591113 	268.88 	360.634 	284.632 	539.793 	
12.2684 	-0.00387746 	-0.51949 	-0.209433 	1.6982 	0.0102365 	-3.12551 	90.1612 	66.093 	-0.591113 	268.878 	360.634 	284.632 	539.793 	
12.3715 	-0.00387152 	-0.515238 	-0.213949 	1.70693 	0.0102381 	-3.1255 	90.1612 	65.6062 	-0.591113 	268.878 	360.634 	284.632 	539.793 	
12.4743 	-0.00386553 	-0.510947 	-0.218427 	1.71565 	0.0102398 	-3.12548 	90.1612 	65.0979 	-0.591113 	268.877 	360.634 	284.632 	539.793 	
12.5775 	-0.00385948 	-0.506617 	-0.222867 	1.72438 	0.0102416 	-3.12547 	90.1612 	64.5633 	-0.591113 	268.877 	360.634 	284.632 	539.793 	
12.6262 	-0.00385338 	-0.502249 	-0.227269 	1.73311 	0.0102435 	-3.12546 	90.1612 	64.3085 	-0.591113 	268.875 	360.634 	284.632 	539.793 	
12.7293 	-0.00383557 	-0.502047 	-0.226496 	1.73572 	0.0103093 	-3.12544 	90.1613 	64.1767 	-0.591113 	268.965 	360.634 	284.632 	539.793 	
12.8323 	-0.00381181 	-0.503565 	-0.223255 	1.73572 	0.0104061 	-3.12542 	90.1612 	64.4832 	-0.591113 	269.35 	360.634 	284.632 	539.793 	
12.9353 	-0.00378822 	-0.505054 	-0.22 	1.73572 	0.0105031 	-3.12539 	90.1612 	64.9767 	-0.591113 	269.867 	360.634 	284.632 	539.793 	
13.0385 	-0.00376481 	-0.506516 	-0.216733 	1.73571 	0.0106003 	-3.12536 	90.1612 	65.4526 	-0.591113 	270.366 	360.634 	284.632 	539.793 	
13.1414 	-0.00374157 	-0.507949 	-0.213454 	1.73571 	0.0106978 	-3.12534 	90.1613 	65.9716 	-0.591113 	270.866 	360.634 	284.632 	539.793 	
13.2445 	-0.00371851 	-0.509353 	-0.210162 	1.73571 	0.0107954 	-3.12532 	90.1612 	66.4482 	-0.591113 	271.368 	360.634 	284.632 	539.793 	
13.3477 	-0.00369562 	-0.510728 	-0.206858 	1.7357 	0.0108933 	-3.12529 	90.1612 	67.0237 	-0.591113 	271.918 	360.634 	284.632 	539.793 	
13.4565 	-0.00367292 	-0.512074 	-0.203541 	1.7357 	0.0109914 	-3.12527 	90.1612 	67.5379 	-0.591113 	272.464 	360.634 	284.632 	539.793 	
13.5596 	-0.0036504 	-0.513392 	-0.200214 	1.7357 	0.0110896 	-3.12525 	90.1613 	68.0656 	-0.591113 	272.971 	360.634 	284.632 	539.793 	
13.6631 	-0.00362807 	-0.51468 	-0.196875 	1.73569 	0.011188 	-3.12523 	90.1612 	68.538 	-0.591113 	273.467 	360.634 	284.632 	539.793 	
13.7654 	-0.00360592 	-0.515939 	-0.193525 	1.73569 	0.0112866 	-3.12521 	90.1612 	69.1048 	-0.591113 	274.019 	360.634 	284.632 	539.793 	
13.8685 	-0.00358396 	-0.517169 	-0.190164 	1.73569 	0.0113854 	-3.12519 	90.1612 	69.5911 	-0.591113 	274.517 	360.634 	284.632 	539.793 	
13.9714 	-0.00356219 	-0.518369 	-0.186792 	1.73568 	0.0114843 	-3.12517 	90.1612 	70.0915 	-0.591113 	275.018 	360.634 	284.632 	539.793 	
14.0743 	-0.00354061 	-0.51954 	-0.18341 	1.73568 	0.0115834 	-3.12516 	90.1612 	70.5967 	-0.591113 	275.517 	360.634 	284.632 	539.793 	
14.1775 	-0.00351922 	-0.520682 	-0.180018 	1.73568 	0.0116826 	-3.12514 	90.1612 	71.1359 	-0.591113 	276.07 	360.634 	284.632 	539.793 	
14.2803 	-0.00349802 	-0.521794 	-0.176616 	1.73567 	0.011782 	-3.12513 	90.1612 	71.6479 	-0.591113 	276.563 	360.634 	284.632 	539.793 	
14.3833 	-0.00347702 	-0.522876 	-0.173205 	1.73567 	0.0118815 	-3.12511 	90.1612 	72.1209 	-0.591113 	277.067 	360.634 	284.632 	539.793 	
14.4866 	-0.00345622 	-0.523928 	-0.169784 	1.73566 	0.0119811 	-3.1251 	90.1612 	72.6945 	-0.591113 	277.619 	360.634 	284.632 	539.793 	
14.5896 	-0.00343562 	-0.52495 	-0.166355 	1.73566 	0.0120808 	-3.12509 	90.1612 	73.1667 	-0.591113 	278.115 	360.634 	284.632 	539.793 	
14.6967 	-0.00341522 	-0.525943 	-0.162916 	1.73566 	0.0121806 	-3.12507 	90.1612 	73.7458 	-0.591113 	278.667 	360.634 	284.632 	539.793 	
14.7994 	-0.00339502 	-0.526905 	-0.159469 	1.73565 	0.0122806 	-3.12506 	90.1612 	74.2107 	-0.591113 	279.163 	360.634 	284.632 	539.793 	
14.9033 	-0.00337502 	-0.527837 	-0.156014 	1.73565 	0.0123806 	-3.12505 	90.1612 	74.7364 	-0.591113 	279.668 	360.634 	284.632 	539.793 	
15.0076 	-0.00335523 	-0.528739 	-0.152551 	1.73565 	0.0124807 	-3.12504 	90.1612 	75.264 	-0.591113 	280.216 	360.634 	284.632 	539.793 	
15.1111 	-0.00331627 	-0.530452 	-0.145601 	1.73564 	0.0126811 	-3.12503 	90.1612 	75.7789 	-0.591113 	280.72 	360.634 	284.632 	539.793 	
15.2132 	-0.0032971 	-0.531263 	-0.142115 	1.73564 	0.0127814 	-3.12502 	90.1612 	76.2699 	-0.591113 	281.212 	360.634 	284.632 	539.793 	
15.3151 	-0.00327814 	-0.532044 	-0.138623 	1.73563 	0.0128817 	-3.12502 	90.1612 	76.8163 	-0.591113 	281.765 	360.634 	284.632 	539.793 	
15.4182 	-0.0032594 	-0.532794 	-0.135124 	1.73563 	0.0129821 	-3.12501 	90.1612 	77.3223 	-0.591113 	282.261 	360.634 	284.632 	539.793 	
15.5215 	-0.00324087 	-0.533514 	-0.131618 	1.73563 	0.0130825 	-3.12501 	90.1612 	77.8104 	-0.591113 	282.763 	360.634 	284.632 	539.793 	
15.624 	-0.00322255 	-0.534203 	-0.128106 	1.73562 	0.013183 	-3.12501 	90.1612 	78.3313 	-0.591113 	283.261 	360.634 	284.632 	539.793 	
15.7264 	-0.00320446 	-0.534861 	-0.124588 	1.73562 	0.0132834 	-3.125 	90.1612 	78.8544 	-0.591113 	283.815 	360.634 	284.632 	539.793 	
15.8296 	-0.00318658 	-0.535488 	-0.121065 	1.73562 	0.0133839 	-3.125 	90.1612 	79.3753 	-0.591113 	284.315 	360.634 	284.632 	539.793 	
15.9323 	-0.00316892 	-0.536085 	-0.117536 	1.73561 	0.0134844 	-3.125 	90.1612 	79.8461 	-0.591113 	284.815 	360.634 	284.632 	539.793 	
16.0342 	-0.00315148 	-0.536651 	-0.114003 	1.73561 	0.0135849 	-3.125 	90.1612 	80.3738 	-0.591113 	285.316 	360.634 	284.632 	539.793 	
16.1376 	-0.00313426 	-0.537186 	-0.110464 	1.73561 	0.0136854 	-3.125 	90.1612 	80.8982 	-0.591113 	285.863 	360.634 	284.632 	539.793 	
16.2407 	-0.00311727 	-0.53769 	-0.106921 	1.7356 	0.0137859 	-3.12501 	90.1612 	81.4126 	-0.591113 	286.366 	360.634 	284.632 	539.793 	
16.3435 	-0.0031005 	-0.538164 	-0.103374 	1.7356 	0.0138863 	-3.12501 	90.1612 	81.9045 	-0.591113 	286.859 	360.634 	284.632 	539.793 	
16.4465 	-0.00308395 	-0.538606 	-0.0998228 	1.7356 	0.0139867 	-3.12501 	90.1612 	82.4648 	-0.591113 	287.416 	360.634 	284.632 	539.793 	
16.5497 	-0.00306764 	-0.539017 	-0.0962678 	1.7356 	0.0140871 	-3.12502 	90.1612 	82.9593 	-0.591113 	287.909 	360.634 	284.632 	539.793 	
16.6565 	-0.00305155 	-0.539397 	-0.0927094 	1.73559 	0.0141874 	-3.12503 	90.1612 	83.5034 	-0.591113 	288.464 	360.634 	284.632 	539.793 	
16.7593 	-0.00303569 	-0.539746 	-0.0891478 	1.73559 	0.0142877 	-3.12503 	90.1612 	84.0111 	-0.591113 	288.96 	360.634 	284.632 	539.793 	
16.8627 	-0.00302006 	-0.540065 	-0.0855833 	1.73559 	0.0143879 	-3.12504 	90.1612 	84.4981 	-0.591113 	289.465 	360.634 	284.632 	539.793 	
16.9656 	-0.00300467 	-0.540351 	-0.0820162 	1.73558 	0.014488 	-3.12505 	90.1612 	85.0685 	-0.591113 	290.013 	360.634 	284.632 	539.793 	
17.0686 	-0.00298951 	-0.540607 	-0.0784467 	1.73558 	0.0145881 	-3.12506 	90.1612 	85.5417 	-0.591113 	290.513 	360.634 	284.632 	539.793 	
17.1714 	-0.00297458 	-0.540832 	-0.0748751 	1.73558 	0.0146881 	-3.12507 	90.1612 	86.0644 	-0.591113 	291.014 	360.634 	284.632 	539.793 	
17.2743 	-0.00295989 	-0.541025 	-0.0713017 	1.73557 	0.0147879 	-3.12508 	90.1612 	86.5438 	-0.591113 	291.512 	360.634 	284.632 	539.793 	
17.3775 	-0.00294543 	-0.541188 	-0.0677268 	1.73557 	0.0148877 	-3.12509 	90.1612 	87.1172 	-0.591113 	292.062 	360.634 	284.632 	539.793 	
17.4806 	-0.00293122 	-0.541319 	-0.0641507 	1.73557 	0.0149874 	-3.1251 	90.1612 	87.5932 	-0.591113 	292.56 	360.634 	284.632 	539.793 	
17.5835 	-0.00291724 	-0.541419 	-0.0605734 	1.73556 	0.0150869 	-3.12512 	90.1612 	88.1068 	-0.591113 	293.062 	360.634 	284.632 	539.793 	
17.6864 	-0.0029035 	-0.541487 	-0.0569955 	1.73556 	0.0151864 	-3.12513 	90.1612 	88.6502 	-0.591113 	293.608 	360.634 	284.632 	539.793 	
17.7898 	-0.00289 	-0.541525 	-0.0534172 	1.73556 	0.0152857 	-3.12515 	90.1612 	89.153 	-0.591113 	294.116 	360.634 	284.632 	539.793 	
17.8966 	-0.00287675 	-0.541531 	-0.0498386 	1.73555 	0.0153848 	-3.12516 	90.1612 	89.7044 	-0.591113 	294.657 	360.634 	284.632 	539.793 	
17.9993 	-0.00286374 	-0.541506 	-0.0462601 	1.73555 	0.0154838 	-3.12518 	90.1612 	90.1983 	-0.591113 	295.161 	360.634 	284.632 	539.793 	
18.1032 	-0.00285097 	-0.54145 	-0.042682 	1.73555 	0.0155827 	-3.1252 	90.1612 	90.7076 	-0.591113 	295.663 	360.634 	284.632 	539.793 	
18.2084 	-0.00282617 	-0.541243 	-0.035528 	1.73554 	0.0157799 	-3.12524 	90.1612 	91.2471 	-0.591113 	296.21 	360.634 	284.632 	539.793 	
18.3114 	-0.00281414 	-0.541094 	-0.0319526 	1.73554 	0.0158782 	-3.12526 	90.1612 	91.7623 	-0.591113 	296.712 	360.634 	284.632 	539.793 	
18.4143 	-0.00280236 	-0.540912 	-0.0283787 	1.73554 	0.0159764 	-3.12528 	90.1612 	92.2389 	-0.591113 	297.214 	360.634 	284.632 	539.793 	
18.5175 	-0.00279082 	-0.5407 	-0.0248065 	1.73553 	0.0160744 	-3.1253 	90.1612 	92.811 	-0.591113 	297.763 	360.634 	284.632 	539.793 	
18.6205 	-0.00277954 	-0.540457 	-0.0212363 	1.73553 	0.0161722 	-3.12533 	90.1612 	93.2937 	-0.591113 	298.26 	360.634 	284.632 	539.793 	
18.7238 	-0.0027685 	-0.540182 	-0.0176684 	1.73553 	0.0162697 	-3.12535 	90.1612 	93.8149 	-0.591113 	298.763 	360.634 	284.632 	539.793 	
18.8262 	-0.00275772 	-0.539876 	-0.014103 	1.73553 	0.0163671 	-3.12538 	90.1612 	94.3471 	-0.591113 	299.309 	360.634 	284.632 	539.793 	
18.9297 	-0.00274719 	-0.53954 	-0.0105405 	1.73552 	0.0164642 	-3.1254 	90.1612 	94.8588 	-0.591113 	299.812 	360.634 	284.632 	539.793 	
19.0328 	-0.00273691 	-0.539172 	-0.00698098 	1.73552 	0.0165611 	-3.12543 	90.1612 	95.3487 	-0.591113 	300.309 	360.634 	284.632 	539.793 	
19.1356 	-0.00272689 	-0.538773 	-0.00342488 	1.73552 	0.0166578 	-3.12546 	90.1612 	95.9069 	-0.591113 	300.865 	360.634 	284.632 	539.793 	
19.2383 	-0.00271712 	-0.538343 	0.000127673 	1.73551 	0.0167542 	-3.12548 	90.1612 	96.406 	-0.591113 	301.358 	360.634 	284.632 	539.793 	
19.3411 	-0.0027076 	-0.537882 	0.00367629 	1.73551 	0.0168504 	-3.12551 	90.1612 	96.9027 	-0.591113 	301.862 	360.634 	284.632 	539.793 	
19.4444 	-0.00269835 	-0.53739 	0.00722073 	1.73551 	0.0169463 	-3.12554 	90.1612 	97.4129 	-0.591113 	302.36 	360.634 	284.632 	539.793 	
19.5474 	-0.00268935 	-0.536867 	0.0107607 	1.73551 	0.017042 	-3.12557 	90.1612 	97.9521 	-0.591113 	302.912 	360.634 	284.632 	539.793 	
19.6507 	-0.0026806 	-0.536313 	0.0142961 	1.7355 	0.0171374 	-3.12561 	90.1612 	98.473 	-0.591113 	303.41 	360.634 	284.632 	539.793 	
19.7568 	-0.00267211 	-0.535729 	0.0178264 	1.7355 	0.0172325 	-3.12564 	90.1612 	99.0012 	-0.591113 	303.96 	360.634 	284.632 	539.793 	
19.8597 	-0.00266389 	-0.535114 	0.0213514 	1.7355 	0.0173273 	-3.12567 	90.1612 	99.5176 	-0.591113 	304.462 	360.634 	284.632 	539.793 	
19.9626 	-0.00265592 	-0.534467 	0.024871 	1.7355 	0.0174218 	-3.12571 	90.1612 	100.006 	-0.591113 	304.96 	360.634 	284.632 	539.793 	
20.0656 	-0.00264821 	-0.533791 	0.0283847 	1.73549 	0.017516 	-3.12574 	90.1612 	100.574 	-0.591113 	305.509 	360.634 	284.632 	539.793 	
20.1686 	-0.00264076 	-0.533083 	0.0318925 	1.73549 	0.0176099 	-3.12578 	90.1612 	101.059 	-0.591113 	306.007 	360.634 	284.632 	539.793 	
20.2716 	-0.00263357 	-0.532346 	0.0353939 	1.73549 	0.0177035 	-3.12581 	90.1612 	101.565 	-0.591113 	306.513 	360.634 	284.632 	539.793 	
20.3744 	-0.00262665 	-0.531577 	0.0388887 	1.73549 	0.0177968 	-3.12585 	90.1612 	102.06 	-0.591113 	307.008 	360.634 	284.632 	539.793 	
20.4777 	-0.00261998 	-0.530778 	0.0423767 	1.73548 	0.0178897 	-3.12589 	90.1612 	102.622 	-0.591113 	307.56 	360.634 	284.632 	539.793 	
20.5808 	-0.00261358 	-0.529949 	0.0458576 	1.73548 	0.0179823 	-3.12593 	90.1612 	103.121 	-0.591113 	308.058 	360.634 	284.632 	539.793 	
20.6838 	-0.00260744 	-0.529089 	0.049331 	1.73548 	0.0180746 	-3.12597 	90.1612 	103.612 	-0.591113 	308.561 	360.634 	284.632 	539.793 	
20.7867 	-0.00260157 	-0.528199 	0.0527969 	1.73548 	0.0181665 	-3.12601 	90.1612 	104.175 	-0.591113 	309.111 	360.634 	284.632 	539.793 	
20.8895 	-0.00259596 	-0.527279 	0.0562548 	1.73547 	0.018258 	-3.12605 	90.1612 	104.666 	-0.591113 	309.611 	360.634 	284.632 	539.793 	
20.9965 	-0.00259061 	-0.526329 	0.0597046 	1.73547 	0.0183492 	-3.12609 	90.1612 	105.234 	-0.591113 	310.16 	360.634 	284.632 	539.793 	
21.0993 	-0.00258553 	-0.525348 	0.0631459 	1.73547 	0.0184401 	-3.12613 	90.1612 	105.715 	-0.591113 	310.655 	360.634 	284.632 	539.793 	
21.2013 	-0.00258071 	-0.524338 	0.0665786 	1.73547 	0.0185305 	-3.12618 	90.1612 	106.227 	-0.591113 	311.16 	360.634 	284.632 	539.793 	
21.3042 	-0.00257616 	-0.523298 	0.0700022 	1.73546 	0.0186205 	-3.12622 	90.1612 	106.721 	-0.591113 	311.658 	360.634 	284.632 	539.793 	
21.4084 	-0.00257188 	-0.522228 	0.0734167 	1.73546 	0.0187102 	-3.12627 	90.1612 	107.287 	-0.591113 	312.21 	360.634 	284.632 	539.793 	
21.5123 	-0.00256411 	-0.519998 	0.0802169 	1.73546 	0.0188883 	-3.12636 	90.1612 	107.778 	-0.591113 	312.708 	360.634 	284.632 	539.793 	
21.6152 	-0.00256062 	-0.518839 	0.0836022 	1.73545 	0.0189767 	-3.12641 	90.1612 	108.335 	-0.591113 	313.212 	360.634 	284.632 	539.793 	
21.7186 	-0.00255741 	-0.51765 	0.0869772 	1.73545 	0.0190647 	-3.12646 	90.1612 	108.831 	-0.591113 	313.757 	360.634 	284.632 	539.793 	
21.8212 	-0.00255445 	-0.516432 	0.0903416 	1.73545 	0.0191523 	-3.12651 	90.1612 	109.338 	-0.591113 	314.258 	360.634 	284.632 	539.793 	
21.9235 	-0.00255177 	-0.515185 	0.0936954 	1.73545 	0.0192395 	-3.12656 	90.1612 	109.841 	-0.591113 	314.757 	360.634 	284.632 	539.793 	
22.0266 	-0.00254936 	-0.513909 	0.0970381 	1.73545 	0.0193262 	-3.12661 	90.1612 	110.386 	-0.591113 	315.304 	360.634 	284.632 	539.793 	
22.1297 	-0.00254721 	-0.512603 	0.100369 	1.73544 	0.0194125 	-3.12666 	90.1612 	110.893 	-0.591113 	315.807 	360.634 	284.632 	539.793 	
22.2327 	-0.00254533 	-0.511268 	0.103689 	1.73544 	0.0194983 	-3.12671 	90.1612 	111.394 	-0.591113 	316.309 	360.634 	284.632 	539.793 	
22.3355 	-0.00254372 	-0.509905 	0.106997 	1.73544 	0.0195837 	-3.12676 	90.1612 	111.955 	-0.591113 	316.805 	360.634 	284.632 	539.793 	
22.4384 	-0.00254321 	-0.509242 	0.110589 	1.7332 	0.0196463 	-3.12681 	90.1612 	112.439 	-0.591113 	317.249 	360.634 	284.632 	539.793 	
22.5415 	-0.00254519 	-0.510662 	0.115039 	1.72447 	0.0196444 	-3.12682 	90.1612 	112.946 	-0.591113 	317.318 	360.634 	284.632 	539.793 	
22.6447 	-0.00254712 	-0.512043 	0.119502 	1.71575 	0.0196426 	-3.12683 	90.1612 	113.449 	-0.591113 	317.321 	360.634 	284.632 	539.793 	
22.7479 	-0.00254899 	-0.513385 	0.123976 	1.70702 	0.0196409 	-3.12684 	90.1612 	114.009 	-0.591113 	317.322 	360.634 	284.632 	539.793 	
22.8566 	-0.00255081 	-0.514687 	0.128462 	1.69829 	0.0196393 	-3.12686 	90.1612 	114.546 	-0.591113 	317.324 	360.634 	284.632 	539.793 	
22.9593 	-0.00255258 	-0.515951 	0.13296 	1.68957 	0.0196378 	-3.12687 	90.1612 	115.052 	-0.591113 	317.325 	360.634 	284.632 	539.793 	
23.0627 	-0.00255429 	-0.517175 	0.137468 	1.68084 	0.0196364 	-3.12688 	90.1612 	115.548 	-0.591113 	317.326 	360.634 	284.632 	539.793 	
