RISC-NYUAD/HeavyPayloadDrone/projects/kinova-ros/devel/lib/ne_kinova_demo/VulcanTrajectory/Vulcan1_Vicon_y19m11d13h18min26.csv
time (NSec) 	Kinova Tip Position (t_x) 	t_y 	t_z 	Kinova Tip Angle (theta_x) 	Kinova Tip Angle (theta_y) 	Kinova Tip Angle (theta_z) 	Kinova Joint Angle (j1) 	(j2) 	(j3) 	(j4) 	Kinova Joint Angle (j5) 	(j6) 	(j7)
3.00214 	-0.00255779 	-0.519685 	0.147241 	1.66199 	0.0196338 	-3.12691 	90.1614 	116.617 	-0.591113 	317.36 	360.634 	284.632 	539.793 	
3.10411 	-0.00255779 	-0.519685 	0.147241 	1.66199 	0.0196338 	-3.12691 	90.1614 	116.57 	-0.591113 	317.257 	360.634 	284.632 	539.793 	
3.2061 	-0.00255779 	-0.519685 	0.147241 	1.66199 	0.0196338 	-3.12691 	90.1614 	116.232 	-0.591113 	316.868 	360.634 	284.632 	539.793 	
3.30805 	-0.00255779 	-0.519685 	0.147241 	1.66199 	0.0196338 	-3.12691 	90.1614 	115.761 	-0.591113 	316.386 	360.634 	284.632 	539.793 	
3.41052 	-0.00255779 	-0.519685 	0.147241 	1.66199 	0.0196338 	-3.12691 	90.1614 	115.258 	-0.591113 	315.888 	360.634 	284.632 	539.793 	
3.51212 	-0.00255779 	-0.519685 	0.147241 	1.66199 	0.0196338 	-3.12691 	90.1614 	114.751 	-0.591113 	315.387 	360.634 	284.632 	539.793 	
3.61418 	-0.00255779 	-0.519685 	0.147241 	1.66199 	0.0196338 	-3.12691 	90.1614 	114.209 	-0.591113 	314.836 	360.634 	284.632 	539.793 	
3.72006 	-0.00255779 	-0.519685 	0.147241 	1.66199 	0.0196338 	-3.12691 	90.1614 	113.701 	-0.591113 	314.334 	360.634 	284.632 	539.793 	
3.82209 	-0.00255779 	-0.519685 	0.147241 	1.66199 	0.0196338 	-3.12691 	90.1614 	113.204 	-0.591113 	313.833 	360.634 	284.632 	539.793 	
3.92516 	-0.00255779 	-0.519685 	0.147241 	1.66199 	0.0196338 	-3.12691 	90.1614 	112.649 	-0.591113 	313.286 	360.634 	284.632 	539.793 	
4.02909 	-0.00255779 	-0.519685 	0.147241 	1.66199 	0.0196338 	-3.12691 	90.1614 	112.147 	-0.591113 	312.783 	360.634 	284.632 	539.793 	
4.13305 	-0.00255779 	-0.519685 	0.147241 	1.66199 	0.0196338 	-3.12691 	90.1614 	111.596 	-0.591113 	312.291 	360.634 	284.632 	539.793 	
4.23506 	-0.00255779 	-0.519685 	0.147241 	1.66199 	0.0196338 	-3.12691 	90.1614 	111.095 	-0.591113 	311.734 	360.634 	284.632 	539.793 	
4.33707 	-0.00255779 	-0.519685 	0.147241 	1.66199 	0.0196338 	-3.12691 	90.1614 	110.591 	-0.591113 	311.234 	360.634 	284.632 	539.793 	
4.43909 	-0.00255779 	-0.519685 	0.147241 	1.66199 	0.0196338 	-3.12691 	90.1614 	110.085 	-0.591113 	310.734 	360.634 	284.632 	539.793 	
4.54114 	-0.00255779 	-0.519685 	0.147241 	1.66199 	0.0196338 	-3.12691 	90.1614 	109.595 	-0.591113 	310.235 	360.634 	284.632 	539.793 	
4.64323 	-0.00255779 	-0.519685 	0.147241 	1.66199 	0.0196338 	-3.12691 	90.1614 	109.039 	-0.591113 	309.738 	360.634 	284.632 	539.793 	
4.74517 	-0.00255779 	-0.519685 	0.147241 	1.66199 	0.0196338 	-3.12691 	90.1614 	108.54 	-0.591113 	309.187 	360.634 	284.632 	539.793 	
4.84709 	-0.00255779 	-0.519685 	0.147241 	1.66199 	0.0196338 	-3.12691 	90.1614 	108.033 	-0.591113 	308.681 	360.634 	284.632 	539.793 	
4.9491 	-0.00255779 	-0.519685 	0.147241 	1.66199 	0.0196338 	-3.12691 	90.1614 	107.539 	-0.591113 	308.188 	360.634 	284.632 	539.793 	
5.05116 	-0.00255779 	-0.519685 	0.147241 	1.66199 	0.0196338 	-3.12691 	90.1614 	107.031 	-0.591113 	307.686 	360.634 	284.632 	539.793 	
5.15315 	-0.00255779 	-0.519685 	0.147241 	1.66199 	0.0196338 	-3.12691 	90.1614 	106.484 	-0.591113 	307.186 	360.634 	284.632 	539.793 	
5.25508 	-0.00255779 	-0.519685 	0.147241 	1.66199 	0.0196338 	-3.12691 	90.1614 	105.979 	-0.591113 	306.64 	360.634 	284.632 	539.793 	
5.35712 	-0.00255779 	-0.519685 	0.147241 	1.66199 	0.0196338 	-3.12691 	90.1614 	105.478 	-0.591113 	306.133 	360.634 	284.632 	539.793 	
5.45913 	-0.00255779 	-0.519685 	0.147241 	1.66199 	0.0196338 	-3.12691 	90.1614 	104.98 	-0.591113 	305.641 	360.634 	284.632 	539.793 	
5.56112 	-0.00255779 	-0.519685 	0.147241 	1.66199 	0.0196338 	-3.12691 	90.1614 	104.48 	-0.591113 	305.136 	360.634 	284.632 	539.793 	
5.66329 	-0.00255779 	-0.519685 	0.147241 	1.66199 	0.0196338 	-3.12691 	90.1614 	103.929 	-0.591113 	304.635 	360.634 	284.632 	539.793 	
5.76506 	-0.00255779 	-0.519685 	0.147241 	1.66199 	0.0196338 	-3.12691 	90.1614 	103.423 	-0.591113 	304.086 	360.634 	284.632 	539.793 	
5.86716 	-0.00255779 	-0.519685 	0.147241 	1.66199 	0.0196338 	-3.12691 	90.1614 	102.924 	-0.591113 	303.589 	360.634 	284.632 	539.793 	
5.96913 	-0.00255779 	-0.519685 	0.147241 	1.66199 	0.0196338 	-3.12691 	90.1614 	102.423 	-0.591113 	303.086 	360.634 	284.632 	539.793 	
6.07115 	-0.00255779 	-0.519685 	0.147241 	1.66199 	0.0196338 	-3.12691 	90.1614 	101.93 	-0.591113 	302.588 	360.634 	284.632 	539.793 	
6.17313 	-0.00255779 	-0.519685 	0.147241 	1.66199 	0.0196338 	-3.12691 	90.1614 	101.371 	-0.591113 	302.087 	360.634 	284.632 	539.793 	
6.2802 	-0.00255779 	-0.519685 	0.147241 	1.66199 	0.0196338 	-3.12691 	90.1614 	100.87 	-0.591113 	301.538 	360.634 	284.632 	539.793 	
6.38212 	-0.00255779 	-0.519685 	0.147241 	1.66199 	0.0196338 	-3.12691 	90.1614 	100.373 	-0.591113 	301.039 	360.634 	284.632 	539.793 	
6.48412 	-0.00255779 	-0.519685 	0.147241 	1.66199 	0.0196338 	-3.12691 	90.1614 	99.8156 	-0.591113 	300.487 	360.634 	284.632 	539.793 	
6.58616 	-0.00255779 	-0.519685 	0.147241 	1.66199 	0.0196338 	-3.12691 	90.1614 	99.3161 	-0.591113 	299.985 	360.634 	284.632 	539.793 	
6.68813 	-0.00255779 	-0.519685 	0.147241 	1.66199 	0.0196338 	-3.12691 	90.1614 	98.8125 	-0.591113 	299.487 	360.634 	284.632 	539.793 	
6.79013 	-0.00255779 	-0.519685 	0.147241 	1.66199 	0.0196338 	-3.12691 	90.1614 	98.3206 	-0.591113 	298.988 	360.634 	284.632 	539.793 	
6.89217 	-0.00255779 	-0.519685 	0.147241 	1.66199 	0.0196338 	-3.12691 	90.1614 	97.8143 	-0.591113 	298.49 	360.634 	284.632 	539.793 	
6.99421 	-0.00255779 	-0.519685 	0.147241 	1.66199 	0.0196338 	-3.12691 	90.1614 	97.2634 	-0.591113 	297.937 	360.634 	284.632 	539.793 	
7.09627 	-0.00255779 	-0.519685 	0.147241 	1.66199 	0.0196338 	-3.12691 	90.1614 	96.7618 	-0.591113 	297.433 	360.634 	284.632 	539.793 	
7.19819 	-0.00255779 	-0.519685 	0.147241 	1.66199 	0.0196338 	-3.12691 	90.1614 	96.2655 	-0.591113 	296.939 	360.634 	284.632 	539.793 	
7.30013 	-0.00255779 	-0.519685 	0.147241 	1.66199 	0.0196338 	-3.12691 	90.1614 	95.7638 	-0.591113 	296.442 	360.634 	284.632 	539.793 	
7.40217 	-0.00255779 	-0.519685 	0.147241 	1.66199 	0.0196338 	-3.12691 	90.1613 	95.2645 	-0.591113 	295.938 	360.634 	284.632 	539.793 	
7.50415 	-0.00255779 	-0.519685 	0.147241 	1.66199 	0.0196338 	-3.12691 	90.1614 	94.7138 	-0.591113 	295.392 	360.634 	284.632 	539.793 	
7.60617 	-0.00255779 	-0.519685 	0.147241 	1.66199 	0.0196338 	-3.12691 	90.1613 	94.2082 	-0.591113 	294.886 	360.634 	284.632 	539.793 	
7.70845 	-0.00255779 	-0.519685 	0.147241 	1.66199 	0.0196338 	-3.12691 	90.1614 	93.712 	-0.591113 	294.39 	360.634 	284.632 	539.793 	
7.81017 	-0.00255779 	-0.519685 	0.147241 	1.66199 	0.0196338 	-3.12691 	90.1613 	93.2077 	-0.591113 	293.892 	360.634 	284.632 	539.793 	
7.91222 	-0.00255779 	-0.519685 	0.147241 	1.66199 	0.0196338 	-3.12691 	90.1614 	92.7139 	-0.591113 	293.393 	360.634 	284.632 	539.793 	
8.0142 	-0.00255779 	-0.519685 	0.147241 	1.66199 	0.0196338 	-3.12691 	90.1614 	92.1603 	-0.591113 	292.836 	360.634 	284.632 	539.793 	
8.11817 	-0.00255779 	-0.519685 	0.147241 	1.66199 	0.0196338 	-3.12691 	90.1614 	91.664 	-0.591113 	292.34 	360.634 	284.632 	539.793 	
8.22119 	-0.00255779 	-0.519685 	0.147241 	1.66199 	0.0196338 	-3.12691 	90.1614 	91.161 	-0.591113 	291.838 	360.634 	284.632 	539.793 	
8.3252 	-0.00255779 	-0.519685 	0.147241 	1.66199 	0.0196338 	-3.12691 	90.1614 	90.612 	-0.591113 	291.291 	360.634 	284.632 	539.793 	
8.42919 	-0.00255779 	-0.519685 	0.147241 	1.66199 	0.0196338 	-3.12691 	90.1613 	90.1087 	-0.591113 	290.788 	360.634 	284.632 	539.793 	
8.53314 	-0.00255779 	-0.519685 	0.147241 	1.66199 	0.0196338 	-3.12691 	90.1613 	89.5601 	-0.591113 	290.289 	360.634 	284.632 	539.793 	
8.63515 	-0.00255779 	-0.519685 	0.147241 	1.66199 	0.0196338 	-3.12691 	90.1614 	89.0638 	-0.591113 	289.745 	360.634 	284.632 	539.793 	
8.73716 	-0.00255779 	-0.519685 	0.147241 	1.66199 	0.0196338 	-3.12691 	90.1614 	88.5585 	-0.591113 	289.24 	360.634 	284.632 	539.793 	
8.83915 	-0.00255779 	-0.519685 	0.147241 	1.66199 	0.0196338 	-3.12691 	90.1614 	88.0632 	-0.591113 	288.737 	360.634 	284.632 	539.793 	
8.94116 	-0.00255779 	-0.519685 	0.147241 	1.66199 	0.0196338 	-3.12691 	90.1613 	87.5569 	-0.591113 	288.239 	360.634 	284.632 	539.793 	
9.04319 	-0.00255779 	-0.519685 	0.147241 	1.66199 	0.0196338 	-3.12691 	90.1614 	87.008 	-0.591113 	287.746 	360.634 	284.632 	539.793 	
9.14522 	-0.00255779 	-0.519685 	0.147241 	1.66199 	0.0196338 	-3.12691 	90.1613 	86.5145 	-0.591113 	287.189 	360.634 	284.632 	539.793 	
9.24745 	-0.00255779 	-0.519685 	0.147241 	1.66199 	0.0196338 	-3.12691 	90.1614 	86.0099 	-0.591113 	286.691 	360.634 	284.632 	539.793 	
9.34915 	-0.00255779 	-0.519685 	0.147241 	1.66199 	0.0196338 	-3.12691 	90.1613 	85.5094 	-0.591113 	286.19 	360.634 	284.632 	539.793 	
9.45121 	-0.00255779 	-0.519685 	0.147241 	1.66199 	0.0196338 	-3.12691 	90.1614 	85.0119 	-0.591113 	285.691 	360.634 	284.632 	539.793 	
9.55319 	-0.00255779 	-0.519685 	0.147241 	1.66199 	0.0196338 	-3.12691 	90.1614 	84.4649 	-0.591113 	285.189 	360.634 	284.632 	539.793 	
9.65523 	-0.00255779 	-0.519685 	0.147241 	1.66199 	0.0196338 	-3.12691 	90.1614 	83.9622 	-0.591113 	284.638 	360.634 	284.632 	539.793 	
9.75726 	-0.00255779 	-0.519685 	0.147241 	1.66199 	0.0196338 	-3.12691 	90.1613 	83.463 	-0.591113 	284.142 	360.634 	284.632 	539.793 	
9.8592 	-0.00255779 	-0.519685 	0.147241 	1.66199 	0.0196338 	-3.12691 	90.1613 	82.9594 	-0.591113 	283.637 	360.634 	284.632 	539.793 	
9.9612 	-0.00255779 	-0.519685 	0.147241 	1.66199 	0.0196338 	-3.12691 	90.1614 	82.4622 	-0.591113 	283.144 	360.634 	284.632 	539.793 	
10.0633 	-0.00255779 	-0.519685 	0.147241 	1.66199 	0.0196338 	-3.12691 	90.1613 	81.9126 	-0.591113 	282.642 	360.634 	284.632 	539.793 	
10.1652 	-0.00255779 	-0.519685 	0.147241 	1.66199 	0.0196338 	-3.12691 	90.1613 	81.4162 	-0.591113 	282.091 	360.634 	284.632 	539.793 	
10.2673 	-0.00255779 	-0.519685 	0.147241 	1.66199 	0.0196338 	-3.12691 	90.1613 	80.9175 	-0.591113 	281.587 	360.634 	284.632 	539.793 	
10.3692 	-0.00255779 	-0.519685 	0.147241 	1.66199 	0.0196338 	-3.12691 	90.1614 	80.4143 	-0.591113 	281.092 	360.634 	284.632 	539.793 	
10.4712 	-0.00255779 	-0.519685 	0.147241 	1.66199 	0.0196338 	-3.12691 	90.1613 	79.9161 	-0.591113 	280.589 	360.634 	284.632 	539.793 	
10.5732 	-0.00255779 	-0.519685 	0.147241 	1.66199 	0.0196338 	-3.12691 	90.1614 	79.4169 	-0.591113 	280.092 	360.634 	284.632 	539.793 	
10.6802 	-0.00255779 	-0.519685 	0.147241 	1.66199 	0.0196338 	-3.12691 	90.1613 	78.8676 	-0.591113 	279.538 	360.634 	284.632 	539.793 	
10.7823 	-0.00255779 	-0.519685 	0.147241 	1.66199 	0.0196338 	-3.12691 	90.1614 	78.3667 	-0.591113 	279.041 	360.634 	284.632 	539.793 	
10.8843 	-0.00255779 	-0.519685 	0.147241 	1.66199 	0.0196338 	-3.12691 	90.1613 	77.8254 	-0.591113 	278.495 	360.634 	284.632 	539.793 	
10.9863 	-0.00255779 	-0.519685 	0.147241 	1.66199 	0.0196338 	-3.12691 	90.1613 	77.3177 	-0.591113 	277.992 	360.634 	284.632 	539.793 	
11.0882 	-0.00255779 	-0.519685 	0.147241 	1.66199 	0.0196338 	-3.12691 	90.1614 	76.8194 	-0.591113 	277.49 	360.634 	284.632 	539.793 	
11.1903 	-0.00255779 	-0.519685 	0.147241 	1.66199 	0.0196338 	-3.12691 	90.1613 	76.3172 	-0.591113 	276.988 	360.634 	284.632 	539.793 	
11.2923 	-0.00255779 	-0.519685 	0.147241 	1.66199 	0.0196338 	-3.12691 	90.1613 	75.8269 	-0.591113 	276.496 	360.634 	284.632 	539.793 	
11.3942 	-0.00255779 	-0.519685 	0.147241 	1.66199 	0.0196338 	-3.12691 	90.1614 	75.2723 	-0.591113 	275.943 	360.634 	284.632 	539.793 	
11.4962 	-0.00255779 	-0.519685 	0.147241 	1.66199 	0.0196338 	-3.12691 	90.1614 	74.7712 	-0.591113 	275.446 	360.634 	284.632 	539.793 	
11.5983 	-0.00255779 	-0.519685 	0.147241 	1.66199 	0.0196338 	-3.12691 	90.1614 	74.2736 	-0.591113 	274.942 	360.634 	284.632 	539.793 	
11.7003 	-0.00255779 	-0.519685 	0.147241 	1.66199 	0.0196338 	-3.12691 	90.1614 	73.7744 	-0.591113 	274.444 	360.634 	284.632 	539.793 	
11.8025 	-0.00255779 	-0.519685 	0.147241 	1.66199 	0.0196338 	-3.12691 	90.1613 	73.2828 	-0.591113 	273.946 	360.634 	284.632 	539.793 	
11.9043 	-0.00255779 	-0.519685 	0.147241 	1.66199 	0.0196338 	-3.12691 	90.1614 	72.7247 	-0.591113 	273.393 	360.634 	284.632 	539.793 	
12.0063 	-0.00255779 	-0.519685 	0.147241 	1.66199 	0.0196338 	-3.12691 	90.1614 	72.2363 	-0.591113 	272.892 	360.634 	284.632 	539.793 	
12.1083 	-0.00255779 	-0.519685 	0.147241 	1.66199 	0.0196338 	-3.12691 	90.1613 	71.7222 	-0.591113 	272.393 	360.634 	284.632 	539.793 	
12.2103 	-0.00255779 	-0.519685 	0.147241 	1.66199 	0.0196338 	-3.12691 	90.1614 	71.2317 	-0.591113 	271.899 	360.634 	284.632 	539.793 	
12.3124 	-0.00255779 	-0.519685 	0.147241 	1.66199 	0.0196338 	-3.12691 	90.1614 	70.7299 	-0.591113 	271.392 	360.634 	284.632 	539.793 	
12.4192 	-0.00255779 	-0.519685 	0.147241 	1.66199 	0.0196338 	-3.12691 	90.1614 	70.1854 	-0.591113 	270.842 	360.634 	284.632 	539.793 	
12.5235 	-0.00255779 	-0.519685 	0.147241 	1.66199 	0.0196338 	-3.12691 	90.1613 	69.6834 	-0.591113 	270.344 	360.634 	284.632 	539.793 	
12.6283 	-0.00255779 	-0.519685 	0.147241 	1.66199 	0.0196338 	-3.12691 	90.1614 	69.1337 	-0.591113 	269.797 	360.634 	284.632 	539.793 	
12.7312 	-0.00255779 	-0.519685 	0.147241 	1.66199 	0.0196338 	-3.12691 	90.1614 	68.6381 	-0.591113 	269.292 	360.634 	284.632 	539.793 	
12.8343 	-0.00255779 	-0.519685 	0.147241 	1.66199 	0.0196338 	-3.12691 	90.1614 	68.0937 	-0.591113 	268.933 	360.634 	284.632 	539.793 	
12.9362 	-0.00255779 	-0.519685 	0.147241 	1.66199 	0.0196338 	-3.12691 	90.1613 	67.5952 	-0.591113 	268.883 	360.634 	284.632 	539.793 	
13.0384 	-0.00255779 	-0.519685 	0.147241 	1.66199 	0.0196338 	-3.12691 	90.1614 	67.091 	-0.591113 	268.881 	360.634 	284.632 	539.793 	
13.1403 	-0.00255779 	-0.519685 	0.147241 	1.66199 	0.0196338 	-3.12691 	90.1614 	66.6008 	-0.591113 	268.88 	360.634 	284.632 	539.793 	
13.2422 	-0.00255779 	-0.519685 	0.147241 	1.66199 	0.0196338 	-3.12691 	90.1614 	66.0951 	-0.591113 	268.879 	360.634 	284.632 	539.793 	
13.3443 	-0.00255779 	-0.519685 	0.147241 	1.66199 	0.0196338 	-3.12691 	90.1614 	65.5566 	-0.591113 	268.878 	360.634 	284.632 	539.793 	
13.4463 	-0.00255779 	-0.519685 	0.147241 	1.66199 	0.0196338 	-3.12691 	90.1614 	65.0514 	-0.591113 	268.877 	360.634 	284.632 	539.793 	
13.5486 	-0.00255779 	-0.519685 	0.147241 	1.66199 	0.0196338 	-3.12691 	90.1614 	64.5637 	-0.591113 	268.876 	360.634 	284.632 	539.793 	
13.5632 	-0.00385644 	-0.504438 	-0.225073 	1.72874 	0.0102426 	-3.12546 	90.1614 	64.5124 	-0.591113 	268.876 	360.634 	284.632 	539.793 	
13.6654 	-0.00385644 	-0.504438 	-0.225073 	1.72874 	0.0102426 	-3.12546 	90.1614 	64.3455 	-0.591113 	268.967 	360.634 	284.632 	539.793 	
13.7673 	-0.00385644 	-0.504438 	-0.225073 	1.72874 	0.0102426 	-3.12546 	90.1613 	64.6357 	-0.591113 	269.349 	360.634 	284.632 	539.793 	
13.8695 	-0.00385644 	-0.504438 	-0.225073 	1.72874 	0.0102426 	-3.12546 	90.1613 	65.0687 	-0.591113 	269.818 	360.634 	284.632 	539.793 	
13.9713 	-0.00385644 	-0.504438 	-0.225073 	1.72874 	0.0102426 	-3.12546 	90.1614 	65.5633 	-0.591113 	270.32 	360.634 	284.632 	539.793 	
14.0733 	-0.00385644 	-0.504438 	-0.225073 	1.72874 	0.0102426 	-3.12546 	90.1614 	66.0721 	-0.591113 	270.818 	360.634 	284.632 	539.793 	
14.1803 	-0.00385644 	-0.504438 	-0.225073 	1.72874 	0.0102426 	-3.12546 	90.1614 	66.6048 	-0.591113 	271.368 	360.634 	284.632 	539.793 	
14.2823 	-0.00385644 	-0.504438 	-0.225073 	1.72874 	0.0102426 	-3.12546 	90.1613 	67.1229 	-0.591113 	271.868 	360.634 	284.632 	539.793 	
14.3843 	-0.00385644 	-0.504438 	-0.225073 	1.72874 	0.0102426 	-3.12546 	90.1614 	67.645 	-0.591113 	272.412 	360.634 	284.632 	539.793 	
14.4863 	-0.00385644 	-0.504438 	-0.225073 	1.72874 	0.0102426 	-3.12546 	90.1614 	68.1688 	-0.591113 	272.919 	360.634 	284.632 	539.793 	
14.5883 	-0.00385644 	-0.504438 	-0.225073 	1.72874 	0.0102426 	-3.12546 	90.1613 	68.6393 	-0.591113 	273.419 	360.634 	284.632 	539.793 	
14.6903 	-0.00385644 	-0.504438 	-0.225073 	1.72874 	0.0102426 	-3.12546 	90.1613 	69.1618 	-0.591113 	273.918 	360.634 	284.632 	539.793 	
14.7923 	-0.00385644 	-0.504438 	-0.225073 	1.72874 	0.0102426 	-3.12546 	90.1614 	69.6339 	-0.591113 	274.413 	360.634 	284.632 	539.793 	
14.8944 	-0.00385644 	-0.504438 	-0.225073 	1.72874 	0.0102426 	-3.12546 	90.1614 	70.2004 	-0.591113 	274.972 	360.634 	284.632 	539.793 	
14.9963 	-0.00385644 	-0.504438 	-0.225073 	1.72874 	0.0102426 	-3.12546 	90.1614 	70.6888 	-0.591113 	275.467 	360.634 	284.632 	539.793 	
15.0983 	-0.00385644 	-0.504438 	-0.225073 	1.72874 	0.0102426 	-3.12546 	90.1613 	71.1883 	-0.591113 	275.967 	360.634 	284.632 	539.793 	
15.2003 	-0.00385644 	-0.504438 	-0.225073 	1.72874 	0.0102426 	-3.12546 	90.1614 	71.6946 	-0.591113 	276.468 	360.634 	284.632 	539.793 	
15.3024 	-0.00385644 	-0.504438 	-0.225073 	1.72874 	0.0102426 	-3.12546 	90.1614 	72.1747 	-0.591113 	276.963 	360.634 	284.632 	539.793 	
15.4043 	-0.00385644 	-0.504438 	-0.225073 	1.72874 	0.0102426 	-3.12546 	90.1614 	72.7448 	-0.591113 	277.519 	360.634 	284.632 	539.793 	
15.5064 	-0.00385644 	-0.504438 	-0.225073 	1.72874 	0.0102426 	-3.12546 	90.1613 	73.2204 	-0.591113 	278.016 	360.634 	284.632 	539.793 	
15.6083 	-0.00385644 	-0.504438 	-0.225073 	1.72874 	0.0102426 	-3.12546 	90.1614 	73.7482 	-0.591113 	278.516 	360.634 	284.632 	539.793 	
15.7103 	-0.00385644 	-0.504438 	-0.225073 	1.72874 	0.0102426 	-3.12546 	90.1614 	74.2133 	-0.591113 	279.01 	360.634 	284.632 	539.793 	
15.8125 	-0.00385644 	-0.504438 	-0.225073 	1.72874 	0.0102426 	-3.12546 	90.1614 	74.7373 	-0.591113 	279.519 	360.634 	284.632 	539.793 	
15.9163 	-0.00385644 	-0.504438 	-0.225073 	1.72874 	0.0102426 	-3.12546 	90.1613 	75.2665 	-0.591113 	280.067 	360.634 	284.632 	539.793 	
16.0205 	-0.00385644 	-0.504438 	-0.225073 	1.72874 	0.0102426 	-3.12546 	90.1614 	75.7832 	-0.591113 	280.568 	360.634 	284.632 	539.793 	
16.1224 	-0.00385644 	-0.504438 	-0.225073 	1.72874 	0.0102426 	-3.12546 	90.1614 	76.2738 	-0.591113 	281.063 	360.634 	284.632 	539.793 	
16.2283 	-0.00385644 	-0.504438 	-0.225073 	1.72874 	0.0102426 	-3.12546 	90.1614 	76.8178 	-0.591113 	281.616 	360.634 	284.632 	539.793 	
16.3353 	-0.00385644 	-0.504438 	-0.225073 	1.72874 	0.0102426 	-3.12546 	90.1614 	77.3695 	-0.591113 	282.165 	360.634 	284.632 	539.793 	
16.4373 	-0.00385644 	-0.504438 	-0.225073 	1.72874 	0.0102426 	-3.12546 	90.1613 	77.8654 	-0.591113 	282.664 	360.634 	284.632 	539.793 	
16.5393 	-0.00385644 	-0.504438 	-0.225073 	1.72874 	0.0102426 	-3.12546 	90.1614 	78.3786 	-0.591113 	283.167 	360.634 	284.632 	539.793 	
16.6414 	-0.00385644 	-0.504438 	-0.225073 	1.72874 	0.0102426 	-3.12546 	90.1614 	78.852 	-0.591113 	283.663 	360.634 	284.632 	539.793 	
16.7433 	-0.00385644 	-0.504438 	-0.225073 	1.72874 	0.0102426 	-3.12546 	90.1614 	79.3792 	-0.591113 	284.169 	360.634 	284.632 	539.793 	
16.8454 	-0.00385644 	-0.504438 	-0.225073 	1.72874 	0.0102426 	-3.12546 	90.1613 	79.9025 	-0.591113 	284.713 	360.634 	284.632 	539.793 	
16.9474 	-0.00385644 	-0.504438 	-0.225073 	1.72874 	0.0102426 	-3.12546 	90.1614 	80.4326 	-0.591113 	285.213 	360.634 	284.632 	539.793 	
17.0494 	-0.00385644 	-0.504438 	-0.225073 	1.72874 	0.0102426 	-3.12546 	90.1614 	80.9011 	-0.591113 	285.71 	360.634 	284.632 	539.793 	
17.1523 	-0.00385644 	-0.504438 	-0.225073 	1.72874 	0.0102426 	-3.12546 	90.1614 	81.4173 	-0.591113 	286.215 	360.634 	284.632 	539.793 	
17.2533 	-0.00385644 	-0.504438 	-0.225073 	1.72874 	0.0102426 	-3.12546 	90.1614 	81.9089 	-0.591113 	286.716 	360.634 	284.632 	539.793 	
17.3554 	-0.00385644 	-0.504438 	-0.225073 	1.72874 	0.0102426 	-3.12546 	90.1614 	82.4654 	-0.591113 	287.265 	360.634 	284.632 	539.793 	
17.4574 	-0.00385644 	-0.504438 	-0.225073 	1.72874 	0.0102426 	-3.12546 	90.1614 	82.9589 	-0.591113 	287.764 	360.634 	284.632 	539.793 	
17.5593 	-0.00385644 	-0.504438 	-0.225073 	1.72874 	0.0102426 	-3.12546 	90.1614 	83.4485 	-0.591113 	288.263 	360.634 	284.632 	539.793 	
17.6614 	-0.00385644 	-0.504438 	-0.225073 	1.72874 	0.0102426 	-3.12546 	90.1614 	83.9677 	-0.591113 	288.762 	360.634 	284.632 	539.793 	
17.7633 	-0.00385644 	-0.504438 	-0.225073 	1.72874 	0.0102426 	-3.12546 	90.1614 	84.4495 	-0.591113 	289.263 	360.634 	284.632 	539.793 	
17.8655 	-0.00385644 	-0.504438 	-0.225073 	1.72874 	0.0102426 	-3.12546 	90.1614 	85.0184 	-0.591113 	289.812 	360.634 	284.632 	539.793 	
17.9673 	-0.00385644 	-0.504438 	-0.225073 	1.72874 	0.0102426 	-3.12546 	90.1614 	85.4909 	-0.591113 	290.312 	360.634 	284.632 	539.793 	
18.0694 	-0.00385644 	-0.504438 	-0.225073 	1.72874 	0.0102426 	-3.12546 	90.1614 	86.0178 	-0.591113 	290.812 	360.634 	284.632 	539.793 	
18.1714 	-0.00385644 	-0.504438 	-0.225073 	1.72874 	0.0102426 	-3.12546 	90.1614 	86.4968 	-0.591113 	291.31 	360.634 	284.632 	539.793 	
18.2734 	-0.00385644 	-0.504438 	-0.225073 	1.72874 	0.0102426 	-3.12546 	90.1614 	87.016 	-0.591113 	291.814 	360.634 	284.632 	539.793 	
18.3803 	-0.00385644 	-0.504438 	-0.225073 	1.72874 	0.0102426 	-3.12546 	90.1614 	87.5481 	-0.591113 	292.36 	360.634 	284.632 	539.793 	
18.4824 	-0.00385644 	-0.504438 	-0.225073 	1.72874 	0.0102426 	-3.12546 	90.1614 	88.0568 	-0.591113 	292.863 	360.634 	284.632 	539.793 	
18.5844 	-0.00385644 	-0.504438 	-0.225073 	1.72874 	0.0102426 	-3.12546 	90.1614 	88.6024 	-0.591113 	293.416 	360.634 	284.632 	539.793 	
18.6864 	-0.00385644 	-0.504438 	-0.225073 	1.72874 	0.0102426 	-3.12546 	90.1614 	89.1021 	-0.591113 	293.916 	360.634 	284.632 	539.793 	
18.7884 	-0.00385644 	-0.504438 	-0.225073 	1.72874 	0.0102426 	-3.12546 	90.1614 	89.6123 	-0.591113 	294.41 	360.634 	284.632 	539.793 	
18.8904 	-0.00385644 	-0.504438 	-0.225073 	1.72874 	0.0102426 	-3.12546 	90.1614 	90.0948 	-0.591113 	294.913 	360.634 	284.632 	539.793 	
18.9925 	-0.00385644 	-0.504438 	-0.225073 	1.72874 	0.0102426 	-3.12546 	90.1614 	90.6138 	-0.591113 	295.416 	360.634 	284.632 	539.793 	
19.0944 	-0.00385644 	-0.504438 	-0.225073 	1.72874 	0.0102426 	-3.12546 	90.1614 	91.1442 	-0.591113 	295.964 	360.634 	284.632 	539.793 	
19.1964 	-0.00385644 	-0.504438 	-0.225073 	1.72874 	0.0102426 	-3.12546 	90.1614 	91.6664 	-0.591113 	296.465 	360.634 	284.632 	539.793 	
19.2984 	-0.00385644 	-0.504438 	-0.225073 	1.72874 	0.0102426 	-3.12546 	90.1614 	92.1405 	-0.591113 	296.959 	360.634 	284.632 	539.793 	
19.4005 	-0.00385644 	-0.504438 	-0.225073 	1.72874 	0.0102426 	-3.12546 	90.1614 	92.6614 	-0.591113 	297.466 	360.634 	284.632 	539.793 	
19.5025 	-0.00385644 	-0.504438 	-0.225073 	1.72874 	0.0102426 	-3.12546 	90.1614 	93.1486 	-0.591113 	297.96 	360.634 	284.632 	539.793 	
19.6044 	-0.00385644 	-0.504438 	-0.225073 	1.72874 	0.0102426 	-3.12546 	90.1614 	93.714 	-0.591113 	298.513 	360.634 	284.632 	539.793 	
19.7064 	-0.00385644 	-0.504438 	-0.225073 	1.72874 	0.0102426 	-3.12546 	90.1614 	94.2044 	-0.591113 	299.012 	360.634 	284.632 	539.793 	
19.8084 	-0.00385644 	-0.504438 	-0.225073 	1.72874 	0.0102426 	-3.12546 	90.1614 	94.7003 	-0.591113 	299.512 	360.634 	284.632 	539.793 	
19.9105 	-0.00385644 	-0.504438 	-0.225073 	1.72874 	0.0102426 	-3.12546 	90.1614 	95.2111 	-0.591113 	300.014 	360.634 	284.632 	539.793 	
20.0125 	-0.00385644 	-0.504438 	-0.225073 	1.72874 	0.0102426 	-3.12546 	90.1614 	95.7014 	-0.591113 	300.507 	360.634 	284.632 	539.793 	
20.1205 	-0.00385644 	-0.504438 	-0.225073 	1.72874 	0.0102426 	-3.12546 	90.1614 	96.2692 	-0.591113 	301.06 	360.634 	284.632 	539.793 	
20.2224 	-0.00385644 	-0.504438 	-0.225073 	1.72874 	0.0102426 	-3.12546 	90.1614 	96.7464 	-0.591113 	301.558 	360.634 	284.632 	539.793 	
20.3254 	-0.00385644 	-0.504438 	-0.225073 	1.72874 	0.0102426 	-3.12546 	90.1614 	97.3184 	-0.591113 	302.114 	360.634 	284.632 	539.793 	
20.4284 	-0.00385644 	-0.504438 	-0.225073 	1.72874 	0.0102426 	-3.12546 	90.1614 	97.8006 	-0.591113 	302.605 	360.634 	284.632 	539.793 	
20.5355 	-0.00385644 	-0.504438 	-0.225073 	1.72874 	0.0102426 	-3.12546 	90.1614 	98.3736 	-0.591113 	303.161 	360.634 	284.632 	539.793 	
20.6374 	-0.00385644 	-0.504438 	-0.225073 	1.72874 	0.0102426 	-3.12546 	90.1614 	98.8522 	-0.591113 	303.656 	360.634 	284.632 	539.793 	
20.7394 	-0.00385644 	-0.504438 	-0.225073 	1.72874 	0.0102426 	-3.12546 	90.1613 	99.3632 	-0.591113 	304.162 	360.634 	284.632 	539.793 	
20.8414 	-0.00385644 	-0.504438 	-0.225073 	1.72874 	0.0102426 	-3.12546 	90.1613 	99.8595 	-0.591113 	304.661 	360.634 	284.632 	539.793 	
20.9436 	-0.00385644 	-0.504438 	-0.225073 	1.72874 	0.0102426 	-3.12546 	90.1614 	100.367 	-0.591113 	305.161 	360.634 	284.632 	539.793 	
21.0455 	-0.00385644 	-0.504438 	-0.225073 	1.72874 	0.0102426 	-3.12546 	90.1614 	100.912 	-0.591113 	305.706 	360.634 	284.632 	539.793 	
21.1475 	-0.00385644 	-0.504438 	-0.225073 	1.72874 	0.0102426 	-3.12546 	90.1614 	101.41 	-0.591113 	306.211 	360.634 	284.632 	539.793 	
21.2495 	-0.00385644 	-0.504438 	-0.225073 	1.72874 	0.0102426 	-3.12546 	90.1614 	101.92 	-0.591113 	306.709 	360.634 	284.632 	539.793 	
21.3514 	-0.00385644 	-0.504438 	-0.225073 	1.72874 	0.0102426 	-3.12546 	90.1613 	102.412 	-0.591113 	307.21 	360.634 	284.632 	539.793 	
21.4535 	-0.00385644 	-0.504438 	-0.225073 	1.72874 	0.0102426 	-3.12546 	90.1613 	102.933 	-0.591113 	307.715 	360.634 	284.632 	539.793 	
21.5554 	-0.00385644 	-0.504438 	-0.225073 	1.72874 	0.0102426 	-3.12546 	90.1613 	103.46 	-0.591113 	308.258 	360.634 	284.632 	539.793 	
21.6575 	-0.00385644 	-0.504438 	-0.225073 	1.72874 	0.0102426 	-3.12546 	90.1614 	103.976 	-0.591113 	308.761 	360.634 	284.632 	539.793 	
21.7594 	-0.00385644 	-0.504438 	-0.225073 	1.72874 	0.0102426 	-3.12546 	90.1614 	104.467 	-0.591113 	309.256 	360.634 	284.632 	539.793 	
21.8614 	-0.00385644 	-0.504438 	-0.225073 	1.72874 	0.0102426 	-3.12546 	90.1614 	104.981 	-0.591113 	309.759 	360.634 	284.632 	539.793 	
21.9634 	-0.00385644 	-0.504438 	-0.225073 	1.72874 	0.0102426 	-3.12546 	90.1613 	105.47 	-0.591113 	310.259 	360.634 	284.632 	539.793 	
22.0655 	-0.00385644 	-0.504438 	-0.225073 	1.72874 	0.0102426 	-3.12546 	90.1613 	106.029 	-0.591113 	310.809 	360.634 	284.632 	539.793 	
22.1678 	-0.00385644 	-0.504438 	-0.225073 	1.72874 	0.0102426 	-3.12546 	90.1613 	106.527 	-0.591113 	311.31 	360.634 	284.632 	539.793 	
22.2695 	-0.00385644 	-0.504438 	-0.225073 	1.72874 	0.0102426 	-3.12546 	90.1614 	107.035 	-0.591113 	311.809 	360.634 	284.632 	539.793 	
22.3715 	-0.00385644 	-0.504438 	-0.225073 	1.72874 	0.0102426 	-3.12546 	90.1614 	107.54 	-0.591113 	312.31 	360.634 	284.632 	539.793 	
22.4735 	-0.00385644 	-0.504438 	-0.225073 	1.72874 	0.0102426 	-3.12546 	90.1614 	108.03 	-0.591113 	312.806 	360.634 	284.632 	539.793 	
22.5805 	-0.00385644 	-0.504438 	-0.225073 	1.72874 	0.0102426 	-3.12546 	90.1614 	108.59 	-0.591113 	313.362 	360.634 	284.632 	539.793 	
22.6825 	-0.00385644 	-0.504438 	-0.225073 	1.72874 	0.0102426 	-3.12546 	90.1613 	109.084 	-0.591113 	313.856 	360.634 	284.632 	539.793 	
22.7845 	-0.00385644 	-0.504438 	-0.225073 	1.72874 	0.0102426 	-3.12546 	90.1613 	109.649 	-0.591113 	314.409 	360.634 	284.632 	539.793 	
22.8865 	-0.00385644 	-0.504438 	-0.225073 	1.72874 	0.0102426 	-3.12546 	90.1613 	110.137 	-0.591113 	314.908 	360.634 	284.632 	539.793 	
22.9885 	-0.00385644 	-0.504438 	-0.225073 	1.72874 	0.0102426 	-3.12546 	90.1614 	110.649 	-0.591113 	315.407 	360.634 	284.632 	539.793 	
23.0905 	-0.00385644 	-0.504438 	-0.225073 	1.72874 	0.0102426 	-3.12546 	90.1614 	111.142 	-0.591113 	315.907 	360.634 	284.632 	539.793 	
23.1925 	-0.00385644 	-0.504438 	-0.225073 	1.72874 	0.0102426 	-3.12546 	90.1614 	111.656 	-0.591113 	316.409 	360.634 	284.632 	539.793 	
23.2945 	-0.00385644 	-0.504438 	-0.225073 	1.72874 	0.0102426 	-3.12546 	90.1614 	112.198 	-0.591113 	316.958 	360.634 	284.632 	539.793 	
23.3965 	-0.00385644 	-0.504438 	-0.225073 	1.72874 	0.0102426 	-3.12546 	90.1614 	112.699 	-0.591113 	317.278 	360.634 	284.632 	539.793 	
23.4985 	-0.00385644 	-0.504438 	-0.225073 	1.72874 	0.0102426 	-3.12546 	90.1614 	113.203 	-0.591113 	317.319 	360.634 	284.632 	539.793 	
23.6005 	-0.00385644 	-0.504438 	-0.225073 	1.72874 	0.0102426 	-3.12546 	90.1614 	113.703 	-0.591113 	317.322 	360.634 	284.632 	539.793 	
23.7025 	-0.00385644 	-0.504438 	-0.225073 	1.72874 	0.0102426 	-3.12546 	90.1614 	114.211 	-0.591113 	317.323 	360.634 	284.632 	539.793 	
23.8045 	-0.00385644 	-0.504438 	-0.225073 	1.72874 	0.0102426 	-3.12546 	90.1614 	114.747 	-0.591113 	317.324 	360.634 	284.632 	539.793 	
23.9065 	-0.00385644 	-0.504438 	-0.225073 	1.72874 	0.0102426 	-3.12546 	90.1614 	115.256 	-0.591113 	317.325 	360.634 	284.632 	539.793 	
