RISC-NYUAD/HeavyPayloadDrone/projects/kinova-ros/devel/lib/ne_kinova_demo/VulcanTrajectory/Vulcan1_Vicon_y19m11d13h18min22.csv
time (NSec) 	Kinova Tip Position (t_x) 	t_y 	t_z 	Kinova Tip Angle (theta_x) 	Kinova Tip Angle (theta_y) 	Kinova Tip Angle (theta_z) 	Kinova Joint Angle (j1) 	(j2) 	(j3) 	(j4) 	Kinova Joint Angle (j5) 	(j6) 	(j7)
6.25536 	-0.00255891 	-0.519527 	0.146857 	1.66267 	0.0196305 	-3.1269 	90.1614 	116.591 	-0.591113 	317.365 	360.634 	284.632 	539.793 	
6.35732 	-0.00255891 	-0.519527 	0.146857 	1.66267 	0.0196305 	-3.1269 	90.1614 	116.54 	-0.591113 	317.265 	360.634 	284.632 	539.793 	
6.45936 	-0.00255891 	-0.519527 	0.146857 	1.66267 	0.0196305 	-3.1269 	90.1614 	116.136 	-0.591113 	316.83 	360.634 	284.632 	539.793 	
6.56134 	-0.00255891 	-0.519527 	0.146857 	1.66267 	0.0196305 	-3.1269 	90.1614 	115.655 	-0.591113 	316.346 	360.634 	284.632 	539.793 	
6.66337 	-0.00255891 	-0.519527 	0.146857 	1.66267 	0.0196305 	-3.1269 	90.1614 	115.162 	-0.591113 	315.846 	360.634 	284.632 	539.793 	
6.76537 	-0.00255891 	-0.519527 	0.146857 	1.66267 	0.0196305 	-3.1269 	90.1614 	114.652 	-0.591113 	315.342 	360.634 	284.632 	539.793 	
6.86734 	-0.00255891 	-0.519527 	0.146857 	1.66267 	0.0196305 	-3.1269 	90.1614 	114.158 	-0.591113 	314.842 	360.634 	284.632 	539.793 	
6.96934 	-0.00255891 	-0.519527 	0.146857 	1.66267 	0.0196305 	-3.1269 	90.1614 	113.598 	-0.591113 	314.296 	360.634 	284.632 	539.793 	
7.07137 	-0.00255891 	-0.519527 	0.146857 	1.66267 	0.0196305 	-3.1269 	90.1614 	113.102 	-0.591113 	313.793 	360.634 	284.632 	539.793 	
7.17338 	-0.00255891 	-0.519527 	0.146857 	1.66267 	0.0196305 	-3.1269 	90.1614 	112.594 	-0.591113 	313.297 	360.634 	284.632 	539.793 	
7.27556 	-0.00255891 	-0.519527 	0.146857 	1.66267 	0.0196305 	-3.1269 	90.1614 	112.104 	-0.591113 	312.79 	360.634 	284.632 	539.793 	
7.37743 	-0.00255891 	-0.519527 	0.146857 	1.66267 	0.0196305 	-3.1269 	90.1614 	111.595 	-0.591113 	312.3 	360.634 	284.632 	539.793 	
7.47944 	-0.00255891 	-0.519527 	0.146857 	1.66267 	0.0196305 	-3.1269 	90.1614 	111.044 	-0.591113 	311.747 	360.634 	284.632 	539.793 	
7.58143 	-0.00255891 	-0.519527 	0.146857 	1.66267 	0.0196305 	-3.1269 	90.1614 	110.538 	-0.591113 	311.244 	360.634 	284.632 	539.793 	
7.68839 	-0.00255891 	-0.519527 	0.146857 	1.66267 	0.0196305 	-3.1269 	90.1614 	109.989 	-0.591113 	310.741 	360.634 	284.632 	539.793 	
7.79038 	-0.00255891 	-0.519527 	0.146857 	1.66267 	0.0196305 	-3.1269 	90.1614 	109.487 	-0.591113 	310.195 	360.634 	284.632 	539.793 	
7.89236 	-0.00255891 	-0.519527 	0.146857 	1.66267 	0.0196305 	-3.1269 	90.1614 	108.987 	-0.591113 	309.697 	360.634 	284.632 	539.793 	
7.99447 	-0.00255891 	-0.519527 	0.146857 	1.66267 	0.0196305 	-3.1269 	90.1614 	108.491 	-0.591113 	309.199 	360.634 	284.632 	539.793 	
8.09645 	-0.00255891 	-0.519527 	0.146857 	1.66267 	0.0196305 	-3.1269 	90.1614 	107.979 	-0.591113 	308.694 	360.634 	284.632 	539.793 	
8.1984 	-0.00255891 	-0.519527 	0.146857 	1.66267 	0.0196305 	-3.1269 	90.1614 	107.438 	-0.591113 	308.193 	360.634 	284.632 	539.793 	
8.30042 	-0.00255891 	-0.519527 	0.146857 	1.66267 	0.0196305 	-3.1269 	90.1614 	106.93 	-0.591113 	307.647 	360.634 	284.632 	539.793 	
8.40244 	-0.00255891 	-0.519527 	0.146857 	1.66267 	0.0196305 	-3.1269 	90.1614 	106.433 	-0.591113 	307.143 	360.634 	284.632 	539.793 	
8.50457 	-0.00255891 	-0.519527 	0.146857 	1.66267 	0.0196305 	-3.1269 	90.1614 	105.928 	-0.591113 	306.649 	360.634 	284.632 	539.793 	
8.6064 	-0.00255891 	-0.519527 	0.146857 	1.66267 	0.0196305 	-3.1269 	90.1614 	105.427 	-0.591113 	306.143 	360.634 	284.632 	539.793 	
8.7085 	-0.00255891 	-0.519527 	0.146857 	1.66267 	0.0196305 	-3.1269 	90.1614 	104.876 	-0.591113 	305.651 	360.634 	284.632 	539.793 	
8.81055 	-0.00255891 	-0.519527 	0.146857 	1.66267 	0.0196305 	-3.1269 	90.1614 	104.378 	-0.591113 	305.094 	360.634 	284.632 	539.793 	
8.91245 	-0.00255891 	-0.519527 	0.146857 	1.66267 	0.0196305 	-3.1269 	90.1614 	103.881 	-0.591113 	304.598 	360.634 	284.632 	539.793 	
9.01447 	-0.00255891 	-0.519527 	0.146857 	1.66267 	0.0196305 	-3.1269 	90.1614 	103.37 	-0.591113 	304.096 	360.634 	284.632 	539.793 	
9.11644 	-0.00255891 	-0.519527 	0.146857 	1.66267 	0.0196305 	-3.1269 	90.1614 	102.876 	-0.591113 	303.596 	360.634 	284.632 	539.793 	
9.21848 	-0.00255891 	-0.519527 	0.146857 	1.66267 	0.0196305 	-3.1269 	90.1614 	102.321 	-0.591113 	303.094 	360.634 	284.632 	539.793 	
9.3205 	-0.00255891 	-0.519527 	0.146857 	1.66267 	0.0196305 	-3.1269 	90.1614 	101.825 	-0.591113 	302.546 	360.634 	284.632 	539.793 	
9.42241 	-0.00255891 	-0.519527 	0.146857 	1.66267 	0.0196305 	-3.1269 	90.1614 	101.319 	-0.591113 	302.05 	360.634 	284.632 	539.793 	
9.52843 	-0.00255891 	-0.519527 	0.146857 	1.66267 	0.0196305 	-3.1269 	90.1614 	100.773 	-0.591113 	301.545 	360.634 	284.632 	539.793 	
9.63149 	-0.00255891 	-0.519527 	0.146857 	1.66267 	0.0196305 	-3.1269 	90.1614 	100.271 	-0.591113 	301.003 	360.634 	284.632 	539.793 	
9.73544 	-0.00255891 	-0.519527 	0.146857 	1.66267 	0.0196305 	-3.1269 	90.1614 	99.7662 	-0.591113 	300.497 	360.634 	284.632 	539.793 	
9.83947 	-0.00255891 	-0.519527 	0.146857 	1.66267 	0.0196305 	-3.1269 	90.1614 	99.2164 	-0.591113 	299.946 	360.634 	284.632 	539.793 	
9.94346 	-0.00255891 	-0.519527 	0.146857 	1.66267 	0.0196305 	-3.1269 	90.1614 	98.7118 	-0.591113 	299.445 	360.634 	284.632 	539.793 	
10.0455 	-0.00255891 	-0.519527 	0.146857 	1.66267 	0.0196305 	-3.1269 	90.1614 	98.2137 	-0.591113 	298.951 	360.634 	284.632 	539.793 	
10.1474 	-0.00255891 	-0.519527 	0.146857 	1.66267 	0.0196305 	-3.1269 	90.1614 	97.7147 	-0.591113 	298.448 	360.634 	284.632 	539.793 	
10.2495 	-0.00255891 	-0.519527 	0.146857 	1.66267 	0.0196305 	-3.1269 	90.1614 	97.1644 	-0.591113 	297.897 	360.634 	284.632 	539.793 	
10.3515 	-0.00255891 	-0.519527 	0.146857 	1.66267 	0.0196305 	-3.1269 	90.1614 	96.664 	-0.591113 	297.399 	360.634 	284.632 	539.793 	
10.4535 	-0.00255891 	-0.519527 	0.146857 	1.66267 	0.0196305 	-3.1269 	90.1614 	96.1635 	-0.591113 	296.896 	360.634 	284.632 	539.793 	
10.5555 	-0.00255891 	-0.519527 	0.146857 	1.66267 	0.0196305 	-3.1269 	90.1614 	95.6669 	-0.591113 	296.401 	360.634 	284.632 	539.793 	
10.6576 	-0.00255891 	-0.519527 	0.146857 	1.66267 	0.0196305 	-3.1269 	90.1614 	95.1645 	-0.591113 	295.895 	360.634 	284.632 	539.793 	
10.7595 	-0.00255891 	-0.519527 	0.146857 	1.66267 	0.0196305 	-3.1269 	90.1614 	94.6088 	-0.591113 	295.345 	360.634 	284.632 	539.793 	
10.8616 	-0.00255891 	-0.519527 	0.146857 	1.66267 	0.0196305 	-3.1269 	90.1614 	94.1111 	-0.591113 	294.848 	360.634 	284.632 	539.793 	
10.9635 	-0.00255891 	-0.519527 	0.146857 	1.66267 	0.0196305 	-3.1269 	90.1614 	93.6155 	-0.591113 	294.349 	360.634 	284.632 	539.793 	
11.0656 	-0.00255891 	-0.519527 	0.146857 	1.66267 	0.0196305 	-3.1269 	90.1614 	93.1063 	-0.591113 	293.846 	360.634 	284.632 	539.793 	
11.168 	-0.00255891 	-0.519527 	0.146857 	1.66267 	0.0196305 	-3.1269 	90.1614 	92.6097 	-0.591113 	293.35 	360.634 	284.632 	539.793 	
11.2695 	-0.00255891 	-0.519527 	0.146857 	1.66267 	0.0196305 	-3.1269 	90.1614 	92.0568 	-0.591113 	292.793 	360.634 	284.632 	539.793 	
11.3715 	-0.00255891 	-0.519527 	0.146857 	1.66267 	0.0196305 	-3.1269 	90.1614 	91.5637 	-0.591113 	292.302 	360.634 	284.632 	539.793 	
11.4736 	-0.00255891 	-0.519527 	0.146857 	1.66267 	0.0196305 	-3.1269 	90.1614 	91.0585 	-0.591113 	291.797 	360.634 	284.632 	539.793 	
11.5755 	-0.00255891 	-0.519527 	0.146857 	1.66267 	0.0196305 	-3.1269 	90.1614 	90.5611 	-0.591113 	291.297 	360.634 	284.632 	539.793 	
11.6777 	-0.00255891 	-0.519527 	0.146857 	1.66267 	0.0196305 	-3.1269 	90.1614 	90.0588 	-0.591113 	290.796 	360.634 	284.632 	539.793 	
11.7796 	-0.00255891 	-0.519527 	0.146857 	1.66267 	0.0196305 	-3.1269 	90.1614 	89.5081 	-0.591113 	290.246 	360.634 	284.632 	539.793 	
11.8816 	-0.00255891 	-0.519527 	0.146857 	1.66267 	0.0196305 	-3.1269 	90.1614 	89.0106 	-0.591113 	289.751 	360.634 	284.632 	539.793 	
11.9886 	-0.00255891 	-0.519527 	0.146857 	1.66267 	0.0196305 	-3.1269 	90.1614 	88.4574 	-0.591113 	289.25 	360.634 	284.632 	539.793 	
12.0906 	-0.00255891 	-0.519527 	0.146857 	1.66267 	0.0196305 	-3.1269 	90.1614 	87.9601 	-0.591113 	288.699 	360.634 	284.632 	539.793 	
12.1926 	-0.00255891 	-0.519527 	0.146857 	1.66267 	0.0196305 	-3.1269 	90.1614 	87.4527 	-0.591113 	288.197 	360.634 	284.632 	539.793 	
12.2945 	-0.00255891 	-0.519527 	0.146857 	1.66267 	0.0196305 	-3.1269 	90.1614 	86.9607 	-0.591113 	287.703 	360.634 	284.632 	539.793 	
12.3966 	-0.00255891 	-0.519527 	0.146857 	1.66267 	0.0196305 	-3.1269 	90.1614 	86.4588 	-0.591113 	287.2 	360.634 	284.632 	539.793 	
12.4985 	-0.00255891 	-0.519527 	0.146857 	1.66267 	0.0196305 	-3.1269 	90.1614 	85.9112 	-0.591113 	286.703 	360.634 	284.632 	539.793 	
12.6006 	-0.00255891 	-0.519527 	0.146857 	1.66267 	0.0196305 	-3.1269 	90.1613 	85.41 	-0.591113 	286.146 	360.634 	284.632 	539.793 	
12.7026 	-0.00255891 	-0.519527 	0.146857 	1.66267 	0.0196305 	-3.1269 	90.1614 	84.9143 	-0.591113 	285.649 	360.634 	284.632 	539.793 	
12.8046 	-0.00255891 	-0.519527 	0.146857 	1.66267 	0.0196305 	-3.1269 	90.1614 	84.411 	-0.591113 	285.152 	360.634 	284.632 	539.793 	
12.9066 	-0.00255891 	-0.519527 	0.146857 	1.66267 	0.0196305 	-3.1269 	90.1614 	83.9112 	-0.591113 	284.651 	360.634 	284.632 	539.793 	
13.0086 	-0.00255891 	-0.519527 	0.146857 	1.66267 	0.0196305 	-3.1269 	90.1614 	83.3634 	-0.591113 	284.15 	360.634 	284.632 	539.793 	
13.1106 	-0.00255891 	-0.519527 	0.146857 	1.66267 	0.0196305 	-3.1269 	90.1614 	82.8591 	-0.591113 	283.602 	360.634 	284.632 	539.793 	
13.2126 	-0.00255891 	-0.519527 	0.146857 	1.66267 	0.0196305 	-3.1269 	90.1614 	82.3668 	-0.591113 	283.105 	360.634 	284.632 	539.793 	
13.3146 	-0.00255891 	-0.519527 	0.146857 	1.66267 	0.0196305 	-3.1269 	90.1614 	81.861 	-0.591113 	282.599 	360.634 	284.632 	539.793 	
13.4166 	-0.00255891 	-0.519527 	0.146857 	1.66267 	0.0196305 	-3.1269 	90.1614 	81.3625 	-0.591113 	282.099 	360.634 	284.632 	539.793 	
13.5186 	-0.00255891 	-0.519527 	0.146857 	1.66267 	0.0196305 	-3.1269 	90.1614 	80.8119 	-0.591113 	281.6 	360.634 	284.632 	539.793 	
13.6206 	-0.00255891 	-0.519527 	0.146857 	1.66267 	0.0196305 	-3.1269 	90.1614 	80.3176 	-0.591113 	281.052 	360.634 	284.632 	539.793 	
13.7286 	-0.00255891 	-0.519527 	0.146857 	1.66267 	0.0196305 	-3.1269 	90.1614 	79.763 	-0.591113 	280.548 	360.634 	284.632 	539.793 	
13.8308 	-0.00255891 	-0.519527 	0.146857 	1.66267 	0.0196305 	-3.1269 	90.1614 	79.2654 	-0.591113 	280 	360.634 	284.632 	539.793 	
13.9336 	-0.00255891 	-0.519527 	0.146857 	1.66267 	0.0196305 	-3.1269 	90.1614 	78.7675 	-0.591113 	279.501 	360.634 	284.632 	539.793 	
14.0375 	-0.00255891 	-0.519527 	0.146857 	1.66267 	0.0196305 	-3.1269 	90.1614 	78.2716 	-0.591113 	278.999 	360.634 	284.632 	539.793 	
14.1416 	-0.00255891 	-0.519527 	0.146857 	1.66267 	0.0196305 	-3.1269 	90.1614 	77.7207 	-0.591113 	278.455 	360.634 	284.632 	539.793 	
14.2435 	-0.00255891 	-0.519527 	0.146857 	1.66267 	0.0196305 	-3.1269 	90.1614 	77.2144 	-0.591113 	277.952 	360.634 	284.632 	539.793 	
14.3456 	-0.00255891 	-0.519527 	0.146857 	1.66267 	0.0196305 	-3.1269 	90.1614 	76.7214 	-0.591113 	277.455 	360.634 	284.632 	539.793 	
14.4475 	-0.00255891 	-0.519527 	0.146857 	1.66267 	0.0196305 	-3.1269 	90.1614 	76.215 	-0.591113 	276.949 	360.634 	284.632 	539.793 	
14.5496 	-0.00255891 	-0.519527 	0.146857 	1.66267 	0.0196305 	-3.1269 	90.1614 	75.6745 	-0.591113 	276.407 	360.634 	284.632 	539.793 	
14.6515 	-0.00255891 	-0.519527 	0.146857 	1.66267 	0.0196305 	-3.1269 	90.1614 	75.1676 	-0.591113 	275.903 	360.634 	284.632 	539.793 	
14.7536 	-0.00255891 	-0.519527 	0.146857 	1.66267 	0.0196305 	-3.1269 	90.1614 	74.677 	-0.591113 	275.403 	360.634 	284.632 	539.793 	
14.8556 	-0.00255891 	-0.519527 	0.146857 	1.66267 	0.0196305 	-3.1269 	90.1614 	74.1765 	-0.591113 	274.901 	360.634 	284.632 	539.793 	
14.9577 	-0.00255891 	-0.519527 	0.146857 	1.66267 	0.0196305 	-3.1269 	90.1614 	73.6705 	-0.591113 	274.402 	360.634 	284.632 	539.793 	
15.06 	-0.00255891 	-0.519527 	0.146857 	1.66267 	0.0196305 	-3.1269 	90.1614 	73.1255 	-0.591113 	273.854 	360.634 	284.632 	539.793 	
15.1616 	-0.00255891 	-0.519527 	0.146857 	1.66267 	0.0196305 	-3.1269 	90.1614 	72.6261 	-0.591113 	273.35 	360.634 	284.632 	539.793 	
15.2636 	-0.00255891 	-0.519527 	0.146857 	1.66267 	0.0196305 	-3.1269 	90.1614 	72.1325 	-0.591113 	272.853 	360.634 	284.632 	539.793 	
15.3657 	-0.00255891 	-0.519527 	0.146857 	1.66267 	0.0196305 	-3.1269 	90.1614 	71.6265 	-0.591113 	272.354 	360.634 	284.632 	539.793 	
15.4677 	-0.00255891 	-0.519527 	0.146857 	1.66267 	0.0196305 	-3.1269 	90.1614 	71.1353 	-0.591113 	271.858 	360.634 	284.632 	539.793 	
15.5697 	-0.00255891 	-0.519527 	0.146857 	1.66267 	0.0196305 	-3.1269 	90.1614 	70.5758 	-0.591113 	271.302 	360.634 	284.632 	539.793 	
15.6716 	-0.00255891 	-0.519527 	0.146857 	1.66267 	0.0196305 	-3.1269 	90.1614 	70.0875 	-0.591113 	270.805 	360.634 	284.632 	539.793 	
15.7736 	-0.00255891 	-0.519527 	0.146857 	1.66267 	0.0196305 	-3.1269 	90.1614 	69.5805 	-0.591113 	270.299 	360.634 	284.632 	539.793 	
15.8756 	-0.00255891 	-0.519527 	0.146857 	1.66267 	0.0196305 	-3.1269 	90.1614 	69.0922 	-0.591113 	269.808 	360.634 	284.632 	539.793 	
15.9776 	-0.00255891 	-0.519527 	0.146857 	1.66267 	0.0196305 	-3.1269 	90.1614 	68.5849 	-0.591113 	269.303 	360.634 	284.632 	539.793 	
16.0796 	-0.00255891 	-0.519527 	0.146857 	1.66267 	0.0196305 	-3.1269 	90.1614 	68.0397 	-0.591113 	268.93 	360.634 	284.632 	539.793 	
16.1816 	-0.00255891 	-0.519527 	0.146857 	1.66267 	0.0196305 	-3.1269 	90.1614 	67.5459 	-0.591113 	268.884 	360.634 	284.632 	539.793 	
16.2886 	-0.00255891 	-0.519527 	0.146857 	1.66267 	0.0196305 	-3.1269 	90.1614 	66.9942 	-0.591113 	268.882 	360.634 	284.632 	539.793 	
16.3908 	-0.00255891 	-0.519527 	0.146857 	1.66267 	0.0196305 	-3.1269 	90.1614 	66.4989 	-0.591113 	268.88 	360.634 	284.632 	539.793 	
16.4926 	-0.00255891 	-0.519527 	0.146857 	1.66267 	0.0196305 	-3.1269 	90.1614 	65.9972 	-0.591113 	268.879 	360.634 	284.632 	539.793 	
16.5947 	-0.00255891 	-0.519527 	0.146857 	1.66267 	0.0196305 	-3.1269 	90.1614 	65.5074 	-0.591113 	268.877 	360.634 	284.632 	539.793 	
16.6966 	-0.00255891 	-0.519527 	0.146857 	1.66267 	0.0196305 	-3.1269 	90.1614 	64.9973 	-0.591113 	268.876 	360.634 	284.632 	539.793 	
16.799 	-0.00255891 	-0.519527 	0.146857 	1.66267 	0.0196305 	-3.1269 	90.1614 	64.4687 	-0.591113 	268.875 	360.634 	284.632 	539.793 	
16.8137 	-0.00385693 	-0.505733 	-0.223837 	1.72646 	0.0102471 	-3.12547 	90.1613 	64.4182 	-0.591113 	268.874 	360.634 	284.632 	539.793 	
16.8293 	-0.00385693 	-0.505733 	-0.223837 	1.72646 	0.0102471 	-3.12547 	90.1613 	64.3667 	-0.591113 	268.874 	360.634 	284.632 	539.793 	
16.864 	-0.00385693 	-0.505733 	-0.223837 	1.72646 	0.0102471 	-3.12547 	90.1614 	64.2109 	-0.591113 	268.874 	360.634 	284.632 	539.793 	
16.8791 	-0.00385277 	-0.50181 	-0.227707 	1.73398 	0.0102437 	-3.12546 	90.1614 	64.1417 	-0.591113 	268.874 	360.634 	284.632 	539.793 	
16.9012 	-0.00385277 	-0.50181 	-0.227707 	1.73398 	0.0102437 	-3.12546 	90.1614 	64.0906 	-0.591113 	268.873 	360.634 	284.632 	539.793 	
16.9177 	-0.00385277 	-0.50181 	-0.227707 	1.73398 	0.0102437 	-3.12546 	90.1614 	64.069 	-0.591113 	268.873 	360.634 	284.632 	539.793 	
16.9336 	-0.00385277 	-0.50181 	-0.227707 	1.73398 	0.0102437 	-3.12546 	90.1614 	64.0413 	-0.591113 	268.872 	360.634 	284.632 	539.793 	
16.9695 	-0.00385277 	-0.50181 	-0.227707 	1.73398 	0.0102437 	-3.12546 	90.1614 	63.9944 	-0.591113 	268.871 	360.634 	284.632 	539.793 	
16.9922 	-0.0038508 	-0.500403 	-0.229106 	1.73677 	0.0102444 	-3.12545 	90.1614 	63.9265 	-0.591113 	268.868 	360.634 	284.632 	539.793 	
17.0072 	-0.0038508 	-0.500403 	-0.229106 	1.73677 	0.0102444 	-3.12545 	90.1614 	63.9022 	-0.591113 	268.868 	360.634 	284.632 	539.793 	
17.0233 	-0.0038508 	-0.500403 	-0.229106 	1.73677 	0.0102444 	-3.12545 	90.1614 	63.8565 	-0.591113 	268.866 	360.634 	284.632 	539.793 	
17.06 	-0.0038508 	-0.500403 	-0.229106 	1.73677 	0.0102444 	-3.12545 	90.1614 	63.7643 	-0.591113 	268.864 	360.634 	284.632 	539.793 	
17.0751 	-0.00384785 	-0.498285 	-0.231198 	1.74096 	0.0102454 	-3.12545 	90.1614 	63.7367 	-0.591113 	268.862 	360.634 	284.632 	539.793 	
17.0971 	-0.00384785 	-0.498285 	-0.231198 	1.74096 	0.0102454 	-3.12545 	90.1614 	63.6813 	-0.591113 	268.858 	360.634 	284.632 	539.793 	
17.113 	-0.00384785 	-0.498285 	-0.231198 	1.74096 	0.0102454 	-3.12545 	90.1614 	63.6263 	-0.591113 	268.854 	360.634 	284.632 	539.793 	
17.1297 	-0.00384785 	-0.498285 	-0.231198 	1.74096 	0.0102454 	-3.12545 	90.1614 	63.6093 	-0.591113 	268.852 	360.634 	284.632 	539.793 	
17.167 	-0.00384785 	-0.498285 	-0.231198 	1.74096 	0.0102454 	-3.12545 	90.1614 	63.5273 	-0.591113 	268.851 	360.634 	284.632 	539.793 	
17.1831 	-0.00384488 	-0.496158 	-0.233281 	1.74515 	0.0102464 	-3.12544 	90.1614 	63.4793 	-0.591113 	268.85 	360.634 	284.632 	539.793 	
17.203 	-0.00384488 	-0.496158 	-0.233281 	1.74515 	0.0102464 	-3.12544 	90.1614 	63.4219 	-0.591113 	268.848 	360.634 	284.632 	539.793 	
17.2181 	-0.00384488 	-0.496158 	-0.233281 	1.74515 	0.0102464 	-3.12544 	90.1614 	63.3981 	-0.591113 	268.847 	360.634 	284.632 	539.793 	
17.2423 	-0.00384488 	-0.496158 	-0.233281 	1.74515 	0.0102464 	-3.12544 	90.1613 	63.3254 	-0.591113 	268.847 	360.634 	284.632 	539.793 	
17.2705 	-0.00384488 	-0.496158 	-0.233281 	1.74515 	0.0102464 	-3.12544 	90.1613 	63.259 	-0.591113 	268.846 	360.634 	284.632 	539.793 	
17.2864 	-0.00384052 	-0.49304 	-0.236302 	1.75126 	0.0102479 	-3.12543 	90.1614 	63.1945 	-0.591113 	268.846 	360.634 	284.632 	539.793 	
17.308 	-0.00384052 	-0.49304 	-0.236302 	1.75126 	0.0102479 	-3.12543 	90.1614 	63.1361 	-0.591113 	268.846 	360.634 	284.632 	539.793 	
17.3233 	-0.00384052 	-0.49304 	-0.236302 	1.75126 	0.0102479 	-3.12543 	90.1614 	63.0827 	-0.591113 	268.846 	360.634 	284.632 	539.793 	
17.3612 	-0.00384052 	-0.49304 	-0.236302 	1.75126 	0.0102479 	-3.12543 	90.1614 	62.9792 	-0.591113 	268.846 	360.634 	284.632 	539.793 	
17.3766 	-0.00383803 	-0.491251 	-0.23802 	1.75475 	0.0102488 	-3.12543 	90.1614 	62.9489 	-0.591113 	268.845 	360.634 	284.632 	539.793 	
17.3984 	-0.00383803 	-0.491251 	-0.23802 	1.75475 	0.0102488 	-3.12543 	90.1614 	62.8939 	-0.591113 	268.845 	360.634 	284.632 	539.793 	
17.4391 	-0.00383803 	-0.491251 	-0.23802 	1.75475 	0.0102488 	-3.12543 	90.1614 	62.7832 	-0.591113 	268.845 	360.634 	284.632 	539.793 	
17.469 	-0.00383803 	-0.491251 	-0.23802 	1.75475 	0.0102488 	-3.12543 	90.1614 	62.7277 	-0.591113 	268.845 	360.634 	284.632 	539.793 	
17.4916 	-0.00383476 	-0.488916 	-0.240244 	1.75929 	0.0102499 	-3.12542 	90.1614 	62.6605 	-0.591113 	268.844 	360.634 	284.632 	539.793 	
17.508 	-0.00383476 	-0.488916 	-0.240244 	1.75929 	0.0102499 	-3.12542 	90.1614 	62.6356 	-0.591113 	268.844 	360.634 	284.632 	539.793 	
17.5237 	-0.00383476 	-0.488916 	-0.240244 	1.75929 	0.0102499 	-3.12542 	90.1614 	62.5894 	-0.591113 	268.843 	360.634 	284.632 	539.793 	
17.5659 	-0.00383476 	-0.488916 	-0.240244 	1.75929 	0.0102499 	-3.12542 	90.1614 	62.493 	-0.591113 	268.843 	360.634 	284.632 	539.793 	
17.5826 	-0.00383174 	-0.486751 	-0.242288 	1.76348 	0.010251 	-3.12542 	90.1614 	62.447 	-0.591113 	268.843 	360.634 	284.632 	539.793 	
17.6026 	-0.00383174 	-0.486751 	-0.242288 	1.76348 	0.010251 	-3.12542 	90.1614 	62.4133 	-0.591113 	268.843 	360.634 	284.632 	539.793 	
17.6184 	-0.00383174 	-0.486751 	-0.242288 	1.76348 	0.010251 	-3.12542 	90.1614 	62.4038 	-0.591113 	268.843 	360.634 	284.632 	539.793 	
17.6467 	-0.00383174 	-0.486751 	-0.242288 	1.76348 	0.010251 	-3.12542 	90.1614 	62.3876 	-0.591113 	268.843 	360.634 	284.632 	539.793 	
17.6728 	-0.00383174 	-0.486751 	-0.242288 	1.76348 	0.010251 	-3.12542 	90.1614 	62.3751 	-0.591113 	268.843 	360.634 	284.632 	539.793 	
17.6945 	-0.0038306 	-0.485937 	-0.243052 	1.76505 	0.0102515 	-3.12542 	90.1614 	62.3714 	-0.591113 	268.843 	360.634 	284.632 	539.793 	
17.7103 	-0.0038306 	-0.485937 	-0.243052 	1.76505 	0.0102515 	-3.12542 	90.1614 	62.3699 	-0.591113 	268.843 	360.634 	284.632 	539.793 	
17.7339 	-0.0038306 	-0.485937 	-0.243052 	1.76505 	0.0102515 	-3.12542 	90.1614 	62.3677 	-0.591113 	268.843 	360.634 	284.632 	539.793 	
17.7643 	-0.0038306 	-0.485937 	-0.243052 	1.76505 	0.0102515 	-3.12542 	90.1614 	62.3665 	-0.591113 	268.843 	360.634 	284.632 	539.793 	
17.781 	-0.0038306 	-0.485937 	-0.243052 	1.76505 	0.0102515 	-3.12542 	90.1614 	62.3664 	-0.591113 	268.843 	360.634 	284.632 	539.793 	
17.8011 	-0.0038306 	-0.485937 	-0.243052 	1.76505 	0.0102515 	-3.12542 	90.1614 	62.3664 	-0.591113 	268.843 	360.634 	284.632 	539.793 	
17.8172 	-0.0038306 	-0.485937 	-0.243052 	1.76505 	0.0102515 	-3.12542 	90.1613 	62.3663 	-0.591113 	268.843 	360.634 	284.632 	539.793 	
17.8401 	-0.0038306 	-0.485937 	-0.243052 	1.76505 	0.0102515 	-3.12542 	90.1614 	62.3655 	-0.591113 	268.843 	360.634 	284.632 	539.793 	
17.8712 	-0.0038306 	-0.485937 	-0.243052 	1.76505 	0.0102515 	-3.12542 	90.1614 	62.3654 	-0.591113 	268.843 	360.634 	284.632 	539.793 	
17.888 	-0.0038306 	-0.485937 	-0.243052 	1.76505 	0.0102515 	-3.12542 	90.1614 	62.3654 	-0.591113 	268.843 	360.634 	284.632 	539.793 	
17.9088 	-0.0038306 	-0.485937 	-0.243052 	1.76505 	0.0102515 	-3.12542 	90.1614 	62.3654 	-0.591113 	268.843 	360.634 	284.632 	539.793 	
17.9337 	-0.0038306 	-0.485937 	-0.243052 	1.76505 	0.0102515 	-3.12542 	90.1613 	62.365 	-0.591113 	268.843 	360.634 	284.632 	539.793 	
17.9793 	-0.0038306 	-0.485937 	-0.243052 	1.76505 	0.0102515 	-3.12542 	90.1614 	62.3648 	-0.591113 	268.843 	360.634 	284.632 	539.793 	
18.0016 	-0.0038306 	-0.485937 	-0.243052 	1.76505 	0.0102515 	-3.12542 	90.1614 	62.3648 	-0.591113 	268.843 	360.634 	284.632 	539.793 	
18.0397 	-0.0038306 	-0.485937 	-0.243052 	1.76505 	0.0102515 	-3.12542 	90.1614 	62.3647 	-0.591113 	268.843 	360.634 	284.632 	539.793 	
18.0701 	-0.0038306 	-0.485937 	-0.243052 	1.76505 	0.0102515 	-3.12542 	90.1614 	62.3645 	-0.591113 	268.843 	360.634 	284.632 	539.793 	
18.0939 	-0.0038306 	-0.485937 	-0.243052 	1.76505 	0.0102515 	-3.12542 	90.1614 	62.3645 	-0.591113 	268.843 	360.634 	284.632 	539.793 	
18.1101 	-0.0038306 	-0.485937 	-0.243052 	1.76505 	0.0102515 	-3.12542 	90.1614 	62.3645 	-0.591113 	268.843 	360.634 	284.632 	539.793 	
18.1327 	-0.0038306 	-0.485937 	-0.243052 	1.76505 	0.0102515 	-3.12542 	90.1614 	62.3645 	-0.591113 	268.843 	360.634 	284.632 	539.793 	
18.1644 	-0.0038306 	-0.485937 	-0.243052 	1.76505 	0.0102515 	-3.12542 	90.1614 	62.3643 	-0.591113 	268.843 	360.634 	284.632 	539.793 	
18.1815 	-0.0038306 	-0.485937 	-0.243052 	1.76505 	0.0102515 	-3.12542 	90.1614 	62.3643 	-0.591113 	268.843 	360.634 	284.632 	539.793 	
18.2011 	-0.0038306 	-0.485937 	-0.243052 	1.76505 	0.0102515 	-3.12542 	90.1614 	62.3643 	-0.591113 	268.843 	360.634 	284.632 	539.793 	
18.2173 	-0.0038306 	-0.485937 	-0.243052 	1.76505 	0.0102515 	-3.12542 	90.1614 	62.3643 	-0.591113 	268.843 	360.634 	284.632 	539.793 	
18.2432 	-0.0038306 	-0.485937 	-0.243052 	1.76505 	0.0102515 	-3.12542 	90.1614 	62.3642 	-0.591113 	268.843 	360.634 	284.632 	539.793 	
18.2925 	-0.0038306 	-0.485937 	-0.243052 	1.76505 	0.0102515 	-3.12542 	90.1614 	62.3641 	-0.591113 	268.843 	360.634 	284.632 	539.793 	
18.3108 	-0.0038306 	-0.485937 	-0.243052 	1.76505 	0.0102515 	-3.12542 	90.1614 	62.3641 	-0.591113 	268.843 	360.634 	284.632 	539.793 	
18.3349 	-0.0038306 	-0.485937 	-0.243052 	1.76505 	0.0102515 	-3.12542 	90.1614 	62.3641 	-0.591113 	268.843 	360.634 	284.632 	539.793 	
18.3623 	-0.0038306 	-0.485937 	-0.243052 	1.76505 	0.0102515 	-3.12542 	90.1614 	62.3639 	-0.591113 	268.843 	360.634 	284.632 	539.793 	
18.3803 	-0.0038306 	-0.485937 	-0.243052 	1.76505 	0.0102515 	-3.12542 	90.1614 	62.3639 	-0.591113 	268.843 	360.634 	284.632 	539.793 	
18.4011 	-0.0038306 	-0.485937 	-0.243052 	1.76505 	0.0102515 	-3.12542 	90.1614 	62.364 	-0.591113 	268.843 	360.634 	284.632 	539.793 	
18.419 	-0.0038306 	-0.485937 	-0.243052 	1.76505 	0.0102515 	-3.12542 	90.1614 	62.364 	-0.591113 	268.843 	360.634 	284.632 	539.793 	
18.45 	-0.0038306 	-0.485937 	-0.243052 	1.76505 	0.0102515 	-3.12542 	90.1614 	62.3639 	-0.591113 	268.843 	360.634 	284.632 	539.793 	
18.4705 	-0.0038306 	-0.485937 	-0.243052 	1.76505 	0.0102515 	-3.12542 	90.1614 	62.3639 	-0.591113 	268.843 	360.634 	284.632 	539.793 	
18.493 	-0.0038306 	-0.485937 	-0.243052 	1.76505 	0.0102515 	-3.12542 	90.1614 	62.3639 	-0.591113 	268.843 	360.634 	284.632 	539.793 	
18.5137 	-0.0038306 	-0.485937 	-0.243052 	1.76505 	0.0102515 	-3.12542 	90.1614 	62.3639 	-0.591113 	268.843 	360.634 	284.632 	539.793 	
18.5383 	-0.0038306 	-0.485937 	-0.243052 	1.76505 	0.0102515 	-3.12542 	90.1614 	62.3639 	-0.591113 	268.843 	360.634 	284.632 	539.793 	
18.5666 	-0.0038306 	-0.485937 	-0.243052 	1.76505 	0.0102515 	-3.12542 	90.1614 	62.3638 	-0.591113 	268.843 	360.634 	284.632 	539.793 	
18.5825 	-0.0038306 	-0.485937 	-0.243052 	1.76505 	0.0102515 	-3.12542 	90.1614 	62.3638 	-0.591113 	268.843 	360.634 	284.632 	539.793 	
18.6039 	-0.0038306 	-0.485937 	-0.243052 	1.76505 	0.0102515 	-3.12542 	90.1614 	62.3638 	-0.591113 	268.843 	360.634 	284.632 	539.793 	
18.6195 	-0.0038306 	-0.485937 	-0.243052 	1.76505 	0.0102515 	-3.12542 	90.1614 	62.3638 	-0.591113 	268.843 	360.634 	284.632 	539.793 	
18.6434 	-0.0038306 	-0.485937 	-0.243052 	1.76505 	0.0102515 	-3.12542 	90.1614 	62.3638 	-0.591113 	268.843 	360.634 	284.632 	539.793 	
18.6719 	-0.0038306 	-0.485937 	-0.243052 	1.76505 	0.0102515 	-3.12542 	90.1614 	62.3638 	-0.591113 	268.843 	360.634 	284.632 	539.793 	
18.6932 	-0.0038306 	-0.485937 	-0.243052 	1.76505 	0.0102515 	-3.12542 	90.1614 	62.3638 	-0.591113 	268.843 	360.634 	284.632 	539.793 	
18.7096 	-0.0038306 	-0.485937 	-0.243052 	1.76505 	0.0102515 	-3.12542 	90.1614 	62.3638 	-0.591113 	268.843 	360.634 	284.632 	539.793 	
18.7318 	-0.0038306 	-0.485937 	-0.243052 	1.76505 	0.0102515 	-3.12542 	90.1614 	62.3638 	-0.591113 	268.843 	360.634 	284.632 	539.793 	
18.7638 	-0.0038306 	-0.485937 	-0.243052 	1.76505 	0.0102515 	-3.12542 	90.1614 	62.3638 	-0.591113 	268.843 	360.634 	284.632 	539.793 	
18.7791 	-0.0038306 	-0.485937 	-0.243052 	1.76505 	0.0102515 	-3.12542 	90.1614 	62.3638 	-0.591113 	268.843 	360.634 	284.632 	539.793 	
18.8056 	-0.0038306 	-0.485937 	-0.243052 	1.76505 	0.0102515 	-3.12542 	90.1614 	62.3638 	-0.591113 	268.843 	360.634 	284.632 	539.793 	
18.8218 	-0.0038306 	-0.485937 	-0.243052 	1.76505 	0.0102515 	-3.12542 	90.1614 	62.3638 	-0.591113 	268.843 	360.634 	284.632 	539.793 	
18.8608 	-0.0038306 	-0.485937 	-0.243052 	1.76505 	0.0102515 	-3.12542 	90.1614 	62.3638 	-0.591113 	268.843 	360.634 	284.632 	539.793 	
18.877 	-0.0038306 	-0.485937 	-0.243052 	1.76505 	0.0102515 	-3.12542 	90.1614 	62.3638 	-0.591113 	268.843 	360.634 	284.632 	539.793 	
18.8985 	-0.0038306 	-0.485937 	-0.243052 	1.76505 	0.0102515 	-3.12542 	90.1614 	62.3638 	-0.591113 	268.843 	360.634 	284.632 	539.793 	
18.9143 	-0.0038306 	-0.485937 	-0.243052 	1.76505 	0.0102515 	-3.12542 	90.1614 	62.3638 	-0.591113 	268.843 	360.634 	284.632 	539.793 	
18.939 	-0.0038306 	-0.485937 	-0.243052 	1.76505 	0.0102515 	-3.12542 	90.1614 	62.3638 	-0.591113 	268.843 	360.634 	284.632 	539.793 	
18.9671 	-0.0038306 	-0.485937 	-0.243052 	1.76505 	0.0102515 	-3.12542 	90.1614 	62.3638 	-0.591113 	268.843 	360.634 	284.632 	539.793 	
18.9902 	-0.0038306 	-0.485937 	-0.243052 	1.76505 	0.0102515 	-3.12542 	90.1614 	62.3638 	-0.591113 	268.843 	360.634 	284.632 	539.793 	
19.0065 	-0.0038306 	-0.485937 	-0.243052 	1.76505 	0.0102515 	-3.12542 	90.1614 	62.3638 	-0.591113 	268.843 	360.634 	284.632 	539.793 	
19.0225 	-0.0038306 	-0.485937 	-0.243052 	1.76505 	0.0102515 	-3.12542 	90.1614 	62.3638 	-0.591113 	268.843 	360.634 	284.632 	539.793 	
19.0761 	-0.0038306 	-0.485937 	-0.243052 	1.76505 	0.0102515 	-3.12542 	90.1614 	62.3638 	-0.591113 	268.843 	360.634 	284.632 	539.793 	
19.094 	-0.0038306 	-0.485937 	-0.243052 	1.76505 	0.0102515 	-3.12542 	90.1614 	62.3638 	-0.591113 	268.843 	360.634 	284.632 	539.793 	
19.1122 	-0.0038306 	-0.485937 	-0.243052 	1.76505 	0.0102515 	-3.12542 	90.1614 	62.3638 	-0.591113 	268.843 	360.634 	284.632 	539.793 	
19.1314 	-0.0038306 	-0.485937 	-0.243052 	1.76505 	0.0102515 	-3.12542 	90.1614 	62.3638 	-0.591113 	268.843 	360.634 	284.632 	539.793 	
19.1676 	-0.0038306 	-0.485937 	-0.243052 	1.76505 	0.0102515 	-3.12542 	90.1614 	62.3638 	-0.591113 	268.843 	360.634 	284.632 	539.793 	
19.1901 	-0.0038306 	-0.485937 	-0.243052 	1.76505 	0.0102515 	-3.12542 	90.1614 	62.3638 	-0.591113 	268.843 	360.634 	284.632 	539.793 	
19.2102 	-0.0038306 	-0.485937 	-0.243052 	1.76505 	0.0102515 	-3.12542 	90.1614 	62.3638 	-0.591113 	268.843 	360.634 	284.632 	539.793 	
19.2263 	-0.0038306 	-0.485937 	-0.243052 	1.76505 	0.0102515 	-3.12542 	90.1614 	62.3638 	-0.591113 	268.843 	360.634 	284.632 	539.793 	
19.2632 	-0.0038306 	-0.485937 	-0.243052 	1.76505 	0.0102515 	-3.12542 	90.1614 	62.3638 	-0.591113 	268.843 	360.634 	284.632 	539.793 	
19.2835 	-0.0038306 	-0.485937 	-0.243052 	1.76505 	0.0102515 	-3.12542 	90.1614 	62.3638 	-0.591113 	268.843 	360.634 	284.632 	539.793 	
19.3034 	-0.0038306 	-0.485937 	-0.243052 	1.76505 	0.0102515 	-3.12542 	90.1614 	62.3638 	-0.591113 	268.843 	360.634 	284.632 	539.793 	
19.3197 	-0.0038306 	-0.485937 	-0.243052 	1.76505 	0.0102515 	-3.12542 	90.1614 	62.3638 	-0.591113 	268.843 	360.634 	284.632 	539.793 	
19.3463 	-0.0038306 	-0.485937 	-0.243052 	1.76505 	0.0102515 	-3.12542 	90.1614 	62.3638 	-0.591113 	268.843 	360.634 	284.632 	539.793 	
19.3711 	-0.0038306 	-0.485937 	-0.243052 	1.76505 	0.0102515 	-3.12542 	90.1614 	62.3637 	-0.591113 	268.843 	360.634 	284.632 	539.793 	
19.3935 	-0.0038306 	-0.485937 	-0.243052 	1.76505 	0.0102515 	-3.12542 	90.1614 	62.3637 	-0.591113 	268.843 	360.634 	284.632 	539.793 	
19.4103 	-0.0038306 	-0.485937 	-0.243052 	1.76505 	0.0102515 	-3.12542 	90.1614 	62.3637 	-0.591113 	268.843 	360.634 	284.632 	539.793 	
19.4269 	-0.0038306 	-0.485937 	-0.243052 	1.76505 	0.0102515 	-3.12542 	90.1614 	62.3637 	-0.591113 	268.843 	360.634 	284.632 	539.793 	
19.4634 	-0.0038306 	-0.485937 	-0.243052 	1.76505 	0.0102515 	-3.12542 	90.1613 	62.3637 	-0.591113 	268.843 	360.634 	284.632 	539.793 	
19.4803 	-0.0038306 	-0.485937 	-0.243052 	1.76505 	0.0102515 	-3.12542 	90.1613 	62.3637 	-0.591113 	268.843 	360.634 	284.632 	539.793 	
19.503 	-0.0038306 	-0.485937 	-0.243052 	1.76505 	0.0102515 	-3.12542 	90.1614 	62.3637 	-0.591113 	268.843 	360.634 	284.632 	539.793 	
19.5204 	-0.0038306 	-0.485937 	-0.243052 	1.76505 	0.0102515 	-3.12542 	90.1614 	62.3637 	-0.591113 	268.843 	360.634 	284.632 	539.793 	
19.5623 	-0.0038306 	-0.485937 	-0.243052 	1.76505 	0.0102515 	-3.12542 	90.1614 	62.3637 	-0.591113 	268.843 	360.634 	284.632 	539.793 	
19.5787 	-0.0038306 	-0.485937 	-0.243052 	1.76505 	0.0102515 	-3.12542 	90.1614 	62.3637 	-0.591113 	268.843 	360.634 	284.632 	539.793 	
19.6032 	-0.0038306 	-0.485937 	-0.243052 	1.76505 	0.0102515 	-3.12542 	90.1614 	62.3637 	-0.591113 	268.843 	360.634 	284.632 	539.793 	
19.6201 	-0.0038306 	-0.485937 	-0.243052 	1.76505 	0.0102515 	-3.12542 	90.1614 	62.3637 	-0.591113 	268.843 	360.634 	284.632 	539.793 	
19.6449 	-0.0038306 	-0.485937 	-0.243052 	1.76505 	0.0102515 	-3.12542 	90.1614 	62.3637 	-0.591113 	268.843 	360.634 	284.632 	539.793 	
19.6737 	-0.0038306 	-0.485937 	-0.243052 	1.76505 	0.0102515 	-3.12542 	90.1614 	62.3637 	-0.591113 	268.843 	360.634 	284.632 	539.793 	
19.6969 	-0.0038306 	-0.485937 	-0.243052 	1.76505 	0.0102515 	-3.12542 	90.1614 	62.3637 	-0.591113 	268.843 	360.634 	284.632 	539.793 	
19.7437 	-0.0038306 	-0.485937 	-0.243052 	1.76505 	0.0102515 	-3.12542 	90.1614 	62.3637 	-0.591113 	268.843 	360.634 	284.632 	539.793 	
19.7762 	-0.0038306 	-0.485937 	-0.243052 	1.76505 	0.0102515 	-3.12542 	90.1614 	62.3637 	-0.591113 	268.843 	360.634 	284.632 	539.793 	
19.7922 	-0.0038306 	-0.485937 	-0.243052 	1.76505 	0.0102515 	-3.12542 	90.1614 	62.3637 	-0.591113 	268.843 	360.634 	284.632 	539.793 	
19.8145 	-0.0038306 	-0.485937 	-0.243052 	1.76505 	0.0102515 	-3.12542 	90.1614 	62.3637 	-0.591113 	268.843 	360.634 	284.632 	539.793 	
19.8367 	-0.0038306 	-0.485937 	-0.243052 	1.76505 	0.0102515 	-3.12542 	90.1614 	62.3637 	-0.591113 	268.843 	360.634 	284.632 	539.793 	
19.8692 	-0.0038306 	-0.485937 	-0.243052 	1.76505 	0.0102515 	-3.12542 	90.1614 	62.3637 	-0.591113 	268.843 	360.634 	284.632 	539.793 	
19.9074 	-0.0038306 	-0.485937 	-0.243052 	1.76505 	0.0102515 	-3.12542 	90.1614 	62.3637 	-0.591113 	268.843 	360.634 	284.632 	539.793 	
19.9239 	-0.0038306 	-0.485937 	-0.243052 	1.76505 	0.0102515 	-3.12542 	90.1614 	62.3637 	-0.591113 	268.843 	360.634 	284.632 	539.793 	
19.9618 	-0.0038306 	-0.485937 	-0.243052 	1.76505 	0.0102515 	-3.12542 	90.1614 	62.3637 	-0.591113 	268.843 	360.634 	284.632 	539.793 	
19.9783 	-0.0038306 	-0.485937 	-0.243052 	1.76505 	0.0102515 	-3.12542 	90.1614 	62.3637 	-0.591113 	268.843 	360.634 	284.632 	539.793 	
20.0019 	-0.0038306 	-0.485937 	-0.243052 	1.76505 	0.0102515 	-3.12542 	90.1614 	62.3637 	-0.591113 	268.843 	360.634 	284.632 	539.793 	
20.0182 	-0.0038306 	-0.485937 	-0.243052 	1.76505 	0.0102515 	-3.12542 	90.1614 	62.3637 	-0.591113 	268.843 	360.634 	284.632 	539.793 	
20.0443 	-0.0038306 	-0.485937 	-0.243052 	1.76505 	0.0102515 	-3.12542 	90.1614 	62.3637 	-0.591113 	268.843 	360.634 	284.632 	539.793 	
20.0714 	-0.0038306 	-0.485937 	-0.243052 	1.76505 	0.0102515 	-3.12542 	90.1614 	62.3637 	-0.591113 	268.843 	360.634 	284.632 	539.793 	
20.0943 	-0.0038306 	-0.485937 	-0.243052 	1.76505 	0.0102515 	-3.12542 	90.1614 	62.3637 	-0.591113 	268.843 	360.634 	284.632 	539.793 	
20.1111 	-0.0038306 	-0.485937 	-0.243052 	1.76505 	0.0102515 	-3.12542 	90.1614 	62.3637 	-0.591113 	268.843 	360.634 	284.632 	539.793 	
20.1334 	-0.0038306 	-0.485937 	-0.243052 	1.76505 	0.0102515 	-3.12542 	90.1614 	62.3637 	-0.591113 	268.843 	360.634 	284.632 	539.793 	
20.1648 	-0.0038306 	-0.485937 	-0.243052 	1.76505 	0.0102515 	-3.12542 	90.1614 	62.3637 	-0.591113 	268.843 	360.634 	284.632 	539.793 	
20.1823 	-0.0038306 	-0.485937 	-0.243052 	1.76505 	0.0102515 	-3.12542 	90.1614 	62.3637 	-0.591113 	268.843 	360.634 	284.632 	539.793 	
20.2038 	-0.0038306 	-0.485937 	-0.243052 	1.76505 	0.0102515 	-3.12542 	90.1614 	62.3637 	-0.591113 	268.843 	360.634 	284.632 	539.793 	
20.2213 	-0.0038306 	-0.485937 	-0.243052 	1.76505 	0.0102515 	-3.12542 	90.1614 	62.3637 	-0.591113 	268.843 	360.634 	284.632 	539.793 	
20.2755 	-0.0038306 	-0.485937 	-0.243052 	1.76505 	0.0102515 	-3.12542 	90.1614 	62.3637 	-0.591113 	268.843 	360.634 	284.632 	539.793 	
20.2974 	-0.0038306 	-0.485937 	-0.243052 	1.76505 	0.0102515 	-3.12542 	90.1614 	62.3637 	-0.591113 	268.843 	360.634 	284.632 	539.793 	
20.3137 	-0.0038306 	-0.485937 	-0.243052 	1.76505 	0.0102515 	-3.12542 	90.1614 	62.3637 	-0.591113 	268.843 	360.634 	284.632 	539.793 	
20.3385 	-0.0038306 	-0.485937 	-0.243052 	1.76505 	0.0102515 	-3.12542 	90.1614 	62.3637 	-0.591113 	268.843 	360.634 	284.632 	539.793 	
20.3665 	-0.0038306 	-0.485937 	-0.243052 	1.76505 	0.0102515 	-3.12542 	90.1614 	62.3637 	-0.591113 	268.843 	360.634 	284.632 	539.793 	
20.3898 	-0.0038306 	-0.485937 	-0.243052 	1.76505 	0.0102515 	-3.12542 	90.1614 	62.3637 	-0.591113 	268.843 	360.634 	284.632 	539.793 	
20.4051 	-0.0038306 	-0.485937 	-0.243052 	1.76505 	0.0102515 	-3.12542 	90.1614 	62.3637 	-0.591113 	268.843 	360.634 	284.632 	539.793 	
20.4216 	-0.0038306 	-0.485937 	-0.243052 	1.76505 	0.0102515 	-3.12542 	90.1614 	62.3637 	-0.591113 	268.843 	360.634 	284.632 	539.793 	
20.4593 	-0.0038306 	-0.485937 	-0.243052 	1.76505 	0.0102515 	-3.12542 	90.1614 	62.3637 	-0.591113 	268.843 	360.634 	284.632 	539.793 	
20.4752 	-0.0038306 	-0.485937 	-0.243052 	1.76505 	0.0102515 	-3.12542 	90.1614 	62.3637 	-0.591113 	268.843 	360.634 	284.632 	539.793 	
20.4923 	-0.0038306 	-0.485937 	-0.243052 	1.76505 	0.0102515 	-3.12542 	90.1614 	62.3637 	-0.591113 	268.843 	360.634 	284.632 	539.793 	
20.5127 	-0.0038306 	-0.485937 	-0.243052 	1.76505 	0.0102515 	-3.12542 	90.1614 	62.3637 	-0.591113 	268.843 	360.634 	284.632 	539.793 	
20.5359 	-0.0038306 	-0.485937 	-0.243052 	1.76505 	0.0102515 	-3.12542 	90.1614 	62.3637 	-0.591113 	268.843 	360.634 	284.632 	539.793 	
20.5674 	-0.0038306 	-0.485937 	-0.243052 	1.76505 	0.0102515 	-3.12542 	90.1614 	62.3637 	-0.591113 	268.843 	360.634 	284.632 	539.793 	
20.5837 	-0.0038306 	-0.485937 	-0.243052 	1.76505 	0.0102515 	-3.12542 	90.1614 	62.3637 	-0.591113 	268.843 	360.634 	284.632 	539.793 	
20.6034 	-0.0038306 	-0.485937 	-0.243052 	1.76505 	0.0102515 	-3.12542 	90.1613 	62.3637 	-0.591113 	268.843 	360.634 	284.632 	539.793 	
20.6207 	-0.0038306 	-0.485937 	-0.243052 	1.76505 	0.0102515 	-3.12542 	90.1613 	62.3637 	-0.591113 	268.843 	360.634 	284.632 	539.793 	
20.6599 	-0.0038306 	-0.485937 	-0.243052 	1.76505 	0.0102515 	-3.12542 	90.1613 	62.3637 	-0.591113 	268.843 	360.634 	284.632 	539.793 	
20.6792 	-0.0038306 	-0.485937 	-0.243052 	1.76505 	0.0102515 	-3.12542 	90.1613 	62.3637 	-0.591113 	268.843 	360.634 	284.632 	539.793 	
20.7024 	-0.0038306 	-0.485937 	-0.243052 	1.76505 	0.0102515 	-3.12542 	90.1613 	62.3637 	-0.591113 	268.843 	360.634 	284.632 	539.793 	
20.7191 	-0.0038306 	-0.485937 	-0.243052 	1.76505 	0.0102515 	-3.12542 	90.1613 	62.3637 	-0.591113 	268.843 	360.634 	284.632 	539.793 	
20.7456 	-0.0038306 	-0.485937 	-0.243052 	1.76505 	0.0102515 	-3.12542 	90.1613 	62.3637 	-0.591113 	268.843 	360.634 	284.632 	539.793 	
20.7756 	-0.0038306 	-0.485937 	-0.243052 	1.76505 	0.0102515 	-3.12542 	90.1613 	62.3637 	-0.591113 	268.843 	360.634 	284.632 	539.793 	
20.8003 	-0.0038306 	-0.485937 	-0.243052 	1.76505 	0.0102515 	-3.12542 	90.1613 	62.3637 	-0.591113 	268.843 	360.634 	284.632 	539.793 	
20.8167 	-0.0038306 	-0.485937 	-0.243052 	1.76505 	0.0102515 	-3.12542 	90.1613 	62.3637 	-0.591113 	268.843 	360.634 	284.632 	539.793 	
20.8439 	-0.0038306 	-0.485937 	-0.243052 	1.76505 	0.0102515 	-3.12542 	90.1613 	62.3637 	-0.591113 	268.843 	360.634 	284.632 	539.793 	
20.8722 	-0.0038306 	-0.485937 	-0.243052 	1.76505 	0.0102515 	-3.12542 	90.1613 	62.3637 	-0.591113 	268.843 	360.634 	284.632 	539.793 	
20.8895 	-0.0038306 	-0.485937 	-0.243052 	1.76505 	0.0102515 	-3.12542 	90.1613 	62.3637 	-0.591113 	268.843 	360.634 	284.632 	539.793 	
20.9094 	-0.0038306 	-0.485937 	-0.243052 	1.76505 	0.0102515 	-3.12542 	90.1613 	62.3637 	-0.591113 	268.843 	360.634 	284.632 	539.793 	
20.9329 	-0.0038306 	-0.485937 	-0.243052 	1.76505 	0.0102515 	-3.12542 	90.1613 	62.3637 	-0.591113 	268.843 	360.634 	284.632 	539.793 	
20.9658 	-0.0038306 	-0.485937 	-0.243052 	1.76505 	0.0102515 	-3.12542 	90.1613 	62.3637 	-0.591113 	268.843 	360.634 	284.632 	539.793 	
20.9818 	-0.0038306 	-0.485937 	-0.243052 	1.76505 	0.0102515 	-3.12542 	90.1613 	62.3637 	-0.591113 	268.843 	360.634 	284.632 	539.793 	
21.002 	-0.0038306 	-0.485937 	-0.243052 	1.76505 	0.0102515 	-3.12542 	90.1613 	62.3637 	-0.591113 	268.843 	360.634 	284.632 	539.793 	
21.0184 	-0.0038306 	-0.485937 	-0.243052 	1.76505 	0.0102515 	-3.12542 	90.1613 	62.3637 	-0.591113 	268.843 	360.634 	284.632 	539.793 	
21.0423 	-0.0038306 	-0.485937 	-0.243052 	1.76505 	0.0102515 	-3.12542 	90.1613 	62.3637 	-0.591113 	268.843 	360.634 	284.632 	539.793 	
21.0709 	-0.0038306 	-0.485937 	-0.243052 	1.76505 	0.0102515 	-3.12542 	90.1613 	62.3637 	-0.591113 	268.843 	360.634 	284.632 	539.793 	
21.0923 	-0.0038306 	-0.485937 	-0.243052 	1.76505 	0.0102515 	-3.12542 	90.1613 	62.3637 	-0.591113 	268.843 	360.634 	284.632 	539.793 	
21.1304 	-0.0038306 	-0.485937 	-0.243052 	1.76505 	0.0102515 	-3.12542 	90.1613 	62.3637 	-0.591113 	268.843 	360.634 	284.632 	539.793 	
21.1626 	-0.0038306 	-0.485937 	-0.243052 	1.76505 	0.0102515 	-3.12542 	90.1613 	62.3637 	-0.591113 	268.843 	360.634 	284.632 	539.793 	
21.1794 	-0.0038306 	-0.485937 	-0.243052 	1.76505 	0.0102515 	-3.12542 	90.1613 	62.3637 	-0.591113 	268.843 	360.634 	284.632 	539.793 	
21.2026 	-0.0038306 	-0.485937 	-0.243052 	1.76505 	0.0102515 	-3.12542 	90.1613 	62.3637 	-0.591113 	268.843 	360.634 	284.632 	539.793 	
21.219 	-0.0038306 	-0.485937 	-0.243052 	1.76505 	0.0102515 	-3.12542 	90.1613 	62.3637 	-0.591113 	268.843 	360.634 	284.632 	539.793 	
21.2436 	-0.0038306 	-0.485937 	-0.243052 	1.76505 	0.0102515 	-3.12542 	90.1613 	62.3637 	-0.591113 	268.843 	360.634 	284.632 	539.793 	
21.2705 	-0.0038306 	-0.485937 	-0.243052 	1.76505 	0.0102515 	-3.12542 	90.1613 	62.3637 	-0.591113 	268.843 	360.634 	284.632 	539.793 	
21.293 	-0.0038306 	-0.485937 	-0.243052 	1.76505 	0.0102515 	-3.12542 	90.1613 	62.3637 	-0.591113 	268.843 	360.634 	284.632 	539.793 	
21.3094 	-0.0038306 	-0.485937 	-0.243052 	1.76505 	0.0102515 	-3.12542 	90.1613 	62.3637 	-0.591113 	268.843 	360.634 	284.632 	539.793 	
21.3266 	-0.0038306 	-0.485937 	-0.243052 	1.76505 	0.0102515 	-3.12542 	90.1613 	62.3637 	-0.591113 	268.843 	360.634 	284.632 	539.793 	
21.3629 	-0.0038306 	-0.485937 	-0.243052 	1.76505 	0.0102515 	-3.12542 	90.1613 	62.3637 	-0.591113 	268.843 	360.634 	284.632 	539.793 	
21.3792 	-0.0038306 	-0.485937 	-0.243052 	1.76505 	0.0102515 	-3.12542 	90.1613 	62.3637 	-0.591113 	268.843 	360.634 	284.632 	539.793 	
21.4017 	-0.0038306 	-0.485937 	-0.243052 	1.76505 	0.0102515 	-3.12542 	90.1613 	62.3637 	-0.591113 	268.843 	360.634 	284.632 	539.793 	
21.4178 	-0.0038306 	-0.485937 	-0.243052 	1.76505 	0.0102515 	-3.12542 	90.1613 	62.3637 	-0.591113 	268.843 	360.634 	284.632 	539.793 	
21.4398 	-0.0038306 	-0.485937 	-0.243052 	1.76505 	0.0102515 	-3.12542 	90.1613 	62.3637 	-0.591113 	268.843 	360.634 	284.632 	539.793 	
21.4714 	-0.0038306 	-0.485937 	-0.243052 	1.76505 	0.0102515 	-3.12542 	90.1613 	62.3637 	-0.591113 	268.843 	360.634 	284.632 	539.793 	
21.4933 	-0.0038306 	-0.485937 	-0.243052 	1.76505 	0.0102515 	-3.12542 	90.1613 	62.3637 	-0.591113 	268.843 	360.634 	284.632 	539.793 	
21.5092 	-0.0038306 	-0.485937 	-0.243052 	1.76505 	0.0102515 	-3.12542 	90.1613 	62.3637 	-0.591113 	268.843 	360.634 	284.632 	539.793 	
21.5317 	-0.0038306 	-0.485937 	-0.243052 	1.76505 	0.0102515 	-3.12542 	90.1613 	62.3637 	-0.591113 	268.843 	360.634 	284.632 	539.793 	
21.5644 	-0.0038306 	-0.485937 	-0.243052 	1.76505 	0.0102515 	-3.12542 	90.1613 	62.3637 	-0.591113 	268.843 	360.634 	284.632 	539.793 	
21.5805 	-0.0038306 	-0.485937 	-0.243052 	1.76505 	0.0102515 	-3.12542 	90.1613 	62.3637 	-0.591113 	268.843 	360.634 	284.632 	539.793 	
21.6015 	-0.0038306 	-0.485937 	-0.243052 	1.76505 	0.0102515 	-3.12542 	90.1613 	62.3637 	-0.591113 	268.843 	360.634 	284.632 	539.793 	
21.6586 	-0.0038306 	-0.485937 	-0.243052 	1.76505 	0.0102515 	-3.12542 	90.1613 	62.3637 	-0.591113 	268.843 	360.634 	284.632 	539.793 	
21.6743 	-0.0038306 	-0.485937 	-0.243052 	1.76505 	0.0102515 	-3.12542 	90.1613 	62.3637 	-0.591113 	268.843 	360.634 	284.632 	539.793 	
21.6968 	-0.0038306 	-0.485937 	-0.243052 	1.76505 	0.0102515 	-3.12542 	90.1613 	62.3637 	-0.591113 	268.843 	360.634 	284.632 	539.793 	
21.7139 	-0.0038306 	-0.485937 	-0.243052 	1.76505 	0.0102515 	-3.12542 	90.1613 	62.3637 	-0.591113 	268.843 	360.634 	284.632 	539.793 	
21.7299 	-0.0038306 	-0.485937 	-0.243052 	1.76505 	0.0102515 	-3.12542 	90.1613 	62.3637 	-0.591113 	268.843 	360.634 	284.632 	539.793 	
21.7671 	-0.0038306 	-0.485937 	-0.243052 	1.76505 	0.0102515 	-3.12542 	90.1613 	62.3637 	-0.591113 	268.843 	360.634 	284.632 	539.793 	
21.79 	-0.0038306 	-0.485937 	-0.243052 	1.76505 	0.0102515 	-3.12542 	90.1613 	62.3637 	-0.591113 	268.843 	360.634 	284.632 	539.793 	
21.8052 	-0.0038306 	-0.485937 	-0.243052 	1.76505 	0.0102515 	-3.12542 	90.1613 	62.3637 	-0.591113 	268.843 	360.634 	284.632 	539.793 	
21.8223 	-0.0038306 	-0.485937 	-0.243052 	1.76505 	0.0102515 	-3.12542 	90.1613 	62.3637 	-0.591113 	268.843 	360.634 	284.632 	539.793 	
21.8603 	-0.0038306 	-0.485937 	-0.243052 	1.76505 	0.0102515 	-3.12542 	90.1613 	62.3637 	-0.591113 	268.843 	360.634 	284.632 	539.793 	
21.8763 	-0.0038306 	-0.485937 	-0.243052 	1.76505 	0.0102515 	-3.12542 	90.1613 	62.3637 	-0.591113 	268.843 	360.634 	284.632 	539.793 	
21.9123 	-0.0038306 	-0.485937 	-0.243052 	1.76505 	0.0102515 	-3.12542 	90.1613 	62.3637 	-0.591113 	268.843 	360.634 	284.632 	539.793 	
21.929 	-0.0038306 	-0.485937 	-0.243052 	1.76505 	0.0102515 	-3.12542 	90.1613 	62.3637 	-0.591113 	268.843 	360.634 	284.632 	539.793 	
21.9687 	-0.0038306 	-0.485937 	-0.243052 	1.76505 	0.0102515 	-3.12542 	90.1613 	62.3637 	-0.591113 	268.843 	360.634 	284.632 	539.793 	
21.9921 	-0.0038306 	-0.485937 	-0.243052 	1.76505 	0.0102515 	-3.12542 	90.1613 	62.3637 	-0.591113 	268.843 	360.634 	284.632 	539.793 	
22.0082 	-0.0038306 	-0.485937 	-0.243052 	1.76505 	0.0102515 	-3.12542 	90.1613 	62.3637 	-0.591113 	268.843 	360.634 	284.632 	539.793 	
22.0323 	-0.0038306 	-0.485937 	-0.243052 	1.76505 	0.0102515 	-3.12542 	90.1613 	62.3637 	-0.591113 	268.843 	360.634 	284.632 	539.793 	
22.0633 	-0.0038306 	-0.485937 	-0.243052 	1.76505 	0.0102515 	-3.12542 	90.1613 	62.3637 	-0.591113 	268.843 	360.634 	284.632 	539.793 	
22.0793 	-0.0038306 	-0.485937 	-0.243052 	1.76505 	0.0102515 	-3.12542 	90.1613 	62.3637 	-0.591113 	268.843 	360.634 	284.632 	539.793 	
22.1018 	-0.0038306 	-0.485937 	-0.243052 	1.76505 	0.0102515 	-3.12542 	90.1613 	62.3637 	-0.591113 	268.843 	360.634 	284.632 	539.793 	
22.118 	-0.0038306 	-0.485937 	-0.243052 	1.76505 	0.0102515 	-3.12542 	90.1613 	62.3637 	-0.591113 	268.843 	360.634 	284.632 	539.793 	
22.1399 	-0.0038306 	-0.485937 	-0.243052 	1.76505 	0.0102515 	-3.12542 	90.1613 	62.3637 	-0.591113 	268.843 	360.634 	284.632 	539.793 	
22.1929 	-0.0038306 	-0.485937 	-0.243052 	1.76505 	0.0102515 	-3.12542 	90.1613 	62.3637 	-0.591113 	268.843 	360.634 	284.632 	539.793 	
22.2082 	-0.0038306 	-0.485937 	-0.243052 	1.76505 	0.0102515 	-3.12542 	90.1613 	62.3637 	-0.591113 	268.843 	360.634 	284.632 	539.793 	
22.2306 	-0.0038306 	-0.485937 	-0.243052 	1.76505 	0.0102515 	-3.12542 	90.1613 	62.3637 	-0.591113 	268.843 	360.634 	284.632 	539.793 	
22.2612 	-0.0038306 	-0.485937 	-0.243052 	1.76505 	0.0102515 	-3.12542 	90.1613 	62.3637 	-0.591113 	268.843 	360.634 	284.632 	539.793 	
22.2775 	-0.0038306 	-0.485937 	-0.243052 	1.76505 	0.0102515 	-3.12542 	90.1613 	62.3637 	-0.591113 	268.843 	360.634 	284.632 	539.793 	
22.3006 	-0.0038306 	-0.485937 	-0.243052 	1.76505 	0.0102515 	-3.12542 	90.1613 	62.3637 	-0.591113 	268.843 	360.634 	284.632 	539.793 	
22.3165 	-0.0038306 	-0.485937 	-0.243052 	1.76505 	0.0102515 	-3.12542 	90.1613 	62.3637 	-0.591113 	268.843 	360.634 	284.632 	539.793 	
22.3407 	-0.0038306 	-0.485937 	-0.243052 	1.76505 	0.0102515 	-3.12542 	90.1613 	62.3637 	-0.591113 	268.843 	360.634 	284.632 	539.793 	
22.3714 	-0.0038306 	-0.485937 	-0.243052 	1.76505 	0.0102515 	-3.12542 	90.1613 	62.3637 	-0.591113 	268.843 	360.634 	284.632 	539.793 	
22.3944 	-0.0038306 	-0.485937 	-0.243052 	1.76505 	0.0102515 	-3.12542 	90.1613 	62.3637 	-0.591113 	268.843 	360.634 	284.632 	539.793 	
22.4114 	-0.0038306 	-0.485937 	-0.243052 	1.76505 	0.0102515 	-3.12542 	90.1613 	62.3637 	-0.591113 	268.843 	360.634 	284.632 	539.793 	
22.4344 	-0.0038306 	-0.485937 	-0.243052 	1.76505 	0.0102515 	-3.12542 	90.1613 	62.3637 	-0.591113 	268.843 	360.634 	284.632 	539.793 	
22.4677 	-0.0038306 	-0.485937 	-0.243052 	1.76505 	0.0102515 	-3.12542 	90.1613 	62.3637 	-0.591113 	268.843 	360.634 	284.632 	539.793 	
22.4843 	-0.0038306 	-0.485937 	-0.243052 	1.76505 	0.0102515 	-3.12542 	90.1613 	62.3637 	-0.591113 	268.843 	360.634 	284.632 	539.793 	
22.5057 	-0.0038306 	-0.485937 	-0.243052 	1.76505 	0.0102515 	-3.12542 	90.1613 	62.3637 	-0.591113 	268.843 	360.634 	284.632 	539.793 	
22.5217 	-0.0038306 	-0.485937 	-0.243052 	1.76505 	0.0102515 	-3.12542 	90.1613 	62.3637 	-0.591113 	268.843 	360.634 	284.632 	539.793 	
22.5598 	-0.0038306 	-0.485937 	-0.243052 	1.76505 	0.0102515 	-3.12542 	90.1613 	62.3637 	-0.591113 	268.843 	360.634 	284.632 	539.793 	
22.5757 	-0.0038306 	-0.485937 	-0.243052 	1.76505 	0.0102515 	-3.12542 	90.1613 	62.3637 	-0.591113 	268.843 	360.634 	284.632 	539.793 	
22.5984 	-0.0038306 	-0.485937 	-0.243052 	1.76505 	0.0102515 	-3.12542 	90.1613 	62.3637 	-0.591113 	268.843 	360.634 	284.632 	539.793 	
22.615 	-0.0038306 	-0.485937 	-0.243052 	1.76505 	0.0102515 	-3.12542 	90.1613 	62.3637 	-0.591113 	268.843 	360.634 	284.632 	539.793 	
22.6379 	-0.0038306 	-0.485937 	-0.243052 	1.76505 	0.0102515 	-3.12542 	90.1613 	62.3637 	-0.591113 	268.843 	360.634 	284.632 	539.793 	
22.6684 	-0.0038306 	-0.485937 	-0.243052 	1.76505 	0.0102515 	-3.12542 	90.1613 	62.3637 	-0.591113 	268.843 	360.634 	284.632 	539.793 	
22.6916 	-0.0038306 	-0.485937 	-0.243052 	1.76505 	0.0102515 	-3.12542 	90.1613 	62.3637 	-0.591113 	268.843 	360.634 	284.632 	539.793 	
22.7078 	-0.0038306 	-0.485937 	-0.243052 	1.76505 	0.0102515 	-3.12542 	90.1613 	62.3637 	-0.591113 	268.843 	360.634 	284.632 	539.793 	
22.7337 	-0.0038306 	-0.485937 	-0.243052 	1.76505 	0.0102515 	-3.12542 	90.1613 	62.3637 	-0.591113 	268.843 	360.634 	284.632 	539.793 	
22.7796 	-0.0038306 	-0.485937 	-0.243052 	1.76505 	0.0102515 	-3.12542 	90.1613 	62.3637 	-0.591113 	268.843 	360.634 	284.632 	539.793 	
22.8022 	-0.0038306 	-0.485937 	-0.243052 	1.76505 	0.0102515 	-3.12542 	90.1613 	62.3637 	-0.591113 	268.843 	360.634 	284.632 	539.793 	
22.8193 	-0.0038306 	-0.485937 	-0.243052 	1.76505 	0.0102515 	-3.12542 	90.1613 	62.3637 	-0.591113 	268.843 	360.634 	284.632 	539.793 	
22.8441 	-0.0038306 	-0.485937 	-0.243052 	1.76505 	0.0102515 	-3.12542 	90.1613 	62.3637 	-0.591113 	268.843 	360.634 	284.632 	539.793 	
22.8716 	-0.0038306 	-0.485937 	-0.243052 	1.76505 	0.0102515 	-3.12542 	90.1613 	62.3637 	-0.591113 	268.843 	360.634 	284.632 	539.793 	
22.8936 	-0.0038306 	-0.485937 	-0.243052 	1.76505 	0.0102515 	-3.12542 	90.1613 	62.3637 	-0.591113 	268.843 	360.634 	284.632 	539.793 	
22.9111 	-0.0038306 	-0.485937 	-0.243052 	1.76505 	0.0102515 	-3.12542 	90.1613 	62.3637 	-0.591113 	268.843 	360.634 	284.632 	539.793 	
22.9364 	-0.0038306 	-0.485937 	-0.243052 	1.76505 	0.0102515 	-3.12542 	90.1613 	62.3637 	-0.591113 	268.843 	360.634 	284.632 	539.793 	
22.9686 	-0.0038306 	-0.485937 	-0.243052 	1.76505 	0.0102515 	-3.12542 	90.1613 	62.3637 	-0.591113 	268.843 	360.634 	284.632 	539.793 	
22.9858 	-0.0038306 	-0.485937 	-0.243052 	1.76505 	0.0102515 	-3.12542 	90.1613 	62.3637 	-0.591113 	268.843 	360.634 	284.632 	539.793 	
23.0108 	-0.0038306 	-0.485937 	-0.243052 	1.76505 	0.0102515 	-3.12542 	90.1613 	62.3637 	-0.591113 	268.843 	360.634 	284.632 	539.793 	
23.0362 	-0.0038306 	-0.485937 	-0.243052 	1.76505 	0.0102515 	-3.12542 	90.1613 	62.3637 	-0.591113 	268.843 	360.634 	284.632 	539.793 	
23.0647 	-0.0038306 	-0.485937 	-0.243052 	1.76505 	0.0102515 	-3.12542 	90.1613 	62.3637 	-0.591113 	268.843 	360.634 	284.632 	539.793 	
23.0813 	-0.0038306 	-0.485937 	-0.243052 	1.76505 	0.0102515 	-3.12542 	90.1613 	62.3636 	-0.591113 	268.843 	360.634 	284.632 	539.793 	
23.1014 	-0.0038306 	-0.485937 	-0.243052 	1.76505 	0.0102515 	-3.12542 	90.1613 	62.3636 	-0.591113 	268.843 	360.634 	284.632 	539.793 	
23.1173 	-0.0038306 	-0.485937 	-0.243052 	1.76505 	0.0102515 	-3.12542 	90.1613 	62.3636 	-0.591113 	268.843 	360.634 	284.632 	539.793 	
23.1404 	-0.0038306 	-0.485937 	-0.243052 	1.76505 	0.0102515 	-3.12542 	90.1613 	62.3636 	-0.591113 	268.843 	360.634 	284.632 	539.793 	
23.1782 	-0.0038306 	-0.485937 	-0.243052 	1.76505 	0.0102515 	-3.12542 	90.1613 	62.3636 	-0.591113 	268.843 	360.634 	284.632 	539.793 	
23.2018 	-0.0038306 	-0.485937 	-0.243052 	1.76505 	0.0102515 	-3.12542 	90.1613 	62.3636 	-0.591113 	268.843 	360.634 	284.632 	539.793 	
23.2187 	-0.0038306 	-0.485937 	-0.243052 	1.76505 	0.0102515 	-3.12542 	90.1613 	62.3636 	-0.591113 	268.843 	360.634 	284.632 	539.793 	
23.2443 	-0.0038306 	-0.485937 	-0.243052 	1.76505 	0.0102515 	-3.12542 	90.1613 	62.3636 	-0.591113 	268.843 	360.634 	284.632 	539.793 	
23.2724 	-0.0038306 	-0.485937 	-0.243052 	1.76505 	0.0102515 	-3.12542 	90.1613 	62.3636 	-0.591113 	268.843 	360.634 	284.632 	539.793 	
23.2943 	-0.0038306 	-0.485937 	-0.243052 	1.76505 	0.0102515 	-3.12542 	90.1613 	62.3636 	-0.591113 	268.843 	360.634 	284.632 	539.793 	
23.3167 	-0.0038306 	-0.485937 	-0.243052 	1.76505 	0.0102515 	-3.12542 	90.1613 	62.3636 	-0.591113 	268.843 	360.634 	284.632 	539.793 	
23.3913 	-0.0038306 	-0.485937 	-0.243052 	1.76505 	0.0102515 	-3.12542 	90.1613 	62.3636 	-0.591113 	268.843 	360.634 	284.632 	539.793 	
23.4092 	-0.0038306 	-0.485937 	-0.243052 	1.76505 	0.0102515 	-3.12542 	90.1613 	62.3636 	-0.591113 	268.843 	360.634 	284.632 	539.793 	
23.4336 	-0.0038306 	-0.485937 	-0.243052 	1.76505 	0.0102515 	-3.12542 	90.1613 	62.3636 	-0.591113 	268.843 	360.634 	284.632 	539.793 	
23.4644 	-0.0038306 	-0.485937 	-0.243052 	1.76505 	0.0102515 	-3.12542 	90.1613 	62.3636 	-0.591113 	268.843 	360.634 	284.632 	539.793 	
23.4807 	-0.0038306 	-0.485937 	-0.243052 	1.76505 	0.0102515 	-3.12542 	90.1613 	62.3636 	-0.591113 	268.843 	360.634 	284.632 	539.793 	
23.5054 	-0.0038306 	-0.485937 	-0.243052 	1.76505 	0.0102515 	-3.12542 	90.1613 	62.3636 	-0.591113 	268.843 	360.634 	284.632 	539.793 	
23.5597 	-0.0038306 	-0.485937 	-0.243052 	1.76505 	0.0102515 	-3.12542 	90.1613 	62.3636 	-0.591113 	268.843 	360.634 	284.632 	539.793 	
23.5757 	-0.0038306 	-0.485937 	-0.243052 	1.76505 	0.0102515 	-3.12542 	90.1613 	62.3636 	-0.591113 	268.843 	360.634 	284.632 	539.793 	
23.5976 	-0.0038306 	-0.485937 	-0.243052 	1.76505 	0.0102515 	-3.12542 	90.1614 	62.3636 	-0.591113 	268.843 	360.634 	284.632 	539.793 	
23.6147 	-0.0038306 	-0.485937 	-0.243052 	1.76505 	0.0102515 	-3.12542 	90.1614 	62.3636 	-0.591113 	268.843 	360.634 	284.632 	539.793 	
23.6315 	-0.0038306 	-0.485937 	-0.243052 	1.76505 	0.0102515 	-3.12542 	90.1614 	62.3636 	-0.591113 	268.843 	360.634 	284.632 	539.793 	
23.6698 	-0.0038306 	-0.485937 	-0.243052 	1.76505 	0.0102515 	-3.12542 	90.1614 	62.3636 	-0.591113 	268.843 	360.634 	284.632 	539.793 	
23.6922 	-0.0038306 	-0.485937 	-0.243052 	1.76505 	0.0102515 	-3.12542 	90.1614 	62.3636 	-0.591113 	268.843 	360.634 	284.632 	539.793 	
23.7109 	-0.0038306 	-0.485937 	-0.243052 	1.76505 	0.0102515 	-3.12542 	90.1614 	62.3636 	-0.591113 	268.843 	360.634 	284.632 	539.793 	
23.7293 	-0.0038306 	-0.485937 	-0.243052 	1.76505 	0.0102515 	-3.12542 	90.1614 	62.3636 	-0.591113 	268.843 	360.634 	284.632 	539.793 	
23.7685 	-0.0038306 	-0.485937 	-0.243052 	1.76505 	0.0102515 	-3.12542 	90.1614 	62.3636 	-0.591113 	268.843 	360.634 	284.632 	539.793 	
23.7859 	-0.0038306 	-0.485937 	-0.243052 	1.76505 	0.0102515 	-3.12542 	90.1614 	62.3636 	-0.591113 	268.843 	360.634 	284.632 	539.793 	
23.8066 	-0.0038306 	-0.485937 	-0.243052 	1.76505 	0.0102515 	-3.12542 	90.1614 	62.3636 	-0.591113 	268.843 	360.634 	284.632 	539.793 	
23.8234 	-0.0038306 	-0.485937 	-0.243052 	1.76505 	0.0102515 	-3.12542 	90.1614 	62.3636 	-0.591113 	268.843 	360.634 	284.632 	539.793 	
23.8615 	-0.0038306 	-0.485937 	-0.243052 	1.76505 	0.0102515 	-3.12542 	90.1614 	62.3636 	-0.591113 	268.843 	360.634 	284.632 	539.793 	
23.881 	-0.0038306 	-0.485937 	-0.243052 	1.76505 	0.0102515 	-3.12542 	90.1614 	62.3636 	-0.591113 	268.843 	360.634 	284.632 	539.793 	
23.9016 	-0.0038306 	-0.485937 	-0.243052 	1.76505 	0.0102515 	-3.12542 	90.1614 	62.3636 	-0.591113 	268.843 	360.634 	284.632 	539.793 	
23.9222 	-0.0038306 	-0.485937 	-0.243052 	1.76505 	0.0102515 	-3.12542 	90.1614 	62.3636 	-0.591113 	268.843 	360.634 	284.632 	539.793 	
23.959 	-0.0038306 	-0.485937 	-0.243052 	1.76505 	0.0102515 	-3.12542 	90.1614 	62.3636 	-0.591113 	268.843 	360.634 	284.632 	539.793 	
23.9761 	-0.0038306 	-0.485937 	-0.243052 	1.76505 	0.0102515 	-3.12542 	90.1614 	62.3636 	-0.591113 	268.843 	360.634 	284.632 	539.793 	
23.9941 	-0.0038306 	-0.485937 	-0.243052 	1.76505 	0.0102515 	-3.12542 	90.1614 	62.3636 	-0.591113 	268.843 	360.634 	284.632 	539.793 	
24.0147 	-0.0038306 	-0.485937 	-0.243052 	1.76505 	0.0102515 	-3.12542 	90.1614 	62.3636 	-0.591113 	268.843 	360.634 	284.632 	539.793 	
24.0381 	-0.0038306 	-0.485937 	-0.243052 	1.76505 	0.0102515 	-3.12542 	90.1614 	62.3636 	-0.591113 	268.843 	360.634 	284.632 	539.793 	
24.0683 	-0.0038306 	-0.485937 	-0.243052 	1.76505 	0.0102515 	-3.12542 	90.1614 	62.3636 	-0.591113 	268.843 	360.634 	284.632 	539.793 	
24.0865 	-0.0038306 	-0.485937 	-0.243052 	1.76505 	0.0102515 	-3.12542 	90.1614 	62.3636 	-0.591113 	268.843 	360.634 	284.632 	539.793 	
24.1094 	-0.0038306 	-0.485937 	-0.243052 	1.76505 	0.0102515 	-3.12542 	90.1614 	62.3636 	-0.591113 	268.843 	360.634 	284.632 	539.793 	
24.1325 	-0.0038306 	-0.485937 	-0.243052 	1.76505 	0.0102515 	-3.12542 	90.1614 	62.3636 	-0.591113 	268.843 	360.634 	284.632 	539.793 	
24.1638 	-0.0038306 	-0.485937 	-0.243052 	1.76505 	0.0102515 	-3.12542 	90.1614 	62.3636 	-0.591113 	268.843 	360.634 	284.632 	539.793 	
24.1802 	-0.0038306 	-0.485937 	-0.243052 	1.76505 	0.0102515 	-3.12542 	90.1614 	62.3636 	-0.591113 	268.843 	360.634 	284.632 	539.793 	
24.2039 	-0.0038306 	-0.485937 	-0.243052 	1.76505 	0.0102515 	-3.12542 	90.1614 	62.3636 	-0.591113 	268.843 	360.634 	284.632 	539.793 	
24.2207 	-0.0038306 	-0.485937 	-0.243052 	1.76505 	0.0102515 	-3.12542 	90.1614 	62.3636 	-0.591113 	268.843 	360.634 	284.632 	539.793 	
24.2586 	-0.0038306 	-0.485937 	-0.243052 	1.76505 	0.0102515 	-3.12542 	90.1614 	62.3636 	-0.591113 	268.843 	360.634 	284.632 	539.793 	
24.2772 	-0.0038306 	-0.485937 	-0.243052 	1.76505 	0.0102515 	-3.12542 	90.1614 	62.3636 	-0.591113 	268.843 	360.634 	284.632 	539.793 	
24.3025 	-0.0038306 	-0.485937 	-0.243052 	1.76505 	0.0102515 	-3.12542 	90.1614 	62.3636 	-0.591113 	268.843 	360.634 	284.632 	539.793 	
24.3214 	-0.0038306 	-0.485937 	-0.243052 	1.76505 	0.0102515 	-3.12542 	90.1614 	62.3636 	-0.591113 	268.843 	360.634 	284.632 	539.793 	
24.3633 	-0.0038306 	-0.485937 	-0.243052 	1.76505 	0.0102515 	-3.12542 	90.1614 	62.3636 	-0.591113 	268.843 	360.634 	284.632 	539.793 	
24.3796 	-0.0038306 	-0.485937 	-0.243052 	1.76505 	0.0102515 	-3.12542 	90.1614 	62.3636 	-0.591113 	268.843 	360.634 	284.632 	539.793 	
24.4013 	-0.0038306 	-0.485937 	-0.243052 	1.76505 	0.0102515 	-3.12542 	90.1614 	62.3636 	-0.591113 	268.843 	360.634 	284.632 	539.793 	
24.4176 	-0.0038306 	-0.485937 	-0.243052 	1.76505 	0.0102515 	-3.12542 	90.1614 	62.3636 	-0.591113 	268.843 	360.634 	284.632 	539.793 	
24.4704 	-0.0038306 	-0.485937 	-0.243052 	1.76505 	0.0102515 	-3.12542 	90.1614 	62.3636 	-0.591113 	268.843 	360.634 	284.632 	539.793 	
24.4863 	-0.0038306 	-0.485937 	-0.243052 	1.76505 	0.0102515 	-3.12542 	90.1614 	62.3636 	-0.591113 	268.843 	360.634 	284.632 	539.793 	
24.5065 	-0.0038306 	-0.485937 	-0.243052 	1.76505 	0.0102515 	-3.12542 	90.1614 	62.3636 	-0.591113 	268.843 	360.634 	284.632 	539.793 	
24.5233 	-0.0038306 	-0.485937 	-0.243052 	1.76505 	0.0102515 	-3.12542 	90.1614 	62.3636 	-0.591113 	268.843 	360.634 	284.632 	539.793 	
24.5613 	-0.0038306 	-0.485937 	-0.243052 	1.76505 	0.0102515 	-3.12542 	90.1614 	62.3636 	-0.591113 	268.843 	360.634 	284.632 	539.793 	
24.5775 	-0.0038306 	-0.485937 	-0.243052 	1.76505 	0.0102515 	-3.12542 	90.1614 	62.3636 	-0.591113 	268.843 	360.634 	284.632 	539.793 	
24.5995 	-0.0038306 	-0.485937 	-0.243052 	1.76505 	0.0102515 	-3.12542 	90.1614 	62.3636 	-0.591113 	268.843 	360.634 	284.632 	539.793 	
24.6166 	-0.0038306 	-0.485937 	-0.243052 	1.76505 	0.0102515 	-3.12542 	90.1614 	62.3636 	-0.591113 	268.843 	360.634 	284.632 	539.793 	
24.6327 	-0.0038306 	-0.485937 	-0.243052 	1.76505 	0.0102515 	-3.12542 	90.1614 	62.3636 	-0.591113 	268.843 	360.634 	284.632 	539.793 	
24.6715 	-0.0038306 	-0.485937 	-0.243052 	1.76505 	0.0102515 	-3.12542 	90.1614 	62.3636 	-0.591113 	268.843 	360.634 	284.632 	539.793 	
24.6944 	-0.0038306 	-0.485937 	-0.243052 	1.76505 	0.0102515 	-3.12542 	90.1614 	62.3636 	-0.591113 	268.843 	360.634 	284.632 	539.793 	
24.7104 	-0.0038306 	-0.485937 	-0.243052 	1.76505 	0.0102515 	-3.12542 	90.1614 	62.3636 	-0.591113 	268.843 	360.634 	284.632 	539.793 	
24.7325 	-0.0038306 	-0.485937 	-0.243052 	1.76505 	0.0102515 	-3.12542 	90.1614 	62.3636 	-0.591113 	268.843 	360.634 	284.632 	539.793 	
24.7654 	-0.0038306 	-0.485937 	-0.243052 	1.76505 	0.0102515 	-3.12542 	90.1614 	62.3636 	-0.591113 	268.843 	360.634 	284.632 	539.793 	
24.7824 	-0.0038306 	-0.485937 	-0.243052 	1.76505 	0.0102515 	-3.12542 	90.1614 	62.3636 	-0.591113 	268.843 	360.634 	284.632 	539.793 	
24.8023 	-0.0038306 	-0.485937 	-0.243052 	1.76505 	0.0102515 	-3.12542 	90.1614 	62.3636 	-0.591113 	268.843 	360.634 	284.632 	539.793 	
24.8192 	-0.0038306 	-0.485937 	-0.243052 	1.76505 	0.0102515 	-3.12542 	90.1614 	62.3636 	-0.591113 	268.843 	360.634 	284.632 	539.793 	
24.8437 	-0.0038306 	-0.485937 	-0.243052 	1.76505 	0.0102515 	-3.12542 	90.1614 	62.3636 	-0.591113 	268.843 	360.634 	284.632 	539.793 	
24.8705 	-0.0038306 	-0.485937 	-0.243052 	1.76505 	0.0102515 	-3.12542 	90.1614 	62.3636 	-0.591113 	268.843 	360.634 	284.632 	539.793 	
24.893 	-0.0038306 	-0.485937 	-0.243052 	1.76505 	0.0102515 	-3.12542 	90.1614 	62.3636 	-0.591113 	268.843 	360.634 	284.632 	539.793 	
24.9085 	-0.0038306 	-0.485937 	-0.243052 	1.76505 	0.0102515 	-3.12542 	90.1614 	62.3636 	-0.591113 	268.843 	360.634 	284.632 	539.793 	
24.9263 	-0.0038306 	-0.485937 	-0.243052 	1.76505 	0.0102515 	-3.12542 	90.1614 	62.3636 	-0.591113 	268.843 	360.634 	284.632 	539.793 	
24.965 	-0.0038306 	-0.485937 	-0.243052 	1.76505 	0.0102515 	-3.12542 	90.1614 	62.3636 	-0.591113 	268.843 	360.634 	284.632 	539.793 	
24.9823 	-0.0038306 	-0.485937 	-0.243052 	1.76505 	0.0102515 	-3.12542 	90.1614 	62.3636 	-0.591113 	268.843 	360.634 	284.632 	539.793 	
25.0019 	-0.0038306 	-0.485937 	-0.243052 	1.76505 	0.0102515 	-3.12542 	90.1614 	62.3636 	-0.591113 	268.843 	360.634 	284.632 	539.793 	
25.0177 	-0.0038306 	-0.485937 	-0.243052 	1.76505 	0.0102515 	-3.12542 	90.1614 	62.3636 	-0.591113 	268.843 	360.634 	284.632 	539.793 	
25.0712 	-0.0038306 	-0.485937 	-0.243052 	1.76505 	0.0102515 	-3.12542 	90.1614 	62.3636 	-0.591113 	268.843 	360.634 	284.632 	539.793 	
25.089 	-0.0038306 	-0.485937 	-0.243052 	1.76505 	0.0102515 	-3.12542 	90.1614 	62.3636 	-0.591113 	268.843 	360.634 	284.632 	539.793 	
25.1079 	-0.0038306 	-0.485937 	-0.243052 	1.76505 	0.0102515 	-3.12542 	90.1614 	62.3636 	-0.591113 	268.843 	360.634 	284.632 	539.793 	
25.1261 	-0.0038306 	-0.485937 	-0.243052 	1.76505 	0.0102515 	-3.12542 	90.1614 	62.3636 	-0.591113 	268.843 	360.634 	284.632 	539.793 	
25.1611 	-0.0038306 	-0.485937 	-0.243052 	1.76505 	0.0102515 	-3.12542 	90.1614 	62.3636 	-0.591113 	268.843 	360.634 	284.632 	539.793 	
25.1994 	-0.0038306 	-0.485937 	-0.243052 	1.76505 	0.0102515 	-3.12542 	90.1614 	62.3636 	-0.591113 	268.843 	360.634 	284.632 	539.793 	
25.2168 	-0.0038306 	-0.485937 	-0.243052 	1.76505 	0.0102515 	-3.12542 	90.1614 	62.3636 	-0.591113 	268.843 	360.634 	284.632 	539.793 	
25.2384 	-0.0038306 	-0.485937 	-0.243052 	1.76505 	0.0102515 	-3.12542 	90.1614 	62.3636 	-0.591113 	268.843 	360.634 	284.632 	539.793 	
25.2705 	-0.0038306 	-0.485937 	-0.243052 	1.76505 	0.0102515 	-3.12542 	90.1614 	62.3636 	-0.591113 	268.843 	360.634 	284.632 	539.793 	
25.287 	-0.0038306 	-0.485937 	-0.243052 	1.76505 	0.0102515 	-3.12542 	90.1614 	62.3636 	-0.591113 	268.843 	360.634 	284.632 	539.793 	
25.3064 	-0.0038306 	-0.485937 	-0.243052 	1.76505 	0.0102515 	-3.12542 	90.1614 	62.3636 	-0.591113 	268.843 	360.634 	284.632 	539.793 	
25.3236 	-0.0038306 	-0.485937 	-0.243052 	1.76505 	0.0102515 	-3.12542 	90.1614 	62.3636 	-0.591113 	268.843 	360.634 	284.632 	539.793 	
25.3608 	-0.0038306 	-0.485937 	-0.243052 	1.76505 	0.0102515 	-3.12542 	90.1614 	62.3636 	-0.591113 	268.843 	360.634 	284.632 	539.793 	
25.3807 	-0.0038306 	-0.485937 	-0.243052 	1.76505 	0.0102515 	-3.12542 	90.1614 	62.3636 	-0.591113 	268.843 	360.634 	284.632 	539.793 	
25.4026 	-0.0038306 	-0.485937 	-0.243052 	1.76505 	0.0102515 	-3.12542 	90.1614 	62.3636 	-0.591113 	268.843 	360.634 	284.632 	539.793 	
25.419 	-0.0038306 	-0.485937 	-0.243052 	1.76505 	0.0102515 	-3.12542 	90.1614 	62.3636 	-0.591113 	268.843 	360.634 	284.632 	539.793 	
25.4436 	-0.0038306 	-0.485937 	-0.243052 	1.76505 	0.0102515 	-3.12542 	90.1614 	62.3636 	-0.591113 	268.843 	360.634 	284.632 	539.793 	
25.4725 	-0.0038306 	-0.485937 	-0.243052 	1.76505 	0.0102515 	-3.12542 	90.1614 	62.3636 	-0.591113 	268.843 	360.634 	284.632 	539.793 	
25.4887 	-0.0038306 	-0.485937 	-0.243052 	1.76505 	0.0102515 	-3.12542 	90.1614 	62.3636 	-0.591113 	268.843 	360.634 	284.632 	539.793 	
25.509 	-0.0038306 	-0.485937 	-0.243052 	1.76505 	0.0102515 	-3.12542 	90.1614 	62.3636 	-0.591113 	268.843 	360.634 	284.632 	539.793 	
25.531 	-0.0038306 	-0.485937 	-0.243052 	1.76505 	0.0102515 	-3.12542 	90.1614 	62.3636 	-0.591113 	268.843 	360.634 	284.632 	539.793 	
25.5629 	-0.0038306 	-0.485937 	-0.243052 	1.76505 	0.0102515 	-3.12542 	90.1614 	62.3636 	-0.591113 	268.843 	360.634 	284.632 	539.793 	
25.5799 	-0.0038306 	-0.485937 	-0.243052 	1.76505 	0.0102515 	-3.12542 	90.1614 	62.3636 	-0.591113 	268.843 	360.634 	284.632 	539.793 	
25.6019 	-0.0038306 	-0.485937 	-0.243052 	1.76505 	0.0102515 	-3.12542 	90.1614 	62.3636 	-0.591113 	268.843 	360.634 	284.632 	539.793 	
25.6207 	-0.0038306 	-0.485937 	-0.243052 	1.76505 	0.0102515 	-3.12542 	90.1614 	62.3636 	-0.591113 	268.843 	360.634 	284.632 	539.793 	
25.66 	-0.0038306 	-0.485937 	-0.243052 	1.76505 	0.0102515 	-3.12542 	90.1614 	62.3636 	-0.591113 	268.843 	360.634 	284.632 	539.793 	
25.6761 	-0.0038306 	-0.485937 	-0.243052 	1.76505 	0.0102515 	-3.12542 	90.1614 	62.3636 	-0.591113 	268.843 	360.634 	284.632 	539.793 	
25.6926 	-0.0038306 	-0.485937 	-0.243052 	1.76505 	0.0102515 	-3.12542 	90.1614 	62.3636 	-0.591113 	268.843 	360.634 	284.632 	539.793 	
25.7151 	-0.0038306 	-0.485937 	-0.243052 	1.76505 	0.0102515 	-3.12542 	90.1614 	62.3636 	-0.591113 	268.843 	360.634 	284.632 	539.793 	
25.7388 	-0.0038306 	-0.485937 	-0.243052 	1.76505 	0.0102515 	-3.12542 	90.1614 	62.3636 	-0.591113 	268.843 	360.634 	284.632 	539.793 	
25.7699 	-0.0038306 	-0.485937 	-0.243052 	1.76505 	0.0102515 	-3.12542 	90.1614 	62.3636 	-0.591113 	268.843 	360.634 	284.632 	539.793 	
25.7877 	-0.0038306 	-0.485937 	-0.243052 	1.76505 	0.0102515 	-3.12542 	90.1614 	62.3636 	-0.591113 	268.843 	360.634 	284.632 	539.793 	
25.8079 	-0.0038306 	-0.485937 	-0.243052 	1.76505 	0.0102515 	-3.12542 	90.1614 	62.3636 	-0.591113 	268.843 	360.634 	284.632 	539.793 	
25.8352 	-0.0038306 	-0.485937 	-0.243052 	1.76505 	0.0102515 	-3.12542 	90.1614 	62.3636 	-0.591113 	268.843 	360.634 	284.632 	539.793 	
25.8623 	-0.0038306 	-0.485937 	-0.243052 	1.76505 	0.0102515 	-3.12542 	90.1614 	62.3636 	-0.591113 	268.843 	360.634 	284.632 	539.793 	
25.879 	-0.0038306 	-0.485937 	-0.243052 	1.76505 	0.0102515 	-3.12542 	90.1614 	62.3636 	-0.591113 	268.843 	360.634 	284.632 	539.793 	
25.9004 	-0.0038306 	-0.485937 	-0.243052 	1.76505 	0.0102515 	-3.12542 	90.1614 	62.3636 	-0.591113 	268.843 	360.634 	284.632 	539.793 	
25.9407 	-0.0038306 	-0.485937 	-0.243052 	1.76505 	0.0102515 	-3.12542 	90.1614 	62.3636 	-0.591113 	268.843 	360.634 	284.632 	539.793 	
25.9764 	-0.0038306 	-0.485937 	-0.243052 	1.76505 	0.0102515 	-3.12542 	90.1614 	62.3636 	-0.591113 	268.843 	360.634 	284.632 	539.793 	
25.9936 	-0.0038306 	-0.485937 	-0.243052 	1.76505 	0.0102515 	-3.12542 	90.1614 	62.3636 	-0.591113 	268.843 	360.634 	284.632 	539.793 	
26.0126 	-0.0038306 	-0.485937 	-0.243052 	1.76505 	0.0102515 	-3.12542 	90.1614 	62.3636 	-0.591113 	268.843 	360.634 	284.632 	539.793 	
26.0351 	-0.0038306 	-0.485937 	-0.243052 	1.76505 	0.0102515 	-3.12542 	90.1614 	62.3636 	-0.591113 	268.843 	360.634 	284.632 	539.793 	
26.068 	-0.0038306 	-0.485937 	-0.243052 	1.76505 	0.0102515 	-3.12542 	90.1614 	62.3636 	-0.591113 	268.843 	360.634 	284.632 	539.793 	
26.0896 	-0.0038306 	-0.485937 	-0.243052 	1.76505 	0.0102515 	-3.12542 	90.1614 	62.3636 	-0.591113 	268.843 	360.634 	284.632 	539.793 	
26.1069 	-0.0038306 	-0.485937 	-0.243052 	1.76505 	0.0102515 	-3.12542 	90.1614 	62.3636 	-0.591113 	268.843 	360.634 	284.632 	539.793 	
26.1236 	-0.0038306 	-0.485937 	-0.243052 	1.76505 	0.0102515 	-3.12542 	90.1614 	62.3636 	-0.591113 	268.843 	360.634 	284.632 	539.793 	
26.1672 	-0.0038306 	-0.485937 	-0.243052 	1.76505 	0.0102515 	-3.12542 	90.1614 	62.3636 	-0.591113 	268.843 	360.634 	284.632 	539.793 	
26.1895 	-0.0038306 	-0.485937 	-0.243052 	1.76505 	0.0102515 	-3.12542 	90.1614 	62.3636 	-0.591113 	268.843 	360.634 	284.632 	539.793 	
26.2088 	-0.0038306 	-0.485937 	-0.243052 	1.76505 	0.0102515 	-3.12542 	90.1614 	62.3636 	-0.591113 	268.843 	360.634 	284.632 	539.793 	
26.2259 	-0.0038306 	-0.485937 	-0.243052 	1.76505 	0.0102515 	-3.12542 	90.1614 	62.3636 	-0.591113 	268.843 	360.634 	284.632 	539.793 	
26.2645 	-0.0038306 	-0.485937 	-0.243052 	1.76505 	0.0102515 	-3.12542 	90.1614 	62.3636 	-0.591113 	268.843 	360.634 	284.632 	539.793 	
26.2826 	-0.0038306 	-0.485937 	-0.243052 	1.76505 	0.0102515 	-3.12542 	90.1614 	62.3636 	-0.591113 	268.843 	360.634 	284.632 	539.793 	
26.3014 	-0.0038306 	-0.485937 	-0.243052 	1.76505 	0.0102515 	-3.12542 	90.1614 	62.3636 	-0.591113 	268.843 	360.634 	284.632 	539.793 	
26.3197 	-0.0038306 	-0.485937 	-0.243052 	1.76505 	0.0102515 	-3.12542 	90.1614 	62.3636 	-0.591113 	268.843 	360.634 	284.632 	539.793 	
26.3441 	-0.0038306 	-0.485937 	-0.243052 	1.76505 	0.0102515 	-3.12542 	90.1614 	62.3636 	-0.591113 	268.843 	360.634 	284.632 	539.793 	
26.378 	-0.0038306 	-0.485937 	-0.243052 	1.76505 	0.0102515 	-3.12542 	90.1614 	62.3636 	-0.591113 	268.843 	360.634 	284.632 	539.793 	
26.3996 	-0.0038306 	-0.485937 	-0.243052 	1.76505 	0.0102515 	-3.12542 	90.1614 	62.3636 	-0.591113 	268.843 	360.634 	284.632 	539.793 	
26.4155 	-0.0038306 	-0.485937 	-0.243052 	1.76505 	0.0102515 	-3.12542 	90.1614 	62.3636 	-0.591113 	268.843 	360.634 	284.632 	539.793 	
26.4386 	-0.0038306 	-0.485937 	-0.243052 	1.76505 	0.0102515 	-3.12542 	90.1614 	62.3636 	-0.591113 	268.843 	360.634 	284.632 	539.793 	
26.4714 	-0.0038306 	-0.485937 	-0.243052 	1.76505 	0.0102515 	-3.12542 	90.1614 	62.3636 	-0.591113 	268.843 	360.634 	284.632 	539.793 	
26.4941 	-0.0038306 	-0.485937 	-0.243052 	1.76505 	0.0102515 	-3.12542 	90.1614 	62.3636 	-0.591113 	268.843 	360.634 	284.632 	539.793 	
26.5113 	-0.0038306 	-0.485937 	-0.243052 	1.76505 	0.0102515 	-3.12542 	90.1614 	62.3636 	-0.591113 	268.843 	360.634 	284.632 	539.793 	
26.529 	-0.0038306 	-0.485937 	-0.243052 	1.76505 	0.0102515 	-3.12542 	90.1614 	62.3636 	-0.591113 	268.843 	360.634 	284.632 	539.793 	
26.566 	-0.0038306 	-0.485937 	-0.243052 	1.76505 	0.0102515 	-3.12542 	90.1614 	62.3636 	-0.591113 	268.843 	360.634 	284.632 	539.793 	
26.5832 	-0.0038306 	-0.485937 	-0.243052 	1.76505 	0.0102515 	-3.12542 	90.1614 	62.3636 	-0.591113 	268.843 	360.634 	284.632 	539.793 	
26.6026 	-0.0038306 	-0.485937 	-0.243052 	1.76505 	0.0102515 	-3.12542 	90.1614 	62.3636 	-0.591113 	268.843 	360.634 	284.632 	539.793 	
26.6192 	-0.0038306 	-0.485937 	-0.243052 	1.76505 	0.0102515 	-3.12542 	90.1614 	62.3636 	-0.591113 	268.843 	360.634 	284.632 	539.793 	
26.6405 	-0.0038306 	-0.485937 	-0.243052 	1.76505 	0.0102515 	-3.12542 	90.1614 	62.3636 	-0.591113 	268.843 	360.634 	284.632 	539.793 	
26.6715 	-0.0038306 	-0.485937 	-0.243052 	1.76505 	0.0102515 	-3.12542 	90.1614 	62.3636 	-0.591113 	268.843 	360.634 	284.632 	539.793 	
26.6886 	-0.0038306 	-0.485937 	-0.243052 	1.76505 	0.0102515 	-3.12542 	90.1614 	62.3636 	-0.591113 	268.843 	360.634 	284.632 	539.793 	
26.7087 	-0.0038306 	-0.485937 	-0.243052 	1.76505 	0.0102515 	-3.12542 	90.1614 	62.3636 	-0.591113 	268.843 	360.634 	284.632 	539.793 	
26.7328 	-0.0038306 	-0.485937 	-0.243052 	1.76505 	0.0102515 	-3.12542 	90.1614 	62.3636 	-0.591113 	268.843 	360.634 	284.632 	539.793 	
26.7696 	-0.0038306 	-0.485937 	-0.243052 	1.76505 	0.0102515 	-3.12542 	90.1614 	62.3636 	-0.591113 	268.843 	360.634 	284.632 	539.793 	
26.7854 	-0.0038306 	-0.485937 	-0.243052 	1.76505 	0.0102515 	-3.12542 	90.1614 	62.3636 	-0.591113 	268.843 	360.634 	284.632 	539.793 	
26.8097 	-0.0038306 	-0.485937 	-0.243052 	1.76505 	0.0102515 	-3.12542 	90.1614 	62.3636 	-0.591113 	268.843 	360.634 	284.632 	539.793 	
26.8255 	-0.0038306 	-0.485937 	-0.243052 	1.76505 	0.0102515 	-3.12542 	90.1614 	62.3636 	-0.591113 	268.843 	360.634 	284.632 	539.793 	
26.8635 	-0.0038306 	-0.485937 	-0.243052 	1.76505 	0.0102515 	-3.12542 	90.1614 	62.3636 	-0.591113 	268.843 	360.634 	284.632 	539.793 	
26.8795 	-0.0038306 	-0.485937 	-0.243052 	1.76505 	0.0102515 	-3.12542 	90.1614 	62.3636 	-0.591113 	268.843 	360.634 	284.632 	539.793 	
26.9014 	-0.0038306 	-0.485937 	-0.243052 	1.76505 	0.0102515 	-3.12542 	90.1614 	62.3636 	-0.591113 	268.843 	360.634 	284.632 	539.793 	
26.9183 	-0.0038306 	-0.485937 	-0.243052 	1.76505 	0.0102515 	-3.12542 	90.1614 	62.3636 	-0.591113 	268.843 	360.634 	284.632 	539.793 	
26.9451 	-0.0038306 	-0.485937 	-0.243052 	1.76505 	0.0102515 	-3.12542 	90.1614 	62.3636 	-0.591113 	268.843 	360.634 	284.632 	539.793 	
26.9704 	-0.0038306 	-0.485937 	-0.243052 	1.76505 	0.0102515 	-3.12542 	90.1614 	62.3636 	-0.591113 	268.843 	360.634 	284.632 	539.793 	
26.9951 	-0.0038306 	-0.485937 	-0.243052 	1.76505 	0.0102515 	-3.12542 	90.1614 	62.3636 	-0.591113 	268.843 	360.634 	284.632 	539.793 	
27.0118 	-0.0038306 	-0.485937 	-0.243052 	1.76505 	0.0102515 	-3.12542 	90.1614 	62.3636 	-0.591113 	268.843 	360.634 	284.632 	539.793 	
27.0344 	-0.0038306 	-0.485937 	-0.243052 	1.76505 	0.0102515 	-3.12542 	90.1614 	62.3636 	-0.591113 	268.843 	360.634 	284.632 	539.793 	
27.0655 	-0.0038306 	-0.485937 	-0.243052 	1.76505 	0.0102515 	-3.12542 	90.1614 	62.3636 	-0.591113 	268.843 	360.634 	284.632 	539.793 	
27.0816 	-0.0038306 	-0.485937 	-0.243052 	1.76505 	0.0102515 	-3.12542 	90.1614 	62.3636 	-0.591113 	268.843 	360.634 	284.632 	539.793 	
27.1018 	-0.0038306 	-0.485937 	-0.243052 	1.76505 	0.0102515 	-3.12542 	90.1614 	62.3636 	-0.591113 	268.843 	360.634 	284.632 	539.793 	
27.1187 	-0.0038306 	-0.485937 	-0.243052 	1.76505 	0.0102515 	-3.12542 	90.1614 	62.3636 	-0.591113 	268.843 	360.634 	284.632 	539.793 	
27.1434 	-0.0038306 	-0.485937 	-0.243052 	1.76505 	0.0102515 	-3.12542 	90.1614 	62.3636 	-0.591113 	268.843 	360.634 	284.632 	539.793 	
27.1741 	-0.0038306 	-0.485937 	-0.243052 	1.76505 	0.0102515 	-3.12542 	90.1614 	62.3636 	-0.591113 	268.843 	360.634 	284.632 	539.793 	
27.199 	-0.0038306 	-0.485937 	-0.243052 	1.76505 	0.0102515 	-3.12542 	90.1614 	62.3636 	-0.591113 	268.843 	360.634 	284.632 	539.793 	
27.2158 	-0.0038306 	-0.485937 	-0.243052 	1.76505 	0.0102515 	-3.12542 	90.1614 	62.3636 	-0.591113 	268.843 	360.634 	284.632 	539.793 	
27.2329 	-0.0038306 	-0.485937 	-0.243052 	1.76505 	0.0102515 	-3.12542 	90.1614 	62.3636 	-0.591113 	268.843 	360.634 	284.632 	539.793 	
27.271 	-0.0038306 	-0.485937 	-0.243052 	1.76505 	0.0102515 	-3.12542 	90.1614 	62.3636 	-0.591113 	268.843 	360.634 	284.632 	539.793 	
27.2926 	-0.0038306 	-0.485937 	-0.243052 	1.76505 	0.0102515 	-3.12542 	90.1614 	62.3636 	-0.591113 	268.843 	360.634 	284.632 	539.793 	
27.3085 	-0.0038306 	-0.485937 	-0.243052 	1.76505 	0.0102515 	-3.12542 	90.1614 	62.3636 	-0.591113 	268.843 	360.634 	284.632 	539.793 	
27.3315 	-0.0038306 	-0.485937 	-0.243052 	1.76505 	0.0102515 	-3.12542 	90.1614 	62.3636 	-0.591113 	268.843 	360.634 	284.632 	539.793 	
27.3626 	-0.0038306 	-0.485937 	-0.243052 	1.76505 	0.0102515 	-3.12542 	90.1614 	62.3636 	-0.591113 	268.843 	360.634 	284.632 	539.793 	
27.3803 	-0.0038306 	-0.485937 	-0.243052 	1.76505 	0.0102515 	-3.12542 	90.1614 	62.3636 	-0.591113 	268.843 	360.634 	284.632 	539.793 	
27.4014 	-0.0038306 	-0.485937 	-0.243052 	1.76505 	0.0102515 	-3.12542 	90.1614 	62.3636 	-0.591113 	268.843 	360.634 	284.632 	539.793 	
27.4195 	-0.0038306 	-0.485937 	-0.243052 	1.76505 	0.0102515 	-3.12542 	90.1614 	62.3636 	-0.591113 	268.843 	360.634 	284.632 	539.793 	
27.557 	-0.0038306 	-0.485937 	-0.243052 	1.76505 	0.0102515 	-3.12542 	90.1614 	62.3636 	-0.591113 	268.843 	360.634 	284.632 	539.793 	
27.5811 	-0.0038306 	-0.485937 	-0.243052 	1.76505 	0.0102515 	-3.12542 	90.1614 	62.3636 	-0.591113 	268.843 	360.634 	284.632 	539.793 	
27.6012 	-0.0038306 	-0.485937 	-0.243052 	1.76505 	0.0102515 	-3.12542 	90.1614 	62.3636 	-0.591113 	268.843 	360.634 	284.632 	539.793 	
27.6161 	-0.0038306 	-0.485937 	-0.243052 	1.76505 	0.0102515 	-3.12542 	90.1614 	62.3636 	-0.591113 	268.843 	360.634 	284.632 	539.793 	
27.639 	-0.0038306 	-0.485937 	-0.243052 	1.76505 	0.0102515 	-3.12542 	90.1614 	62.3636 	-0.591113 	268.843 	360.634 	284.632 	539.793 	
27.6652 	-0.0038306 	-0.485937 	-0.243052 	1.76505 	0.0102515 	-3.12542 	90.1614 	62.3636 	-0.591113 	268.843 	360.634 	284.632 	539.793 	
27.68 	-0.0038306 	-0.485937 	-0.243052 	1.76505 	0.0102515 	-3.12542 	90.1614 	62.3636 	-0.591113 	268.843 	360.634 	284.632 	539.793 	
27.7017 	-0.0038306 	-0.485937 	-0.243052 	1.76505 	0.0102515 	-3.12542 	90.1614 	62.3636 	-0.591113 	268.843 	360.634 	284.632 	539.793 	
27.7162 	-0.0038306 	-0.485937 	-0.243052 	1.76505 	0.0102515 	-3.12542 	90.1614 	62.3636 	-0.591113 	268.843 	360.634 	284.632 	539.793 	
27.7373 	-0.0038306 	-0.485937 	-0.243052 	1.76505 	0.0102515 	-3.12542 	90.1614 	62.3636 	-0.591113 	268.843 	360.634 	284.632 	539.793 	
27.7676 	-0.0038306 	-0.485937 	-0.243052 	1.76505 	0.0102515 	-3.12542 	90.1614 	62.3636 	-0.591113 	268.843 	360.634 	284.632 	539.793 	
27.7826 	-0.0038306 	-0.485937 	-0.243052 	1.76505 	0.0102515 	-3.12542 	90.1614 	62.3636 	-0.591113 	268.843 	360.634 	284.632 	539.793 	
27.8024 	-0.0038306 	-0.485937 	-0.243052 	1.76505 	0.0102515 	-3.12542 	90.1614 	62.3636 	-0.591113 	268.843 	360.634 	284.632 	539.793 	
27.8194 	-0.0038306 	-0.485937 	-0.243052 	1.76505 	0.0102515 	-3.12542 	90.1614 	62.3636 	-0.591113 	268.843 	360.634 	284.632 	539.793 	
27.8608 	-0.0038306 	-0.485937 	-0.243052 	1.76505 	0.0102515 	-3.12542 	90.1614 	62.3636 	-0.591113 	268.843 	360.634 	284.632 	539.793 	
27.8795 	-0.0038306 	-0.485937 	-0.243052 	1.76505 	0.0102515 	-3.12542 	90.1614 	62.3636 	-0.591113 	268.843 	360.634 	284.632 	539.793 	
27.9015 	-0.0038306 	-0.485937 	-0.243052 	1.76505 	0.0102515 	-3.12542 	90.1614 	62.3636 	-0.591113 	268.843 	360.634 	284.632 	539.793 	
27.9207 	-0.0038306 	-0.485937 	-0.243052 	1.76505 	0.0102515 	-3.12542 	90.1614 	62.3636 	-0.591113 	268.843 	360.634 	284.632 	539.793 	
27.9582 	-0.0038306 	-0.485937 	-0.243052 	1.76505 	0.0102515 	-3.12542 	90.1614 	62.3636 	-0.591113 	268.843 	360.634 	284.632 	539.793 	
27.9756 	-0.0038306 	-0.485937 	-0.243052 	1.76505 	0.0102515 	-3.12542 	90.1614 	62.3636 	-0.591113 	268.843 	360.634 	284.632 	539.793 	
27.9936 	-0.0038306 	-0.485937 	-0.243052 	1.76505 	0.0102515 	-3.12542 	90.1614 	62.3636 	-0.591113 	268.843 	360.634 	284.632 	539.793 	
28.0158 	-0.0038306 	-0.485937 	-0.243052 	1.76505 	0.0102515 	-3.12542 	90.1614 	62.3636 	-0.591113 	268.843 	360.634 	284.632 	539.793 	
28.0336 	-0.0038306 	-0.485937 	-0.243052 	1.76505 	0.0102515 	-3.12542 	90.1614 	62.3636 	-0.591113 	268.843 	360.634 	284.632 	539.793 	
28.0721 	-0.0038306 	-0.485937 	-0.243052 	1.76505 	0.0102515 	-3.12542 	90.1614 	62.3636 	-0.591113 	268.843 	360.634 	284.632 	539.793 	
28.0944 	-0.0038306 	-0.485937 	-0.243052 	1.76505 	0.0102515 	-3.12542 	90.1614 	62.3636 	-0.591113 	268.843 	360.634 	284.632 	539.793 	
28.1115 	-0.0038306 	-0.485937 	-0.243052 	1.76505 	0.0102515 	-3.12542 	90.1614 	62.3636 	-0.591113 	268.843 	360.634 	284.632 	539.793 	
28.1312 	-0.0038306 	-0.485937 	-0.243052 	1.76505 	0.0102515 	-3.12542 	90.1614 	62.3636 	-0.591113 	268.843 	360.634 	284.632 	539.793 	
28.1707 	-0.0038306 	-0.485937 	-0.243052 	1.76505 	0.0102515 	-3.12542 	90.1614 	62.3636 	-0.591113 	268.843 	360.634 	284.632 	539.793 	
28.1872 	-0.0038306 	-0.485937 	-0.243052 	1.76505 	0.0102515 	-3.12542 	90.1614 	62.3636 	-0.591113 	268.843 	360.634 	284.632 	539.793 	
28.2084 	-0.0038306 	-0.485937 	-0.243052 	1.76505 	0.0102515 	-3.12542 	90.1614 	62.3636 	-0.591113 	268.843 	360.634 	284.632 	539.793 	
28.2348 	-0.0038306 	-0.485937 	-0.243052 	1.76505 	0.0102515 	-3.12542 	90.1614 	62.3636 	-0.591113 	268.843 	360.634 	284.632 	539.793 	
28.2636 	-0.0038306 	-0.485937 	-0.243052 	1.76505 	0.0102515 	-3.12542 	90.1614 	62.3636 	-0.591113 	268.843 	360.634 	284.632 	539.793 	
28.2812 	-0.0038306 	-0.485937 	-0.243052 	1.76505 	0.0102515 	-3.12542 	90.1614 	62.3636 	-0.591113 	268.843 	360.634 	284.632 	539.793 	
28.3019 	-0.0038306 	-0.485937 	-0.243052 	1.76505 	0.0102515 	-3.12542 	90.1614 	62.3636 	-0.591113 	268.843 	360.634 	284.632 	539.793 	
28.3191 	-0.0038306 	-0.485937 	-0.243052 	1.76505 	0.0102515 	-3.12542 	90.1614 	62.3636 	-0.591113 	268.843 	360.634 	284.632 	539.793 	
28.3637 	-0.0038306 	-0.485937 	-0.243052 	1.76505 	0.0102515 	-3.12542 	90.1614 	62.3636 	-0.591113 	268.843 	360.634 	284.632 	539.793 	
28.381 	-0.0038306 	-0.485937 	-0.243052 	1.76505 	0.0102515 	-3.12542 	90.1614 	62.3636 	-0.591113 	268.843 	360.634 	284.632 	539.793 	
28.4023 	-0.0038306 	-0.485937 	-0.243052 	1.76505 	0.0102515 	-3.12542 	90.1614 	62.3636 	-0.591113 	268.843 	360.634 	284.632 	539.793 	
28.4187 	-0.0038306 	-0.485937 	-0.243052 	1.76505 	0.0102515 	-3.12542 	90.1614 	62.3636 	-0.591113 	268.843 	360.634 	284.632 	539.793 	
28.4431 	-0.0038306 	-0.485937 	-0.243052 	1.76505 	0.0102515 	-3.12542 	90.1614 	62.3636 	-0.591113 	268.843 	360.634 	284.632 	539.793 	
28.4705 	-0.0038306 	-0.485937 	-0.243052 	1.76505 	0.0102515 	-3.12542 	90.1614 	62.3636 	-0.591113 	268.843 	360.634 	284.632 	539.793 	
28.4924 	-0.0038306 	-0.485937 	-0.243052 	1.76505 	0.0102515 	-3.12542 	90.1614 	62.3636 	-0.591113 	268.843 	360.634 	284.632 	539.793 	
28.5088 	-0.0038306 	-0.485937 	-0.243052 	1.76505 	0.0102515 	-3.12542 	90.1614 	62.3636 	-0.591113 	268.843 	360.634 	284.632 	539.793 	
28.5264 	-0.0038306 	-0.485937 	-0.243052 	1.76505 	0.0102515 	-3.12542 	90.1614 	62.3636 	-0.591113 	268.843 	360.634 	284.632 	539.793 	
28.5622 	-0.0038306 	-0.485937 	-0.243052 	1.76505 	0.0102515 	-3.12542 	90.1614 	62.3636 	-0.591113 	268.843 	360.634 	284.632 	539.793 	
28.5789 	-0.0038306 	-0.485937 	-0.243052 	1.76505 	0.0102515 	-3.12542 	90.1614 	62.3636 	-0.591113 	268.843 	360.634 	284.632 	539.793 	
28.6013 	-0.0038306 	-0.485937 	-0.243052 	1.76505 	0.0102515 	-3.12542 	90.1614 	62.3636 	-0.591113 	268.843 	360.634 	284.632 	539.793 	
28.6184 	-0.0038306 	-0.485937 	-0.243052 	1.76505 	0.0102515 	-3.12542 	90.1614 	62.3636 	-0.591113 	268.843 	360.634 	284.632 	539.793 	
28.6456 	-0.0038306 	-0.485937 	-0.243052 	1.76505 	0.0102515 	-3.12542 	90.1614 	62.3636 	-0.591113 	268.843 	360.634 	284.632 	539.793 	
28.6726 	-0.0038306 	-0.485937 	-0.243052 	1.76505 	0.0102515 	-3.12542 	90.1614 	62.3636 	-0.591113 	268.843 	360.634 	284.632 	539.793 	
28.6971 	-0.0038306 	-0.485937 	-0.243052 	1.76505 	0.0102515 	-3.12542 	90.1614 	62.3636 	-0.591113 	268.843 	360.634 	284.632 	539.793 	
28.7142 	-0.0038306 	-0.485937 	-0.243052 	1.76505 	0.0102515 	-3.12542 	90.1614 	62.3636 	-0.591113 	268.843 	360.634 	284.632 	539.793 	
28.7316 	-0.0038306 	-0.485937 	-0.243052 	1.76505 	0.0102515 	-3.12542 	90.1614 	62.3636 	-0.591113 	268.843 	360.634 	284.632 	539.793 	
28.7689 	-0.0038306 	-0.485937 	-0.243052 	1.76505 	0.0102515 	-3.12542 	90.1614 	62.3636 	-0.591113 	268.843 	360.634 	284.632 	539.793 	
28.7931 	-0.0038306 	-0.485937 	-0.243052 	1.76505 	0.0102515 	-3.12542 	90.1614 	62.3636 	-0.591113 	268.843 	360.634 	284.632 	539.793 	
28.8107 	-0.0038306 	-0.485937 	-0.243052 	1.76505 	0.0102515 	-3.12542 	90.1614 	62.3636 	-0.591113 	268.843 	360.634 	284.632 	539.793 	
28.8336 	-0.0038306 	-0.485937 	-0.243052 	1.76505 	0.0102515 	-3.12542 	90.1614 	62.3636 	-0.591113 	268.843 	360.634 	284.632 	539.793 	
28.8669 	-0.0038306 	-0.485937 	-0.243052 	1.76505 	0.0102515 	-3.12542 	90.1614 	62.3636 	-0.591113 	268.843 	360.634 	284.632 	539.793 	
28.8857 	-0.0038306 	-0.485937 	-0.243052 	1.76505 	0.0102515 	-3.12542 	90.1614 	62.3636 	-0.591113 	268.843 	360.634 	284.632 	539.793 	
28.9046 	-0.0038306 	-0.485937 	-0.243052 	1.76505 	0.0102515 	-3.12542 	90.1614 	62.3636 	-0.591113 	268.843 	360.634 	284.632 	539.793 	
28.9207 	-0.0038306 	-0.485937 	-0.243052 	1.76505 	0.0102515 	-3.12542 	90.1614 	62.3636 	-0.591113 	268.843 	360.634 	284.632 	539.793 	
28.9616 	-0.0038306 	-0.485937 	-0.243052 	1.76505 	0.0102515 	-3.12542 	90.1614 	62.3636 	-0.591113 	268.843 	360.634 	284.632 	539.793 	
28.9776 	-0.0038306 	-0.485937 	-0.243052 	1.76505 	0.0102515 	-3.12542 	90.1614 	62.3636 	-0.591113 	268.843 	360.634 	284.632 	539.793 	
29.0005 	-0.0038306 	-0.485937 	-0.243052 	1.76505 	0.0102515 	-3.12542 	90.1614 	62.3636 	-0.591113 	268.843 	360.634 	284.632 	539.793 	
29.0179 	-0.0038306 	-0.485937 	-0.243052 	1.76505 	0.0102515 	-3.12542 	90.1614 	62.3636 	-0.591113 	268.843 	360.634 	284.632 	539.793 	
29.0435 	-0.0038306 	-0.485937 	-0.243052 	1.76505 	0.0102515 	-3.12542 	90.1614 	62.3636 	-0.591113 	268.843 	360.634 	284.632 	539.793 	
29.0765 	-0.0038306 	-0.485937 	-0.243052 	1.76505 	0.0102515 	-3.12542 	90.1614 	62.3636 	-0.591113 	268.843 	360.634 	284.632 	539.793 	
29.0942 	-0.0038306 	-0.485937 	-0.243052 	1.76505 	0.0102515 	-3.12542 	90.1614 	62.3636 	-0.591113 	268.843 	360.634 	284.632 	539.793 	
29.1127 	-0.0038306 	-0.485937 	-0.243052 	1.76505 	0.0102515 	-3.12542 	90.1614 	62.3636 	-0.591113 	268.843 	360.634 	284.632 	539.793 	
29.1286 	-0.0038306 	-0.485937 	-0.243052 	1.76505 	0.0102515 	-3.12542 	90.1614 	62.3636 	-0.591113 	268.843 	360.634 	284.632 	539.793 	
29.1675 	-0.0038306 	-0.485937 	-0.243052 	1.76505 	0.0102515 	-3.12542 	90.1614 	62.3636 	-0.591113 	268.843 	360.634 	284.632 	539.793 	
29.1834 	-0.0038306 	-0.485937 	-0.243052 	1.76505 	0.0102515 	-3.12542 	90.1614 	62.3636 	-0.591113 	268.843 	360.634 	284.632 	539.793 	
29.248 	-0.0038306 	-0.485937 	-0.243052 	1.76505 	0.0102515 	-3.12542 	90.1614 	62.3636 	-0.591113 	268.843 	360.634 	284.632 	539.793 	
29.2742 	-0.0038306 	-0.485937 	-0.243052 	1.76505 	0.0102515 	-3.12542 	90.1614 	62.3636 	-0.591113 	268.843 	360.634 	284.632 	539.793 	
29.2898 	-0.0038306 	-0.485937 	-0.243052 	1.76505 	0.0102515 	-3.12542 	90.1614 	62.3636 	-0.591113 	268.843 	360.634 	284.632 	539.793 	
29.3091 	-0.0038306 	-0.485937 	-0.243052 	1.76505 	0.0102515 	-3.12542 	90.1614 	62.3636 	-0.591113 	268.843 	360.634 	284.632 	539.793 	
29.3248 	-0.0038306 	-0.485937 	-0.243052 	1.76505 	0.0102515 	-3.12542 	90.1614 	62.3636 	-0.591113 	268.843 	360.634 	284.632 	539.793 	
29.3598 	-0.0038306 	-0.485937 	-0.243052 	1.76505 	0.0102515 	-3.12542 	90.1614 	62.3636 	-0.591113 	268.843 	360.634 	284.632 	539.793 	
29.3749 	-0.0038306 	-0.485937 	-0.243052 	1.76505 	0.0102515 	-3.12542 	90.1614 	62.3636 	-0.591113 	268.843 	360.634 	284.632 	539.793 	
29.4025 	-0.0038306 	-0.485937 	-0.243052 	1.76505 	0.0102515 	-3.12542 	90.1614 	62.3636 	-0.591113 	268.843 	360.634 	284.632 	539.793 	
29.4185 	-0.0038306 	-0.485937 	-0.243052 	1.76505 	0.0102515 	-3.12542 	90.1614 	62.3636 	-0.591113 	268.843 	360.634 	284.632 	539.793 	
29.4477 	-0.0038306 	-0.485937 	-0.243052 	1.76505 	0.0102515 	-3.12542 	90.1614 	62.3636 	-0.591113 	268.843 	360.634 	284.632 	539.793 	
29.4731 	-0.0038306 	-0.485937 	-0.243052 	1.76505 	0.0102515 	-3.12542 	90.1614 	62.3636 	-0.591113 	268.843 	360.634 	284.632 	539.793 	
29.498 	-0.0038306 	-0.485937 	-0.243052 	1.76505 	0.0102515 	-3.12542 	90.1614 	62.3636 	-0.591113 	268.843 	360.634 	284.632 	539.793 	
29.5151 	-0.0038306 	-0.485937 	-0.243052 	1.76505 	0.0102515 	-3.12542 	90.1614 	62.3636 	-0.591113 	268.843 	360.634 	284.632 	539.793 	
29.5327 	-0.0038306 	-0.485937 	-0.243052 	1.76505 	0.0102515 	-3.12542 	90.1614 	62.3636 	-0.591113 	268.843 	360.634 	284.632 	539.793 	
29.5708 	-0.0038306 	-0.485937 	-0.243052 	1.76505 	0.0102515 	-3.12542 	90.1614 	62.3636 	-0.591113 	268.843 	360.634 	284.632 	539.793 	
29.5938 	-0.0038306 	-0.485937 	-0.243052 	1.76505 	0.0102515 	-3.12542 	90.1614 	62.3636 	-0.591113 	268.843 	360.634 	284.632 	539.793 	
29.6108 	-0.0038306 	-0.485937 	-0.243052 	1.76505 	0.0102515 	-3.12542 	90.1614 	62.3636 	-0.591113 	268.843 	360.634 	284.632 	539.793 	
29.6273 	-0.0038306 	-0.485937 	-0.243052 	1.76505 	0.0102515 	-3.12542 	90.1614 	62.3636 	-0.591113 	268.843 	360.634 	284.632 	539.793 	
29.6655 	-0.0038306 	-0.485937 	-0.243052 	1.76505 	0.0102515 	-3.12542 	90.1614 	62.3636 	-0.591113 	268.843 	360.634 	284.632 	539.793 	
29.6817 	-0.0038306 	-0.485937 	-0.243052 	1.76505 	0.0102515 	-3.12542 	90.1614 	62.3636 	-0.591113 	268.843 	360.634 	284.632 	539.793 	
29.7034 	-0.0038306 	-0.485937 	-0.243052 	1.76505 	0.0102515 	-3.12542 	90.1614 	62.3636 	-0.591113 	268.843 	360.634 	284.632 	539.793 	
29.7219 	-0.0038306 	-0.485937 	-0.243052 	1.76505 	0.0102515 	-3.12542 	90.1614 	62.3636 	-0.591113 	268.843 	360.634 	284.632 	539.793 	
29.76 	-0.0038306 	-0.485937 	-0.243052 	1.76505 	0.0102515 	-3.12542 	90.1614 	62.3636 	-0.591113 	268.843 	360.634 	284.632 	539.793 	
29.776 	-0.0038306 	-0.485937 	-0.243052 	1.76505 	0.0102515 	-3.12542 	90.1614 	62.3636 	-0.591113 	268.843 	360.634 	284.632 	539.793 	
29.8007 	-0.0038306 	-0.485937 	-0.243052 	1.76505 	0.0102515 	-3.12542 	90.1614 	62.3636 	-0.591113 	268.843 	360.634 	284.632 	539.793 	
29.8172 	-0.0038306 	-0.485937 	-0.243052 	1.76505 	0.0102515 	-3.12542 	90.1614 	62.3636 	-0.591113 	268.843 	360.634 	284.632 	539.793 	
29.8431 	-0.0038306 	-0.485937 	-0.243052 	1.76505 	0.0102515 	-3.12542 	90.1614 	62.3636 	-0.591113 	268.843 	360.634 	284.632 	539.793 	
29.8729 	-0.0038306 	-0.485937 	-0.243052 	1.76505 	0.0102515 	-3.12542 	90.1614 	62.3636 	-0.591113 	268.843 	360.634 	284.632 	539.793 	
29.8911 	-0.0038306 	-0.485937 	-0.243052 	1.76505 	0.0102515 	-3.12542 	90.1614 	62.3636 	-0.591113 	268.843 	360.634 	284.632 	539.793 	
29.9095 	-0.0038306 	-0.485937 	-0.243052 	1.76505 	0.0102515 	-3.12542 	90.1614 	62.3636 	-0.591113 	268.843 	360.634 	284.632 	539.793 	
29.9339 	-0.0038306 	-0.485937 	-0.243052 	1.76505 	0.0102515 	-3.12542 	90.1614 	62.3636 	-0.591113 	268.843 	360.634 	284.632 	539.793 	
29.9615 	-0.0038306 	-0.485937 	-0.243052 	1.76505 	0.0102515 	-3.12542 	90.1614 	62.3636 	-0.591113 	268.843 	360.634 	284.632 	539.793 	
29.9777 	-0.0038306 	-0.485937 	-0.243052 	1.76505 	0.0102515 	-3.12542 	90.1614 	62.3636 	-0.591113 	268.843 	360.634 	284.632 	539.793 	
30.0005 	-0.0038306 	-0.485937 	-0.243052 	1.76505 	0.0102515 	-3.12542 	90.1614 	62.3636 	-0.591113 	268.843 	360.634 	284.632 	539.793 	
30.0189 	-0.0038306 	-0.485937 	-0.243052 	1.76505 	0.0102515 	-3.12542 	90.1614 	62.3636 	-0.591113 	268.843 	360.634 	284.632 	539.793 	
30.0409 	-0.0038306 	-0.485937 	-0.243052 	1.76505 	0.0102515 	-3.12542 	90.1614 	62.3636 	-0.591113 	268.843 	360.634 	284.632 	539.793 	
30.0742 	-0.0038306 	-0.485937 	-0.243052 	1.76505 	0.0102515 	-3.12542 	90.1614 	62.3636 	-0.591113 	268.843 	360.634 	284.632 	539.793 	
30.0969 	-0.0038306 	-0.485937 	-0.243052 	1.76505 	0.0102515 	-3.12542 	90.1614 	62.3636 	-0.591113 	268.843 	360.634 	284.632 	539.793 	
30.1141 	-0.0038306 	-0.485937 	-0.243052 	1.76505 	0.0102515 	-3.12542 	90.1614 	62.3636 	-0.591113 	268.843 	360.634 	284.632 	539.793 	
30.1417 	-0.0038306 	-0.485937 	-0.243052 	1.76505 	0.0102515 	-3.12542 	90.1614 	62.3636 	-0.591113 	268.843 	360.634 	284.632 	539.793 	
30.1709 	-0.0038306 	-0.485937 	-0.243052 	1.76505 	0.0102515 	-3.12542 	90.1614 	62.3636 	-0.591113 	268.843 	360.634 	284.632 	539.793 	
30.1893 	-0.0038306 	-0.485937 	-0.243052 	1.76505 	0.0102515 	-3.12542 	90.1614 	62.3636 	-0.591113 	268.843 	360.634 	284.632 	539.793 	
30.2077 	-0.0038306 	-0.485937 	-0.243052 	1.76505 	0.0102515 	-3.12542 	90.1614 	62.3636 	-0.591113 	268.843 	360.634 	284.632 	539.793 	
30.2314 	-0.0038306 	-0.485937 	-0.243052 	1.76505 	0.0102515 	-3.12542 	90.1614 	62.3636 	-0.591113 	268.843 	360.634 	284.632 	539.793 	
30.2647 	-0.0038306 	-0.485937 	-0.243052 	1.76505 	0.0102515 	-3.12542 	90.1614 	62.3636 	-0.591113 	268.843 	360.634 	284.632 	539.793 	
30.2812 	-0.0038306 	-0.485937 	-0.243052 	1.76505 	0.0102515 	-3.12542 	90.1614 	62.3636 	-0.591113 	268.843 	360.634 	284.632 	539.793 	
30.3016 	-0.0038306 	-0.485937 	-0.243052 	1.76505 	0.0102515 	-3.12542 	90.1614 	62.3636 	-0.591113 	268.843 	360.634 	284.632 	539.793 	
30.3198 	-0.0038306 	-0.485937 	-0.243052 	1.76505 	0.0102515 	-3.12542 	90.1614 	62.3636 	-0.591113 	268.843 	360.634 	284.632 	539.793 	
30.3516 	-0.0038306 	-0.485937 	-0.243052 	1.76505 	0.0102515 	-3.12542 	90.1614 	62.3636 	-0.591113 	268.843 	360.634 	284.632 	539.793 	
30.3705 	-0.0038306 	-0.485937 	-0.243052 	1.76505 	0.0102515 	-3.12542 	90.1614 	62.3636 	-0.591113 	268.843 	360.634 	284.632 	539.793 	
30.3949 	-0.0038306 	-0.485937 	-0.243052 	1.76505 	0.0102515 	-3.12542 	90.1614 	62.3636 	-0.591113 	268.843 	360.634 	284.632 	539.793 	
30.4123 	-0.0038306 	-0.485937 	-0.243052 	1.76505 	0.0102515 	-3.12542 	90.1614 	62.3636 	-0.591113 	268.843 	360.634 	284.632 	539.793 	
30.4675 	-0.0038306 	-0.485937 	-0.243052 	1.76505 	0.0102515 	-3.12542 	90.1614 	62.3636 	-0.591113 	268.843 	360.634 	284.632 	539.793 	
30.7061 	-0.0038306 	-0.485937 	-0.243052 	1.76505 	0.0102515 	-3.12542 	90.1614 	62.3636 	-0.591113 	268.843 	360.634 	284.632 	539.793 	
30.7891 	-0.0038306 	-0.485937 	-0.243052 	1.76505 	0.0102515 	-3.12542 	90.1614 	62.3636 	-0.591113 	268.843 	360.634 	284.632 	539.793 	
30.8048 	-0.0038306 	-0.485937 	-0.243052 	1.76505 	0.0102515 	-3.12542 	90.1614 	62.3636 	-0.591113 	268.843 	360.634 	284.632 	539.793 	
30.8203 	-0.0038306 	-0.485937 	-0.243052 	1.76505 	0.0102515 	-3.12542 	90.1614 	62.3636 	-0.591113 	268.843 	360.634 	284.632 	539.793 	
30.856 	-0.0038306 	-0.485937 	-0.243052 	1.76505 	0.0102515 	-3.12542 	90.1614 	62.3636 	-0.591113 	268.843 	360.634 	284.632 	539.793 	
30.8921 	-0.0038306 	-0.485937 	-0.243052 	1.76505 	0.0102515 	-3.12542 	90.1614 	62.3636 	-0.591113 	268.843 	360.634 	284.632 	539.793 	
30.9079 	-0.0038306 	-0.485937 	-0.243052 	1.76505 	0.0102515 	-3.12542 	90.1614 	62.3636 	-0.591113 	268.843 	360.634 	284.632 	539.793 	
30.9233 	-0.0038306 	-0.485937 	-0.243052 	1.76505 	0.0102515 	-3.12542 	90.1614 	62.3636 	-0.591113 	268.843 	360.634 	284.632 	539.793 	
30.9602 	-0.0038306 	-0.485937 	-0.243052 	1.76505 	0.0102515 	-3.12542 	90.1614 	62.3636 	-0.591113 	268.843 	360.634 	284.632 	539.793 	
30.9752 	-0.0038306 	-0.485937 	-0.243052 	1.76505 	0.0102515 	-3.12542 	90.1614 	62.3636 	-0.591113 	268.843 	360.634 	284.632 	539.793 	
30.9904 	-0.0038306 	-0.485937 	-0.243052 	1.76505 	0.0102515 	-3.12542 	90.1614 	62.3636 	-0.591113 	268.843 	360.634 	284.632 	539.793 	
31.0252 	-0.0038306 	-0.485937 	-0.243052 	1.76505 	0.0102515 	-3.12542 	90.1614 	62.3636 	-0.591113 	268.843 	360.634 	284.632 	539.793 	
31.0612 	-0.0038306 	-0.485937 	-0.243052 	1.76505 	0.0102515 	-3.12542 	90.1614 	62.3636 	-0.591113 	268.843 	360.634 	284.632 	539.793 	
31.0766 	-0.0038306 	-0.485937 	-0.243052 	1.76505 	0.0102515 	-3.12542 	90.1614 	62.3636 	-0.591113 	268.843 	360.634 	284.632 	539.793 	
31.0973 	-0.0038306 	-0.485937 	-0.243052 	1.76505 	0.0102515 	-3.12542 	90.1614 	62.3636 	-0.591113 	268.843 	360.634 	284.632 	539.793 	
31.1122 	-0.0038306 	-0.485937 	-0.243052 	1.76505 	0.0102515 	-3.12542 	90.1614 	62.3636 	-0.591113 	268.843 	360.634 	284.632 	539.793 	
31.1341 	-0.0038306 	-0.485937 	-0.243052 	1.76505 	0.0102515 	-3.12542 	90.1614 	62.3636 	-0.591113 	268.843 	360.634 	284.632 	539.793 	
31.1622 	-0.0038306 	-0.485937 	-0.243052 	1.76505 	0.0102515 	-3.12542 	90.1614 	62.3636 	-0.591113 	268.843 	360.634 	284.632 	539.793 	
31.1773 	-0.0038306 	-0.485937 	-0.243052 	1.76505 	0.0102515 	-3.12542 	90.1614 	62.3636 	-0.591113 	268.843 	360.634 	284.632 	539.793 	
31.1996 	-0.0038306 	-0.485937 	-0.243052 	1.76505 	0.0102515 	-3.12542 	90.1614 	62.3636 	-0.591113 	268.843 	360.634 	284.632 	539.793 	
31.2143 	-0.0038306 	-0.485937 	-0.243052 	1.76505 	0.0102515 	-3.12542 	90.1614 	62.3636 	-0.591113 	268.843 	360.634 	284.632 	539.793 	
31.2368 	-0.0038306 	-0.485937 	-0.243052 	1.76505 	0.0102515 	-3.12542 	90.1614 	62.3636 	-0.591113 	268.843 	360.634 	284.632 	539.793 	
31.2668 	-0.0038306 	-0.485937 	-0.243052 	1.76505 	0.0102515 	-3.12542 	90.1614 	62.3636 	-0.591113 	268.843 	360.634 	284.632 	539.793 	
31.2818 	-0.0038306 	-0.485937 	-0.243052 	1.76505 	0.0102515 	-3.12542 	90.1614 	62.3636 	-0.591113 	268.843 	360.634 	284.632 	539.793 	
31.3019 	-0.0038306 	-0.485937 	-0.243052 	1.76505 	0.0102515 	-3.12542 	90.1614 	62.3636 	-0.591113 	268.843 	360.634 	284.632 	539.793 	
31.3172 	-0.0038306 	-0.485937 	-0.243052 	1.76505 	0.0102515 	-3.12542 	90.1614 	62.3636 	-0.591113 	268.843 	360.634 	284.632 	539.793 	
31.3394 	-0.0038306 	-0.485937 	-0.243052 	1.76505 	0.0102515 	-3.12542 	90.1614 	62.3636 	-0.591113 	268.843 	360.634 	284.632 	539.793 	
31.3726 	-0.0038306 	-0.485937 	-0.243052 	1.76505 	0.0102515 	-3.12542 	90.1614 	62.3636 	-0.591113 	268.843 	360.634 	284.632 	539.793 	
31.3895 	-0.0038306 	-0.485937 	-0.243052 	1.76505 	0.0102515 	-3.12542 	90.1614 	62.3636 	-0.591113 	268.843 	360.634 	284.632 	539.793 	
31.411 	-0.0038306 	-0.485937 	-0.243052 	1.76505 	0.0102515 	-3.12542 	90.1614 	62.3636 	-0.591113 	268.843 	360.634 	284.632 	539.793 	
31.4292 	-0.0038306 	-0.485937 	-0.243052 	1.76505 	0.0102515 	-3.12542 	90.1614 	62.3636 	-0.591113 	268.843 	360.634 	284.632 	539.793 	
31.4709 	-0.0038306 	-0.485937 	-0.243052 	1.76505 	0.0102515 	-3.12542 	90.1614 	62.3636 	-0.591113 	268.843 	360.634 	284.632 	539.793 	
31.4928 	-0.0038306 	-0.485937 	-0.243052 	1.76505 	0.0102515 	-3.12542 	90.1614 	62.3636 	-0.591113 	268.843 	360.634 	284.632 	539.793 	
31.5086 	-0.0038306 	-0.485937 	-0.243052 	1.76505 	0.0102515 	-3.12542 	90.1614 	62.3636 	-0.591113 	268.843 	360.634 	284.632 	539.793 	
31.5252 	-0.0038306 	-0.485937 	-0.243052 	1.76505 	0.0102515 	-3.12542 	90.1614 	62.3636 	-0.591113 	268.843 	360.634 	284.632 	539.793 	
31.5617 	-0.0038306 	-0.485937 	-0.243052 	1.76505 	0.0102515 	-3.12542 	90.1614 	62.3636 	-0.591113 	268.843 	360.634 	284.632 	539.793 	
31.5797 	-0.0038306 	-0.485937 	-0.243052 	1.76505 	0.0102515 	-3.12542 	90.1614 	62.3636 	-0.591113 	268.843 	360.634 	284.632 	539.793 	
31.6029 	-0.0038306 	-0.485937 	-0.243052 	1.76505 	0.0102515 	-3.12542 	90.1614 	62.3636 	-0.591113 	268.843 	360.634 	284.632 	539.793 	
31.6216 	-0.0038306 	-0.485937 	-0.243052 	1.76505 	0.0102515 	-3.12542 	90.1614 	62.3636 	-0.591113 	268.843 	360.634 	284.632 	539.793 	
31.6616 	-0.0038306 	-0.485937 	-0.243052 	1.76505 	0.0102515 	-3.12542 	90.1614 	62.3636 	-0.591113 	268.843 	360.634 	284.632 	539.793 	
31.6794 	-0.0038306 	-0.485937 	-0.243052 	1.76505 	0.0102515 	-3.12542 	90.1614 	62.3636 	-0.591113 	268.843 	360.634 	284.632 	539.793 	
31.7022 	-0.0038306 	-0.485937 	-0.243052 	1.76505 	0.0102515 	-3.12542 	90.1614 	62.3636 	-0.591113 	268.843 	360.634 	284.632 	539.793 	
