RISC-NYUAD/HeavyPayloadDrone/projects/kinova-ros/devel/lib/ne_kinova_demo/VulcanTrajectory/Vulcan1_Vicon_y19m11d13h18min42.csv
time (NSec) 	Kinova Tip Position (t_x) 	t_y 	t_z 	Kinova Tip Angle (theta_x) 	Kinova Tip Angle (theta_y) 	Kinova Tip Angle (theta_z) 	Kinova Joint Angle (j1) 	(j2) 	(j3) 	(j4) 	Kinova Joint Angle (j5) 	(j6) 	(j7)
4.07251 	-0.0177666 	-0.554141 	0.933098 	0.919878 	-0.0159254 	-3.13871 	90.1609 	116.567 	-0.591211 	113.615 	360.634 	123.455 	539.793 	
4.17574 	-0.0177642 	-0.555155 	0.932538 	0.920925 	-0.0159174 	-3.13873 	90.1609 	116.51 	-0.591211 	113.71 	360.634 	123.551 	539.793 	
4.27882 	-0.0177436 	-0.563579 	0.927805 	0.929651 	-0.01585 	-3.13883 	90.161 	116.177 	-0.591211 	114.089 	360.634 	123.941 	539.793 	
4.3816 	-0.0177225 	-0.571963 	0.92295 	0.938377 	-0.0157816 	-3.13893 	90.1609 	115.669 	-0.591211 	114.58 	360.634 	124.417 	539.793 	
4.48485 	-0.0177008 	-0.580306 	0.917976 	0.947104 	-0.0157121 	-3.13903 	90.161 	115.103 	-0.591211 	115.15 	360.634 	125.009 	539.793 	
4.58791 	-0.0176786 	-0.588605 	0.912881 	0.95583 	-0.0156416 	-3.13913 	90.1609 	114.614 	-0.591211 	115.639 	360.634 	125.475 	539.793 	
4.69442 	-0.0176558 	-0.59686 	0.907667 	0.964556 	-0.01557 	-3.13923 	90.161 	114.065 	-0.591211 	116.201 	360.634 	125.954 	539.793 	
4.79738 	-0.0176325 	-0.605067 	0.902333 	0.973282 	-0.0154975 	-3.13933 	90.1609 	113.541 	-0.591211 	116.712 	360.634 	126.554 	539.793 	
4.90153 	-0.0176086 	-0.613225 	0.896881 	0.982008 	-0.0154238 	-3.13942 	90.161 	113.046 	-0.591211 	117.209 	360.634 	127.03 	539.793 	
5.00435 	-0.0175841 	-0.621332 	0.89131 	0.990734 	-0.0153492 	-3.13952 	90.1609 	112.489 	-0.591211 	117.764 	360.634 	127.563 	539.793 	
5.10723 	-0.0175591 	-0.629386 	0.885622 	0.99946 	-0.0152736 	-3.13961 	90.1609 	111.978 	-0.591211 	118.274 	360.634 	128.104 	539.793 	
5.21051 	-0.0175335 	-0.637386 	0.879816 	1.00819 	-0.0151969 	-3.13971 	90.1609 	111.474 	-0.591211 	118.782 	360.634 	128.588 	539.793 	
5.3131 	-0.0174806 	-0.653214 	0.867856 	1.02564 	-0.0150406 	-3.1399 	90.1609 	110.924 	-0.591211 	119.327 	360.634 	129.046 	539.793 	
5.41642 	-0.0174533 	-0.661039 	0.861702 	1.03437 	-0.0149609 	-3.13999 	90.1609 	110.415 	-0.591211 	119.848 	360.634 	129.648 	539.793 	
5.51945 	-0.0174255 	-0.668802 	0.855434 	1.04309 	-0.0148803 	-3.14008 	90.1609 	109.91 	-0.591211 	120.343 	360.634 	130.143 	539.793 	
5.62263 	-0.0173971 	-0.676502 	0.849051 	1.05182 	-0.0147987 	-3.14017 	90.1609 	109.407 	-0.591211 	120.854 	360.634 	130.596 	539.793 	
5.72547 	-0.0173682 	-0.684135 	0.842555 	1.06054 	-0.0147161 	-3.14026 	90.1609 	108.856 	-0.591211 	121.4 	360.634 	131.187 	539.793 	
5.82892 	-0.0173387 	-0.691702 	0.835947 	1.06927 	-0.0146326 	-3.14035 	90.1609 	108.344 	-0.591211 	121.914 	360.634 	131.699 	539.793 	
5.93132 	-0.0173086 	-0.699199 	0.829226 	1.078 	-0.014548 	-3.14044 	90.1609 	107.846 	-0.591211 	122.417 	360.634 	132.154 	539.793 	
6.03454 	-0.017278 	-0.706626 	0.822395 	1.08672 	-0.0144626 	-3.14053 	90.1609 	107.291 	-0.591211 	122.98 	360.634 	132.735 	539.793 	
6.13741 	-0.0172468 	-0.713979 	0.815454 	1.09545 	-0.0143761 	-3.14061 	90.1609 	106.784 	-0.591211 	123.475 	360.634 	133.258 	539.793 	
6.2408 	-0.0172151 	-0.721259 	0.808403 	1.10418 	-0.0142888 	-3.1407 	90.1609 	106.279 	-0.591211 	123.98 	360.634 	133.705 	539.793 	
6.34357 	-0.0171828 	-0.728462 	0.801244 	1.1129 	-0.0142005 	-3.14078 	90.1609 	105.726 	-0.591211 	124.537 	360.634 	134.212 	539.793 	
6.44648 	-0.01715 	-0.735587 	0.793977 	1.12163 	-0.0141113 	-3.14087 	90.1609 	105.22 	-0.591211 	125.04 	360.634 	134.806 	539.793 	
6.55268 	-0.0171166 	-0.742633 	0.786604 	1.13035 	-0.0140211 	-3.14095 	90.1609 	104.718 	-0.591211 	125.547 	360.634 	135.257 	539.793 	
6.65563 	-0.0170827 	-0.749597 	0.779125 	1.13908 	-0.01393 	-3.14103 	90.1609 	104.165 	-0.591211 	126.097 	360.634 	135.809 	539.793 	
6.75864 	-0.0170482 	-0.756479 	0.771541 	1.14781 	-0.0138381 	-3.14111 	90.1609 	103.656 	-0.591211 	126.607 	360.634 	136.347 	539.793 	
6.86162 	-0.0170132 	-0.763275 	0.763855 	1.15653 	-0.0137452 	-3.1412 	90.1609 	103.155 	-0.591211 	127.102 	360.634 	136.818 	539.793 	
6.96483 	-0.0169776 	-0.769986 	0.756065 	1.16526 	-0.0136515 	-3.14127 	90.1609 	102.605 	-0.591211 	127.666 	360.634 	137.35 	539.793 	
7.06795 	-0.0169414 	-0.776608 	0.748175 	1.17399 	-0.0135568 	-3.14135 	90.1609 	102.092 	-0.591211 	128.161 	360.634 	137.894 	539.793 	
7.1708 	-0.0169048 	-0.783141 	0.740184 	1.18271 	-0.0134613 	-3.14143 	90.1609 	101.593 	-0.591211 	128.671 	360.634 	138.371 	539.793 	
7.27362 	-0.0168675 	-0.789583 	0.732094 	1.19144 	-0.0133649 	-3.14151 	90.1609 	101.033 	-0.591211 	129.213 	360.634 	138.841 	539.793 	
7.37677 	-0.0168298 	-0.795931 	0.723906 	1.20017 	-0.0132676 	-3.14158 	90.1609 	100.537 	-0.591211 	129.727 	360.634 	139.439 	539.793 	
7.47984 	-0.0167915 	-0.802186 	0.715622 	1.20889 	-0.0131695 	3.14153 	90.1609 	100.03 	-0.591211 	130.227 	360.634 	139.927 	539.793 	
7.58275 	-0.0167526 	-0.808344 	0.707242 	1.21762 	-0.0130705 	3.14145 	90.1609 	99.5301 	-0.591211 	130.73 	360.634 	140.387 	539.793 	
7.68579 	-0.0167132 	-0.814405 	0.698768 	1.22634 	-0.0129707 	3.14138 	90.1609 	98.9734 	-0.591211 	131.28 	360.634 	140.984 	539.793 	
7.79369 	-0.0166733 	-0.820367 	0.690201 	1.23507 	-0.0128701 	3.14131 	90.1609 	98.4195 	-0.591211 	131.838 	360.634 	141.49 	539.793 	
7.89697 	-0.0166329 	-0.826228 	0.681542 	1.2438 	-0.0127686 	3.14124 	90.1609 	97.9195 	-0.591211 	132.34 	360.634 	141.985 	539.793 	
7.99955 	-0.0165919 	-0.831988 	0.672793 	1.25252 	-0.0126663 	3.14117 	90.1609 	97.4136 	-0.591211 	132.842 	360.634 	142.522 	539.793 	
8.10533 	-0.0165083 	-0.843194 	0.65503 	1.26998 	-0.0124593 	3.14103 	90.1609 	96.8592 	-0.591211 	133.397 	360.634 	143.085 	539.793 	
8.20939 	-0.0164657 	-0.848639 	0.646018 	1.2787 	-0.0123546 	3.14096 	90.1609 	96.3512 	-0.591211 	133.893 	360.634 	143.536 	539.793 	
8.31219 	-0.0164226 	-0.853976 	0.636922 	1.28743 	-0.0122491 	3.14089 	90.1609 	95.8535 	-0.591211 	134.404 	360.634 	144.065 	539.793 	
8.41569 	-0.0163789 	-0.859203 	0.627743 	1.29616 	-0.0121428 	3.14083 	90.1609 	95.2969 	-0.591211 	134.948 	360.634 	144.641 	539.793 	
8.51869 	-0.0163348 	-0.864321 	0.618482 	1.30488 	-0.0120358 	3.14076 	90.1609 	94.7943 	-0.591211 	135.457 	360.634 	145.086 	539.793 	
8.6215 	-0.0162901 	-0.869326 	0.60914 	1.31361 	-0.011928 	3.1407 	90.1609 	94.289 	-0.591211 	135.95 	360.634 	145.605 	539.793 	
8.72461 	-0.0162449 	-0.874218 	0.59972 	1.32234 	-0.0118194 	3.14064 	90.1609 	93.7445 	-0.591211 	136.512 	360.634 	146.193 	539.793 	
8.82747 	-0.0161991 	-0.878995 	0.590222 	1.33106 	-0.0117101 	3.14058 	90.1609 	93.2428 	-0.591211 	137.011 	360.634 	146.642 	539.793 	
8.93066 	-0.0161529 	-0.883657 	0.580649 	1.33979 	-0.0116001 	3.14052 	90.1609 	92.7366 	-0.591211 	137.52 	360.634 	147.153 	539.793 	
9.03348 	-0.0161061 	-0.888202 	0.571002 	1.34851 	-0.0114893 	3.14046 	90.1609 	92.1873 	-0.591211 	138.062 	360.634 	147.694 	539.793 	
9.13668 	-0.0160589 	-0.892628 	0.561283 	1.35724 	-0.0113778 	3.1404 	90.1609 	91.6769 	-0.591211 	138.571 	360.634 	148.204 	539.793 	
9.23943 	-0.0160111 	-0.896935 	0.551493 	1.36597 	-0.0112656 	3.14034 	90.1609 	91.1818 	-0.591211 	139.07 	360.634 	148.691 	539.793 	
9.3425 	-0.0159628 	-0.901122 	0.541633 	1.37469 	-0.0111527 	3.14028 	90.1609 	90.6739 	-0.591211 	139.572 	360.634 	149.239 	539.793 	
9.44576 	-0.0159141 	-0.905187 	0.531706 	1.38342 	-0.0110391 	3.14023 	90.1609 	90.1286 	-0.591211 	140.126 	360.634 	149.756 	539.793 	
9.55285 	-0.0158648 	-0.909128 	0.521713 	1.39215 	-0.0109248 	3.14017 	90.1609 	89.6201 	-0.591211 	140.627 	360.634 	150.233 	539.793 	
9.6554 	-0.015815 	-0.912946 	0.511657 	1.40087 	-0.0108098 	3.14012 	90.1609 	89.0734 	-0.591211 	141.183 	360.634 	150.835 	539.793 	
9.75861 	-0.0157647 	-0.916639 	0.501538 	1.4096 	-0.0106942 	3.14007 	90.1609 	88.5626 	-0.591211 	141.683 	360.634 	151.319 	539.793 	
9.8616 	-0.015714 	-0.920206 	0.491358 	1.41833 	-0.0105779 	3.14002 	90.1609 	88.0675 	-0.591211 	142.187 	360.634 	151.786 	539.793 	
9.96483 	-0.0156627 	-0.923645 	0.481119 	1.42705 	-0.0104609 	3.13997 	90.1609 	87.5093 	-0.591211 	142.732 	360.634 	152.381 	539.793 	
10.0675 	-0.015611 	-0.926957 	0.470824 	1.43578 	-0.0103433 	3.13992 	90.1609 	87.0162 	-0.591211 	143.241 	360.634 	152.872 	539.793 	
10.1708 	-0.0155587 	-0.930139 	0.460473 	1.44451 	-0.0102251 	3.13987 	90.1609 	86.5144 	-0.591211 	143.733 	360.634 	153.332 	539.793 	
10.2736 	-0.015506 	-0.933192 	0.450068 	1.45323 	-0.0101062 	3.13982 	90.1609 	85.9646 	-0.591211 	144.296 	360.634 	153.862 	539.793 	
10.3768 	-0.0154528 	-0.936113 	0.439612 	1.46196 	-0.00998676 	3.13978 	90.1609 	85.4579 	-0.591211 	144.789 	360.634 	154.428 	539.793 	
10.4797 	-0.0153992 	-0.938902 	0.429107 	1.47069 	-0.00986667 	3.13973 	90.1609 	84.9573 	-0.591211 	145.294 	360.634 	154.88 	539.793 	
10.5826 	-0.0153451 	-0.941559 	0.418553 	1.47941 	-0.00974599 	3.13969 	90.1609 	84.4664 	-0.591211 	145.793 	360.634 	155.408 	539.793 	
10.6858 	-0.0152905 	-0.944083 	0.407954 	1.48814 	-0.00962473 	3.13965 	90.1609 	83.9072 	-0.591211 	146.349 	360.634 	155.982 	539.793 	
10.7934 	-0.0152354 	-0.946472 	0.39731 	1.49687 	-0.00950287 	3.13961 	90.1609 	83.358 	-0.591211 	146.896 	360.634 	156.438 	539.793 	
10.8968 	-0.0151799 	-0.948726 	0.386624 	1.50559 	-0.00938046 	3.13956 	90.1609 	82.845 	-0.591211 	147.401 	360.634 	157.004 	539.793 	
11.0004 	-0.0151239 	-0.950844 	0.375897 	1.51432 	-0.00925748 	3.13953 	90.1609 	82.3557 	-0.591211 	147.902 	360.634 	157.535 	539.793 	
11.1054 	-0.0150674 	-0.952826 	0.365133 	1.52305 	-0.00913395 	3.13949 	90.1609 	81.7949 	-0.591211 	148.449 	360.634 	158.042 	539.793 	
11.2083 	-0.0150106 	-0.954671 	0.354332 	1.53177 	-0.00900987 	3.13945 	90.1609 	81.3089 	-0.591211 	148.954 	360.634 	158.554 	539.793 	
11.3111 	-0.0148954 	-0.957946 	0.332628 	1.54923 	-0.00876014 	3.13938 	90.1609 	80.7919 	-0.591211 	149.448 	360.634 	159.086 	539.793 	
11.4146 	-0.0148372 	-0.959375 	0.321729 	1.55795 	-0.00863449 	3.13934 	90.1609 	80.2508 	-0.591211 	150.008 	360.634 	159.595 	539.793 	
11.5176 	-0.0147786 	-0.960665 	0.310802 	1.56668 	-0.00850835 	3.13931 	90.1609 	79.7493 	-0.591211 	150.501 	360.634 	160.094 	539.793 	
11.6206 	-0.0147195 	-0.961814 	0.299848 	1.57541 	-0.00838171 	3.13928 	90.1609 	79.252 	-0.591211 	151.01 	360.634 	160.633 	539.793 	
11.7236 	-0.01466 	-0.962823 	0.28887 	1.58413 	-0.00825458 	3.13925 	90.1609 	78.7021 	-0.591211 	151.556 	360.634 	161.108 	539.793 	
11.8265 	-0.0146 	-0.963691 	0.277869 	1.59286 	-0.00812698 	3.13922 	90.1609 	78.201 	-0.591211 	152.062 	360.634 	161.635 	539.793 	
11.9296 	-0.0145397 	-0.964418 	0.266848 	1.60159 	-0.00799891 	3.13919 	90.1609 	77.7078 	-0.591211 	152.554 	360.634 	162.184 	539.793 	
12.0327 	-0.0144789 	-0.965002 	0.255808 	1.61031 	-0.00787039 	3.13916 	90.1609 	77.1969 	-0.591211 	153.064 	360.634 	162.662 	539.793 	
12.1356 	-0.0144177 	-0.965445 	0.244752 	1.61904 	-0.00774142 	3.13914 	90.1609 	76.654 	-0.591211 	153.612 	360.634 	163.187 	539.793 	
12.2386 	-0.0143561 	-0.965744 	0.233681 	1.62777 	-0.00761202 	3.13911 	90.1609 	76.1423 	-0.591211 	154.109 	360.634 	163.729 	539.793 	
12.3416 	-0.0142941 	-0.965901 	0.222598 	1.63649 	-0.00748218 	3.13909 	90.1609 	75.6575 	-0.591211 	154.617 	360.634 	164.219 	539.793 	
12.4446 	-0.0142317 	-0.965914 	0.211505 	1.64522 	-0.00735194 	3.13907 	90.1609 	75.0912 	-0.591211 	155.16 	360.634 	164.731 	539.793 	
12.5526 	-0.0141689 	-0.965785 	0.200404 	1.65395 	-0.00722128 	3.13904 	90.1609 	74.6085 	-0.591211 	155.667 	360.634 	165.269 	539.793 	
12.6557 	-0.0141057 	-0.965511 	0.189296 	1.66267 	-0.00709023 	3.13902 	90.1609 	74.037 	-0.591211 	156.213 	360.634 	165.815 	539.793 	
12.7587 	-0.0140421 	-0.965094 	0.178184 	1.6714 	-0.0069588 	3.139 	90.1609 	73.5611 	-0.591211 	156.721 	360.634 	166.286 	539.793 	
12.8616 	-0.0139782 	-0.964533 	0.167071 	1.68013 	-0.00682698 	3.13899 	90.1609 	73.0524 	-0.591211 	157.211 	360.634 	166.819 	539.793 	
12.9648 	-0.0139139 	-0.963827 	0.155957 	1.68885 	-0.00669481 	3.13897 	90.1609 	72.5067 	-0.591211 	157.771 	360.634 	167.378 	539.793 	
13.0677 	-0.0138492 	-0.962978 	0.144845 	1.69758 	-0.00656227 	3.13895 	90.1609 	72.0084 	-0.591211 	158.261 	360.634 	167.837 	539.793 	
13.1711 	-0.0137841 	-0.961984 	0.133738 	1.70631 	-0.00642939 	3.13894 	90.1609 	71.502 	-0.591211 	158.766 	360.634 	168.361 	539.793 	
13.2736 	-0.0137187 	-0.960847 	0.122637 	1.71503 	-0.00629617 	3.13892 	90.1609 	70.9625 	-0.591211 	159.312 	360.634 	168.887 	539.793 	
13.3771 	-0.0136529 	-0.959565 	0.111545 	1.72376 	-0.00616263 	3.13891 	90.1609 	70.4511 	-0.591211 	159.82 	360.634 	169.394 	539.793 	
13.48 	-0.0135867 	-0.958138 	0.100462 	1.73249 	-0.00602877 	3.1389 	90.1609 	69.9715 	-0.591211 	160.317 	360.634 	169.906 	539.793 	
13.583 	-0.0135203 	-0.956568 	0.089393 	1.74121 	-0.0058946 	3.13889 	90.1609 	69.4477 	-0.591211 	160.813 	360.634 	170.441 	539.793 	
13.6865 	-0.0134534 	-0.954854 	0.078338 	1.74994 	-0.00576014 	3.13888 	90.1609 	68.9257 	-0.591211 	161.368 	360.634 	170.949 	539.793 	
13.7937 	-0.0133863 	-0.952996 	0.0672999 	1.75867 	-0.0056254 	3.13887 	90.1609 	68.3533 	-0.591211 	161.913 	360.634 	171.452 	539.793 	
13.8967 	-0.0133188 	-0.950995 	0.0562806 	1.76739 	-0.00549038 	3.13887 	90.1609 	67.8756 	-0.591211 	162.416 	360.634 	172.041 	539.793 	
14.0006 	-0.013251 	-0.94885 	0.045282 	1.77612 	-0.00535509 	3.13886 	90.1609 	67.3605 	-0.591211 	162.913 	360.634 	172.503 	539.793 	
14.1053 	-0.0131828 	-0.946562 	0.0343067 	1.78485 	-0.00521955 	3.13885 	90.1609 	66.8289 	-0.591211 	163.467 	360.634 	173.052 	539.793 	
14.2082 	-0.0131144 	-0.944131 	0.0233561 	1.79357 	-0.00508377 	3.13885 	90.1609 	66.3194 	-0.591211 	163.961 	360.634 	173.589 	539.793 	
14.3105 	-0.0129765 	-0.938842 	0.00153857 	1.81103 	-0.00481151 	3.13885 	90.1609 	65.8249 	-0.591211 	164.467 	360.634 	174.063 	539.793 	
14.4134 	-0.0129071 	-0.935985 	-0.00932426 	1.81975 	-0.00467505 	3.13885 	90.1609 	65.2812 	-0.591211 	165.006 	360.634 	174.54 	539.793 	
14.5164 	-0.0128375 	-0.932986 	-0.020154 	1.82848 	-0.0045384 	3.13885 	90.1609 	64.7785 	-0.591211 	165.514 	360.634 	175.141 	539.793 	
14.6195 	-0.0127675 	-0.929847 	-0.0309483 	1.83721 	-0.00440155 	3.13885 	90.1609 	64.2858 	-0.591211 	166.008 	360.634 	175.614 	539.793 	
14.7224 	-0.0126973 	-0.926566 	-0.0417052 	1.84593 	-0.00426452 	3.13885 	90.1609 	63.7801 	-0.591211 	166.513 	360.634 	176.094 	539.793 	
14.8257 	-0.0126267 	-0.923146 	-0.0524224 	1.85466 	-0.00412732 	3.13886 	90.1609 	63.2542 	-0.591211 	167.062 	360.634 	176.688 	539.793 	
14.9286 	-0.012556 	-0.919587 	-0.0630979 	1.86338 	-0.00398996 	3.13886 	90.1609 	62.7356 	-0.591211 	167.56 	360.634 	177.177 	539.793 	
15.0315 	-0.0124852 	-0.916132 	-0.0730906 	1.87141 	-0.00385274 	3.13887 	90.1609 	62.2873 	-0.591211 	168.057 	360.634 	177.642 	539.793 	
15.1346 	-0.012418 	-0.915177 	-0.0762924 	1.87205 	-0.00371849 	3.13887 	90.1609 	62.1191 	-0.591211 	168.616 	360.634 	178.214 	539.793 	
15.2377 	-0.0123509 	-0.914423 	-0.0788999 	1.87205 	-0.00358447 	3.13886 	90.1609 	62.11 	-0.591211 	169.115 	360.634 	178.729 	539.793 	
15.3405 	-0.0122837 	-0.913646 	-0.0815006 	1.87205 	-0.00345044 	3.13886 	90.1609 	62.1101 	-0.591211 	169.595 	360.634 	179.211 	539.793 	
15.4437 	-0.0122165 	-0.912847 	-0.0840946 	1.87205 	-0.0033164 	3.13886 	90.1609 	62.1086 	-0.591211 	170.164 	360.634 	179.724 	539.793 	
15.5473 	-0.0121492 	-0.912025 	-0.0866812 	1.87205 	-0.00318237 	3.13886 	90.1609 	62.1054 	-0.591211 	170.658 	360.634 	180.288 	539.793 	
15.6527 	-0.0120818 	-0.91118 	-0.0892607 	1.87205 	-0.00304834 	3.13886 	90.1609 	62.1054 	-0.591211 	171.155 	360.634 	180.758 	539.793 	
15.7558 	-0.0120143 	-0.910313 	-0.0918328 	1.87205 	-0.00291434 	3.13887 	90.1609 	62.1051 	-0.591211 	171.694 	360.634 	181.322 	539.793 	
15.8587 	-0.0119468 	-0.909424 	-0.0943971 	1.87205 	-0.00278038 	3.13887 	90.1609 	62.1048 	-0.591211 	172.211 	360.634 	181.841 	539.793 	
15.9617 	-0.0118792 	-0.908512 	-0.0969537 	1.87205 	-0.00264645 	3.13888 	90.1609 	62.1048 	-0.591211 	172.7 	360.634 	182.304 	539.793 	
16.0651 	-0.0118116 	-0.907578 	-0.099502 	1.87205 	-0.00251258 	3.13888 	90.1609 	62.1048 	-0.591211 	173.256 	360.634 	182.867 	539.793 	
16.1677 	-0.0117439 	-0.906621 	-0.102042 	1.87205 	-0.00237878 	3.13889 	90.1609 	62.1047 	-0.591211 	173.758 	360.634 	183.396 	539.793 	
16.2709 	-0.0116762 	-0.905643 	-0.104574 	1.87205 	-0.00224504 	3.1389 	90.1609 	62.1048 	-0.591211 	174.25 	360.634 	183.86 	539.793 	
16.3738 	-0.0116084 	-0.904642 	-0.107097 	1.87205 	-0.0021114 	3.13891 	90.1609 	62.1048 	-0.591211 	174.747 	360.634 	184.354 	539.793 	
16.477 	-0.0115406 	-0.90362 	-0.109611 	1.87205 	-0.00197784 	3.13892 	90.1609 	62.1047 	-0.591211 	175.305 	360.634 	184.941 	539.793 	
16.5797 	-0.0114728 	-0.902575 	-0.112116 	1.87205 	-0.00184439 	3.13894 	90.1609 	62.1048 	-0.591211 	175.806 	360.634 	185.407 	539.793 	
16.6828 	-0.0114049 	-0.901509 	-0.114613 	1.87205 	-0.00171106 	3.13895 	90.1609 	62.1048 	-0.591211 	176.296 	360.634 	185.906 	539.793 	
16.7859 	-0.0113371 	-0.900421 	-0.117099 	1.87205 	-0.00157785 	3.13896 	90.1609 	62.1047 	-0.591211 	176.855 	360.634 	186.491 	539.793 	
16.8941 	-0.0112692 	-0.899311 	-0.119576 	1.87205 	-0.00144477 	3.13898 	90.1609 	62.1048 	-0.591211 	177.347 	360.634 	186.971 	539.793 	
16.9969 	-0.0112013 	-0.89818 	-0.122043 	1.87204 	-0.00131184 	3.139 	90.1609 	62.1048 	-0.591211 	177.898 	360.634 	187.505 	539.793 	
17.1015 	-0.0111335 	-0.897027 	-0.124501 	1.87204 	-0.00117907 	3.13902 	90.1609 	62.1047 	-0.591211 	178.397 	360.634 	188.035 	539.793 	
17.2053 	-0.0110656 	-0.895853 	-0.126948 	1.87204 	-0.00104646 	3.13904 	90.1609 	62.1048 	-0.591211 	178.948 	360.634 	188.569 	539.793 	
17.3093 	-0.0109299 	-0.893441 	-0.131811 	1.87204 	-0.000781773 	3.13908 	90.1609 	62.1047 	-0.591211 	179.445 	360.634 	189.049 	539.793 	
17.4125 	-0.0108621 	-0.892203 	-0.134226 	1.87204 	-0.000649721 	3.1391 	90.1609 	62.1048 	-0.591211 	179.949 	360.634 	189.585 	539.793 	
17.5156 	-0.0107943 	-0.890944 	-0.136631 	1.87204 	-0.000517873 	3.13913 	90.1609 	62.1048 	-0.591211 	180.493 	360.634 	190.122 	539.793 	
17.6187 	-0.0107265 	-0.889664 	-0.139024 	1.87204 	-0.000386241 	3.13915 	90.1609 	62.1048 	-0.591211 	180.993 	360.634 	190.599 	539.793 	
17.7214 	-0.0106588 	-0.888364 	-0.141407 	1.87204 	-0.000254834 	3.13918 	90.1609 	62.1048 	-0.591211 	181.497 	360.634 	191.128 	539.793 	
17.8248 	-0.0105911 	-0.887042 	-0.143778 	1.87204 	-0.000123664 	3.1392 	90.1609 	62.1048 	-0.591211 	182.043 	360.634 	191.682 	539.793 	
17.9278 	-0.0105234 	-0.8857 	-0.146137 	1.87204 	7.26161e-06 	3.13923 	90.1609 	62.1048 	-0.591211 	182.548 	360.634 	192.152 	539.793 	
18.0307 	-0.0104558 	-0.884338 	-0.148484 	1.87204 	0.00013793 	3.13926 	90.1609 	62.1048 	-0.591211 	183.038 	360.634 	192.674 	539.793 	
18.1334 	-0.0103883 	-0.882954 	-0.15082 	1.87204 	0.000268331 	3.13929 	90.1609 	62.1048 	-0.591211 	183.544 	360.634 	193.198 	539.793 	
18.2368 	-0.0103208 	-0.881551 	-0.153143 	1.87204 	0.000398461 	3.13933 	90.1609 	62.1048 	-0.591211 	184.084 	360.634 	193.702 	539.793 	
18.3398 	-0.0102534 	-0.880127 	-0.155454 	1.87204 	0.000528303 	3.13936 	90.1609 	62.1048 	-0.591211 	184.597 	360.634 	194.214 	539.793 	
18.4426 	-0.010186 	-0.878684 	-0.157752 	1.87204 	0.000657851 	3.13939 	90.1609 	62.1048 	-0.591211 	185.089 	360.634 	194.746 	539.793 	
18.5455 	-0.0101188 	-0.87722 	-0.160038 	1.87203 	0.000787092 	3.13943 	90.1609 	62.1048 	-0.591211 	185.642 	360.634 	195.254 	539.793 	
18.6487 	-0.0100516 	-0.875736 	-0.162311 	1.87203 	0.00091602 	3.13947 	90.1609 	62.1048 	-0.591211 	186.138 	360.634 	195.762 	539.793 	
18.7527 	-0.00998448 	-0.874233 	-0.16457 	1.87203 	0.00104462 	3.1395 	90.1609 	62.1048 	-0.591211 	186.641 	360.634 	196.299 	539.793 	
18.8557 	-0.00991747 	-0.87271 	-0.166817 	1.87203 	0.00117289 	3.13954 	90.1609 	62.1048 	-0.591211 	187.183 	360.634 	196.811 	539.793 	
18.9588 	-0.00985056 	-0.871167 	-0.16905 	1.87203 	0.00130081 	3.13958 	90.1609 	62.1047 	-0.591211 	187.683 	360.634 	197.307 	539.793 	
19.0617 	-0.00978375 	-0.869605 	-0.17127 	1.87203 	0.00142838 	3.13962 	90.1609 	62.1047 	-0.591211 	188.188 	360.634 	197.844 	539.793 	
19.165 	-0.00971705 	-0.868024 	-0.173476 	1.87203 	0.00155558 	3.13967 	90.1609 	62.1048 	-0.591211 	188.736 	360.634 	198.364 	539.793 	
19.2678 	-0.00965046 	-0.866423 	-0.175668 	1.87203 	0.00168242 	3.13971 	90.1609 	62.1048 	-0.591211 	189.235 	360.634 	198.85 	539.793 	
19.3711 	-0.00958399 	-0.864803 	-0.177846 	1.87203 	0.00180886 	3.13975 	90.1609 	62.1048 	-0.591211 	189.726 	360.634 	199.394 	539.793 	
19.4738 	-0.00951765 	-0.863165 	-0.18001 	1.87203 	0.00193492 	3.1398 	90.1609 	62.1048 	-0.591211 	190.231 	360.634 	199.882 	539.793 	
19.577 	-0.00945142 	-0.861507 	-0.182159 	1.87203 	0.00206057 	3.13985 	90.1609 	62.1048 	-0.591211 	190.782 	360.634 	200.398 	539.793 	
19.6799 	-0.00938534 	-0.859831 	-0.184294 	1.87203 	0.00218581 	3.13989 	90.1609 	62.1048 	-0.591211 	191.287 	360.634 	200.934 	539.793 	
19.7827 	-0.00931939 	-0.858136 	-0.186414 	1.87203 	0.00231063 	3.13994 	90.1609 	62.1048 	-0.591211 	191.777 	360.634 	201.434 	539.793 	
19.8861 	-0.00925358 	-0.856423 	-0.188519 	1.87203 	0.00243502 	3.13999 	90.1609 	62.1048 	-0.591211 	192.333 	360.634 	201.95 	539.793 	
19.9939 	-0.00918792 	-0.854692 	-0.190609 	1.87203 	0.00255896 	3.14004 	90.1609 	62.1048 	-0.591211 	192.831 	360.634 	202.484 	539.793 	
20.0969 	-0.00912241 	-0.852942 	-0.192684 	1.87202 	0.00268246 	3.1401 	90.1609 	62.1048 	-0.591211 	193.379 	360.634 	203.042 	539.793 	
20.1996 	-0.00905706 	-0.851174 	-0.194744 	1.87202 	0.0028055 	3.14015 	90.1609 	62.1048 	-0.591211 	193.874 	360.634 	203.499 	539.793 	
20.3055 	-0.00899187 	-0.849388 	-0.196788 	1.87202 	0.00292807 	3.1402 	90.1609 	62.1048 	-0.591211 	194.427 	360.634 	204.08 	539.793 	
20.4107 	-0.008862 	-0.845764 	-0.200829 	1.87202 	0.00317176 	3.14032 	90.1609 	62.1048 	-0.591211 	194.928 	360.634 	204.591 	539.793 	
20.5132 	-0.00879733 	-0.843925 	-0.202826 	1.87202 	0.00329287 	3.14037 	90.1609 	62.1048 	-0.591211 	195.422 	360.634 	205.043 	539.793 	
20.6165 	-0.00873285 	-0.842069 	-0.204807 	1.87202 	0.00341347 	3.14043 	90.1609 	62.1048 	-0.591211 	195.976 	360.634 	205.623 	539.793 	
20.7198 	-0.00866854 	-0.840196 	-0.206771 	1.87202 	0.00353355 	3.14049 	90.1609 	62.1048 	-0.591211 	196.469 	360.634 	206.145 	539.793 	
20.8222 	-0.00860444 	-0.838306 	-0.208719 	1.87202 	0.00365311 	3.14055 	90.1609 	62.1048 	-0.591211 	196.973 	360.634 	206.6 	539.793 	
20.9241 	-0.00854052 	-0.836399 	-0.21065 	1.87202 	0.00377214 	3.14061 	90.1609 	62.1048 	-0.591211 	197.52 	360.634 	207.169 	539.793 	
21.0278 	-0.00847682 	-0.834475 	-0.212565 	1.87202 	0.00389063 	3.14068 	90.1609 	62.1048 	-0.591211 	198.022 	360.634 	207.696 	539.793 	
21.1305 	-0.00841331 	-0.832534 	-0.214462 	1.87202 	0.00400856 	3.14074 	90.1609 	62.1048 	-0.591211 	198.515 	360.634 	208.153 	539.793 	
21.2336 	-0.00835002 	-0.830577 	-0.216343 	1.87201 	0.00412593 	3.1408 	90.1609 	62.1048 	-0.591211 	199.021 	360.634 	208.659 	539.793 	
21.3368 	-0.00828694 	-0.828604 	-0.218207 	1.87201 	0.00424274 	3.14087 	90.1609 	62.1048 	-0.591211 	199.563 	360.634 	209.249 	539.793 	
21.4397 	-0.00822409 	-0.826614 	-0.220053 	1.87201 	0.00435896 	3.14094 	90.1609 	62.1048 	-0.591211 	200.065 	360.634 	209.711 	539.793 	
21.5426 	-0.00816147 	-0.824609 	-0.221882 	1.87201 	0.0044746 	3.141 	90.1609 	62.1048 	-0.591211 	200.566 	360.634 	210.203 	539.793 	
21.6461 	-0.00809907 	-0.822587 	-0.223693 	1.87201 	0.00458964 	3.14107 	90.1609 	62.1048 	-0.591211 	201.113 	360.634 	210.792 	539.793 	
21.7525 	-0.00803691 	-0.82055 	-0.225486 	1.87201 	0.00470408 	3.14114 	90.1609 	62.1049 	-0.591211 	201.611 	360.634 	211.274 	539.793 	
21.8556 	-0.00797499 	-0.818497 	-0.227262 	1.87201 	0.00481791 	3.14121 	90.1609 	62.1049 	-0.591211 	202.162 	360.634 	211.796 	539.793 	
21.9586 	-0.00791331 	-0.816429 	-0.22902 	1.87201 	0.00493111 	3.14129 	90.1609 	62.1049 	-0.591211 	202.66 	360.634 	212.342 	539.793 	
22.0621 	-0.00785188 	-0.814345 	-0.230759 	1.87201 	0.00504368 	3.14136 	90.1609 	62.1049 	-0.591211 	203.157 	360.634 	212.832 	539.793 	
22.1648 	-0.00779071 	-0.812246 	-0.232481 	1.87201 	0.00515561 	3.14143 	90.1609 	62.1049 	-0.591211 	203.71 	360.634 	213.345 	539.793 	
22.2679 	-0.0077298 	-0.810133 	-0.234184 	1.87201 	0.0052669 	3.14151 	90.1609 	62.1049 	-0.591211 	204.206 	360.634 	213.879 	539.793 	
22.3712 	-0.00766915 	-0.808004 	-0.235868 	1.87201 	0.00537753 	3.14158 	90.1609 	62.1049 	-0.591211 	204.706 	360.634 	214.381 	539.793 	
22.4736 	-0.00760877 	-0.805861 	-0.237534 	1.872 	0.00548749 	-3.14153 	90.1609 	62.1049 	-0.591211 	205.198 	360.634 	214.842 	539.793 	
22.5769 	-0.00754866 	-0.803704 	-0.239181 	1.872 	0.00559678 	-3.14145 	90.1609 	62.1049 	-0.591211 	205.753 	360.634 	215.431 	539.793 	
22.68 	-0.00748883 	-0.801532 	-0.240809 	1.872 	0.00570539 	-3.14137 	90.1609 	62.1049 	-0.591211 	206.25 	360.634 	215.942 	539.793 	
22.7825 	-0.00742928 	-0.799346 	-0.242418 	1.872 	0.00581331 	-3.14129 	90.1609 	62.1049 	-0.591211 	206.753 	360.634 	216.398 	539.793 	
22.8859 	-0.00737002 	-0.797146 	-0.244008 	1.872 	0.00592053 	-3.14121 	90.1609 	62.1049 	-0.591211 	207.301 	360.634 	216.974 	539.793 	
22.9937 	-0.00731105 	-0.794932 	-0.245579 	1.872 	0.00602704 	-3.14113 	90.161 	62.1049 	-0.591211 	207.793 	360.634 	217.489 	539.793 	
23.0968 	-0.00725237 	-0.792705 	-0.24713 	1.872 	0.00613284 	-3.14105 	90.1609 	62.1049 	-0.591211 	208.344 	360.634 	217.998 	539.793 	
23.1997 	-0.007194 	-0.790464 	-0.248662 	1.872 	0.00623792 	-3.14096 	90.1609 	62.1049 	-0.591211 	208.846 	360.634 	218.514 	539.793 	
23.3053 	-0.00713593 	-0.78821 	-0.250174 	1.872 	0.00634227 	-3.14088 	90.1609 	62.1049 	-0.591211 	209.396 	360.634 	219.097 	539.793 	
23.4086 	-0.00702072 	-0.783663 	-0.253139 	1.87199 	0.00654874 	-3.14071 	90.1609 	62.1049 	-0.591211 	209.891 	360.634 	219.552 	539.793 	
23.5125 	-0.00696359 	-0.78137 	-0.254591 	1.87199 	0.00665085 	-3.14062 	90.1609 	62.1049 	-0.591211 	210.395 	360.634 	220.062 	539.793 	
23.6156 	-0.00690678 	-0.779065 	-0.256024 	1.87199 	0.0067522 	-3.14053 	90.1609 	62.1049 	-0.591211 	210.941 	360.634 	220.643 	539.793 	
23.7186 	-0.00685029 	-0.776747 	-0.257437 	1.87199 	0.00685278 	-3.14045 	90.1609 	62.1049 	-0.591211 	211.441 	360.634 	221.104 	539.793 	
23.8217 	-0.00679414 	-0.774417 	-0.258829 	1.87199 	0.00695258 	-3.14036 	90.1609 	62.1049 	-0.591211 	211.935 	360.634 	221.601 	539.793 	
23.9248 	-0.00673832 	-0.772075 	-0.2602 	1.87199 	0.0070516 	-3.14027 	90.1609 	62.1049 	-0.591211 	212.487 	360.634 	222.198 	539.793 	
24.0276 	-0.00668285 	-0.76972 	-0.261552 	1.87199 	0.00714982 	-3.14017 	90.1609 	62.1049 	-0.591211 	212.983 	360.634 	222.667 	539.793 	
24.1306 	-0.00662771 	-0.767355 	-0.262882 	1.87199 	0.00724725 	-3.14008 	90.1609 	62.1049 	-0.591211 	213.483 	360.634 	223.146 	539.793 	
24.2336 	-0.00657293 	-0.764977 	-0.264192 	1.87199 	0.00734387 	-3.13999 	90.1609 	62.1049 	-0.591211 	213.983 	360.634 	223.686 	539.793 	
24.3368 	-0.00651849 	-0.762589 	-0.265481 	1.87199 	0.00743967 	-3.1399 	90.1609 	62.105 	-0.591211 	214.531 	360.634 	224.222 	539.793 	
24.4396 	-0.00646441 	-0.760189 	-0.26675 	1.87198 	0.00753465 	-3.1398 	90.1609 	62.105 	-0.591211 	215.028 	360.634 	224.689 	539.793 	
24.5427 	-0.00641069 	-0.757778 	-0.267997 	1.87198 	0.0076288 	-3.13971 	90.1609 	62.105 	-0.591211 	215.529 	360.634 	225.229 	539.793 	
24.6458 	-0.00635734 	-0.755356 	-0.269223 	1.87198 	0.00772212 	-3.13961 	90.1609 	62.105 	-0.591211 	216.076 	360.634 	225.78 	539.793 	
24.7524 	-0.00630435 	-0.752924 	-0.270428 	1.87198 	0.00781459 	-3.13951 	90.1609 	62.105 	-0.591211 	216.572 	360.634 	226.244 	539.793 	
24.8558 	-0.00625173 	-0.750481 	-0.271612 	1.87198 	0.00790622 	-3.13941 	90.1609 	62.105 	-0.591211 	217.122 	360.634 	226.831 	539.793 	
24.9588 	-0.0061995 	-0.748029 	-0.272774 	1.87198 	0.00799698 	-3.13932 	90.1609 	62.105 	-0.591211 	217.624 	360.634 	227.335 	539.793 	
25.0617 	-0.00614764 	-0.745566 	-0.273915 	1.87198 	0.00808688 	-3.13922 	90.1609 	62.105 	-0.591211 	218.124 	360.634 	227.789 	539.793 	
25.1647 	-0.00609616 	-0.743093 	-0.275034 	1.87198 	0.00817591 	-3.13912 	90.1609 	62.105 	-0.591211 	218.667 	360.634 	228.376 	539.793 	
25.2677 	-0.00604508 	-0.74061 	-0.276132 	1.87197 	0.00826406 	-3.13902 	90.1609 	62.1051 	-0.591211 	219.167 	360.634 	228.896 	539.793 	
25.3713 	-0.00599439 	-0.738118 	-0.277208 	1.87197 	0.00835133 	-3.13891 	90.1609 	62.105 	-0.591211 	219.666 	360.634 	229.345 	539.793 	
25.4738 	-0.00594409 	-0.735617 	-0.278262 	1.87197 	0.00843771 	-3.13881 	90.1609 	62.1051 	-0.591211 	220.163 	360.634 	229.865 	539.793 	
25.5771 	-0.00589419 	-0.733107 	-0.279295 	1.87197 	0.00852318 	-3.13871 	90.1609 	62.1051 	-0.591211 	220.711 	360.634 	230.444 	539.793 	
25.68 	-0.00584469 	-0.730587 	-0.280305 	1.87197 	0.00860776 	-3.1386 	90.1609 	62.1051 	-0.591211 	221.211 	360.634 	230.898 	539.793 	
25.7828 	-0.00579561 	-0.728059 	-0.281294 	1.87197 	0.00869142 	-3.1385 	90.1609 	62.1051 	-0.591211 	221.712 	360.634 	231.408 	539.793 	
25.8864 	-0.00574693 	-0.725523 	-0.28226 	1.87197 	0.00877416 	-3.13839 	90.1609 	62.1051 	-0.591211 	222.257 	360.634 	231.997 	539.793 	
25.9941 	-0.00569867 	-0.722978 	-0.283204 	1.87197 	0.00885599 	-3.13829 	90.1609 	62.1051 	-0.591211 	222.756 	360.634 	232.462 	539.793 	
26.0967 	-0.00565082 	-0.720425 	-0.284126 	1.87196 	0.00893688 	-3.13818 	90.1609 	62.1051 	-0.591211 	223.301 	360.634 	233.009 	539.793 	
26.1995 	-0.0056034 	-0.717864 	-0.285025 	1.87196 	0.00901684 	-3.13807 	90.1609 	62.1052 	-0.591211 	223.805 	360.634 	233.547 	539.793 	
26.3024 	-0.00555641 	-0.715295 	-0.285903 	1.87196 	0.00909585 	-3.13796 	90.1609 	62.1052 	-0.591211 	224.297 	360.634 	234.009 	539.793 	
26.4065 	-0.00546371 	-0.710135 	-0.287589 	1.87196 	0.00925103 	-3.13775 	90.1609 	62.1052 	-0.591211 	224.852 	360.634 	234.549 	539.793 	
26.5112 	-0.00541801 	-0.707544 	-0.288399 	1.87196 	0.00932718 	-3.13764 	90.1609 	62.1052 	-0.591211 	225.348 	360.634 	235.095 	539.793 	
26.6147 	-0.00537275 	-0.704946 	-0.289186 	1.87196 	0.00940237 	-3.13752 	90.1609 	62.1053 	-0.591211 	225.898 	360.634 	235.617 	539.793 	
26.7174 	-0.00532794 	-0.702341 	-0.28995 	1.87196 	0.00947658 	-3.13741 	90.1609 	62.1053 	-0.591211 	226.393 	360.634 	236.096 	539.793 	
26.8206 	-0.00528357 	-0.69973 	-0.290692 	1.87195 	0.00954982 	-3.1373 	90.1609 	62.1053 	-0.591211 	226.892 	360.634 	236.639 	539.793 	
26.9236 	-0.00523965 	-0.697113 	-0.291411 	1.87195 	0.00962208 	-3.13719 	90.1609 	62.1053 	-0.591211 	227.39 	360.634 	237.127 	539.793 	
27.0267 	-0.00519619 	-0.694489 	-0.292106 	1.87195 	0.00969335 	-3.13707 	90.1609 	62.1053 	-0.591211 	227.939 	360.634 	237.639 	539.793 	
27.1294 	-0.00515318 	-0.691859 	-0.292779 	1.87195 	0.00976362 	-3.13696 	90.1609 	62.1053 	-0.591211 	228.44 	360.634 	238.185 	539.793 	
27.2328 	-0.00511063 	-0.689224 	-0.293429 	1.87195 	0.0098329 	-3.13685 	90.1609 	62.1054 	-0.591211 	228.933 	360.634 	238.688 	539.793 	
27.3358 	-0.00506854 	-0.686583 	-0.294056 	1.87195 	0.00990117 	-3.13673 	90.1609 	62.1054 	-0.591211 	229.483 	360.634 	239.195 	539.793 	
27.4386 	-0.00502692 	-0.683936 	-0.29466 	1.87195 	0.00996843 	-3.13661 	90.1609 	62.1054 	-0.591211 	229.979 	360.634 	239.726 	539.793 	
27.5415 	-0.00498578 	-0.681285 	-0.295241 	1.87195 	0.0100347 	-3.1365 	90.1609 	62.1054 	-0.591211 	230.482 	360.634 	240.235 	539.793 	
27.6449 	-0.0049451 	-0.678628 	-0.295798 	1.87194 	0.0100999 	-3.13638 	90.1609 	62.1054 	-0.591211 	231.02 	360.634 	240.741 	539.793 	
27.7527 	-0.0049049 	-0.675967 	-0.296332 	1.87194 	0.0101641 	-3.13626 	90.1609 	62.1055 	-0.591211 	231.526 	360.634 	241.273 	539.793 	
27.8558 	-0.00486518 	-0.673301 	-0.296844 	1.87194 	0.0102273 	-3.13614 	90.1609 	62.1055 	-0.591211 	232.066 	360.634 	241.848 	539.793 	
27.9589 	-0.00482594 	-0.67063 	-0.297332 	1.87194 	0.0102894 	-3.13603 	90.1609 	62.1055 	-0.591211 	232.567 	360.634 	242.299 	539.793 	
28.0616 	-0.00478718 	-0.667956 	-0.297796 	1.87194 	0.0103505 	-3.13591 	90.1609 	62.1055 	-0.591211 	233.064 	360.634 	242.81 	539.793 	
28.1649 	-0.00474892 	-0.665278 	-0.298237 	1.87194 	0.0104106 	-3.13579 	90.1609 	62.1056 	-0.591211 	233.614 	360.634 	243.396 	539.793 	
28.2678 	-0.00471114 	-0.662596 	-0.298655 	1.87194 	0.0104696 	-3.13567 	90.1609 	62.1056 	-0.591211 	234.11 	360.634 	243.846 	539.793 	
28.3709 	-0.00467385 	-0.65991 	-0.299049 	1.87194 	0.0105275 	-3.13555 	90.1609 	62.1056 	-0.591211 	234.607 	360.634 	244.351 	539.793 	
28.4737 	-0.00463707 	-0.657221 	-0.29942 	1.87193 	0.0105844 	-3.13542 	90.1609 	62.1057 	-0.591211 	235.109 	360.634 	244.896 	539.793 	
28.5771 	-0.00460078 	-0.654529 	-0.299768 	1.87193 	0.0106403 	-3.1353 	90.1609 	62.1058 	-0.591211 	235.648 	360.634 	245.408 	539.793 	
28.6799 	-0.004565 	-0.651834 	-0.300091 	1.87193 	0.0106951 	-3.13518 	90.1609 	62.1058 	-0.591211 	236.151 	360.634 	245.901 	539.793 	
28.7829 	-0.00452971 	-0.649136 	-0.300392 	1.87193 	0.0107488 	-3.13506 	90.1609 	62.1058 	-0.591211 	236.641 	360.634 	246.443 	539.793 	
28.8861 	-0.00449494 	-0.646435 	-0.300669 	1.87193 	0.0108014 	-3.13493 	90.1609 	62.1059 	-0.591211 	237.2 	360.634 	246.963 	539.793 	
28.9933 	-0.00446068 	-0.643733 	-0.300922 	1.87193 	0.0108529 	-3.13481 	90.1609 	62.1059 	-0.591211 	237.692 	360.634 	247.443 	539.793 	
29.0958 	-0.00442693 	-0.641028 	-0.301151 	1.87193 	0.0109034 	-3.13469 	90.1609 	62.1059 	-0.591211 	238.241 	360.634 	248.042 	539.793 	
29.1986 	-0.00439369 	-0.638321 	-0.301357 	1.87192 	0.0109528 	-3.13456 	90.1609 	62.1059 	-0.591211 	238.732 	360.634 	248.529 	539.793 	
29.3014 	-0.00436097 	-0.635613 	-0.30154 	1.87192 	0.0110011 	-3.13444 	90.1609 	62.1059 	-0.591211 	239.236 	360.634 	248.991 	539.793 	
29.4058 	-0.00432878 	-0.632903 	-0.301699 	1.87192 	0.0110483 	-3.13431 	90.1609 	62.106 	-0.591211 	239.779 	360.634 	249.584 	539.793 	
29.5086 	-0.0042971 	-0.630192 	-0.301834 	1.87192 	0.0110944 	-3.13418 	90.1609 	62.106 	-0.591211 	240.275 	360.634 	250.081 	539.793 	
29.6112 	-0.00423533 	-0.624766 	-0.302033 	1.87192 	0.0111833 	-3.13393 	90.1609 	62.1061 	-0.591211 	240.777 	360.634 	250.541 	539.793 	
29.7134 	-0.00420524 	-0.622053 	-0.302097 	1.87192 	0.0112261 	-3.1338 	90.1609 	62.1061 	-0.591211 	241.272 	360.634 	251.077 	539.793 	
29.8162 	-0.00417568 	-0.619339 	-0.302137 	1.87192 	0.0112678 	-3.13368 	90.1609 	62.1061 	-0.591211 	241.822 	360.634 	251.641 	539.793 	
29.9186 	-0.00414665 	-0.616624 	-0.302154 	1.87191 	0.0113083 	-3.13355 	90.1609 	62.1061 	-0.591211 	242.312 	360.634 	252.095 	539.793 	
30.0214 	-0.00411816 	-0.61391 	-0.302147 	1.87191 	0.0113478 	-3.13342 	90.1609 	62.1062 	-0.591211 	242.818 	360.634 	252.619 	539.793 	
30.1245 	-0.00409021 	-0.611195 	-0.302116 	1.87191 	0.0113861 	-3.13329 	90.1609 	62.1062 	-0.591211 	243.358 	360.634 	253.146 	539.793 	
30.2274 	-0.0040628 	-0.608481 	-0.302062 	1.87191 	0.0114233 	-3.13316 	90.1609 	62.1063 	-0.591211 	243.862 	360.634 	253.64 	539.793 	
30.3307 	-0.00403593 	-0.605768 	-0.301984 	1.87191 	0.0114594 	-3.13304 	90.1609 	62.1063 	-0.591211 	244.354 	360.634 	254.159 	539.793 	
30.4337 	-0.00400961 	-0.603055 	-0.301882 	1.87191 	0.0114944 	-3.13291 	90.1609 	62.1063 	-0.591211 	244.857 	360.634 	254.698 	539.793 	
30.5369 	-0.00398384 	-0.600343 	-0.301757 	1.87191 	0.0115282 	-3.13278 	90.1609 	62.1064 	-0.591211 	245.398 	360.634 	255.202 	539.793 	
30.6398 	-0.00395861 	-0.597633 	-0.301608 	1.87191 	0.0115609 	-3.13265 	90.1609 	62.1064 	-0.591211 	245.901 	360.634 	255.706 	539.793 	
30.7427 	-0.00393393 	-0.594924 	-0.301436 	1.87191 	0.0115925 	-3.13252 	90.1609 	62.1064 	-0.591211 	246.396 	360.634 	256.244 	539.793 	
30.8458 	-0.0039098 	-0.592216 	-0.301241 	1.87191 	0.0116229 	-3.13239 	90.1609 	62.1065 	-0.591211 	246.943 	360.634 	256.756 	539.793 	
30.9525 	-0.00388623 	-0.58951 	-0.301021 	1.87191 	0.0116522 	-3.13225 	90.1609 	62.1066 	-0.591211 	247.445 	360.634 	257.244 	539.793 	
31.0556 	-0.00386321 	-0.586806 	-0.300778 	1.87191 	0.0116804 	-3.13212 	90.1609 	62.1066 	-0.591211 	247.991 	360.634 	257.849 	539.793 	
31.1585 	-0.00384075 	-0.584105 	-0.300512 	1.87191 	0.0117074 	-3.13199 	90.1609 	62.1067 	-0.591211 	248.489 	360.634 	258.318 	539.793 	
31.2617 	-0.00381885 	-0.581406 	-0.300222 	1.87191 	0.0117333 	-3.13186 	90.1609 	62.1068 	-0.591211 	248.981 	360.634 	258.79 	539.793 	
31.3648 	-0.00379751 	-0.578709 	-0.299909 	1.87192 	0.011758 	-3.13173 	90.1609 	62.1069 	-0.591211 	249.536 	360.634 	259.337 	539.793 	
31.468 	-0.00377673 	-0.576015 	-0.299572 	1.87192 	0.0117816 	-3.1316 	90.1609 	62.1069 	-0.591211 	250.027 	360.634 	259.872 	539.793 	
31.5707 	-0.00375652 	-0.573325 	-0.299211 	1.87192 	0.011804 	-3.13146 	90.1609 	62.107 	-0.591211 	250.531 	360.634 	260.334 	539.793 	
31.6738 	-0.00373688 	-0.570637 	-0.298827 	1.87192 	0.0118253 	-3.13133 	90.1609 	62.1071 	-0.591211 	251.023 	360.634 	260.884 	539.793 	
31.7771 	-0.0037178 	-0.567954 	-0.298419 	1.87192 	0.0118454 	-3.1312 	90.1609 	62.1072 	-0.591211 	251.578 	360.634 	261.431 	539.793 	
31.8799 	-0.0036993 	-0.565273 	-0.297989 	1.87192 	0.0118643 	-3.13107 	90.1609 	62.1073 	-0.591211 	252.069 	360.634 	261.889 	539.793 	
31.983 	-0.00368136 	-0.562597 	-0.297534 	1.87192 	0.0118821 	-3.13093 	90.1609 	62.1073 	-0.591211 	252.569 	360.634 	262.423 	539.793 	
32.0858 	-0.00366399 	-0.559925 	-0.297057 	1.87193 	0.0118988 	-3.1308 	90.1609 	62.1074 	-0.591211 	253.119 	360.634 	262.985 	539.793 	
32.1934 	-0.0036472 	-0.557257 	-0.296556 	1.87193 	0.0119142 	-3.13067 	90.1609 	62.1075 	-0.591211 	253.617 	360.634 	263.432 	539.793 	
32.2966 	-0.00363098 	-0.554593 	-0.296032 	1.87193 	0.0119285 	-3.13054 	90.1609 	62.1076 	-0.591211 	254.167 	360.634 	264.019 	539.793 	
32.3996 	-0.00361534 	-0.551934 	-0.295485 	1.87193 	0.0119417 	-3.1304 	90.1609 	62.1077 	-0.591211 	254.659 	360.634 	264.538 	539.793 	
32.5054 	-0.00358578 	-0.546631 	-0.294321 	1.87193 	0.0119645 	-3.13013 	90.1609 	62.1078 	-0.591211 	255.209 	360.634 	265.038 	539.793 	
32.6085 	-0.00357187 	-0.543988 	-0.293704 	1.87193 	0.0119742 	-3.13 	90.1609 	62.1079 	-0.591211 	255.709 	360.634 	265.559 	539.793 	
32.7129 	-0.00355856 	-0.541351 	-0.293064 	1.87193 	0.0119826 	-3.12987 	90.1609 	62.108 	-0.591211 	256.211 	360.634 	266.091 	539.793 	
32.8159 	-0.00354582 	-0.538719 	-0.2924 	1.87193 	0.0119899 	-3.12973 	90.1609 	62.1081 	-0.591211 	256.752 	360.634 	266.59 	539.793 	
32.9187 	-0.00353366 	-0.536093 	-0.291714 	1.87193 	0.011996 	-3.1296 	90.1609 	62.1082 	-0.591211 	257.251 	360.634 	267.103 	539.793 	
33.0217 	-0.00352209 	-0.533474 	-0.291005 	1.87193 	0.012001 	-3.12947 	90.1609 	62.1084 	-0.591211 	257.75 	360.634 	267.646 	539.793 	
33.1247 	-0.0035111 	-0.530861 	-0.290273 	1.87193 	0.0120048 	-3.12933 	90.1609 	62.1085 	-0.591211 	258.297 	360.634 	268.1 	539.793 	
33.2276 	-0.0035007 	-0.528254 	-0.289519 	1.87193 	0.0120074 	-3.1292 	90.1609 	62.1088 	-0.591211 	258.795 	360.634 	268.644 	539.793 	
33.3307 	-0.00349088 	-0.525654 	-0.288742 	1.87193 	0.0120089 	-3.12906 	90.1609 	62.1091 	-0.591211 	259.293 	360.634 	269.195 	539.793 	
33.4338 	-0.00348165 	-0.523061 	-0.287942 	1.87193 	0.0120091 	-3.12893 	90.1609 	62.1095 	-0.591211 	259.794 	360.634 	269.655 	539.793 	
33.5371 	-0.00347301 	-0.520475 	-0.287119 	1.87192 	0.0120082 	-3.1288 	90.1609 	62.1112 	-0.591211 	260.341 	360.634 	270.182 	539.793 	
33.6398 	-0.00346495 	-0.517896 	-0.286274 	1.87192 	0.0120062 	-3.12866 	90.1609 	62.1277 	-0.591211 	260.836 	360.634 	270.744 	539.793 	
33.7428 	-0.00345748 	-0.515325 	-0.285406 	1.87192 	0.012003 	-3.12853 	90.1609 	62.1284 	-0.591211 	261.336 	360.634 	271.224 	539.793 	
33.8458 	-0.0034506 	-0.512761 	-0.284517 	1.87192 	0.0119986 	-3.12839 	90.1609 	62.1288 	-0.591211 	261.887 	360.634 	271.731 	539.793 	
33.9527 	-0.00344431 	-0.510205 	-0.283604 	1.87192 	0.011993 	-3.12826 	90.1609 	62.1291 	-0.591211 	262.384 	360.634 	272.278 	539.793 	
34.0558 	-0.00343861 	-0.507657 	-0.28267 	1.87192 	0.0119863 	-3.12813 	90.1609 	62.1299 	-0.591211 	262.931 	360.634 	272.817 	539.793 	
34.1588 	-0.00343349 	-0.505118 	-0.281713 	1.87192 	0.0119784 	-3.12799 	90.1609 	62.13 	-0.591211 	263.427 	360.634 	273.275 	539.793 	
34.2618 	-0.00342897 	-0.502587 	-0.280734 	1.87192 	0.0119693 	-3.12786 	90.1609 	62.1304 	-0.591211 	263.929 	360.634 	273.821 	539.793 	
34.3651 	-0.00342504 	-0.500064 	-0.279733 	1.87192 	0.0119591 	-3.12773 	90.1609 	62.1307 	-0.591211 	264.474 	360.634 	274.329 	539.793 	
34.4681 	-0.0034217 	-0.497551 	-0.278711 	1.87192 	0.0119477 	-3.12759 	90.1609 	62.1312 	-0.591211 	264.972 	360.634 	274.834 	539.793 	
34.5708 	-0.00341895 	-0.495046 	-0.277666 	1.87192 	0.0119351 	-3.12746 	90.1609 	62.1313 	-0.591211 	265.467 	360.634 	275.366 	539.793 	
34.6739 	-0.0034168 	-0.492551 	-0.276599 	1.87191 	0.0119214 	-3.12733 	90.1609 	62.1319 	-0.591211 	265.969 	360.634 	275.882 	539.793 	
34.7772 	-0.00341523 	-0.490065 	-0.275511 	1.87191 	0.0119065 	-3.12719 	90.1609 	62.1321 	-0.591211 	266.52 	360.634 	276.379 	539.793 	
34.8799 	-0.00341426 	-0.487588 	-0.274401 	1.87191 	0.0118905 	-3.12706 	90.1609 	62.1324 	-0.591211 	267.013 	360.634 	276.909 	539.793 	
34.983 	-0.00341388 	-0.485122 	-0.27327 	1.87191 	0.0118733 	-3.12693 	90.1609 	62.1327 	-0.591211 	267.514 	360.634 	277.441 	539.793 	
35.0859 	-0.00341409 	-0.482665 	-0.272117 	1.87191 	0.0118549 	-3.12679 	90.1609 	62.133 	-0.591211 	268.06 	360.634 	277.935 	539.793 	
35.194 	-0.00341489 	-0.480219 	-0.270943 	1.87191 	0.0118354 	-3.12666 	90.1609 	62.1331 	-0.591211 	268.531 	360.634 	278.445 	539.793 	
35.2968 	-0.00343055 	-0.479214 	-0.269289 	1.8679 	0.0117675 	-3.12654 	90.1609 	62.1335 	-0.591211 	268.658 	360.634 	279.036 	539.793 	
35.3994 	-0.00346329 	-0.479878 	-0.267086 	1.85917 	0.0116434 	-3.12644 	90.1609 	62.1336 	-0.591211 	268.666 	360.634 	279.481 	539.793 	
35.5058 	-0.00349627 	-0.480523 	-0.264877 	1.85045 	0.0115184 	-3.12634 	90.1609 	62.1336 	-0.591211 	268.667 	360.634 	280.04 	539.793 	
35.6093 	-0.00352947 	-0.481149 	-0.262663 	1.84172 	0.0113925 	-3.12624 	90.1609 	62.1337 	-0.591211 	268.668 	360.634 	280.592 	539.793 	
35.7126 	-0.00359656 	-0.482343 	-0.258219 	1.82428 	0.0111381 	-3.12604 	90.1609 	62.1337 	-0.591211 	268.668 	360.634 	281.048 	539.793 	
35.8157 	-0.00363045 	-0.48291 	-0.255989 	1.81555 	0.0110096 	-3.12595 	90.1609 	62.1337 	-0.591211 	268.668 	360.634 	281.584 	539.793 	
35.9185 	-0.00366455 	-0.483458 	-0.253754 	1.80683 	0.0108803 	-3.12585 	90.1609 	62.1338 	-0.591211 	268.668 	360.634 	282.136 	539.793 	
36.0212 	-0.00369888 	-0.483987 	-0.251515 	1.7981 	0.0107501 	-3.12576 	90.1609 	62.1338 	-0.591211 	268.668 	360.634 	282.595 	539.793 	
36.1239 	-0.00373341 	-0.484496 	-0.249271 	1.78938 	0.0106192 	-3.12566 	90.1609 	62.1338 	-0.591211 	268.668 	360.634 	283.067 	539.793 	
36.1476 	-0.00373341 	-0.484496 	-0.249271 	1.78938 	0.0106192 	-3.12566 	90.1609 	62.1338 	-0.591211 	268.668 	360.634 	283.23 	539.793 	
36.2528 	-0.00375396 	-0.485616 	-0.245957 	1.7817 	0.010544 	-3.12557 	90.1609 	62.3041 	-0.591211 	268.888 	360.634 	283.715 	539.793 	
36.3558 	-0.00376522 	-0.487707 	-0.240514 	1.77297 	0.0105084 	-3.12545 	90.1609 	62.7872 	-0.591211 	269.397 	360.634 	284.24 	539.793 	
36.4589 	-0.00377054 	-0.48967 	-0.235463 	1.76584 	0.0104961 	-3.12535 	90.1609 	63.2646 	-0.591211 	269.888 	360.634 	284.522 	539.793 	
36.5617 	-0.00374724 	-0.491233 	-0.232244 	1.76583 	0.0105933 	-3.12533 	90.1609 	63.7806 	-0.591211 	270.384 	360.634 	284.542 	539.793 	
36.665 	-0.00372411 	-0.492768 	-0.229011 	1.76583 	0.0106908 	-3.1253 	90.1609 	64.3014 	-0.591211 	270.938 	360.634 	284.556 	539.793 	
36.7679 	-0.00370116 	-0.494274 	-0.225765 	1.76583 	0.0107884 	-3.12528 	90.1609 	64.8244 	-0.591211 	271.439 	360.634 	284.567 	539.793 	
36.8709 	-0.00367839 	-0.495753 	-0.222505 	1.76582 	0.0108862 	-3.12525 	90.1609 	65.2977 	-0.591211 	271.94 	360.634 	284.571 	539.793 	
36.9737 	-0.0036558 	-0.497203 	-0.219233 	1.76582 	0.0109843 	-3.12523 	90.1609 	65.8701 	-0.591211 	272.433 	360.634 	284.573 	539.793 	
37.0771 	-0.0036334 	-0.498624 	-0.215948 	1.76581 	0.0110825 	-3.12521 	90.1609 	66.34 	-0.591211 	272.989 	360.634 	284.574 	539.793 	
37.1799 	-0.00361117 	-0.500017 	-0.212652 	1.76581 	0.0111809 	-3.12519 	90.1609 	66.8636 	-0.591211 	273.486 	360.634 	284.575 	539.793 	
37.2829 	-0.00358914 	-0.50138 	-0.209343 	1.76581 	0.0112795 	-3.12517 	90.1609 	67.3438 	-0.591211 	273.99 	360.634 	284.575 	539.793 	
37.3859 	-0.00356729 	-0.502715 	-0.206022 	1.7658 	0.0113782 	-3.12515 	90.1609 	67.8966 	-0.591211 	274.536 	360.634 	284.575 	539.793 	
37.4931 	-0.00354563 	-0.504021 	-0.20269 	1.7658 	0.0114771 	-3.12513 	90.1609 	68.3991 	-0.591211 	275.034 	360.634 	284.576 	539.793 	
37.5956 	-0.00352416 	-0.505297 	-0.199346 	1.7658 	0.0115762 	-3.12512 	90.1609 	68.9428 	-0.591211 	275.586 	360.634 	284.576 	539.793 	
37.6985 	-0.00350288 	-0.506545 	-0.195992 	1.76579 	0.0116754 	-3.1251 	90.1609 	69.4461 	-0.591211 	276.085 	360.634 	284.576 	539.793 	
37.8017 	-0.0034818 	-0.507763 	-0.192627 	1.76579 	0.0117747 	-3.12509 	90.1609 	69.9221 	-0.591211 	276.587 	360.634 	284.576 	539.793 	
37.9054 	-0.00346092 	-0.508952 	-0.189251 	1.76579 	0.0118742 	-3.12507 	90.1609 	70.4967 	-0.591211 	277.132 	360.634 	284.576 	539.793 	
38.0084 	-0.00344023 	-0.510111 	-0.185865 	1.76578 	0.0119738 	-3.12506 	90.1609 	70.9732 	-0.591211 	277.639 	360.634 	284.576 	539.793 	
38.1116 	-0.00339945 	-0.51234 	-0.179064 	1.76578 	0.0121733 	-3.12503 	90.1609 	71.5008 	-0.591211 	278.134 	360.634 	284.576 	539.793 	
38.2149 	-0.00337937 	-0.513411 	-0.175648 	1.76577 	0.0122732 	-3.12502 	90.1609 	72.0148 	-0.591211 	278.684 	360.634 	284.576 	539.793 	
38.3177 	-0.00335948 	-0.514451 	-0.172224 	1.76577 	0.0123732 	-3.12501 	90.1609 	72.5376 	-0.591211 	279.186 	360.634 	284.576 	539.793 	
38.4208 	-0.0033398 	-0.515461 	-0.168791 	1.76577 	0.0124733 	-3.125 	90.1609 	73.0184 	-0.591211 	279.688 	360.634 	284.576 	539.793 	
38.5237 	-0.00332033 	-0.516442 	-0.165349 	1.76576 	0.0125734 	-3.125 	90.1609 	73.5316 	-0.591211 	280.187 	360.634 	284.576 	539.793 	
38.6267 	-0.00330107 	-0.517392 	-0.161899 	1.76576 	0.0126737 	-3.12499 	90.1609 	74.0656 	-0.591211 	280.738 	360.634 	284.576 	539.793 	
38.7296 	-0.00328202 	-0.518312 	-0.15844 	1.76576 	0.0127739 	-3.12498 	90.1609 	74.5683 	-0.591211 	281.232 	360.634 	284.576 	539.793 	
38.8328 	-0.00326318 	-0.519202 	-0.154974 	1.76575 	0.0128743 	-3.12498 	90.1609 	75.0748 	-0.591211 	281.733 	360.634 	284.577 	539.793 	
38.9359 	-0.00324455 	-0.520062 	-0.1515 	1.76575 	0.0129747 	-3.12497 	90.1609 	75.6111 	-0.591211 	282.287 	360.634 	284.577 	539.793 	
39.0387 	-0.00322614 	-0.520891 	-0.148018 	1.76575 	0.0130751 	-3.12497 	90.1609 	76.1285 	-0.591211 	282.785 	360.634 	284.577 	539.793 	
39.1418 	-0.00320794 	-0.52169 	-0.14453 	1.76574 	0.0131755 	-3.12496 	90.1609 	76.6018 	-0.591211 	283.282 	360.634 	284.577 	539.793 	
39.2449 	-0.00318995 	-0.522458 	-0.141035 	1.76574 	0.013276 	-3.12496 	90.1609 	77.1769 	-0.591211 	283.835 	360.634 	284.577 	539.793 	
39.3525 	-0.00317219 	-0.523196 	-0.137533 	1.76574 	0.0133765 	-3.12496 	90.1609 	77.6518 	-0.591211 	284.337 	360.634 	284.577 	539.793 	
39.4558 	-0.00315464 	-0.523903 	-0.134025 	1.76573 	0.013477 	-3.12496 	90.1609 	78.2304 	-0.591211 	284.883 	360.634 	284.577 	539.793 	
39.5589 	-0.00313732 	-0.52458 	-0.130511 	1.76573 	0.0135775 	-3.12496 	90.1609 	78.6938 	-0.591211 	285.382 	360.634 	284.577 	539.793 	
39.6618 	-0.00312022 	-0.525226 	-0.126991 	1.76573 	0.013678 	-3.12496 	90.1609 	79.2186 	-0.591211 	285.882 	360.634 	284.577 	539.793 	
39.765 	-0.00310334 	-0.525841 	-0.123465 	1.76572 	0.0137784 	-3.12497 	90.1609 	79.7503 	-0.591211 	286.433 	360.634 	284.577 	539.793 	
39.868 	-0.00308668 	-0.526426 	-0.119935 	1.76572 	0.0138789 	-3.12497 	90.1609 	80.2645 	-0.591211 	286.934 	360.634 	284.577 	539.793 	
39.9712 	-0.00307026 	-0.526979 	-0.116399 	1.76572 	0.0139793 	-3.12497 	90.1609 	80.7593 	-0.591211 	287.435 	360.634 	284.577 	539.793 	
40.0739 	-0.00305405 	-0.527502 	-0.112859 	1.76571 	0.0140797 	-3.12498 	90.1609 	81.2505 	-0.591211 	287.932 	360.634 	284.577 	539.793 	
40.1769 	-0.00303808 	-0.527994 	-0.109314 	1.76571 	0.01418 	-3.12498 	90.1609 	81.8071 	-0.591211 	288.484 	360.634 	284.577 	539.793 	
40.28 	-0.00302234 	-0.528455 	-0.105765 	1.76571 	0.0142803 	-3.12499 	90.1609 	82.2977 	-0.591211 	288.983 	360.634 	284.577 	539.793 	
40.383 	-0.00300683 	-0.528885 	-0.102212 	1.7657 	0.0143805 	-3.125 	90.1609 	82.8194 	-0.591211 	289.48 	360.634 	284.577 	539.793 	
40.486 	-0.00299155 	-0.529283 	-0.0986559 	1.7657 	0.0144806 	-3.12501 	90.1609 	83.3401 	-0.591211 	290.031 	360.634 	284.577 	539.793 	
40.5929 	-0.0029765 	-0.529651 	-0.0950962 	1.7657 	0.0145807 	-3.12502 	90.1609 	83.8667 	-0.591211 	290.529 	360.634 	284.577 	539.793 	
40.6958 	-0.00296169 	-0.529988 	-0.0915335 	1.76569 	0.0146807 	-3.12503 	90.1609 	84.3905 	-0.591211 	291.084 	360.634 	284.577 	539.793 	
40.7987 	-0.00294711 	-0.530294 	-0.0879679 	1.76569 	0.0147806 	-3.12504 	90.1609 	84.9136 	-0.591211 	291.58 	360.634 	284.577 	539.793 	
40.9036 	-0.00291867 	-0.530812 	-0.0808295 	1.76569 	0.0149801 	-3.12506 	90.1609 	85.3862 	-0.591211 	292.08 	360.634 	284.577 	539.793 	
41.0069 	-0.00290481 	-0.531024 	-0.0772573 	1.76568 	0.0150796 	-3.12507 	90.1609 	85.9553 	-0.591211 	292.627 	360.634 	284.577 	539.793 	
41.1103 	-0.00289118 	-0.531205 	-0.0736833 	1.76568 	0.0151791 	-3.12509 	90.1609 	86.44 	-0.591211 	293.136 	360.634 	284.577 	539.793 	
41.2134 	-0.0028778 	-0.531354 	-0.0701078 	1.76568 	0.0152784 	-3.1251 	90.1609 	86.9565 	-0.591211 	293.631 	360.634 	284.577 	539.793 	
41.3166 	-0.00286466 	-0.531473 	-0.0665313 	1.76567 	0.0153776 	-3.12512 	90.1609 	87.4971 	-0.591211 	294.183 	360.634 	284.577 	539.793 	
41.4198 	-0.00285176 	-0.53156 	-0.0629538 	1.76567 	0.0154766 	-3.12514 	90.1609 	87.9915 	-0.591211 	294.68 	360.634 	284.577 	539.793 	
41.5224 	-0.00283911 	-0.531617 	-0.0593757 	1.76567 	0.0155755 	-3.12516 	90.1609 	88.5057 	-0.591211 	295.184 	360.634 	284.577 	539.793 	
41.6258 	-0.0028267 	-0.531641 	-0.0557972 	1.76566 	0.0156742 	-3.12517 	90.1609 	89.0467 	-0.591211 	295.731 	360.634 	284.577 	539.793 	
41.7289 	-0.00281454 	-0.531635 	-0.0522187 	1.76566 	0.0157728 	-3.12519 	90.1609 	89.5628 	-0.591211 	296.231 	360.634 	284.577 	539.793 	
41.8319 	-0.00280262 	-0.531598 	-0.0486403 	1.76566 	0.0158711 	-3.12521 	90.1609 	90.0394 	-0.591211 	296.73 	360.634 	284.577 	539.793 	
41.9347 	-0.00279095 	-0.531529 	-0.0450626 	1.76566 	0.0159693 	-3.12524 	90.1609 	90.6102 	-0.591211 	297.282 	360.634 	284.577 	539.793 	
42.0377 	-0.00277953 	-0.531429 	-0.0414854 	1.76565 	0.0160673 	-3.12526 	90.1609 	91.0878 	-0.591211 	297.781 	360.634 	284.577 	539.793 	
42.1409 	-0.00276836 	-0.531298 	-0.0379094 	1.76565 	0.0161651 	-3.12528 	90.1609 	91.6123 	-0.591211 	298.278 	360.634 	284.577 	539.793 	
42.2439 	-0.00275744 	-0.531135 	-0.0343346 	1.76565 	0.0162627 	-3.12531 	90.1609 	92.0921 	-0.591211 	298.78 	360.634 	284.577 	539.793 	
42.347 	-0.00274677 	-0.530942 	-0.0307613 	1.76564 	0.0163601 	-3.12533 	90.1609 	92.6518 	-0.591211 	299.33 	360.634 	284.577 	539.793 	
42.4528 	-0.00273635 	-0.530717 	-0.0271899 	1.76564 	0.0164573 	-3.12536 	90.1609 	93.1461 	-0.591211 	299.833 	360.634 	284.577 	539.793 	
42.5561 	-0.00272618 	-0.530461 	-0.0236206 	1.76564 	0.0165542 	-3.12538 	90.1609 	93.7076 	-0.591211 	300.378 	360.634 	284.577 	539.793 	
42.6588 	-0.00271627 	-0.530174 	-0.0200537 	1.76564 	0.0166509 	-3.12541 	90.1609 	94.1985 	-0.591211 	300.879 	360.634 	284.577 	539.793 	
42.7618 	-0.00270662 	-0.529856 	-0.0164895 	1.76563 	0.0167474 	-3.12544 	90.1609 	94.6945 	-0.591211 	301.377 	360.634 	284.577 	539.793 	
42.865 	-0.00269721 	-0.529507 	-0.0129282 	1.76563 	0.0168436 	-3.12547 	90.1609 	95.2512 	-0.591211 	301.934 	360.634 	284.577 	539.793 	
42.9681 	-0.00268807 	-0.529126 	-0.00937001 	1.76563 	0.0169396 	-3.1255 	90.1609 	95.7482 	-0.591211 	302.43 	360.634 	284.577 	539.793 	
43.0709 	-0.00267917 	-0.528715 	-0.00581532 	1.76562 	0.0170353 	-3.12553 	90.1609 	96.2636 	-0.591211 	302.934 	360.634 	284.577 	539.793 	
43.1739 	-0.00267054 	-0.528273 	-0.00226431 	1.76562 	0.0171307 	-3.12556 	90.1609 	96.7414 	-0.591211 	303.43 	360.634 	284.577 	539.793 	
43.277 	-0.00266216 	-0.527799 	0.00128261 	1.76562 	0.0172258 	-3.12559 	90.1609 	97.3095 	-0.591211 	303.98 	360.634 	284.577 	539.793 	
43.3799 	-0.00265405 	-0.527295 	0.00482522 	1.76562 	0.0173207 	-3.12562 	90.1609 	97.7974 	-0.591211 	304.481 	360.634 	284.577 	539.793 	
43.483 	-0.00264619 	-0.52676 	0.00836339 	1.76561 	0.0174153 	-3.12566 	90.1609 	98.3138 	-0.591211 	304.98 	360.634 	284.577 	539.793 	
43.5868 	-0.00263859 	-0.526194 	0.0118966 	1.76561 	0.0175095 	-3.12569 	90.1609 	98.851 	-0.591211 	305.53 	360.634 	284.577 	539.793 	
43.6953 	-0.00263125 	-0.525597 	0.0154248 	1.76561 	0.0176035 	-3.12573 	90.1609 	99.4126 	-0.591211 	306.077 	360.634 	284.577 	539.793 	
43.7978 	-0.00262417 	-0.52497 	0.0189477 	1.76561 	0.0176971 	-3.12577 	90.1609 	99.9075 	-0.591211 	306.583 	360.634 	284.577 	539.793 	
43.9018 	-0.00261735 	-0.524311 	0.0224649 	1.7656 	0.0177904 	-3.1258 	90.1609 	100.417 	-0.591211 	307.075 	360.634 	284.577 	539.793 	
44.0056 	-0.0026108 	-0.523622 	0.0259764 	1.7656 	0.0178834 	-3.12584 	90.1609 	100.961 	-0.591211 	307.633 	360.634 	284.577 	539.793 	
44.1085 	-0.0026045 	-0.522903 	0.0294816 	1.7656 	0.0179761 	-3.12588 	90.1609 	101.459 	-0.591211 	308.124 	360.634 	284.577 	539.793 	
44.2117 	-0.00259847 	-0.522153 	0.0329803 	1.7656 	0.0180684 	-3.12592 	90.1609 	101.964 	-0.591211 	308.628 	360.634 	284.577 	539.793 	
44.3148 	-0.0025872 	-0.520561 	0.0399575 	1.76559 	0.018252 	-3.126 	90.1609 	102.515 	-0.591211 	309.177 	360.634 	284.577 	539.793 	
44.4173 	-0.00258196 	-0.519719 	0.0434354 	1.76559 	0.0183432 	-3.12604 	90.1609 	103.026 	-0.591211 	309.677 	360.634 	284.577 	539.793 	
44.5196 	-0.00257699 	-0.518848 	0.0469059 	1.76559 	0.0184341 	-3.12609 	90.1609 	103.509 	-0.591211 	310.179 	360.634 	284.577 	539.793 	
44.6229 	-0.00257227 	-0.517946 	0.0503686 	1.76558 	0.0185246 	-3.12613 	90.1609 	104.025 	-0.591211 	310.678 	360.634 	284.577 	539.793 	
44.7257 	-0.00256783 	-0.517013 	0.0538232 	1.76558 	0.0186147 	-3.12617 	90.1609 	104.56 	-0.591211 	311.227 	360.634 	284.577 	539.793 	
44.8288 	-0.00256365 	-0.516051 	0.0572696 	1.76558 	0.0187044 	-3.12622 	90.1609 	105.079 	-0.591211 	311.725 	360.634 	284.577 	539.793 	
44.9319 	-0.00255974 	-0.515059 	0.0607075 	1.76558 	0.0187937 	-3.12627 	90.1609 	105.569 	-0.591211 	312.231 	360.634 	284.577 	539.793 	
45.035 	-0.00255609 	-0.514036 	0.0641365 	1.76558 	0.0188826 	-3.12631 	90.1609 	106.126 	-0.591211 	312.776 	360.634 	284.577 	539.793 	
45.138 	-0.00255271 	-0.512984 	0.0675565 	1.76557 	0.0189711 	-3.12636 	90.1609 	106.619 	-0.591113 	313.28 	360.634 	284.577 	539.793 	
45.241 	-0.00254959 	-0.511902 	0.0709671 	1.76557 	0.0190592 	-3.12641 	90.1609 	107.134 	-0.591211 	313.777 	360.634 	284.577 	539.793 	
45.344 	-0.00254674 	-0.51079 	0.0743683 	1.76557 	0.0191468 	-3.12646 	90.1609 	107.633 	-0.591211 	314.279 	360.634 	284.577 	539.793 	
45.4472 	-0.00254416 	-0.509649 	0.0777595 	1.76557 	0.0192341 	-3.12651 	90.1609 	108.177 	-0.591211 	314.823 	360.634 	284.577 	539.793 	
45.5529 	-0.00254185 	-0.508478 	0.0811406 	1.76556 	0.0193209 	-3.12656 	90.1609 	108.686 	-0.591211 	315.326 	360.634 	284.577 	539.793 	
45.6559 	-0.0025398 	-0.507278 	0.0845115 	1.76556 	0.0194072 	-3.12661 	90.1609 	109.236 	-0.591211 	315.875 	360.634 	284.577 	539.793 	
45.7589 	-0.00253802 	-0.506048 	0.0878716 	1.76556 	0.0194931 	-3.12666 	90.1609 	109.747 	-0.591211 	316.377 	360.634 	284.577 	539.793 	
45.8619 	-0.00253651 	-0.504789 	0.0912209 	1.76556 	0.0195785 	-3.12672 	90.1609 	110.233 	-0.591211 	316.873 	360.634 	284.577 	539.793 	
45.9652 	-0.00253567 	-0.503846 	0.0946867 	1.76451 	0.019653 	-3.12676 	90.1609 	110.797 	-0.591211 	317.282 	360.634 	284.577 	539.793 	
46.0679 	-0.00253764 	-0.505233 	0.0990253 	1.7563 	0.0196559 	-3.12678 	90.1609 	111.287 	-0.591211 	317.327 	360.634 	284.577 	539.793 	
46.1712 	-0.00253977 	-0.506754 	0.103441 	1.74758 	0.0196537 	-3.12679 	90.1609 	111.8 	-0.591211 	317.335 	360.634 	284.577 	539.793 	
46.2737 	-0.00254184 	-0.508236 	0.10787 	1.73885 	0.0196517 	-3.1268 	90.1609 	112.291 	-0.591211 	317.353 	360.634 	284.577 	539.793 	
46.3771 	-0.00254385 	-0.50968 	0.112312 	1.73012 	0.0196497 	-3.12681 	90.1609 	112.841 	-0.591211 	317.359 	360.634 	284.577 	539.793 	
46.48 	-0.00254582 	-0.511084 	0.116766 	1.7214 	0.0196478 	-3.12683 	90.1609 	113.334 	-0.591211 	317.361 	360.634 	284.577 	539.793 	
46.5832 	-0.00254772 	-0.51245 	0.121233 	1.71267 	0.019646 	-3.12684 	90.1609 	113.846 	-0.591211 	317.362 	360.634 	284.577 	539.793 	
46.6861 	-0.00254958 	-0.513777 	0.125711 	1.70394 	0.0196443 	-3.12685 	90.1609 	114.391 	-0.591113 	317.363 	360.634 	284.577 	539.793 	
46.794 	-0.00255137 	-0.515065 	0.1302 	1.69522 	0.0196428 	-3.12686 	90.1609 	114.886 	-0.591113 	317.363 	360.634 	284.577 	539.793 	
46.8973 	-0.00255312 	-0.516313 	0.134701 	1.68649 	0.0196413 	-3.12688 	90.1609 	115.438 	-0.591113 	317.364 	360.634 	284.577 	539.793 	
46.9254 	-0.0025548 	-0.517522 	0.139212 	1.67776 	0.01964 	-3.12689 	90.1609 	115.589 	-0.591113 	317.364 	360.634 	284.577 	539.793 	
47.0291 	-0.00253859 	-0.520129 	0.142601 	1.67008 	0.0196601 	-3.12698 	90.1609 	116.044 	-0.591113 	317.267 	360.634 	284.563 	539.793 	
47.1317 	-0.00251183 	-0.523614 	0.145382 	1.66298 	0.0196925 	-3.12712 	90.1609 	116.489 	-0.591113 	316.885 	360.634 	284.251 	539.793 	
47.2351 	-0.00248426 	-0.526177 	0.144489 	1.66298 	0.0197247 	-3.12725 	90.1609 	116.562 	-0.591113 	316.355 	360.634 	283.703 	539.793 	
47.3377 	-0.0024572 	-0.528747 	0.143619 	1.66298 	0.0197558 	-3.12738 	90.1609 	116.565 	-0.591113 	315.867 	360.634 	283.212 	539.793 	
47.4412 	-0.00243063 	-0.531325 	0.142771 	1.66299 	0.0197858 	-3.12751 	90.1609 	116.565 	-0.591113 	315.365 	360.634 	282.746 	539.793 	
47.5439 	-0.00240457 	-0.53391 	0.141946 	1.66299 	0.0198146 	-3.12764 	90.1609 	116.566 	-0.591113 	314.865 	360.634 	282.166 	539.793 	
47.6469 	-0.00237901 	-0.536502 	0.141143 	1.66299 	0.0198423 	-3.12777 	90.1609 	116.566 	-0.591113 	314.321 	360.634 	281.657 	539.793 	
47.7528 	-0.00235396 	-0.539101 	0.140363 	1.66299 	0.0198688 	-3.1279 	90.1609 	116.566 	-0.591113 	313.819 	360.634 	281.19 	539.793 	
47.856 	-0.00232942 	-0.541707 	0.139606 	1.66299 	0.0198941 	-3.12803 	90.1609 	116.566 	-0.591113 	313.274 	360.634 	280.557 	539.793 	
47.959 	-0.00230539 	-0.544319 	0.138871 	1.66299 	0.0199184 	-3.12817 	90.1609 	116.566 	-0.591113 	312.776 	360.634 	280.088 	539.793 	
48.0618 	-0.00228188 	-0.546938 	0.138159 	1.66299 	0.0199415 	-3.1283 	90.1609 	116.566 	-0.591113 	312.278 	360.634 	279.64 	539.793 	
48.1646 	-0.00225887 	-0.549562 	0.137471 	1.66299 	0.0199634 	-3.12843 	90.1609 	116.566 	-0.591113 	311.725 	360.634 	279.076 	539.793 	
48.2679 	-0.00223639 	-0.552193 	0.136805 	1.66299 	0.0199841 	-3.12856 	90.1609 	116.566 	-0.591113 	311.233 	360.634 	278.527 	539.793 	
48.3711 	-0.00221442 	-0.554829 	0.136161 	1.66299 	0.0200038 	-3.12869 	90.1609 	116.566 	-0.591113 	310.731 	360.634 	278.087 	539.793 	
48.4739 	-0.00219297 	-0.557471 	0.135541 	1.66299 	0.0200222 	-3.12883 	90.1609 	116.566 	-0.591113 	310.236 	360.634 	277.532 	539.793 	
48.5771 	-0.00217205 	-0.560118 	0.134944 	1.66299 	0.0200395 	-3.12896 	90.1609 	116.566 	-0.591113 	309.685 	360.634 	276.965 	539.793 	
48.6801 	-0.00215164 	-0.56277 	0.134371 	1.66299 	0.0200556 	-3.12909 	90.1609 	116.566 	-0.591113 	309.191 	360.634 	276.537 	539.793 	
48.783 	-0.00213176 	-0.565428 	0.13382 	1.663 	0.0200706 	-3.12923 	90.1609 	116.566 	-0.591113 	308.687 	360.634 	276.001 	539.793 	
48.8862 	-0.00211241 	-0.56809 	0.133292 	1.663 	0.0200844 	-3.12936 	90.1609 	116.566 	-0.591113 	308.143 	360.634 	275.417 	539.793 	
48.9922 	-0.00209358 	-0.570756 	0.132788 	1.663 	0.0200971 	-3.12949 	90.1609 	116.566 	-0.591113 	307.649 	360.634 	274.98 	539.793 	
49.095 	-0.00207529 	-0.573427 	0.132307 	1.663 	0.0201086 	-3.12963 	90.1609 	116.566 	-0.591113 	307.098 	360.634 	274.455 	539.793 	
49.1978 	-0.00205752 	-0.576102 	0.131849 	1.663 	0.0201189 	-3.12976 	90.1609 	116.566 	-0.591113 	306.6 	360.634 	273.852 	539.793 	
49.3005 	-0.00204029 	-0.57878 	0.131415 	1.663 	0.020128 	-3.12989 	90.1609 	116.566 	-0.591113 	306.098 	360.634 	273.418 	539.793 	
49.4055 	-0.00202358 	-0.581463 	0.131004 	1.663 	0.020136 	-3.13003 	90.1609 	116.566 	-0.591113 	305.557 	360.634 	272.876 	539.793 	
49.5097 	-0.00199178 	-0.586838 	0.130253 	1.663 	0.0201485 	-3.1303 	90.1609 	116.566 	-0.591113 	305.054 	360.634 	272.306 	539.793 	
49.6126 	-0.00197669 	-0.58953 	0.129912 	1.663 	0.020153 	-3.13043 	90.1609 	116.566 	-0.591113 	304.559 	360.634 	271.861 	539.793 	
49.7159 	-0.00196213 	-0.592225 	0.129595 	1.66301 	0.0201563 	-3.13056 	90.1609 	116.566 	-0.591113 	304.005 	360.634 	271.324 	539.793 	
49.8189 	-0.00194811 	-0.594923 	0.129301 	1.66301 	0.0201584 	-3.1307 	90.1609 	116.566 	-0.591113 	303.512 	360.634 	270.747 	539.793 	
49.9216 	-0.00193463 	-0.597623 	0.129031 	1.66301 	0.0201594 	-3.13083 	90.1609 	116.566 	-0.591113 	303.013 	360.634 	270.297 	539.793 	
50.025 	-0.00192169 	-0.600326 	0.128785 	1.66301 	0.0201592 	-3.13097 	90.1609 	116.566 	-0.591113 	302.465 	360.634 	269.836 	539.793 	
50.1279 	-0.0019093 	-0.60303 	0.128562 	1.66301 	0.0201579 	-3.1311 	90.1609 	116.566 	-0.591113 	301.965 	360.634 	269.212 	539.793 	
50.2309 	-0.00189744 	-0.605736 	0.128362 	1.66301 	0.0201553 	-3.13123 	90.1609 	116.566 	-0.591113 	301.472 	360.634 	268.737 	539.793 	
50.3341 	-0.00188613 	-0.608445 	0.128187 	1.66301 	0.0201516 	-3.13137 	90.1609 	116.566 	-0.591113 	300.973 	360.634 	268.29 	539.793 	
50.4371 	-0.00187537 	-0.611154 	0.128035 	1.66301 	0.0201468 	-3.1315 	90.1609 	116.566 	-0.591113 	300.421 	360.634 	267.663 	539.793 	
50.5398 	-0.00186515 	-0.613865 	0.127906 	1.66301 	0.0201407 	-3.13164 	90.1609 	116.566 	-0.591113 	299.922 	360.634 	267.174 	539.793 	
50.6429 	-0.00185548 	-0.616576 	0.127802 	1.66301 	0.0201335 	-3.13177 	90.1609 	116.566 	-0.591113 	299.429 	360.634 	266.743 	539.793 	
50.7463 	-0.00184635 	-0.619289 	0.12772 	1.66302 	0.0201252 	-3.1319 	90.1609 	116.566 	-0.591113 	298.881 	360.634 	266.138 	539.793 	
50.8527 	-0.00183777 	-0.622002 	0.127663 	1.66302 	0.0201156 	-3.13204 	90.1609 	116.566 	-0.591113 	298.38 	360.634 	265.619 	539.793 	
50.9559 	-0.00182974 	-0.624716 	0.127629 	1.66302 	0.0201049 	-3.13217 	90.1609 	116.566 	-0.591113 	297.83 	360.634 	265.139 	539.793 	
51.0591 	-0.00182226 	-0.627429 	0.127619 	1.66302 	0.0200931 	-3.1323 	90.1609 	116.566 	-0.591113 	297.332 	360.634 	264.585 	539.793 	
51.162 	-0.00181533 	-0.630143 	0.127633 	1.66302 	0.02008 	-3.13244 	90.1609 	116.566 	-0.591113 	296.838 	360.634 	264.058 	539.793 	
51.2654 	-0.00180895 	-0.632857 	0.12767 	1.66302 	0.0200658 	-3.13257 	90.1609 	116.566 	-0.591113 	296.343 	360.634 	263.628 	539.793 	
51.3681 	-0.00180312 	-0.63557 	0.127731 	1.66302 	0.0200505 	-3.1327 	90.1609 	116.566 	-0.591113 	295.792 	360.634 	263.055 	539.793 	
51.4712 	-0.00179784 	-0.638282 	0.127815 	1.66302 	0.020034 	-3.13284 	90.1609 	116.566 	-0.591113 	295.291 	360.634 	262.505 	539.793 	
51.5739 	-0.00179311 	-0.640994 	0.127924 	1.66302 	0.0200163 	-3.13297 	90.1609 	116.566 	-0.591113 	294.798 	360.634 	262.07 	539.793 	
51.6773 	-0.00178893 	-0.643704 	0.128055 	1.66303 	0.0199974 	-3.1331 	90.1609 	116.566 	-0.591113 	294.251 	360.634 	261.514 	539.793 	
51.78 	-0.00178531 	-0.646414 	0.128211 	1.66303 	0.0199774 	-3.13323 	90.1609 	116.566 	-0.591113 	293.757 	360.634 	260.949 	539.793 	
51.8829 	-0.00178224 	-0.649122 	0.12839 	1.66303 	0.0199563 	-3.13337 	90.1609 	116.566 	-0.591113 	293.251 	360.634 	260.513 	539.793 	
51.9863 	-0.00177972 	-0.651828 	0.128593 	1.66303 	0.019934 	-3.1335 	90.1609 	116.566 	-0.591113 	292.706 	360.634 	259.981 	539.793 	
52.0931 	-0.00177775 	-0.654532 	0.128819 	1.66303 	0.0199105 	-3.13363 	90.1609 	116.566 	-0.591113 	292.206 	360.634 	259.409 	539.793 	
52.196 	-0.00177634 	-0.657234 	0.129069 	1.66303 	0.0198859 	-3.13376 	90.1609 	116.566 	-0.591113 	291.66 	360.634 	258.908 	539.793 	
52.2988 	-0.00177548 	-0.659935 	0.129343 	1.66303 	0.0198602 	-3.13389 	90.1609 	116.566 	-0.591113 	291.159 	360.634 	258.429 	539.793 	
52.4016 	-0.00177517 	-0.662632 	0.12964 	1.66303 	0.0198333 	-3.13403 	90.1609 	116.566 	-0.591113 	290.665 	360.634 	257.854 	539.793 	
52.5045 	-0.00177541 	-0.665327 	0.12996 	1.66304 	0.0198053 	-3.13416 	90.1609 	116.566 	-0.591113 	290.165 	360.634 	257.386 	539.793 	
52.6091 	-0.00177621 	-0.668019 	0.130304 	1.66304 	0.0197761 	-3.13429 	90.1609 	116.566 	-0.591113 	289.623 	360.634 	256.889 	539.793 	
52.7117 	-0.00177757 	-0.670708 	0.130672 	1.66304 	0.0197457 	-3.13442 	90.1609 	116.566 	-0.591113 	289.12 	360.634 	256.326 	539.793 	
52.8148 	-0.00178193 	-0.676075 	0.131477 	1.66304 	0.0196817 	-3.13468 	90.1609 	116.566 	-0.591113 	288.62 	360.634 	255.831 	539.793 	
52.9179 	-0.00178493 	-0.678753 	0.131914 	1.66305 	0.019648 	-3.13481 	90.1609 	116.566 	-0.591113 	288.076 	360.634 	255.342 	539.793 	
53.0207 	-0.00178849 	-0.681428 	0.132374 	1.66305 	0.0196131 	-3.13494 	90.1609 	116.566 	-0.591113 	287.579 	360.634 	254.781 	539.793 	
53.1239 	-0.0017926 	-0.684098 	0.132858 	1.66305 	0.0195772 	-3.13507 	90.1609 	116.566 	-0.591113 	287.083 	360.634 	254.266 	539.793 	
53.2269 	-0.00179726 	-0.686764 	0.133365 	1.66306 	0.0195401 	-3.1352 	90.1609 	116.566 	-0.591113 	286.528 	360.634 	253.784 	539.793 	
53.3298 	-0.00180248 	-0.689425 	0.133895 	1.66306 	0.0195018 	-3.13532 	90.1609 	116.566 	-0.591113 	286.031 	360.634 	253.247 	539.793 	
53.4328 	-0.00180825 	-0.692082 	0.134449 	1.66307 	0.0194625 	-3.13545 	90.1609 	116.566 	-0.591113 	285.538 	360.634 	252.707 	539.793 	
53.5359 	-0.00181456 	-0.694733 	0.135025 	1.66307 	0.019422 	-3.13558 	90.1609 	116.566 	-0.591113 	284.993 	360.634 	252.234 	539.793 	
53.639 	-0.00182143 	-0.69738 	0.135625 	1.66307 	0.0193805 	-3.13571 	90.1609 	116.566 	-0.591113 	284.488 	360.634 	251.702 	539.793 	
53.7419 	-0.00182885 	-0.700021 	0.136248 	1.66308 	0.0193378 	-3.13583 	90.1609 	116.566 	-0.591113 	283.989 	360.634 	251.151 	539.793 	
53.8451 	-0.00183681 	-0.702657 	0.136893 	1.66308 	0.019294 	-3.13596 	90.1609 	116.566 	-0.591113 	283.495 	360.634 	250.716 	539.793 	
53.9531 	-0.00184533 	-0.705287 	0.137562 	1.66309 	0.0192491 	-3.13609 	90.1609 	116.566 	-0.591113 	282.947 	360.634 	250.167 	539.793 	
54.056 	-0.00185439 	-0.707911 	0.138253 	1.66309 	0.0192031 	-3.13621 	90.1609 	116.566 	-0.591113 	282.401 	360.634 	249.557 	539.793 	
54.1589 	-0.001864 	-0.710528 	0.138968 	1.66309 	0.019156 	-3.13634 	90.1609 	116.566 	-0.591113 	281.899 	360.634 	249.121 	539.793 	
54.2621 	-0.00187416 	-0.71314 	0.139705 	1.6631 	0.0191078 	-3.13646 	90.1609 	116.566 	-0.591113 	281.4 	360.634 	248.62 	539.793 	
54.365 	-0.00188486 	-0.715745 	0.140465 	1.6631 	0.0190586 	-3.13659 	90.1609 	116.566 	-0.591113 	280.905 	360.634 	248.053 	539.793 	
54.4679 	-0.00189611 	-0.718343 	0.141248 	1.6631 	0.0190082 	-3.13671 	90.1609 	116.566 	-0.591113 	280.361 	360.634 	247.558 	539.793 	
54.5711 	-0.0019079 	-0.720935 	0.142054 	1.66311 	0.0189567 	-3.13684 	90.1609 	116.566 	-0.591113 	279.857 	360.634 	247.082 	539.793 	
54.674 	-0.00192023 	-0.723519 	0.142882 	1.66311 	0.0189042 	-3.13696 	90.1609 	116.566 	-0.591113 	279.364 	360.634 	246.518 	539.793 	
54.7772 	-0.00193311 	-0.726096 	0.143732 	1.66312 	0.0188506 	-3.13708 	90.1609 	116.566 	-0.591113 	278.812 	360.634 	245.999 	539.793 	
54.8801 	-0.00194653 	-0.728665 	0.144605 	1.66312 	0.018796 	-3.13721 	90.1609 	116.566 	-0.591113 	278.317 	360.634 	245.539 	539.793 	
54.983 	-0.00196049 	-0.731227 	0.1455 	1.66312 	0.0187402 	-3.13733 	90.1609 	116.566 	-0.591113 	277.818 	360.634 	244.966 	539.793 	
55.0861 	-0.00197499 	-0.73378 	0.146418 	1.66313 	0.0186834 	-3.13745 	90.1609 	116.565 	-0.591113 	277.267 	360.634 	244.428 	539.793 	
55.1938 	-0.00199002 	-0.736326 	0.147358 	1.66313 	0.0186256 	-3.13757 	90.1609 	116.565 	-0.591113 	276.773 	360.634 	243.984 	539.793 	
55.2971 	-0.00200559 	-0.738863 	0.14832 	1.66314 	0.0185667 	-3.13769 	90.1609 	116.565 	-0.591113 	276.223 	360.634 	243.376 	539.793 	
55.3995 	-0.0020217 	-0.741392 	0.149304 	1.66314 	0.0185067 	-3.13781 	90.1609 	116.565 	-0.591113 	275.733 	360.634 	242.867 	539.793 	
55.5046 	-0.00203835 	-0.743912 	0.15031 	1.66314 	0.0184457 	-3.13793 	90.1609 	116.565 	-0.591113 	275.226 	360.634 	242.429 	539.793 	
55.6089 	-0.00205552 	-0.746423 	0.151338 	1.66315 	0.0183837 	-3.13805 	90.1609 	116.565 	-0.591113 	274.679 	360.634 	241.829 	539.793 	
55.7116 	-0.00209147 	-0.751418 	0.15346 	1.66316 	0.0182565 	-3.13828 	90.1609 	116.565 	-0.591113 	274.178 	360.634 	241.306 	539.793 	
55.8153 	-0.00211024 	-0.753902 	0.154553 	1.66316 	0.0181914 	-3.1384 	90.1609 	116.565 	-0.591113 	273.69 	360.634 	240.882 	539.793 	
55.9178 	-0.00212954 	-0.756376 	0.155669 	1.66316 	0.0181253 	-3.13852 	90.1609 	116.565 	-0.591113 	273.134 	360.634 	240.297 	539.793 	
56.021 	-0.00214936 	-0.75884 	0.156805 	1.66317 	0.0180581 	-3.13863 	90.1609 	116.565 	-0.591113 	272.639 	360.634 	239.761 	539.793 	
56.1239 	-0.0021697 	-0.761294 	0.157963 	1.66317 	0.0179899 	-3.13875 	90.1609 	116.565 	-0.591113 	272.135 	360.634 	239.327 	539.793 	
56.227 	-0.00219057 	-0.763737 	0.159143 	1.66317 	0.0179208 	-3.13886 	90.1609 	116.565 	-0.591113 	271.592 	360.634 	238.754 	539.793 	
56.3297 	-0.00221197 	-0.766171 	0.160343 	1.66318 	0.0178506 	-3.13898 	90.1609 	116.565 	-0.591113 	271.098 	360.634 	238.2 	539.793 	
56.4332 	-0.00223388 	-0.768594 	0.161565 	1.66318 	0.0177794 	-3.13909 	90.1609 	116.565 	-0.591113 	270.6 	360.634 	237.771 	539.793 	
56.536 	-0.00225631 	-0.771006 	0.162808 	1.66319 	0.0177073 	-3.1392 	90.1609 	116.565 	-0.591113 	270.051 	360.634 	237.227 	539.793 	
56.6389 	-0.00227926 	-0.773407 	0.164072 	1.66319 	0.0176341 	-3.13932 	90.1609 	116.565 	-0.591113 	269.549 	360.634 	236.662 	539.793 	
56.7419 	-0.00230272 	-0.775797 	0.165357 	1.66319 	0.01756 	-3.13943 	90.1609 	116.565 	-0.591113 	269.058 	360.634 	236.207 	539.793 	
56.844 	-0.0023267 	-0.778176 	0.166663 	1.6632 	0.0174849 	-3.13954 	90.1609 	116.565 	-0.591113 	268.552 	360.634 	235.724 	539.793 	
56.953 	-0.00234871 	-0.780307 	0.167856 	1.6632 	0.0174165 	-3.13964 	90.1609 	116.565 	-0.591113 	268.005 	360.634 	235.113 	539.793 	
57.0561 	-0.00237618 	-0.782898 	0.169336 	1.6632 	0.0173319 	-3.13976 	90.1609 	116.565 	-0.591113 	267.456 	360.634 	234.599 	539.793 	
57.159 	-0.00240168 	-0.785242 	0.170704 	1.66321 	0.0172539 	-3.13987 	90.1609 	116.565 	-0.591113 	266.972 	360.634 	234.127 	539.793 	
57.2619 	-0.00242769 	-0.787574 	0.172092 	1.66321 	0.017175 	-3.13998 	90.1609 	116.565 	-0.591113 	266.462 	360.634 	233.566 	539.793 	
57.3651 	-0.00245421 	-0.789893 	0.1735 	1.66322 	0.0170951 	-3.14009 	90.1609 	116.565 	-0.591113 	265.965 	360.634 	233.073 	539.793 	
57.4684 	-0.00248122 	-0.7922 	0.174928 	1.66322 	0.0170143 	-3.14019 	90.1609 	116.565 	-0.591113 	265.415 	360.634 	232.578 	539.793 	
57.5709 	-0.00250874 	-0.794495 	0.176376 	1.66322 	0.0169326 	-3.1403 	90.1609 	116.565 	-0.591113 	264.919 	360.634 	232.026 	539.793 	
57.6739 	-0.00253675 	-0.796776 	0.177845 	1.66323 	0.0168499 	-3.1404 	90.1609 	116.565 	-0.591113 	264.428 	360.634 	231.516 	539.793 	
57.777 	-0.00256526 	-0.799045 	0.179333 	1.66323 	0.0167664 	-3.14051 	90.1609 	116.565 	-0.591113 	263.875 	360.634 	231.026 	539.793 	
57.8804 	-0.00259426 	-0.801301 	0.180841 	1.66323 	0.0166819 	-3.14061 	90.1609 	116.565 	-0.591113 	263.374 	360.634 	230.486 	539.793 	
57.9833 	-0.00262375 	-0.803544 	0.182369 	1.66324 	0.0165965 	-3.14072 	90.1609 	116.565 	-0.591113 	262.872 	360.634 	229.961 	539.793 	
58.0863 	-0.00265373 	-0.805773 	0.183916 	1.66324 	0.0165102 	-3.14082 	90.1609 	116.565 	-0.591113 	262.333 	360.634 	229.474 	539.793 	
58.1929 	-0.0026842 	-0.807989 	0.185482 	1.66325 	0.0164231 	-3.14092 	90.1609 	116.565 	-0.591113 	261.827 	360.634 	228.939 	539.793 	
58.2951 	-0.00271514 	-0.81019 	0.187068 	1.66325 	0.016335 	-3.14102 	90.1609 	116.565 	-0.591113 	261.285 	360.634 	228.352 	539.793 	
58.3981 	-0.00274658 	-0.812378 	0.188673 	1.66325 	0.0162461 	-3.14112 	90.1609 	116.565 	-0.591113 	260.783 	360.634 	227.921 	539.793 	
58.5016 	-0.00277849 	-0.814552 	0.190297 	1.66326 	0.0161563 	-3.14122 	90.1609 	116.565 	-0.591113 	260.291 	360.634 	227.398 	539.793 	
58.607 	-0.00281088 	-0.816712 	0.191939 	1.66326 	0.0160656 	-3.14132 	90.1609 	116.565 	-0.591113 	259.736 	360.634 	226.81 	539.793 	
58.711 	-0.00287707 	-0.820987 	0.195281 	1.66327 	0.0158817 	-3.14152 	90.1609 	116.565 	-0.591113 	259.244 	360.634 	226.368 	539.793 	
58.8138 	-0.00291088 	-0.823103 	0.19698 	1.66327 	0.0157884 	3.14157 	90.1609 	116.565 	-0.591113 	258.736 	360.634 	225.857 	539.793 	
58.917 	-0.00294515 	-0.825204 	0.198697 	1.66327 	0.0156944 	3.14148 	90.1609 	116.565 	-0.591113 	258.198 	360.634 	225.256 	539.793 	
59.0196 	-0.00297989 	-0.827289 	0.200433 	1.66328 	0.0155995 	3.14138 	90.1609 	116.564 	-0.591113 	257.7 	360.634 	224.803 	539.793 	
59.1229 	-0.00301508 	-0.82936 	0.202186 	1.66328 	0.0155038 	3.14129 	90.1609 	116.564 	-0.591113 	257.197 	360.634 	224.314 	539.793 	
59.226 	-0.00305074 	-0.831415 	0.203958 	1.66329 	0.0154072 	3.1412 	90.1609 	116.564 	-0.591113 	256.649 	360.634 	223.713 	539.793 	
59.329 	-0.00308686 	-0.833455 	0.205748 	1.66329 	0.0153099 	3.1411 	90.1609 	116.564 	-0.591113 	256.148 	360.634 	223.239 	539.793 	
59.4318 	-0.00312343 	-0.83548 	0.207556 	1.66329 	0.0152117 	3.14101 	90.1609 	116.564 	-0.591113 	255.656 	360.634 	222.766 	539.793 	
59.5349 	-0.00316046 	-0.837489 	0.209382 	1.66329 	0.0151128 	3.14092 	90.1609 	116.564 	-0.591113 	255.156 	360.634 	222.215 	539.793 	
59.6381 	-0.00319794 	-0.839482 	0.211226 	1.66329 	0.015013 	3.14083 	90.1609 	116.564 	-0.591113 	254.616 	360.634 	221.678 	539.793 	
59.7409 	-0.00323586 	-0.841458 	0.213087 	1.66329 	0.0149125 	3.14074 	90.1609 	116.564 	-0.591113 	254.107 	360.634 	221.224 	539.793 	
59.844 	-0.00327422 	-0.843418 	0.214964 	1.66329 	0.0148112 	3.14066 	90.1609 	116.564 	-0.591113 	253.617 	360.634 	220.672 	539.793 	
59.9471 	-0.00331302 	-0.845362 	0.216859 	1.66329 	0.0147092 	3.14057 	90.1609 	116.564 	-0.591113 	253.062 	360.634 	220.126 	539.793 	
60.053 	-0.00335226 	-0.84729 	0.218771 	1.66329 	0.0146063 	3.14048 	90.1609 	116.564 	-0.591113 	252.569 	360.634 	219.676 	539.793 	
60.1558 	-0.00339193 	-0.8492 	0.2207 	1.66329 	0.0145028 	3.1404 	90.1609 	116.564 	-0.591113 	252.009 	360.634 	219.068 	539.793 	
60.2586 	-0.00343203 	-0.851093 	0.222645 	1.66329 	0.0143985 	3.14031 	90.1609 	116.564 	-0.591113 	251.517 	360.634 	218.561 	539.793 	
60.3621 	-0.00347256 	-0.85297 	0.224607 	1.6633 	0.0142935 	3.14023 	90.1609 	116.564 	-0.591113 	251.025 	360.634 	218.123 	539.793 	
60.4649 	-0.00351351 	-0.854829 	0.226585 	1.6633 	0.0141877 	3.14015 	90.1609 	116.564 	-0.591113 	250.523 	360.634 	217.594 	539.793 	
60.568 	-0.00355489 	-0.856671 	0.228579 	1.6633 	0.0140813 	3.14007 	90.1609 	116.564 	-0.591113 	249.976 	360.634 	217.011 	539.793 	
60.6709 	-0.00359668 	-0.858496 	0.230589 	1.6633 	0.0139741 	3.13999 	90.1609 	116.564 	-0.591113 	249.471 	360.634 	216.572 	539.793 	
60.7739 	-0.00363888 	-0.860302 	0.232615 	1.6633 	0.0138662 	3.13991 	90.1609 	116.564 	-0.591113 	248.982 	360.634 	216.042 	539.793 	
60.8769 	-0.0036815 	-0.862091 	0.234656 	1.6633 	0.0137577 	3.13983 	90.1609 	116.564 	-0.591113 	248.427 	360.634 	215.453 	539.793 	
60.9799 	-0.00372453 	-0.863863 	0.236714 	1.6633 	0.0136484 	3.13975 	90.1609 	116.564 	-0.591113 	247.934 	360.634 	215.007 	539.793 	
61.0834 	-0.00376796 	-0.865616 	0.238786 	1.6633 	0.0135385 	3.13967 	90.1609 	116.564 	-0.591113 	247.426 	360.634 	214.509 	539.793 	
61.1862 	-0.00381179 	-0.867351 	0.240874 	1.6633 	0.0134279 	3.1396 	90.1609 	116.564 	-0.591113 	246.89 	360.634 	213.904 	539.793 	
61.292 	-0.00385602 	-0.869068 	0.242977 	1.6633 	0.0133167 	3.13952 	90.1609 	116.564 	-0.591113 	246.382 	360.634 	213.45 	539.793 	
61.395 	-0.00390065 	-0.870766 	0.245094 	1.6633 	0.0132048 	3.13945 	90.1609 	116.564 	-0.591113 	245.885 	360.634 	212.962 	539.793 	
61.4982 	-0.00394567 	-0.872446 	0.247227 	1.6633 	0.0130923 	3.13938 	90.1609 	116.564 	-0.591113 	245.333 	360.634 	212.353 	539.793 	
61.6009 	-0.00399108 	-0.874107 	0.249374 	1.6633 	0.0129791 	3.13931 	90.1609 	116.564 	-0.591113 	244.835 	360.634 	211.889 	539.793 	
61.7047 	-0.00403687 	-0.875749 	0.251535 	1.66331 	0.0128654 	3.13923 	90.1609 	116.564 	-0.591113 	244.342 	360.634 	211.421 	539.793 	
61.8077 	-0.00408304 	-0.877373 	0.253711 	1.66331 	0.012751 	3.13916 	90.1609 	116.564 	-0.591113 	243.792 	360.634 	210.812 	539.793 	
61.9119 	-0.00412959 	-0.878977 	0.255901 	1.66331 	0.012636 	3.1391 	90.1609 	116.564 	-0.591113 	243.295 	360.634 	210.328 	539.793 	
62.015 	-0.00422381 	-0.882128 	0.260322 	1.66331 	0.0124042 	3.13896 	90.1609 	116.564 	-0.591113 	242.782 	360.634 	209.873 	539.793 	
62.1181 	-0.00427147 	-0.883674 	0.262553 	1.66331 	0.0122875 	3.1389 	90.1609 	116.564 	-0.591113 	242.252 	360.634 	209.264 	539.793 	
62.2209 	-0.0043195 	-0.885201 	0.264797 	1.66331 	0.0121701 	3.13883 	90.1609 	116.564 	-0.591113 	241.746 	360.634 	208.766 	539.793 	
62.3239 	-0.00436788 	-0.886708 	0.267055 	1.66331 	0.0120522 	3.13877 	90.1609 	116.564 	-0.591113 	241.252 	360.634 	208.323 	539.793 	
62.4269 	-0.00441662 	-0.888196 	0.269326 	1.66331 	0.0119338 	3.1387 	90.1609 	116.564 	-0.591113 	240.692 	360.634 	207.721 	539.793 	
62.5297 	-0.00446572 	-0.889664 	0.27161 	1.66331 	0.0118148 	3.13864 	90.1609 	116.564 	-0.591113 	240.203 	360.634 	207.218 	539.793 	
62.633 	-0.00451516 	-0.891111 	0.273906 	1.66331 	0.0116953 	3.13858 	90.1609 	116.563 	-0.591113 	239.706 	360.634 	206.771 	539.793 	
62.7361 	-0.00456495 	-0.892539 	0.276215 	1.66331 	0.0115752 	3.13852 	90.1609 	116.563 	-0.591113 	239.159 	360.634 	206.172 	539.793 	
62.839 	-0.00461507 	-0.893946 	0.278536 	1.66331 	0.0114547 	3.13846 	90.1609 	116.563 	-0.591113 	238.649 	360.634 	205.66 	539.793 	
62.942 	-0.00466048 	-0.895195 	0.280636 	1.66331 	0.0113457 	3.13841 	90.1609 	116.563 	-0.591113 	238.15 	360.634 	205.214 	539.793 	
63.045 	-0.00471633 	-0.8967 	0.283215 	1.66331 	0.011212 	3.13835 	90.161 	116.563 	-0.591113 	237.659 	360.634 	204.685 	539.793 	
63.153 	-0.00476233 	-0.897912 	0.285336 	1.66331 	0.0111022 	3.1383 	90.1609 	116.563 	-0.591113 	237.105 	360.634 	204.111 	539.793 	
63.256 	-0.00481892 	-0.899371 	0.287941 	1.66331 	0.0109674 	3.13824 	90.1609 	116.563 	-0.591113 	236.555 	360.634 	203.608 	539.793 	
63.359 	-0.0048655 	-0.900546 	0.290083 	1.66331 	0.0108568 	3.13819 	90.1609 	116.563 	-0.591113 	236.057 	360.634 	203.082 	539.793 	
63.4621 	-0.00492278 	-0.90196 	0.292713 	1.66332 	0.010721 	3.13813 	90.1609 	116.563 	-0.591113 	235.568 	360.634 	202.552 	539.793 	
63.5652 	-0.00496993 	-0.903097 	0.294875 	1.66332 	0.0106095 	3.13809 	90.1609 	116.563 	-0.591113 	235.06 	360.634 	202.1 	539.793 	
63.6682 	-0.00502791 	-0.904464 	0.29753 	1.66332 	0.0104727 	3.13803 	90.1609 	116.563 	-0.591113 	234.517 	360.634 	201.554 	539.793 	
63.7711 	-0.00507561 	-0.905564 	0.299712 	1.66332 	0.0103604 	3.13799 	90.1609 	116.563 	-0.591113 	234.011 	360.634 	201.003 	539.793 	
63.8739 	-0.00512891 	-0.906766 	0.302146 	1.66332 	0.0102353 	3.13794 	90.1609 	116.563 	-0.591113 	233.529 	360.634 	200.544 	539.793 	
63.9773 	-0.00518787 	-0.908063 	0.304835 	1.66332 	0.0100971 	3.13789 	90.161 	116.563 	-0.591113 	232.959 	360.634 	200.033 	539.793 	
64.0801 	-0.00524179 	-0.90922 	0.30729 	1.66332 	0.00997107 	3.13784 	90.161 	116.563 	-0.591113 	232.47 	360.634 	199.456 	539.793 	
64.1832 	-0.00529599 	-0.910356 	0.309756 	1.66332 	0.00984465 	3.1378 	90.161 	116.553 	-0.591113 	231.976 	360.634 	198.976 	539.793 	
64.2866 	-0.00535048 	-0.911469 	0.312232 	1.66332 	0.00971785 	3.13776 	90.1611 	116.553 	-0.591113 	231.411 	360.634 	198.529 	539.793 	
64.3933 	-0.00540525 	-0.912562 	0.314717 	1.66332 	0.00959067 	3.13771 	90.161 	116.552 	-0.591113 	230.933 	360.634 	197.911 	539.793 	
64.496 	-0.0054603 	-0.913632 	0.317211 	1.66332 	0.00946313 	3.13767 	90.1611 	116.552 	-0.591113 	230.37 	360.634 	197.384 	539.793 	
64.599 	-0.00551562 	-0.914681 	0.319715 	1.66332 	0.00933523 	3.13763 	90.1611 	116.552 	-0.591113 	229.88 	360.634 	196.916 	539.793 	
64.7036 	-0.00562147 	-0.916613 	0.324497 	1.66332 	0.00909129 	3.13756 	90.1611 	116.552 	-0.591113 	229.359 	360.634 	196.369 	539.793 	
64.8096 	-0.00568318 	-0.917695 	0.32728 	1.66332 	0.00894951 	3.13752 	90.1611 	116.552 	-0.591113 	228.836 	360.634 	195.822 	539.793 	
64.913 	-0.00573955 	-0.918656 	0.329819 	1.66332 	0.00882029 	3.13748 	90.1611 	116.552 	-0.591113 	228.328 	360.634 	195.37 	539.793 	
65.0158 	-0.00579617 	-0.919594 	0.332366 	1.66332 	0.00869077 	3.13745 	90.1611 	116.552 	-0.591113 	227.781 	360.634 	194.822 	539.793 	
65.119 	-0.00584734 	-0.920419 	0.334665 	1.66332 	0.00857394 	3.13742 	90.1611 	116.552 	-0.591113 	227.271 	360.634 	194.264 	539.793 	
65.2221 	-0.00591015 	-0.921404 	0.337484 	1.66332 	0.00843084 	3.13738 	90.1611 	116.552 	-0.591113 	226.779 	360.634 	193.82 	539.793 	
65.3249 	-0.00596175 	-0.922189 	0.339797 	1.66332 	0.00831351 	3.13735 	90.1611 	116.552 	-0.591113 	226.282 	360.634 	193.281 	539.793 	
65.4274 	-0.00601931 	-0.92304 	0.342375 	1.66332 	0.00818288 	3.13732 	90.1611 	116.552 	-0.591113 	225.732 	360.634 	192.71 	539.793 	
65.531 	-0.0060771 	-0.923869 	0.34496 	1.66332 	0.008052 	3.1373 	90.161 	116.552 	-0.591113 	225.222 	360.634 	192.264 	539.793 	
65.6339 	-0.00614094 	-0.924754 	0.347811 	1.66332 	0.00790775 	3.13727 	90.161 	116.552 	-0.591113 	224.723 	360.634 	191.744 	539.793 	
65.7369 	-0.00619336 	-0.925458 	0.350151 	1.66332 	0.00778951 	3.13724 	90.161 	116.552 	-0.591113 	224.192 	360.634 	191.161 	539.793 	
65.8401 	-0.00625767 	-0.926294 	0.353017 	1.66333 	0.00764474 	3.13721 	90.161 	116.552 	-0.591113 	223.683 	360.634 	190.704 	539.793 	
65.943 	-0.00631048 	-0.926957 	0.355369 	1.66333 	0.0075261 	3.13719 	90.161 	116.552 	-0.591113 	223.179 	360.634 	190.202 	539.793 	
66.0464 	-0.00636936 	-0.927672 	0.357987 	1.66333 	0.00739409 	3.13717 	90.1609 	116.552 	-0.591113 	222.622 	360.634 	189.656 	539.793 	
66.153 	-0.00643436 	-0.928432 	0.360875 	1.66333 	0.00724864 	3.13714 	90.161 	116.552 	-0.591113 	222.139 	360.634 	189.145 	539.793 	
66.2559 	-0.00649365 	-0.929099 	0.363506 	1.66333 	0.00711622 	3.13712 	90.1609 	116.552 	-0.591113 	221.581 	360.634 	188.668 	539.793 	
66.3588 	-0.00654719 	-0.92968 	0.365879 	1.66333 	0.00699689 	3.13711 	90.161 	116.552 	-0.591113 	221.087 	360.634 	188.057 	539.793 	
66.4622 	-0.00661283 	-0.930364 	0.368785 	1.66333 	0.00685086 	3.13709 	90.1609 	116.552 	-0.591113 	220.583 	360.634 	187.59 	539.793 	
66.5651 	-0.0066667 	-0.930903 	0.371168 	1.66333 	0.00673124 	3.13707 	90.1609 	116.552 	-0.591113 	220.088 	360.634 	187.118 	539.793 	
66.6682 	-0.00673274 	-0.931536 	0.374086 	1.66333 	0.00658487 	3.13705 	90.161 	116.552 	-0.591113 	219.537 	360.634 	186.508 	539.793 	
66.7713 	-0.00679297 	-0.932088 	0.376744 	1.66333 	0.00645167 	3.13704 	90.1608 	116.551 	-0.591211 	219.044 	360.634 	186.031 	539.793 	
66.8742 	-0.00685336 	-0.932616 	0.379406 	1.66333 	0.00631835 	3.13702 	90.161 	116.551 	-0.591113 	218.544 	360.634 	185.573 	539.793 	
66.977 	-0.00691392 	-0.933121 	0.382073 	1.66333 	0.0061849 	3.13701 	90.1609 	116.551 	-0.591211 	217.969 	360.634 	184.983 	539.793 	
67.0801 	-0.00697464 	-0.933603 	0.384745 	1.66333 	0.00605136 	3.137 	90.1611 	116.551 	-0.591113 	217.491 	360.634 	184.473 	539.793 	
67.1832 	-0.00703553 	-0.934061 	0.38742 	1.66333 	0.00591772 	3.13699 	90.161 	116.549 	-0.591211 	216.997 	360.634 	184.006 	539.793 	
67.2865 	-0.00709656 	-0.934496 	0.390099 	1.66333 	0.00578399 	3.13698 	90.1612 	116.549 	-0.591113 	216.427 	360.634 	183.483 	539.793 	
67.3935 	-0.00715774 	-0.934908 	0.392782 	1.66333 	0.00565019 	3.13697 	90.1611 	116.547 	-0.591211 	215.943 	360.634 	182.91 	539.793 	
67.4959 	-0.00721907 	-0.935296 	0.395469 	1.66333 	0.00551632 	3.13696 	90.1611 	116.548 	-0.591113 	215.385 	360.634 	182.478 	539.793 	
67.5993 	-0.00728053 	-0.935661 	0.398159 	1.66333 	0.0053824 	3.13696 	90.1612 	116.547 	-0.591113 	214.897 	360.634 	181.874 	539.793 	
67.7029 	-0.00734213 	-0.936002 	0.400851 	1.66333 	0.00524843 	3.13695 	90.1612 	116.548 	-0.591113 	214.391 	360.634 	181.37 	539.793 	
67.8059 	-0.00740386 	-0.936319 	0.403547 	1.66333 	0.00511444 	3.13695 	90.1612 	116.547 	-0.591113 	213.841 	360.634 	180.912 	539.793 	
67.9094 	-0.00746571 	-0.936614 	0.406246 	1.66333 	0.00498041 	3.13695 	90.1611 	116.547 	-0.591211 	213.34 	360.634 	180.339 	539.793 	
68.0127 	-0.00758977 	-0.937131 	0.41165 	1.66333 	0.00471234 	3.13695 	90.1612 	116.547 	-0.591113 	212.85 	360.634 	179.814 	539.793 	
68.1157 	-0.00765197 	-0.937355 	0.414355 	1.66333 	0.0045783 	3.13695 	90.1612 	116.548 	-0.591113 	212.295 	360.634 	179.379 	539.793 	
68.2188 	-0.00771427 	-0.937554 	0.417062 	1.66333 	0.00444429 	3.13695 	90.1611 	116.547 	-0.591211 	211.783 	360.634 	178.806 	539.793 	
68.3217 	-0.00777668 	-0.93773 	0.41977 	1.66333 	0.0043103 	3.13696 	90.1613 	116.547 	-0.591113 	211.299 	360.634 	178.25 	539.793 	
68.4247 	-0.00783918 	-0.937883 	0.42248 	1.66333 	0.00417635 	3.13696 	90.161 	116.547 	-0.591211 	210.791 	360.634 	177.819 	539.793 	
68.528 	-0.00790177 	-0.938012 	0.425192 	1.66333 	0.00404245 	3.13697 	90.1613 	116.547 	-0.591113 	210.248 	360.634 	177.252 	539.793 	
68.631 	-0.00795818 	-0.938107 	0.427633 	1.66333 	0.00392198 	3.13697 	90.161 	116.547 	-0.591211 	209.746 	360.634 	176.707 	539.793 	
68.7338 	-0.00802722 	-0.938198 	0.430617 	1.66333 	0.00377483 	3.13698 	90.1614 	116.547 	-0.591113 	209.236 	360.634 	176.243 	539.793 	
68.8373 	-0.00809005 	-0.938256 	0.433331 	1.66333 	0.00364113 	3.13699 	90.1612 	116.547 	-0.591211 	208.695 	360.634 	175.711 	539.793 	
68.9398 	-0.00814667 	-0.938288 	0.435774 	1.66333 	0.00352087 	3.137 	90.1614 	116.547 	-0.591113 	208.194 	360.634 	175.155 	539.793 	
69.0432 	-0.00821595 	-0.9383 	0.438759 	1.66333 	0.00337401 	3.13701 	90.1613 	116.547 	-0.591211 	207.703 	360.634 	174.68 	539.793 	
69.1462 	-0.00827268 	-0.93829 	0.441202 	1.66334 	0.00325394 	3.13703 	90.1614 	116.547 	-0.591113 	207.135 	360.634 	174.219 	539.793 	
69.2529 	-0.00833578 	-0.938255 	0.443916 	1.66334 	0.00312064 	3.13704 	90.1611 	116.547 	-0.591211 	206.645 	360.634 	173.612 	539.793 	
69.3555 	-0.00839893 	-0.938197 	0.44663 	1.66334 	0.00298747 	3.13706 	90.1613 	116.547 	-0.591113 	206.106 	360.634 	173.139 	539.793 	
69.4574 	-0.00846213 	-0.938114 	0.449343 	1.66334 	0.00285445 	3.13707 	90.1613 	116.547 	-0.591211 	205.59 	360.634 	172.626 	539.793 	
69.5594 	-0.00852537 	-0.938009 	0.452055 	1.66334 	0.00272156 	3.13709 	90.1614 	116.547 	-0.591113 	205.101 	360.634 	172.066 	539.793 	
69.6614 	-0.00858865 	-0.937879 	0.454767 	1.66334 	0.00258884 	3.13711 	90.1614 	116.547 	-0.591211 	204.584 	360.634 	171.577 	539.793 	
69.7635 	-0.00865197 	-0.937726 	0.457477 	1.66334 	0.00245629 	3.13713 	90.1616 	116.547 	-0.591113 	204.098 	360.634 	171.126 	539.793 	
69.8654 	-0.00871531 	-0.93755 	0.460185 	1.66334 	0.00232391 	3.13715 	90.1616 	116.547 	-0.591113 	203.544 	360.634 	170.581 	539.793 	
69.9673 	-0.00877868 	-0.937349 	0.462892 	1.66334 	0.00219173 	3.13717 	90.1615 	116.547 	-0.591211 	203.043 	360.634 	170.013 	539.793 	
70.0694 	-0.00884207 	-0.937125 	0.465597 	1.66334 	0.00205974 	3.1372 	90.1616 	116.547 	-0.591211 	202.543 	360.634 	169.572 	539.793 	
70.1713 	-0.00890548 	-0.936878 	0.4683 	1.66334 	0.00192796 	3.13722 	90.1615 	116.547 	-0.591211 	202.038 	360.634 	169.05 	539.793 	
70.2733 	-0.0089689 	-0.936607 	0.471001 	1.66334 	0.0017964 	3.13725 	90.1616 	116.547 	-0.591113 	201.55 	360.634 	168.506 	539.793 	
70.3754 	-0.00903232 	-0.936312 	0.473699 	1.66334 	0.00166507 	3.13727 	90.1614 	116.547 	-0.591211 	200.993 	360.634 	168.057 	539.793 	
70.4772 	-0.00909574 	-0.935994 	0.476395 	1.66334 	0.00153398 	3.1373 	90.1616 	116.547 	-0.591113 	200.487 	360.634 	167.5 	539.793 	
70.5802 	-0.00915916 	-0.935652 	0.479088 	1.66334 	0.00140313 	3.13733 	90.1614 	116.547 	-0.591211 	199.989 	360.634 	166.953 	539.793 	
70.6832 	-0.00922891 	-0.935249 	0.482046 	1.66334 	0.00125951 	3.13736 	90.1616 	116.547 	-0.591113 	199.496 	360.634 	166.508 	539.793 	
70.7863 	-0.0092923 	-0.934858 	0.484732 	1.66334 	0.00112922 	3.13739 	90.1614 	116.547 	-0.591211 	198.944 	360.634 	166.016 	539.793 	
70.894 	-0.00935568 	-0.934443 	0.487415 	1.66334 	0.00099921 	3.13743 	90.1616 	116.547 	-0.591113 	198.444 	360.634 	165.399 	539.793 	
70.9968 	-0.00941903 	-0.934005 	0.490093 	1.66334 	0.000869493 	3.13746 	90.1615 	116.547 	-0.591211 	197.886 	360.634 	164.904 	539.793 	
71.1008 	-0.00948235 	-0.933544 	0.492768 	1.66334 	0.000740072 	3.1375 	90.1615 	116.547 	-0.591211 	197.393 	360.634 	164.422 	539.793 	
71.2048 	-0.00954564 	-0.933059 	0.495439 	1.66334 	0.000610965 	3.13753 	90.1615 	116.547 	-0.591211 	196.892 	360.634 	163.86 	539.793 	
71.3079 	-0.00960889 	-0.932552 	0.498105 	1.66334 	0.000482174 	3.13757 	90.1615 	116.547 	-0.591211 	196.345 	360.634 	163.348 	539.793 	
71.4111 	-0.00972894 	-0.931522 	0.503159 	1.66334 	0.000238389 	3.13764 	90.1615 	116.547 	-0.591211 	195.832 	360.634 	162.876 	539.793 	
71.5136 	-0.00979836 	-0.930888 	0.506076 	1.66334 	9.78182e-05 	3.13769 	90.1615 	116.547 	-0.591211 	195.336 	360.634 	162.315 	539.793 	
71.6169 	-0.00985511 	-0.930349 	0.508459 	1.66334 	-1.68714e-05 	3.13772 	90.1614 	116.547 	-0.591211 	194.796 	360.634 	161.778 	539.793 	
71.7204 	-0.0099244 	-0.929664 	0.511365 	1.66334 	-0.000156644 	3.13777 	90.1613 	116.547 	-0.591211 	194.291 	360.634 	161.324 	539.793 	
71.823 	-0.00998732 	-0.929017 	0.514001 	1.66334 	-0.000283312 	3.13781 	90.1612 	116.547 	-0.591211 	193.783 	360.634 	160.771 	539.793 	
71.9259 	-0.0100502 	-0.928347 	0.516632 	1.66335 	-0.000409595 	3.13786 	90.161 	116.547 	-0.591211 	193.23 	360.634 	160.265 	539.793 	
72.0291 	-0.0101067 	-0.927725 	0.518994 	1.66335 	-0.00052291 	3.1379 	90.1612 	116.547 	-0.591211 	192.743 	360.634 	159.782 	539.793 	
72.132 	-0.0101756 	-0.926939 	0.521874 	1.66335 	-0.000660957 	3.13795 	90.161 	116.547 	-0.591211 	192.242 	360.634 	159.229 	539.793 	
72.2353 	-0.010232 	-0.926275 	0.524225 	1.66335 	-0.000773532 	3.138 	90.1613 	116.547 	-0.591211 	191.735 	360.634 	158.711 	539.793 	
72.3379 	-0.0103007 	-0.925439 	0.527092 	1.66335 	-0.000910654 	3.13805 	90.1611 	116.547 	-0.591211 	191.178 	360.634 	158.222 	539.793 	
72.441 	-0.0103632 	-0.924655 	0.52969 	1.66335 	-0.00103486 	3.1381 	90.1614 	116.547 	-0.591211 	190.686 	360.634 	157.687 	539.793 	
72.5442 	-0.0104255 	-0.923849 	0.532282 	1.66335 	-0.00115861 	3.13815 	90.1612 	116.547 	-0.591211 	190.191 	360.634 	157.158 	539.793 	
72.6531 	-0.0104877 	-0.92302 	0.534867 	1.66335 	-0.00128192 	3.1382 	90.1613 	116.547 	-0.591211 	189.642 	360.634 	156.677 	539.793 	
72.7555 	-0.0105436 	-0.922254 	0.537186 	1.66335 	-0.00139249 	3.13825 	90.1612 	116.547 	-0.591211 	189.074 	360.634 	156.161 	539.793 	
72.8576 	-0.0106056 	-0.921382 	0.539757 	1.66335 	-0.00151491 	3.13831 	90.1613 	116.547 	-0.591211 	188.584 	360.634 	155.548 	539.793 	
72.9612 	-0.0106674 	-0.920488 	0.54232 	1.66335 	-0.00163684 	3.13836 	90.1612 	116.547 	-0.591211 	188.081 	360.634 	155.119 	539.793 	
73.064 	-0.0107354 	-0.919478 	0.545129 	1.66335 	-0.0017704 	3.13843 	90.1613 	116.547 	-0.591211 	187.584 	360.634 	154.613 	539.793 	
73.1672 	-0.010797 	-0.918537 	0.547675 	1.66335 	-0.00189129 	3.13848 	90.1613 	116.547 	-0.591211 	187.024 	360.634 	153.997 	539.793 	
73.2703 	-0.0108585 	-0.917574 	0.550213 	1.66335 	-0.00201167 	3.13854 	90.1613 	116.547 	-0.591211 	186.524 	360.634 	153.558 	539.793 	
73.3733 	-0.0109198 	-0.916588 	0.552742 	1.66335 	-0.00213154 	3.1386 	90.1613 	116.547 	-0.591211 	186.033 	360.634 	153.069 	539.793 	
73.4762 	-0.010981 	-0.915581 	0.555262 	1.66335 	-0.00225087 	3.13866 	90.1613 	116.547 	-0.591211 	185.483 	360.634 	152.499 	539.793 	
73.5792 	-0.011042 	-0.914551 	0.557774 	1.66335 	-0.00236967 	3.13873 	90.1614 	116.547 	-0.591211 	184.976 	360.634 	151.994 	539.793 	
73.6821 	-0.0111029 	-0.9135 	0.560276 	1.66335 	-0.00248792 	3.13879 	90.1613 	116.547 	-0.591211 	184.472 	360.634 	151.526 	539.793 	
73.785 	-0.0111637 	-0.912427 	0.56277 	1.66335 	-0.00260562 	3.13885 	90.1614 	116.547 	-0.591211 	183.978 	360.634 	150.955 	539.793 	
73.8931 	-0.0112243 	-0.911332 	0.565253 	1.66336 	-0.00272275 	3.13892 	90.1613 	116.547 	-0.591211 	183.429 	360.634 	150.44 	539.793 	
73.9959 	-0.0112847 	-0.910215 	0.567727 	1.66336 	-0.00283931 	3.13898 	90.1614 	116.547 	-0.591211 	182.876 	360.634 	149.983 	539.793 	
74.0988 	-0.0113449 	-0.909077 	0.570191 	1.66336 	-0.00295528 	3.13905 	90.1613 	116.547 	-0.591211 	182.364 	360.634 	149.363 	539.793 	
74.2052 	-0.0114649 	-0.906737 	0.57509 	1.66336 	-0.00318546 	3.13919 	90.1614 	116.547 	-0.591211 	181.87 	360.634 	148.869 	539.793 	
74.3081 	-0.0115186 	-0.905656 	0.57728 	1.66336 	-0.00328824 	3.13925 	90.1613 	116.547 	-0.591211 	181.318 	360.634 	148.384 	539.793 	
74.4112 	-0.0115781 	-0.904434 	0.579704 	1.66336 	-0.00340186 	3.13932 	90.1614 	116.547 	-0.591211 	180.82 	360.634 	147.819 	539.793 	
74.5141 	-0.0116434 	-0.903066 	0.582358 	1.66336 	-0.00352613 	3.1394 	90.1613 	116.547 	-0.591211 	180.314 	360.634 	147.316 	539.793 	
74.617 	-0.0116966 	-0.901928 	0.58452 	1.66336 	-0.00362723 	3.13947 	90.1613 	116.547 	-0.591211 	179.766 	360.634 	146.831 	539.793 	
74.7202 	-0.0117614 	-0.900514 	0.58715 	1.66336 	-0.00375009 	3.13955 	90.1612 	116.547 	-0.591211 	179.266 	360.634 	146.281 	539.793 	
74.8229 	-0.0118201 	-0.899207 	0.589528 	1.66336 	-0.00386109 	3.13963 	90.1613 	116.547 	-0.591211 	178.772 	360.634 	145.753 	539.793 	
74.926 	-0.0118786 	-0.897879 	0.591896 	1.66336 	-0.00397144 	3.1397 	90.1612 	116.547 	-0.591211 	178.207 	360.634 	145.326 	539.793 	
75.0289 	-0.0119369 	-0.896531 	0.594251 	1.66336 	-0.00408111 	3.13978 	90.1613 	116.547 	-0.591211 	177.711 	360.634 	144.739 	539.793 	
75.132 	-0.011995 	-0.895161 	0.596595 	1.66336 	-0.00419012 	3.13986 	90.1612 	116.547 	-0.591211 	177.215 	360.634 	144.197 	539.793 	
75.2353 	-0.0120528 	-0.893772 	0.598927 	1.66336 	-0.00429843 	3.13994 	90.1614 	116.547 	-0.591211 	176.711 	360.634 	143.776 	539.793 	
75.338 	-0.0121104 	-0.892362 	0.601246 	1.66337 	-0.00440606 	3.14002 	90.1613 	116.547 	-0.591211 	176.164 	360.634 	143.208 	539.793 	
75.441 	-0.0121678 	-0.890932 	0.603553 	1.66337 	-0.00451298 	3.1401 	90.1615 	116.547 	-0.591211 	175.651 	360.634 	142.648 	539.793 	
75.5439 	-0.0122249 	-0.889482 	0.605848 	1.66337 	-0.00461919 	3.14018 	90.1614 	116.547 	-0.591211 	175.157 	360.634 	142.205 	539.793 	
75.6473 	-0.0122761 	-0.88816 	0.607902 	1.66337 	-0.00471417 	3.14025 	90.1615 	116.547 	-0.591211 	174.609 	360.634 	141.67 	539.793 	
75.7531 	-0.0123328 	-0.886672 	0.610172 	1.66337 	-0.00481901 	3.14034 	90.1614 	116.547 	-0.591211 	174.109 	360.634 	141.097 	539.793 	
75.8559 	-0.0123892 	-0.885164 	0.612429 	1.66337 	-0.00492311 	3.14042 	90.1615 	116.547 	-0.591211 	173.551 	360.634 	140.653 	539.793 	
75.9591 	-0.012451 	-0.883483 	0.614897 	1.66337 	-0.00503678 	3.14051 	90.1615 	116.547 	-0.591211 	173.051 	360.634 	140.138 	539.793 	
76.062 	-0.0125069 	-0.881934 	0.617126 	1.66337 	-0.00513932 	3.1406 	90.1615 	116.547 	-0.591211 	172.551 	360.634 	139.552 	539.793 	
76.1653 	-0.0125625 	-0.880366 	0.619341 	1.66337 	-0.00524111 	3.14069 	90.1615 	116.547 	-0.591211 	172.056 	360.634 	139.084 	539.793 	
76.2682 	-0.0126178 	-0.878778 	0.621543 	1.66337 	-0.00534213 	3.14078 	90.1615 	116.547 	-0.591211 	171.493 	360.634 	138.58 	539.793 	
76.3711 	-0.0126674 	-0.877333 	0.623513 	1.66337 	-0.00543239 	3.14086 	90.1615 	116.547 	-0.591211 	170.994 	360.634 	138.015 	539.793 	
76.4744 	-0.0127223 	-0.87571 	0.625688 	1.66337 	-0.00553194 	3.14095 	90.1615 	116.547 	-0.591211 	170.497 	360.634 	137.522 	539.793 	
76.5771 	-0.0127822 	-0.873901 	0.628064 	1.66338 	-0.00564053 	3.14105 	90.1615 	116.547 	-0.591211 	169.948 	360.634 	137.048 	539.793 	
76.6802 	-0.0128365 	-0.872238 	0.630209 	1.66338 	-0.00573841 	3.14114 	90.1615 	116.547 	-0.591211 	169.447 	360.634 	136.474 	539.793 	
76.7831 	-0.0128904 	-0.870556 	0.632339 	1.66338 	-0.00583549 	3.14123 	90.1615 	116.547 	-0.591211 	168.937 	360.634 	135.963 	539.793 	
76.8858 	-0.0129441 	-0.868855 	0.634455 	1.66338 	-0.00593177 	3.14132 	90.1615 	116.547 	-0.591211 	168.39 	360.634 	135.534 	539.793 	
76.9944 	-0.0129974 	-0.867136 	0.636555 	1.66338 	-0.00602722 	3.14142 	90.1615 	116.547 	-0.591211 	167.888 	360.634 	134.94 	539.793 	
77.097 	-0.0130505 	-0.865399 	0.638641 	1.66338 	-0.00612185 	3.14151 	90.1615 	116.547 	-0.591211 	167.343 	360.634 	134.363 	539.793 	
77.2007 	-0.0131032 	-0.863644 	0.640711 	1.66338 	-0.00621565 	-3.14158 	90.1615 	116.547 	-0.591211 	166.832 	360.634 	133.941 	539.793 	
77.3048 	-0.0131557 	-0.86187 	0.642766 	1.66338 	-0.00630861 	-3.14148 	90.1614 	116.547 	-0.591211 	166.329 	360.634 	133.406 	539.793 	
77.4078 	-0.0132078 	-0.860079 	0.644806 	1.66338 	-0.00640072 	-3.14138 	90.1614 	116.547 	-0.591211 	165.782 	360.634 	132.804 	539.793 	
77.5108 	-0.0132544 	-0.858452 	0.646628 	1.66338 	-0.00648289 	-3.1413 	90.1614 	116.547 	-0.591211 	165.282 	360.634 	132.377 	539.793 	
77.614 	-0.0133622 	-0.854599 	0.650829 	1.66339 	-0.0066719 	-3.14109 	90.1615 	116.547 	-0.591211 	164.772 	360.634 	131.862 	539.793 	
77.7169 	-0.013408 	-0.852925 	0.652608 	1.66339 	-0.00675173 	-3.141 	90.1614 	116.547 	-0.591211 	164.225 	360.634 	131.249 	539.793 	
77.8198 	-0.0134636 	-0.850859 	0.654764 	1.66339 	-0.00684833 	-3.14089 	90.1615 	116.547 	-0.591211 	163.725 	360.634 	130.822 	539.793 	
77.9229 	-0.0135137 	-0.848964 	0.656707 	1.66339 	-0.00693522 	-3.14078 	90.1615 	116.547 	-0.591211 	163.225 	360.634 	130.333 	539.793 	
78.026 	-0.0135635 	-0.847051 	0.658633 	1.66339 	-0.00702122 	-3.14068 	90.1615 	116.547 	-0.591211 	162.674 	360.634 	129.755 	539.793 	
78.129 	-0.013613 	-0.845122 	0.660542 	1.66339 	-0.00710631 	-3.14058 	90.1614 	116.547 	-0.591211 	162.167 	360.634 	129.256 	539.793 	
78.232 	-0.0136622 	-0.843176 	0.662435 	1.66339 	-0.0071905 	-3.14047 	90.1615 	116.547 	-0.591211 	161.666 	360.634 	128.782 	539.793 	
