RISC-NYUAD/HeavyPayloadDrone/projects/kinova-ros/devel/lib/ne_kinova_demo/VulcanTrajectory/Vulcan1_Vicon_y19m11d13h18min33.csv
time (NSec) 	Kinova Tip Position (t_x) 	t_y 	t_z 	Kinova Tip Angle (theta_x) 	Kinova Tip Angle (theta_y) 	Kinova Tip Angle (theta_z) 	Kinova Joint Angle (j1) 	(j2) 	(j3) 	(j4) 	Kinova Joint Angle (j5) 	(j6) 	(j7)
1.96249 	-0.00255779 	-0.519685 	0.147241 	1.66199 	0.0196338 	-3.12691 	90.1612 	116.611 	-0.591113 	317.361 	360.634 	284.632 	539.793 	
2.06562 	-0.00255994 	-0.520541 	0.145677 	1.66164 	0.0195848 	-3.12687 	90.1612 	116.565 	-0.591113 	317.258 	360.634 	284.632 	539.793 	
2.16843 	-0.00256183 	-0.52215 	0.142481 	1.66164 	0.0194995 	-3.12682 	90.1611 	116.181 	-0.591113 	316.825 	360.634 	284.632 	539.793 	
2.27503 	-0.00256399 	-0.523731 	0.139271 	1.66164 	0.0194138 	-3.12677 	90.1612 	115.701 	-0.591113 	316.337 	360.634 	284.632 	539.793 	
2.37792 	-0.00256642 	-0.525284 	0.136047 	1.66165 	0.0193276 	-3.12671 	90.1611 	115.154 	-0.591113 	315.789 	360.634 	284.632 	539.793 	
2.48124 	-0.00256911 	-0.526809 	0.13281 	1.66165 	0.0192409 	-3.12666 	90.1611 	114.646 	-0.591113 	315.281 	360.634 	284.632 	539.793 	
2.58433 	-0.00257208 	-0.528305 	0.12956 	1.66165 	0.0191539 	-3.12661 	90.1611 	114.156 	-0.591113 	314.786 	360.634 	284.632 	539.793 	
2.68729 	-0.00257532 	-0.529773 	0.126297 	1.66165 	0.0190664 	-3.12656 	90.1611 	113.592 	-0.591113 	314.234 	360.634 	284.632 	539.793 	
2.79042 	-0.00257882 	-0.531213 	0.123021 	1.66166 	0.0189784 	-3.12652 	90.1612 	113.097 	-0.591113 	313.733 	360.634 	284.632 	539.793 	
2.89321 	-0.00258259 	-0.532624 	0.119733 	1.66166 	0.0188901 	-3.12647 	90.1611 	112.592 	-0.591113 	313.233 	360.634 	284.632 	539.793 	
2.99633 	-0.00258663 	-0.534006 	0.116432 	1.66166 	0.0188013 	-3.12642 	90.1612 	112.045 	-0.591113 	312.736 	360.634 	284.632 	539.793 	
3.09955 	-0.00259094 	-0.535359 	0.11312 	1.66166 	0.0187121 	-3.12637 	90.1611 	111.537 	-0.591113 	312.187 	360.634 	284.632 	539.793 	
3.20248 	-0.00259551 	-0.536683 	0.109795 	1.66167 	0.0186225 	-3.12633 	90.1611 	111.045 	-0.591113 	311.685 	360.634 	284.632 	539.793 	
3.30525 	-0.00260036 	-0.537979 	0.10646 	1.66167 	0.0185325 	-3.12628 	90.1611 	110.535 	-0.591113 	311.185 	360.634 	284.632 	539.793 	
3.40843 	-0.00260547 	-0.539245 	0.103113 	1.66167 	0.0184422 	-3.12624 	90.1611 	109.984 	-0.591113 	310.634 	360.634 	284.632 	539.793 	
3.51553 	-0.00261084 	-0.540481 	0.0997553 	1.66167 	0.0183514 	-3.1262 	90.1611 	109.485 	-0.591113 	310.136 	360.634 	284.632 	539.793 	
3.61829 	-0.00261648 	-0.541689 	0.096387 	1.66167 	0.0182603 	-3.12615 	90.1611 	108.932 	-0.591113 	309.583 	360.634 	284.632 	539.793 	
3.72163 	-0.00262239 	-0.542867 	0.0930082 	1.66168 	0.0181688 	-3.12611 	90.1611 	108.437 	-0.591113 	309.086 	360.634 	284.632 	539.793 	
3.82958 	-0.00263499 	-0.545134 	0.0862204 	1.66168 	0.0179848 	-3.12603 	90.1611 	107.88 	-0.591113 	308.533 	360.634 	284.632 	539.793 	
3.93299 	-0.00264169 	-0.546224 	0.0828119 	1.66168 	0.0178922 	-3.12599 	90.1611 	107.383 	-0.591113 	308.037 	360.634 	284.632 	539.793 	
4.03607 	-0.00264866 	-0.547283 	0.079394 	1.66169 	0.0177994 	-3.12595 	90.1611 	106.829 	-0.591113 	307.536 	360.634 	284.632 	539.793 	
4.13923 	-0.00265588 	-0.548313 	0.075967 	1.66169 	0.0177062 	-3.12592 	90.1611 	106.328 	-0.591113 	306.984 	360.634 	284.632 	539.793 	
4.24271 	-0.00266337 	-0.549312 	0.0725311 	1.66169 	0.0176126 	-3.12588 	90.1611 	105.822 	-0.591113 	306.486 	360.634 	284.632 	539.793 	
4.34514 	-0.00267112 	-0.550282 	0.0690866 	1.6617 	0.0175188 	-3.12584 	90.1611 	105.324 	-0.591113 	305.984 	360.634 	284.632 	539.793 	
4.44808 	-0.00267913 	-0.551221 	0.0656338 	1.6617 	0.0174246 	-3.12581 	90.1611 	104.77 	-0.591113 	305.437 	360.634 	284.632 	539.793 	
4.55103 	-0.0026874 	-0.55213 	0.062173 	1.6617 	0.0173301 	-3.12577 	90.1611 	104.276 	-0.591113 	304.933 	360.634 	284.632 	539.793 	
4.65411 	-0.00269594 	-0.55301 	0.0587043 	1.6617 	0.0172354 	-3.12574 	90.1611 	103.767 	-0.591113 	304.436 	360.634 	284.632 	539.793 	
4.75715 	-0.00270473 	-0.553858 	0.055228 	1.66171 	0.0171403 	-3.12571 	90.1611 	103.218 	-0.591113 	303.883 	360.634 	284.632 	539.793 	
4.86018 	-0.00271378 	-0.554677 	0.0517444 	1.66171 	0.017045 	-3.12568 	90.1611 	102.719 	-0.591113 	303.392 	360.634 	284.632 	539.793 	
4.96332 	-0.00272308 	-0.555465 	0.0482539 	1.66171 	0.0169494 	-3.12565 	90.1611 	102.214 	-0.591113 	302.886 	360.634 	284.632 	539.793 	
5.06639 	-0.00273265 	-0.556222 	0.0447565 	1.66171 	0.0168535 	-3.12562 	90.1611 	101.664 	-0.591113 	302.389 	360.634 	284.632 	539.793 	
5.16955 	-0.00274247 	-0.556949 	0.0412527 	1.66172 	0.0167574 	-3.12559 	90.1611 	101.165 	-0.591113 	301.838 	360.634 	284.632 	539.793 	
5.27525 	-0.00275255 	-0.557646 	0.0377428 	1.66172 	0.016661 	-3.12556 	90.1611 	100.67 	-0.591113 	301.339 	360.634 	284.632 	539.793 	
5.37842 	-0.00276288 	-0.558311 	0.0342268 	1.66172 	0.0165644 	-3.12553 	90.1611 	100.111 	-0.591113 	300.79 	360.634 	284.632 	539.793 	
5.48136 	-0.00277347 	-0.558946 	0.0307052 	1.66172 	0.0164675 	-3.1255 	90.1611 	99.6132 	-0.591113 	300.286 	360.634 	284.632 	539.793 	
5.58448 	-0.00278431 	-0.559551 	0.0271781 	1.66173 	0.0163704 	-3.12548 	90.1611 	99.1104 	-0.591113 	299.789 	360.634 	284.632 	539.793 	
5.68748 	-0.0027954 	-0.560124 	0.0236459 	1.66173 	0.0162731 	-3.12545 	90.1611 	98.5656 	-0.591113 	299.239 	360.634 	284.632 	539.793 	
5.79048 	-0.00280674 	-0.560667 	0.0201088 	1.66173 	0.0161756 	-3.12543 	90.1611 	98.0613 	-0.591113 	298.74 	360.634 	284.632 	539.793 	
5.89355 	-0.00281834 	-0.561178 	0.0165671 	1.66174 	0.0160778 	-3.1254 	90.1611 	97.5614 	-0.591113 	298.239 	360.634 	284.632 	539.793 	
5.99642 	-0.00283018 	-0.561659 	0.013021 	1.66174 	0.0159799 	-3.12538 	90.1611 	97.0067 	-0.591113 	297.737 	360.634 	284.632 	539.793 	
6.09964 	-0.00284228 	-0.562109 	0.0094709 	1.66174 	0.0158818 	-3.12536 	90.1611 	96.5066 	-0.591113 	297.184 	360.634 	284.632 	539.793 	
6.20239 	-0.00285462 	-0.562528 	0.00591691 	1.66174 	0.0157835 	-3.12534 	90.1611 	96.0079 	-0.591113 	296.689 	360.634 	284.632 	539.793 	
6.30562 	-0.00286721 	-0.562915 	0.00235957 	1.66175 	0.015685 	-3.12532 	90.1611 	95.5126 	-0.591113 	296.189 	360.634 	284.632 	539.793 	
6.40867 	-0.00288005 	-0.563272 	-0.0012011 	1.66175 	0.0155863 	-3.1253 	90.1611 	94.9609 	-0.591113 	295.641 	360.634 	284.632 	539.793 	
6.51569 	-0.00289313 	-0.563598 	-0.00476484 	1.66175 	0.0154875 	-3.12528 	90.1611 	94.4571 	-0.591113 	295.136 	360.634 	284.632 	539.793 	
6.61892 	-0.00290646 	-0.563892 	-0.00833126 	1.66176 	0.0153885 	-3.12526 	90.1611 	93.9068 	-0.591113 	294.592 	360.634 	284.632 	539.793 	
6.72338 	-0.00292003 	-0.564156 	-0.0119001 	1.66176 	0.0152893 	-3.12525 	90.1611 	93.4057 	-0.591113 	294.089 	360.634 	284.632 	539.793 	
6.83312 	-0.00293384 	-0.564388 	-0.0154712 	1.66176 	0.0151901 	-3.12523 	90.1611 	92.8556 	-0.591113 	293.541 	360.634 	284.632 	539.793 	
6.93629 	-0.00296218 	-0.564759 	-0.0226186 	1.66177 	0.0149911 	-3.1252 	90.1611 	92.3027 	-0.591113 	293.038 	360.634 	284.632 	539.793 	
7.0393 	-0.00297671 	-0.564898 	-0.0261945 	1.66177 	0.0148915 	-3.12519 	90.1612 	91.8041 	-0.591113 	292.488 	360.634 	284.632 	539.793 	
7.14229 	-0.00299148 	-0.565005 	-0.0297715 	1.66177 	0.0147917 	-3.12518 	90.1611 	91.3079 	-0.591113 	291.995 	360.634 	284.632 	539.793 	
7.2453 	-0.00300649 	-0.565081 	-0.0333493 	1.66178 	0.0146919 	-3.12517 	90.1611 	90.8083 	-0.591113 	291.49 	360.634 	284.632 	539.793 	
7.348 	-0.00302173 	-0.565126 	-0.0369276 	1.66178 	0.0145919 	-3.12516 	90.1611 	90.2543 	-0.591113 	290.942 	360.634 	284.632 	539.793 	
7.4514 	-0.00303721 	-0.56514 	-0.0405062 	1.66178 	0.0144919 	-3.12515 	90.1611 	89.7484 	-0.591113 	290.435 	360.634 	284.632 	539.793 	
7.55427 	-0.00305292 	-0.565123 	-0.0440849 	1.66179 	0.0143918 	-3.12514 	90.1611 	89.2534 	-0.591113 	289.942 	360.634 	284.632 	539.793 	
7.65733 	-0.00306886 	-0.565074 	-0.0476632 	1.66179 	0.0142916 	-3.12513 	90.1611 	88.6996 	-0.591113 	289.389 	360.634 	284.632 	539.793 	
7.76024 	-0.00308504 	-0.564994 	-0.0512409 	1.66179 	0.0141913 	-3.12512 	90.1611 	88.2042 	-0.591113 	288.891 	360.634 	284.632 	539.793 	
7.86331 	-0.00310144 	-0.564883 	-0.0548179 	1.6618 	0.014091 	-3.12512 	90.1611 	87.7043 	-0.591113 	288.387 	360.634 	284.632 	539.793 	
7.96618 	-0.00311807 	-0.564741 	-0.0583936 	1.6618 	0.0139906 	-3.12511 	90.1611 	87.1597 	-0.591113 	287.891 	360.634 	284.632 	539.793 	
8.06964 	-0.00313493 	-0.564567 	-0.0619682 	1.6618 	0.0138902 	-3.12511 	90.1611 	86.6596 	-0.591113 	287.339 	360.634 	284.632 	539.793 	
8.17506 	-0.00315201 	-0.564363 	-0.065541 	1.66181 	0.0137898 	-3.1251 	90.1612 	86.154 	-0.591113 	286.837 	360.634 	284.632 	539.793 	
8.27816 	-0.00316932 	-0.564127 	-0.0691119 	1.66181 	0.0136893 	-3.1251 	90.1611 	85.6082 	-0.591113 	286.289 	360.634 	284.632 	539.793 	
8.38121 	-0.00318685 	-0.56386 	-0.0726807 	1.66181 	0.0135889 	-3.1251 	90.1611 	85.1081 	-0.591113 	285.792 	360.634 	284.632 	539.793 	
8.48434 	-0.00320461 	-0.563562 	-0.0762469 	1.66182 	0.0134884 	-3.1251 	90.1611 	84.611 	-0.591113 	285.293 	360.634 	284.632 	539.793 	
8.58738 	-0.00322258 	-0.563233 	-0.0798105 	1.66182 	0.0133879 	-3.1251 	90.1611 	84.0517 	-0.591113 	284.741 	360.634 	284.632 	539.793 	
8.69047 	-0.00324078 	-0.562872 	-0.0833711 	1.66182 	0.0132874 	-3.1251 	90.1611 	83.5571 	-0.591113 	284.241 	360.634 	284.632 	539.793 	
8.79359 	-0.00325919 	-0.562481 	-0.0869283 	1.66183 	0.0131869 	-3.1251 	90.1611 	83.0534 	-0.591113 	283.741 	360.634 	284.632 	539.793 	
8.89664 	-0.00327782 	-0.562059 	-0.090482 	1.66183 	0.0130864 	-3.12511 	90.1611 	82.5092 	-0.591113 	283.246 	360.634 	284.632 	539.793 	
8.99955 	-0.00329666 	-0.561605 	-0.094032 	1.66183 	0.012986 	-3.12511 	90.1611 	82.0115 	-0.591113 	282.689 	360.634 	284.632 	539.793 	
9.10219 	-0.00331572 	-0.561121 	-0.0975778 	1.66184 	0.0128856 	-3.12511 	90.1611 	81.511 	-0.591113 	282.19 	360.634 	284.632 	539.793 	
9.20562 	-0.00333499 	-0.560605 	-0.101119 	1.66184 	0.0127853 	-3.12512 	90.1611 	81.0087 	-0.591113 	281.689 	360.634 	284.632 	539.793 	
9.30861 	-0.00335447 	-0.560059 	-0.104656 	1.66184 	0.0126849 	-3.12512 	90.1611 	80.4594 	-0.591113 	281.14 	360.634 	284.632 	539.793 	
9.4156 	-0.00337416 	-0.559482 	-0.108188 	1.66184 	0.0125847 	-3.12513 	90.1611 	79.9625 	-0.591113 	280.641 	360.634 	284.632 	539.793 	
9.51852 	-0.00339405 	-0.558874 	-0.111715 	1.66185 	0.0124845 	-3.12514 	90.1611 	79.4139 	-0.591113 	280.094 	360.634 	284.632 	539.793 	
9.62121 	-0.00341416 	-0.558236 	-0.115236 	1.66185 	0.0123844 	-3.12515 	90.1611 	78.9142 	-0.591113 	279.588 	360.634 	284.632 	539.793 	
9.72735 	-0.00343446 	-0.557567 	-0.118752 	1.66185 	0.0122844 	-3.12516 	90.1611 	78.3629 	-0.591113 	279.043 	360.634 	284.632 	539.793 	
9.83132 	-0.00347569 	-0.556136 	-0.125765 	1.66186 	0.0120846 	-3.12518 	90.1611 	77.866 	-0.591113 	278.543 	360.634 	284.632 	539.793 	
9.93427 	-0.0034966 	-0.555375 	-0.129262 	1.66187 	0.0119849 	-3.12519 	90.1611 	77.3638 	-0.591113 	278.043 	360.634 	284.632 	539.793 	
10.037 	-0.00351771 	-0.554583 	-0.132752 	1.66187 	0.0118852 	-3.12521 	90.1611 	76.8189 	-0.591113 	277.491 	360.634 	284.632 	539.793 	
10.1393 	-0.00353902 	-0.553761 	-0.136236 	1.66187 	0.0117857 	-3.12522 	90.1611 	76.3095 	-0.591113 	276.991 	360.634 	284.632 	539.793 	
10.2423 	-0.00356052 	-0.552909 	-0.139712 	1.66188 	0.0116864 	-3.12523 	90.1611 	75.8167 	-0.591113 	276.496 	360.634 	284.632 	539.793 	
10.3453 	-0.00358222 	-0.552026 	-0.14318 	1.66188 	0.0115871 	-3.12525 	90.1611 	75.3178 	-0.591113 	275.992 	360.634 	284.632 	539.793 	
10.4482 	-0.00360411 	-0.551114 	-0.14664 	1.66188 	0.011488 	-3.12527 	90.1612 	74.7644 	-0.591113 	275.446 	360.634 	284.632 	539.793 	
10.5513 	-0.00362618 	-0.55017 	-0.150093 	1.66189 	0.011389 	-3.12528 	90.1611 	74.2662 	-0.591113 	274.938 	360.634 	284.632 	539.793 	
10.6543 	-0.00364845 	-0.549197 	-0.153537 	1.66189 	0.0112902 	-3.1253 	90.1611 	73.773 	-0.591113 	274.445 	360.634 	284.632 	539.793 	
10.7572 	-0.0036709 	-0.548194 	-0.156972 	1.66189 	0.0111916 	-3.12532 	90.1611 	73.2274 	-0.591113 	273.895 	360.634 	284.632 	539.793 	
10.8601 	-0.00369354 	-0.547161 	-0.160399 	1.6619 	0.0110931 	-3.12534 	90.1611 	72.7196 	-0.591113 	273.392 	360.634 	284.632 	539.793 	
10.9631 	-0.00371636 	-0.546098 	-0.163816 	1.6619 	0.0109948 	-3.12536 	90.1611 	72.228 	-0.591113 	272.895 	360.634 	284.632 	539.793 	
11.0662 	-0.00373937 	-0.545005 	-0.167224 	1.6619 	0.0108967 	-3.12539 	90.1611 	71.6709 	-0.591113 	272.392 	360.634 	284.632 	539.793 	
11.1698 	-0.00376255 	-0.543883 	-0.170623 	1.66191 	0.0107988 	-3.12541 	90.1611 	71.1831 	-0.591113 	271.843 	360.634 	284.632 	539.793 	
11.2754 	-0.00378591 	-0.542731 	-0.174011 	1.66191 	0.0107011 	-3.12543 	90.1611 	70.672 	-0.591113 	271.346 	360.634 	284.632 	539.793 	
11.3783 	-0.00380945 	-0.541549 	-0.177389 	1.66191 	0.0106037 	-3.12546 	90.1612 	70.131 	-0.591113 	270.797 	360.634 	284.632 	539.793 	
11.4814 	-0.00383316 	-0.540338 	-0.180757 	1.66192 	0.0105064 	-3.12548 	90.1611 	69.6297 	-0.591113 	270.291 	360.634 	284.632 	539.793 	
11.5846 	-0.00385705 	-0.539098 	-0.184114 	1.66192 	0.0104093 	-3.12551 	90.1611 	69.135 	-0.591113 	269.797 	360.634 	284.632 	539.793 	
11.6871 	-0.00388111 	-0.537828 	-0.187461 	1.66193 	0.0103125 	-3.12553 	90.1611 	68.5848 	-0.591113 	269.244 	360.634 	284.632 	539.793 	
11.7904 	-0.00389934 	-0.535978 	-0.191066 	1.66367 	0.0102354 	-3.12555 	90.1612 	68.0862 	-0.591113 	268.932 	360.634 	284.632 	539.793 	
11.8936 	-0.00389493 	-0.532007 	-0.195668 	1.67202 	0.0102323 	-3.12554 	90.1611 	67.5891 	-0.591113 	268.883 	360.634 	284.632 	539.793 	
11.9965 	-0.00388916 	-0.527875 	-0.200293 	1.68075 	0.0102336 	-3.12553 	90.1612 	67.0388 	-0.591113 	268.881 	360.634 	284.632 	539.793 	
12.0995 	-0.00388334 	-0.523702 	-0.204881 	1.68947 	0.010235 	-3.12552 	90.1612 	66.5508 	-0.591113 	268.88 	360.634 	284.632 	539.793 	
12.2024 	-0.00387746 	-0.51949 	-0.209433 	1.6982 	0.0102365 	-3.12551 	90.1612 	66.0402 	-0.591113 	268.879 	360.634 	284.632 	539.793 	
12.3052 	-0.00387152 	-0.515238 	-0.213949 	1.70693 	0.0102381 	-3.1255 	90.1612 	65.5535 	-0.591113 	268.878 	360.634 	284.632 	539.793 	
12.4086 	-0.00386553 	-0.510947 	-0.218427 	1.71565 	0.0102398 	-3.12548 	90.1612 	64.9987 	-0.591113 	268.876 	360.634 	284.632 	539.793 	
12.5157 	-0.00385948 	-0.506617 	-0.222867 	1.72438 	0.0102416 	-3.12547 	90.1612 	64.5113 	-0.591113 	268.875 	360.634 	284.632 	539.793 	
12.55 	-0.00385338 	-0.502249 	-0.227269 	1.73311 	0.0102435 	-3.12546 	90.1612 	64.3036 	-0.591113 	268.874 	360.634 	284.632 	539.793 	
12.6534 	-0.00383557 	-0.502047 	-0.226496 	1.73572 	0.0103093 	-3.12544 	90.1612 	64.1757 	-0.591113 	268.966 	360.634 	284.632 	539.793 	
12.7562 	-0.00381181 	-0.503565 	-0.223255 	1.73572 	0.0104061 	-3.12542 	90.1612 	64.5212 	-0.591113 	269.348 	360.634 	284.632 	539.793 	
12.8597 	-0.00378822 	-0.505054 	-0.220001 	1.73572 	0.0105031 	-3.12539 	90.1611 	64.9741 	-0.591113 	269.865 	360.634 	284.632 	539.793 	
12.9626 	-0.00376481 	-0.506516 	-0.216733 	1.73571 	0.0106003 	-3.12536 	90.1612 	65.4428 	-0.591113 	270.368 	360.634 	284.632 	539.793 	
13.0653 	-0.00374157 	-0.507949 	-0.213454 	1.73571 	0.0106978 	-3.12534 	90.1612 	65.9713 	-0.591113 	270.869 	360.634 	284.632 	539.793 	
13.1688 	-0.00371851 	-0.509353 	-0.210162 	1.73571 	0.0107954 	-3.12532 	90.1612 	66.4915 	-0.591113 	271.421 	360.634 	284.632 	539.793 	
13.2753 	-0.00369562 	-0.510728 	-0.206858 	1.7357 	0.0108933 	-3.12529 	90.1611 	67.0197 	-0.591113 	271.916 	360.634 	284.632 	539.793 	
13.3783 	-0.00367292 	-0.512074 	-0.203542 	1.7357 	0.0109914 	-3.12527 	90.1611 	67.5338 	-0.591113 	272.467 	360.634 	284.632 	539.793 	
13.4815 	-0.0036504 	-0.513391 	-0.200214 	1.7357 	0.0110896 	-3.12525 	90.1612 	68.0571 	-0.591113 	272.966 	360.634 	284.632 	539.793 	
13.5846 	-0.00362807 	-0.51468 	-0.196875 	1.73569 	0.011188 	-3.12523 	90.1612 	68.533 	-0.591113 	273.467 	360.634 	284.632 	539.793 	
13.6877 	-0.00360592 	-0.515939 	-0.193525 	1.73569 	0.0112866 	-3.12521 	90.1611 	69.1026 	-0.591113 	274.018 	360.634 	284.632 	539.793 	
13.7904 	-0.00358396 	-0.517169 	-0.190164 	1.73569 	0.0113854 	-3.12519 	90.1612 	69.5861 	-0.591113 	274.515 	360.634 	284.632 	539.793 	
13.8938 	-0.00356219 	-0.518369 	-0.186792 	1.73568 	0.0114843 	-3.12517 	90.1612 	70.084 	-0.591113 	275.02 	360.634 	284.632 	539.793 	
13.9965 	-0.00354061 	-0.51954 	-0.18341 	1.73568 	0.0115834 	-3.12516 	90.1612 	70.6394 	-0.591113 	275.514 	360.634 	284.632 	539.793 	
14.0997 	-0.00351922 	-0.520682 	-0.180018 	1.73568 	0.0116826 	-3.12514 	90.1611 	71.1277 	-0.591113 	276.069 	360.634 	284.632 	539.793 	
14.2028 	-0.00349802 	-0.521794 	-0.176617 	1.73567 	0.011782 	-3.12513 	90.1612 	71.6395 	-0.591113 	276.565 	360.634 	284.632 	539.793 	
14.3055 	-0.00347702 	-0.522876 	-0.173205 	1.73567 	0.0118815 	-3.12511 	90.1612 	72.1105 	-0.591113 	277.063 	360.634 	284.632 	539.793 	
14.4088 	-0.00345622 	-0.523928 	-0.169785 	1.73566 	0.0119811 	-3.1251 	90.1612 	72.6871 	-0.591113 	277.617 	360.634 	284.632 	539.793 	
14.5157 	-0.00343562 	-0.52495 	-0.166355 	1.73566 	0.0120808 	-3.12509 	90.1611 	73.161 	-0.591113 	278.113 	360.634 	284.632 	539.793 	
14.6191 	-0.00341522 	-0.525943 	-0.162916 	1.73566 	0.0121806 	-3.12507 	90.1611 	73.7407 	-0.591113 	278.668 	360.634 	284.632 	539.793 	
14.7216 	-0.00339502 	-0.526905 	-0.159469 	1.73565 	0.0122806 	-3.12506 	90.1612 	74.2061 	-0.591113 	279.16 	360.634 	284.632 	539.793 	
14.8255 	-0.00337502 	-0.527837 	-0.156014 	1.73565 	0.0123806 	-3.12505 	90.1612 	74.7282 	-0.591113 	279.667 	360.634 	284.632 	539.793 	
14.9294 	-0.00335523 	-0.528739 	-0.152551 	1.73565 	0.0124807 	-3.12504 	90.1612 	75.2556 	-0.591113 	280.214 	360.634 	284.632 	539.793 	
15.0324 	-0.00331627 	-0.530452 	-0.145601 	1.73564 	0.0126811 	-3.12503 	90.1611 	75.7766 	-0.591113 	280.718 	360.634 	284.632 	539.793 	
15.1345 	-0.0032971 	-0.531263 	-0.142116 	1.73564 	0.0127814 	-3.12502 	90.1612 	76.2655 	-0.591113 	281.212 	360.634 	284.632 	539.793 	
15.2373 	-0.00327814 	-0.532044 	-0.138623 	1.73563 	0.0128817 	-3.12502 	90.1612 	76.8108 	-0.591113 	281.765 	360.634 	284.632 	539.793 	
15.3402 	-0.0032594 	-0.532794 	-0.135124 	1.73563 	0.0129821 	-3.12501 	90.1612 	77.3167 	-0.591113 	282.266 	360.634 	284.632 	539.793 	
15.4432 	-0.00324087 	-0.533514 	-0.131618 	1.73563 	0.0130825 	-3.12501 	90.1611 	77.8067 	-0.591113 	282.763 	360.634 	284.632 	539.793 	
15.5467 	-0.00322255 	-0.534203 	-0.128106 	1.73562 	0.013183 	-3.12501 	90.1611 	78.373 	-0.591113 	283.264 	360.634 	284.632 	539.793 	
15.6496 	-0.00320446 	-0.534861 	-0.124588 	1.73562 	0.0132834 	-3.125 	90.1612 	78.8429 	-0.591113 	283.815 	360.634 	284.632 	539.793 	
15.7522 	-0.00318658 	-0.535488 	-0.121065 	1.73562 	0.0133839 	-3.125 	90.1612 	79.3726 	-0.591113 	284.318 	360.634 	284.632 	539.793 	
15.8551 	-0.00316892 	-0.536085 	-0.117537 	1.73561 	0.0134844 	-3.125 	90.1611 	79.8451 	-0.591113 	284.813 	360.634 	284.632 	539.793 	
15.958 	-0.00315148 	-0.536651 	-0.114003 	1.73561 	0.0135849 	-3.125 	90.1611 	80.4225 	-0.591113 	285.365 	360.634 	284.632 	539.793 	
16.0616 	-0.00313426 	-0.537186 	-0.110464 	1.73561 	0.0136854 	-3.125 	90.1612 	80.8952 	-0.591113 	285.861 	360.634 	284.632 	539.793 	
16.1646 	-0.00311727 	-0.53769 	-0.106921 	1.7356 	0.0137859 	-3.12501 	90.1612 	81.4081 	-0.591113 	286.365 	360.634 	284.632 	539.793 	
16.2673 	-0.0031005 	-0.538163 	-0.103374 	1.7356 	0.0138863 	-3.12501 	90.1612 	81.948 	-0.591113 	286.913 	360.634 	284.632 	539.793 	
16.3755 	-0.00308395 	-0.538606 	-0.0998228 	1.7356 	0.0139867 	-3.12501 	90.1612 	82.4563 	-0.591113 	287.416 	360.634 	284.632 	539.793 	
16.4785 	-0.00306764 	-0.539017 	-0.0962679 	1.7356 	0.0140871 	-3.12502 	90.1612 	83.0018 	-0.591113 	287.958 	360.634 	284.632 	539.793 	
16.5817 	-0.00305155 	-0.539397 	-0.0927095 	1.73559 	0.0141874 	-3.12503 	90.1612 	83.4939 	-0.591113 	288.463 	360.634 	284.632 	539.793 	
16.6845 	-0.00303569 	-0.539746 	-0.0891479 	1.73559 	0.0142877 	-3.12503 	90.1612 	84.0091 	-0.591113 	288.96 	360.634 	284.632 	539.793 	
16.7877 	-0.00302006 	-0.540064 	-0.0855834 	1.73559 	0.0143879 	-3.12504 	90.1612 	84.5482 	-0.591113 	289.51 	360.634 	284.632 	539.793 	
16.8908 	-0.00300467 	-0.540351 	-0.0820163 	1.73558 	0.014488 	-3.12505 	90.1612 	85.0608 	-0.591113 	290.014 	360.634 	284.632 	539.793 	
16.994 	-0.00298951 	-0.540607 	-0.0784467 	1.73558 	0.0145881 	-3.12506 	90.1612 	85.5337 	-0.591113 	290.512 	360.634 	284.632 	539.793 	
17.0956 	-0.00297458 	-0.540832 	-0.0748752 	1.73558 	0.0146881 	-3.12507 	90.1612 	86.1111 	-0.591113 	291.012 	360.634 	284.632 	539.793 	
17.1986 	-0.00296135 	-0.541007 	-0.0716592 	1.73557 	0.014778 	-3.12508 	90.1612 	86.5846 	-0.591113 	291.562 	360.634 	284.632 	539.793 	
17.3015 	-0.00294543 	-0.541188 	-0.0677269 	1.73557 	0.0148877 	-3.12509 	90.1612 	87.1109 	-0.591113 	292.062 	360.634 	284.632 	539.793 	
17.4044 	-0.00293122 	-0.541319 	-0.0641508 	1.73557 	0.0149874 	-3.1251 	90.1612 	87.5892 	-0.591113 	292.559 	360.634 	284.632 	539.793 	
17.5076 	-0.00291724 	-0.541419 	-0.0605735 	1.73556 	0.0150869 	-3.12512 	90.1611 	88.1522 	-0.591113 	293.117 	360.634 	284.632 	539.793 	
17.6155 	-0.0029035 	-0.541487 	-0.0569956 	1.73556 	0.0151864 	-3.12513 	90.1612 	88.642 	-0.591113 	293.607 	360.634 	284.632 	539.793 	
17.7182 	-0.00289 	-0.541525 	-0.0534172 	1.73556 	0.0152857 	-3.12515 	90.1611 	89.1999 	-0.591113 	294.16 	360.634 	284.632 	539.793 	
17.8214 	-0.00287675 	-0.541531 	-0.0498386 	1.73555 	0.0153848 	-3.12516 	90.1612 	89.6996 	-0.591113 	294.661 	360.634 	284.632 	539.793 	
17.9269 	-0.00286374 	-0.541506 	-0.0462602 	1.73555 	0.0154838 	-3.12518 	90.1612 	90.2438 	-0.591113 	295.216 	360.634 	284.632 	539.793 	
18.0301 	-0.00285097 	-0.541449 	-0.0426821 	1.73555 	0.0155827 	-3.1252 	90.1612 	90.7497 	-0.591113 	295.71 	360.634 	284.632 	539.793 	
18.1344 	-0.00282617 	-0.541243 	-0.0355281 	1.73554 	0.0157799 	-3.12524 	90.1611 	91.242 	-0.591113 	296.212 	360.634 	284.632 	539.793 	
18.2374 	-0.00281533 	-0.54111 	-0.0323102 	1.73554 	0.0158684 	-3.12526 	90.1612 	91.8098 	-0.591113 	296.757 	360.634 	284.632 	539.793 	
18.3405 	-0.00280236 	-0.540912 	-0.0283788 	1.73554 	0.0159764 	-3.12528 	90.1612 	92.2857 	-0.591113 	297.262 	360.634 	284.632 	539.793 	
18.4434 	-0.00279082 	-0.5407 	-0.0248066 	1.73553 	0.0160744 	-3.1253 	90.1612 	92.8087 	-0.591113 	297.763 	360.634 	284.632 	539.793 	
18.5465 	-0.00277954 	-0.540457 	-0.0212364 	1.73553 	0.0161722 	-3.12533 	90.1612 	93.3401 	-0.591113 	298.259 	360.634 	284.632 	539.793 	
18.6493 	-0.0027685 	-0.540182 	-0.0176684 	1.73553 	0.0162697 	-3.12535 	90.1612 	93.8575 	-0.591113 	298.814 	360.634 	284.632 	539.793 	
18.7524 	-0.00275772 	-0.539876 	-0.0141032 	1.73553 	0.0163671 	-3.12538 	90.1611 	94.3407 	-0.591113 	299.307 	360.634 	284.632 	539.793 	
18.8556 	-0.00274719 	-0.539539 	-0.0105405 	1.73552 	0.0164642 	-3.1254 	90.1611 	94.8537 	-0.591113 	299.811 	360.634 	284.632 	539.793 	
18.9584 	-0.00273691 	-0.539172 	-0.00698105 	1.73552 	0.0165611 	-3.12543 	90.1611 	95.3959 	-0.591113 	300.357 	360.634 	284.632 	539.793 	
19.0615 	-0.00272689 	-0.538773 	-0.00342501 	1.73552 	0.0166578 	-3.12546 	90.1612 	95.9022 	-0.591113 	300.866 	360.634 	284.632 	539.793 	
19.1645 	-0.00271712 	-0.538343 	0.00012764 	1.73551 	0.0167542 	-3.12548 	90.1612 	96.401 	-0.591113 	301.36 	360.634 	284.632 	539.793 	
19.2677 	-0.0027076 	-0.537882 	0.00367621 	1.73551 	0.0168504 	-3.12551 	90.1612 	96.9478 	-0.591113 	301.909 	360.634 	284.632 	539.793 	
19.3767 	-0.00269835 	-0.53739 	0.0072207 	1.73551 	0.0169463 	-3.12554 	90.1612 	97.5045 	-0.591113 	302.408 	360.634 	284.632 	539.793 	
19.4794 	-0.00268935 	-0.536867 	0.0107606 	1.73551 	0.017042 	-3.12557 	90.1612 	98.0013 	-0.591113 	302.959 	360.634 	284.632 	539.793 	
19.5825 	-0.0026806 	-0.536313 	0.014296 	1.7355 	0.0171374 	-3.12561 	90.1611 	98.5151 	-0.591113 	303.456 	360.634 	284.632 	539.793 	
19.6854 	-0.00267211 	-0.535729 	0.0178263 	1.7355 	0.0172325 	-3.12564 	90.1611 	98.9958 	-0.591113 	303.962 	360.634 	284.632 	539.793 	
19.7885 	-0.00266389 	-0.535114 	0.0213513 	1.7355 	0.0173273 	-3.12567 	90.1612 	99.5625 	-0.591113 	304.511 	360.634 	284.632 	539.793 	
19.8915 	-0.00265592 	-0.534467 	0.0248709 	1.7355 	0.0174218 	-3.12571 	90.1612 	100.048 	-0.591113 	305.011 	360.634 	284.632 	539.793 	
19.9944 	-0.00264821 	-0.533791 	0.0283847 	1.73549 	0.017516 	-3.12574 	90.1612 	100.565 	-0.591113 	305.513 	360.634 	284.632 	539.793 	
20.0978 	-0.00264076 	-0.533083 	0.0318924 	1.73549 	0.0176099 	-3.12578 	90.1612 	101.099 	-0.591113 	306.06 	360.634 	284.632 	539.793 	
20.2008 	-0.00263357 	-0.532346 	0.0353938 	1.73549 	0.0177035 	-3.12581 	90.1612 	101.614 	-0.591113 	306.562 	360.634 	284.632 	539.793 	
20.3042 	-0.00262665 	-0.531577 	0.0388887 	1.73549 	0.0177968 	-3.12585 	90.1612 	102.105 	-0.591113 	307.059 	360.634 	284.632 	539.793 	
20.407 	-0.00261998 	-0.530778 	0.0423767 	1.73548 	0.0178897 	-3.12589 	90.1612 	102.67 	-0.591113 	307.561 	360.634 	284.632 	539.793 	
20.5153 	-0.00261358 	-0.529949 	0.0458575 	1.73548 	0.0179823 	-3.12593 	90.1611 	103.164 	-0.591113 	308.105 	360.634 	284.632 	539.793 	
20.6182 	-0.00260744 	-0.529089 	0.049331 	1.73548 	0.0180746 	-3.12597 	90.1611 	103.711 	-0.591113 	308.659 	360.634 	284.632 	539.793 	
20.7224 	-0.00260157 	-0.528199 	0.0527968 	1.73548 	0.0181665 	-3.12601 	90.1612 	104.215 	-0.591113 	309.155 	360.634 	284.632 	539.793 	
20.8252 	-0.00259596 	-0.527279 	0.0562547 	1.73547 	0.0182581 	-3.12605 	90.1612 	104.719 	-0.591113 	309.656 	360.634 	284.632 	539.793 	
20.9297 	-0.00259061 	-0.526329 	0.0597045 	1.73547 	0.0183492 	-3.12609 	90.1612 	105.276 	-0.591113 	310.209 	360.634 	284.632 	539.793 	
21.0345 	-0.00258071 	-0.524338 	0.0665785 	1.73547 	0.0185305 	-3.12618 	90.1612 	105.766 	-0.591113 	310.71 	360.634 	284.632 	539.793 	
21.1375 	-0.00257616 	-0.523298 	0.0700021 	1.73546 	0.0186205 	-3.12622 	90.1612 	106.325 	-0.591113 	311.255 	360.634 	284.632 	539.793 	
21.24 	-0.00257229 	-0.522336 	0.0730756 	1.73546 	0.0187012 	-3.12626 	90.1612 	106.819 	-0.591113 	311.757 	360.634 	284.632 	539.793 	
21.3436 	-0.00256786 	-0.521128 	0.0768216 	1.73546 	0.0187994 	-3.12631 	90.1611 	107.334 	-0.591113 	312.259 	360.634 	284.632 	539.793 	
21.4468 	-0.00256411 	-0.519998 	0.0802168 	1.73546 	0.0188883 	-3.12636 	90.1611 	107.825 	-0.591113 	312.755 	360.634 	284.632 	539.793 	
21.5496 	-0.00256062 	-0.518839 	0.0836021 	1.73545 	0.0189767 	-3.12641 	90.1611 	108.386 	-0.591113 	313.309 	360.634 	284.632 	539.793 	
21.6526 	-0.00255741 	-0.51765 	0.0869771 	1.73545 	0.0190647 	-3.12646 	90.1612 	108.875 	-0.591113 	313.805 	360.634 	284.632 	539.793 	
21.7555 	-0.00255445 	-0.516432 	0.0903415 	1.73545 	0.0191523 	-3.12651 	90.1612 	109.387 	-0.591113 	314.312 	360.634 	284.632 	539.793 	
21.8592 	-0.00255177 	-0.515185 	0.0936953 	1.73545 	0.0192395 	-3.12656 	90.1612 	109.934 	-0.591113 	314.852 	360.634 	284.632 	539.793 	
21.9617 	-0.00254936 	-0.513909 	0.097038 	1.73545 	0.0193262 	-3.12661 	90.1612 	110.436 	-0.591113 	315.358 	360.634 	284.632 	539.793 	
22.0647 	-0.00254721 	-0.512603 	0.100369 	1.73544 	0.0194125 	-3.12666 	90.1611 	110.936 	-0.591113 	315.854 	360.634 	284.632 	539.793 	
22.1677 	-0.00254533 	-0.511268 	0.103689 	1.73544 	0.0194983 	-3.12671 	90.1611 	111.493 	-0.591113 	316.406 	360.634 	284.632 	539.793 	
22.276 	-0.00254372 	-0.509905 	0.106997 	1.73544 	0.0195837 	-3.12676 	90.1611 	112.002 	-0.591113 	316.908 	360.634 	284.632 	539.793 	
22.3784 	-0.00254321 	-0.509242 	0.110588 	1.7332 	0.0196463 	-3.12681 	90.1611 	112.541 	-0.591113 	317.279 	360.634 	284.632 	539.793 	
22.4814 	-0.00254519 	-0.510662 	0.115039 	1.72447 	0.0196444 	-3.12682 	90.1612 	113.049 	-0.591113 	317.319 	360.634 	284.632 	539.793 	
22.5844 	-0.00254712 	-0.512043 	0.119502 	1.71575 	0.0196426 	-3.12683 	90.1612 	113.543 	-0.591113 	317.321 	360.634 	284.632 	539.793 	
22.6887 	-0.00254899 	-0.513385 	0.123976 	1.70702 	0.0196409 	-3.12684 	90.1612 	114.104 	-0.591113 	317.322 	360.634 	284.632 	539.793 	
22.7915 	-0.00255081 	-0.514687 	0.128462 	1.69829 	0.0196393 	-3.12686 	90.1612 	114.592 	-0.591113 	317.324 	360.634 	284.632 	539.793 	
22.8944 	-0.00255258 	-0.515951 	0.13296 	1.68957 	0.0196378 	-3.12687 	90.1612 	115.098 	-0.591113 	317.326 	360.634 	284.632 	539.793 	
22.9974 	-0.00255429 	-0.517175 	0.137468 	1.68084 	0.0196364 	-3.12688 	90.1612 	115.642 	-0.591113 	317.326 	360.634 	284.632 	539.793 	
