RISC-NYUAD/HeavyPayloadDrone/projects/kinova-ros/devel/lib/ne_kinova_demo/VulcanTrajectory/Vulcan1_Vicon_y19m11d13h18min46.csv
time (NSec) 	Kinova Tip Position (t_x) 	t_y 	t_z 	Kinova Tip Angle (theta_x) 	Kinova Tip Angle (theta_y) 	Kinova Tip Angle (theta_z) 	Kinova Joint Angle (j1) 	(j2) 	(j3) 	(j4) 	Kinova Joint Angle (j5) 	(j6) 	(j7)
0.846027 	-0.0177673 	-0.554059 	0.933131 	0.919704 	-0.0159272 	-3.13872 	90.1609 	116.558 	-0.591211 	113.601 	360.634 	123.455 	539.793 	
0.953137 	-0.0177587 	-0.557604 	0.931164 	0.923369 	-0.0158991 	-3.13876 	90.1609 	116.488 	-0.591211 	113.727 	360.634 	123.586 	539.793 	
1.05622 	-0.017738 	-0.566017 	0.926396 	0.932095 	-0.0158314 	-3.13886 	90.1609 	116.129 	-0.591211 	114.122 	360.634 	123.987 	539.793 	
1.15928 	-0.0177167 	-0.574389 	0.921506 	0.940821 	-0.0157627 	-3.13896 	90.1609 	115.614 	-0.591211 	114.624 	360.634 	124.483 	539.793 	
1.26241 	-0.0176949 	-0.58272 	0.916497 	0.949547 	-0.0156929 	-3.13906 	90.1609 	115.046 	-0.591211 	115.14 	360.634 	125.011 	539.793 	
1.36543 	-0.0176725 	-0.591006 	0.911367 	0.958274 	-0.0156221 	-3.13916 	90.1609 	114.563 	-0.591211 	115.673 	360.634 	125.525 	539.793 	
1.46828 	-0.0176496 	-0.599247 	0.906118 	0.967 	-0.0155502 	-3.13926 	90.1609 	114.061 	-0.591211 	116.188 	360.634 	126.017 	539.793 	
1.57145 	-0.017626 	-0.60744 	0.90075 	0.975726 	-0.0154773 	-3.13936 	90.1609 	113.537 	-0.591211 	116.701 	360.634 	126.563 	539.793 	
1.67429 	-0.017602 	-0.615583 	0.895264 	0.984452 	-0.0154034 	-3.13945 	90.1609 	112.994 	-0.591211 	117.248 	360.634 	127.077 	539.793 	
1.77726 	-0.0175773 	-0.623675 	0.889659 	0.993178 	-0.0153285 	-3.13955 	90.1609 	112.49 	-0.591211 	117.751 	360.634 	127.563 	539.793 	
1.88028 	-0.0175521 	-0.631713 	0.883936 	1.0019 	-0.0152525 	-3.13964 	90.1609 	111.975 	-0.591211 	118.266 	360.634 	128.105 	539.793 	
1.98331 	-0.0175264 	-0.639697 	0.878097 	1.01063 	-0.0151756 	-3.13974 	90.1609 	111.42 	-0.591211 	118.821 	360.634 	128.631 	539.793 	
2.08653 	-0.0175001 	-0.647623 	0.872141 	1.01936 	-0.0150976 	-3.13983 	90.1609 	110.922 	-0.591211 	119.318 	360.634 	129.095 	539.793 	
2.19333 	-0.0174732 	-0.655491 	0.866069 	1.02808 	-0.0150187 	-3.13993 	90.1609 	110.361 	-0.591211 	119.885 	360.634 	129.708 	539.793 	
2.29629 	-0.0174458 	-0.663298 	0.859882 	1.03681 	-0.0149387 	-3.14002 	90.1609 	109.858 	-0.591211 	120.385 	360.634 	130.195 	539.793 	
2.39914 	-0.0174178 	-0.671043 	0.853581 	1.04554 	-0.0148578 	-3.14011 	90.1609 	109.349 	-0.591211 	120.899 	360.634 	130.65 	539.793 	
2.50524 	-0.0173601 	-0.686337 	0.840637 	1.06299 	-0.014693 	-3.14029 	90.1609 	108.804 	-0.591211 	121.44 	360.634 	131.253 	539.793 	
2.60931 	-0.0173305 	-0.693884 	0.833996 	1.07171 	-0.0146092 	-3.14038 	90.1609 	108.292 	-0.591211 	121.956 	360.634 	131.753 	539.793 	
2.71176 	-0.0173002 	-0.701361 	0.827243 	1.08044 	-0.0145243 	-3.14047 	90.1609 	107.743 	-0.591211 	122.455 	360.634 	132.197 	539.793 	
2.81528 	-0.0172695 	-0.708766 	0.82038 	1.08917 	-0.0144386 	-3.14055 	90.1609 	107.234 	-0.591211 	123.018 	360.634 	132.788 	539.793 	
2.9182 	-0.0172381 	-0.716098 	0.813406 	1.09789 	-0.0143519 	-3.14064 	90.1609 	106.728 	-0.591211 	123.513 	360.634 	133.307 	539.793 	
3.02085 	-0.0172063 	-0.723356 	0.806324 	1.10662 	-0.0142643 	-3.14073 	90.1609 	106.227 	-0.591211 	124.024 	360.634 	133.755 	539.793 	
3.12449 	-0.0171738 	-0.730536 	0.799133 	1.11535 	-0.0141757 	-3.14081 	90.1609 	105.675 	-0.591211 	124.575 	360.634 	134.334 	539.793 	
3.22708 	-0.0171408 	-0.737639 	0.791836 	1.12407 	-0.0140862 	-3.14089 	90.1609 	105.167 	-0.591211 	125.086 	360.634 	134.856 	539.793 	
3.33036 	-0.0171073 	-0.744661 	0.784432 	1.1328 	-0.0139958 	-3.14098 	90.1609 	104.665 	-0.591211 	125.587 	360.634 	135.3 	539.793 	
3.43319 	-0.0170732 	-0.751601 	0.776922 	1.14152 	-0.0139044 	-3.14106 	90.1609 	104.109 	-0.591211 	126.133 	360.634 	135.866 	539.793 	
3.53633 	-0.0170385 	-0.758458 	0.769309 	1.15025 	-0.0138122 	-3.14114 	90.1609 	103.602 	-0.591211 	126.644 	360.634 	136.406 	539.793 	
3.63931 	-0.0170033 	-0.76523 	0.761592 	1.15898 	-0.0137191 	-3.14122 	90.1609 	103.101 	-0.591211 	127.144 	360.634 	136.861 	539.793 	
3.74212 	-0.0169676 	-0.771915 	0.753774 	1.1677 	-0.013625 	-3.1413 	90.1609 	102.547 	-0.591211 	127.659 	360.634 	137.351 	539.793 	
3.84552 	-0.0169313 	-0.778511 	0.745854 	1.17643 	-0.0135301 	-3.14138 	90.1609 	102.043 	-0.591211 	128.198 	360.634 	137.95 	539.793 	
3.95334 	-0.0168945 	-0.785017 	0.737834 	1.18516 	-0.0134343 	-3.14146 	90.1609 	101.486 	-0.591211 	128.764 	360.634 	138.462 	539.793 	
4.0563 	-0.0168571 	-0.791432 	0.729716 	1.19388 	-0.0133377 	-3.14153 	90.1609 	100.983 	-0.591211 	129.257 	360.634 	138.949 	539.793 	
4.15945 	-0.0168192 	-0.797754 	0.7215 	1.20261 	-0.0132402 	3.14158 	90.1609 	100.478 	-0.591211 	129.771 	360.634 	139.499 	539.793 	
4.26236 	-0.0167807 	-0.80398 	0.713188 	1.21134 	-0.0131418 	3.1415 	90.1609 	99.9268 	-0.591211 	130.263 	360.634 	139.973 	539.793 	
4.36529 	-0.0167417 	-0.810111 	0.70478 	1.22006 	-0.0130426 	3.14143 	90.1609 	99.4228 	-0.591211 	130.823 	360.634 	140.493 	539.793 	
4.46832 	-0.0167022 	-0.816143 	0.696279 	1.22879 	-0.0129425 	3.14136 	90.1609 	98.9188 	-0.591211 	131.318 	360.634 	141.039 	539.793 	
4.57144 	-0.0166621 	-0.822076 	0.687685 	1.23751 	-0.0128416 	3.14128 	90.1609 	98.4158 	-0.591211 	131.829 	360.634 	141.53 	539.793 	
4.67458 	-0.0166215 	-0.827907 	0.679 	1.24624 	-0.0127399 	3.14121 	90.1609 	97.8659 	-0.591211 	132.38 	360.634 	142.033 	539.793 	
4.77752 	-0.0165803 	-0.833637 	0.670226 	1.25497 	-0.0126374 	3.14114 	90.1609 	97.3594 	-0.591211 	132.881 	360.634 	142.583 	539.793 	
4.88047 	-0.0165386 	-0.839262 	0.661362 	1.26369 	-0.012534 	3.14107 	90.1609 	96.8552 	-0.591211 	133.386 	360.634 	143.092 	539.793 	
4.98327 	-0.0164964 	-0.844782 	0.652412 	1.27242 	-0.0124299 	3.14101 	90.1609 	96.2999 	-0.591211 	133.935 	360.634 	143.586 	539.793 	
5.08665 	-0.0164537 	-0.850196 	0.643375 	1.28115 	-0.0123249 	3.14094 	90.1609 	95.8022 	-0.591211 	134.444 	360.634 	144.128 	539.793 	
5.19354 	-0.0164104 	-0.855501 	0.634255 	1.28987 	-0.0122192 	3.14087 	90.1609 	95.2439 	-0.591211 	134.992 	360.634 	144.692 	539.793 	
5.29628 	-0.0163666 	-0.860696 	0.625052 	1.2986 	-0.0121127 	3.14081 	90.1609 	94.7433 	-0.591211 	135.502 	360.634 	145.139 	539.793 	
5.39895 	-0.0163223 	-0.865781 	0.615767 	1.30733 	-0.0120054 	3.14074 	90.1609 	94.2355 	-0.591211 	135.99 	360.634 	145.666 	539.793 	
5.50532 	-0.0162775 	-0.870753 	0.606403 	1.31605 	-0.0118974 	3.14068 	90.1609 	93.6863 	-0.591211 	136.551 	360.634 	146.241 	539.793 	
5.61123 	-0.0161862 	-0.880356 	0.58744 	1.33351 	-0.0116791 	3.14056 	90.1609 	93.1839 	-0.591211 	137.05 	360.634 	146.691 	539.793 	
5.71432 	-0.0161398 	-0.884984 	0.577846 	1.34223 	-0.0115689 	3.1405 	90.1609 	92.6333 	-0.591211 	137.609 	360.634 	147.264 	539.793 	
5.8174 	-0.0160929 	-0.889494 	0.568178 	1.35096 	-0.0114579 	3.14044 	90.1609 	92.1326 	-0.591211 	138.099 	360.634 	147.791 	539.793 	
5.92017 	-0.0160455 	-0.893886 	0.558437 	1.35969 	-0.0113462 	3.14038 	90.1609 	91.6272 	-0.591211 	138.611 	360.634 	148.253 	539.793 	
6.02344 	-0.0159976 	-0.898158 	0.548627 	1.36841 	-0.0112337 	3.14032 	90.1609 	91.0785 	-0.591211 	139.16 	360.634 	148.801 	539.793 	
6.12639 	-0.0159492 	-0.90231 	0.538748 	1.37714 	-0.0111206 	3.14027 	90.1609 	90.5716 	-0.591211 	139.666 	360.634 	149.343 	539.793 	
6.2293 	-0.0159003 	-0.906339 	0.528802 	1.38586 	-0.0110068 	3.14021 	90.1609 	90.0749 	-0.591211 	140.162 	360.634 	149.805 	539.793 	
6.33233 	-0.0158508 	-0.910245 	0.51879 	1.39459 	-0.0108923 	3.14016 	90.1609 	89.5168 	-0.591211 	140.669 	360.634 	150.289 	539.793 	
6.43535 	-0.0158009 	-0.914026 	0.508715 	1.40332 	-0.0107771 	3.14011 	90.1609 	89.021 	-0.591211 	141.22 	360.634 	150.888 	539.793 	
6.53824 	-0.0157505 	-0.917682 	0.498578 	1.41204 	-0.0106613 	3.14005 	90.1609 	88.5122 	-0.591211 	141.719 	360.634 	151.358 	539.793 	
6.64126 	-0.0156996 	-0.921212 	0.488381 	1.42077 	-0.0105448 	3.14 	90.1609 	88.0162 	-0.591211 	142.227 	360.634 	151.832 	539.793 	
6.74461 	-0.0156482 	-0.924614 	0.478126 	1.4295 	-0.0104277 	3.13995 	90.1609 	87.4523 	-0.591211 	142.773 	360.634 	152.435 	539.793 	
6.85317 	-0.0155963 	-0.927889 	0.467814 	1.43822 	-0.0103099 	3.1399 	90.1609 	86.9161 	-0.591211 	143.332 	360.634 	152.966 	539.793 	
6.95634 	-0.0155439 	-0.931033 	0.457448 	1.44695 	-0.0101914 	3.13986 	90.1609 	86.4009 	-0.591211 	143.821 	360.634 	153.437 	539.793 	
7.05938 	-0.0154911 	-0.934048 	0.447028 	1.45568 	-0.0100724 	3.13981 	90.1609 	85.9104 	-0.591211 	144.335 	360.634 	153.983 	539.793 	
7.16219 	-0.0154378 	-0.936931 	0.436558 	1.4644 	-0.00995274 	3.13976 	90.1609 	85.3516 	-0.591211 	144.83 	360.634 	154.481 	539.793 	
7.26543 	-0.015384 	-0.939682 	0.426038 	1.47313 	-0.00983248 	3.13972 	90.1609 	84.8568 	-0.591211 	145.387 	360.634 	154.986 	539.793 	
7.36822 	-0.0153297 	-0.9423 	0.415471 	1.48186 	-0.00971162 	3.13968 	90.1609 	84.3564 	-0.591211 	145.881 	360.634 	155.524 	539.793 	
7.4714 	-0.015275 	-0.944784 	0.404858 	1.49058 	-0.00959018 	3.13963 	90.1609 	83.8452 	-0.591211 	146.387 	360.634 	156.028 	539.793 	
7.57466 	-0.0152198 	-0.947134 	0.394202 	1.49931 	-0.00946816 	3.13959 	90.1609 	83.3024 	-0.591211 	146.935 	360.634 	156.532 	539.793 	
7.67736 	-0.0151641 	-0.949349 	0.383504 	1.50804 	-0.00934558 	3.13955 	90.1609 	82.7955 	-0.591211 	147.44 	360.634 	157.064 	539.793 	
7.78055 	-0.015108 	-0.951428 	0.372767 	1.51676 	-0.00922243 	3.13951 	90.1609 	82.3087 	-0.591211 	147.94 	360.634 	157.586 	539.793 	
7.88359 	-0.0150514 	-0.95337 	0.361991 	1.52549 	-0.00909874 	3.13948 	90.1609 	81.7424 	-0.591211 	148.49 	360.634 	158.088 	539.793 	
7.98677 	-0.0149944 	-0.955174 	0.35118 	1.53422 	-0.00897451 	3.13944 	90.1609 	81.2572 	-0.591211 	149 	360.634 	158.61 	539.793 	
8.09381 	-0.014937 	-0.956841 	0.340335 	1.54294 	-0.00884975 	3.1394 	90.1609 	80.6855 	-0.591211 	149.546 	360.634 	159.185 	539.793 	
8.1962 	-0.014879 	-0.958369 	0.329458 	1.55167 	-0.00872447 	3.13937 	90.1609 	80.2042 	-0.591211 	150.044 	360.634 	159.642 	539.793 	
8.29933 	-0.0148207 	-0.959757 	0.318551 	1.5604 	-0.00859867 	3.13933 	90.1609 	79.6923 	-0.591211 	150.542 	360.634 	160.151 	539.793 	
8.4075 	-0.0147619 	-0.961006 	0.307616 	1.56912 	-0.00847238 	3.1393 	90.1609 	79.1447 	-0.591211 	151.099 	360.634 	160.738 	539.793 	
8.5108 	-0.0147027 	-0.962115 	0.296655 	1.57785 	-0.00834559 	3.13927 	90.1609 	78.6431 	-0.591211 	151.592 	360.634 	161.198 	539.793 	
8.6142 	-0.014583 	-0.96391 	0.274663 	1.5953 	-0.00809058 	3.13921 	90.1609 	78.1017 	-0.591211 	152.154 	360.634 	161.752 	539.793 	
8.7172 	-0.0145225 	-0.964595 	0.263636 	1.60403 	-0.00796238 	3.13918 	90.1609 	77.5996 	-0.591211 	152.647 	360.634 	162.285 	539.793 	
8.82026 	-0.0144616 	-0.965138 	0.252591 	1.61276 	-0.00783373 	3.13916 	90.1609 	77.092 	-0.591211 	153.153 	360.634 	162.755 	539.793 	
8.92328 	-0.0144003 	-0.965539 	0.241531 	1.62148 	-0.00770463 	3.13913 	90.1609 	76.5527 	-0.591211 	153.698 	360.634 	163.294 	539.793 	
9.02643 	-0.0143386 	-0.965797 	0.230456 	1.63021 	-0.0075751 	3.13911 	90.1609 	76.0429 	-0.591211 	154.202 	360.634 	163.843 	539.793 	
9.12919 	-0.0142765 	-0.965913 	0.21937 	1.63894 	-0.00744514 	3.13908 	90.1609 	75.5595 	-0.591211 	154.702 	360.634 	164.31 	539.793 	
9.23216 	-0.014214 	-0.965884 	0.208274 	1.64766 	-0.00731478 	3.13906 	90.1609 	74.9921 	-0.591211 	155.201 	360.634 	164.786 	539.793 	
9.33538 	-0.0141511 	-0.965713 	0.197171 	1.65639 	-0.007184 	3.13904 	90.1609 	74.5058 	-0.591211 	155.755 	360.634 	165.387 	539.793 	
9.43764 	-0.0140878 	-0.965398 	0.186062 	1.66512 	-0.00705284 	3.13902 	90.1609 	73.9845 	-0.591211 	156.253 	360.634 	165.866 	539.793 	
9.53974 	-0.0140241 	-0.964939 	0.17495 	1.67384 	-0.00692129 	3.139 	90.1609 	73.5099 	-0.591211 	156.759 	360.634 	166.333 	539.793 	
9.64177 	-0.01396 	-0.964335 	0.163836 	1.68257 	-0.00678937 	3.13898 	90.1609 	72.9412 	-0.591211 	157.253 	360.634 	166.875 	539.793 	
9.74364 	-0.0138956 	-0.963588 	0.152723 	1.6913 	-0.00665708 	3.13896 	90.1609 	72.4577 	-0.591211 	157.815 	360.634 	167.422 	539.793 	
9.84597 	-0.0138308 	-0.962697 	0.141612 	1.70002 	-0.00652444 	3.13895 	90.1609 	71.9525 	-0.591211 	158.303 	360.634 	167.888 	539.793 	
9.95264 	-0.0137656 	-0.961661 	0.130507 	1.70875 	-0.00639146 	3.13893 	90.1609 	71.4064 	-0.591211 	158.863 	360.634 	168.471 	539.793 	
10.0547 	-0.0137001 	-0.960482 	0.119408 	1.71748 	-0.00625815 	3.13892 	90.1609 	70.911 	-0.591211 	159.352 	360.634 	168.979 	539.793 	
10.1566 	-0.0136342 	-0.959158 	0.108318 	1.7262 	-0.00612451 	3.13891 	90.1609 	70.4028 	-0.591211 	159.858 	360.634 	169.444 	539.793 	
10.2587 	-0.013568 	-0.95769 	0.0972395 	1.73493 	-0.00599056 	3.1389 	90.1609 	69.9195 	-0.591211 	160.358 	360.634 	169.961 	539.793 	
10.3608 	-0.0135014 	-0.956078 	0.086174 	1.74366 	-0.00585631 	3.13889 	90.1609 	69.4035 	-0.591211 	160.855 	360.634 	170.489 	539.793 	
10.4628 	-0.0134344 	-0.954322 	0.0751238 	1.75238 	-0.00572176 	3.13888 	90.1609 	68.8723 	-0.591211 	161.407 	360.634 	170.997 	539.793 	
10.5644 	-0.0133672 	-0.952422 	0.064091 	1.76111 	-0.00558693 	3.13887 	90.1609 	68.3495 	-0.591211 	161.906 	360.634 	171.507 	539.793 	
10.6673 	-0.0132996 	-0.950379 	0.0530777 	1.76984 	-0.00545184 	3.13886 	90.1609 	67.8718 	-0.591211 	162.406 	360.634 	172.042 	539.793 	
10.7705 	-0.0132317 	-0.948193 	0.0420857 	1.77856 	-0.00531647 	3.13886 	90.1609 	67.3556 	-0.591211 	162.903 	360.634 	172.505 	539.793 	
10.8735 	-0.0131634 	-0.945863 	0.0311174 	1.78729 	-0.00518086 	3.13885 	90.1609 	66.8266 	-0.591211 	163.461 	360.634 	173.056 	539.793 	
10.9762 	-0.0130949 	-0.943391 	0.0201746 	1.79602 	-0.00504501 	3.13885 	90.1609 	66.3132 	-0.591211 	163.952 	360.634 	173.597 	539.793 	
11.0795 	-0.013026 	-0.940776 	0.00925962 	1.80474 	-0.00490893 	3.13885 	90.1609 	65.8219 	-0.591211 	164.459 	360.634 	174.06 	539.793 	
11.1823 	-0.0129569 	-0.938019 	-0.00162571 	1.81347 	-0.00477262 	3.13885 	90.1609 	65.2773 	-0.591211 	164.945 	360.634 	174.543 	539.793 	
11.2864 	-0.0128874 	-0.935121 	-0.0124791 	1.8222 	-0.00463611 	3.13885 	90.1609 	64.7764 	-0.591211 	165.504 	360.634 	175.145 	539.793 	
11.3935 	-0.0128177 	-0.932081 	-0.0232985 	1.83092 	-0.0044994 	3.13885 	90.1609 	64.2385 	-0.591211 	166.049 	360.634 	175.66 	539.793 	
11.4962 	-0.0127476 	-0.9289 	-0.0340822 	1.83965 	-0.0043625 	3.13885 	90.1609 	63.7243 	-0.591211 	166.553 	360.634 	176.145 	539.793 	
11.5993 	-0.0126773 	-0.92558 	-0.0448278 	1.84838 	-0.00422542 	3.13885 	90.1609 	63.2426 	-0.591211 	167.051 	360.634 	176.687 	539.793 	
11.7052 	-0.0126067 	-0.922119 	-0.055533 	1.8571 	-0.00408817 	3.13886 	90.1609 	62.6757 	-0.591211 	167.6 	360.634 	177.224 	539.793 	
11.808 	-0.012466 	-0.915719 	-0.0743675 	1.87188 	-0.00381432 	3.13887 	90.1609 	62.2456 	-0.591211 	168.1 	360.634 	177.698 	539.793 	
11.9113 	-0.012399 	-0.914982 	-0.0769796 	1.87188 	-0.00368033 	3.13886 	90.1609 	62.1148 	-0.591211 	168.606 	360.634 	178.22 	539.793 	
12.0141 	-0.0123319 	-0.914221 	-0.0795852 	1.87188 	-0.00354631 	3.13886 	90.1609 	62.1018 	-0.591211 	169.153 	360.634 	178.778 	539.793 	
12.1173 	-0.0122647 	-0.913438 	-0.082184 	1.87188 	-0.00341227 	3.13886 	90.1609 	62.1016 	-0.591211 	169.635 	360.634 	179.259 	539.793 	
12.2203 	-0.0121975 	-0.912632 	-0.0847758 	1.87188 	-0.00327824 	3.13886 	90.1609 	62.0978 	-0.591211 	170.156 	360.634 	179.78 	539.793 	
12.3234 	-0.0121301 	-0.911804 	-0.0873606 	1.87188 	-0.0031442 	3.13886 	90.1609 	62.0941 	-0.591211 	170.697 	360.634 	180.336 	539.793 	
12.4262 	-0.0120627 	-0.910953 	-0.0899381 	1.87188 	-0.00301019 	3.13887 	90.1609 	62.0941 	-0.591211 	171.193 	360.634 	180.81 	539.793 	
12.5293 	-0.0119952 	-0.91008 	-0.092508 	1.87188 	-0.00287619 	3.13887 	90.1609 	62.0938 	-0.591211 	171.687 	360.634 	181.324 	539.793 	
12.6326 	-0.0119277 	-0.909184 	-0.0950701 	1.87188 	-0.00274224 	3.13887 	90.1609 	62.0933 	-0.591211 	172.204 	360.634 	181.84 	539.793 	
12.7354 	-0.0118601 	-0.908266 	-0.0976244 	1.87188 	-0.00260833 	3.13888 	90.1609 	62.0933 	-0.591211 	172.74 	360.634 	182.36 	539.793 	
12.8381 	-0.0117924 	-0.907326 	-0.100171 	1.87188 	-0.00247448 	3.13889 	90.1609 	62.0933 	-0.591211 	173.245 	360.634 	182.874 	539.793 	
12.9414 	-0.0117248 	-0.906363 	-0.102708 	1.87187 	-0.00234069 	3.13889 	90.1609 	62.0931 	-0.591211 	173.75 	360.634 	183.398 	539.793 	
13.0447 	-0.011657 	-0.905378 	-0.105238 	1.87187 	-0.00220698 	3.1389 	90.1609 	62.0931 	-0.591211 	174.293 	360.634 	183.91 	539.793 	
13.1533 	-0.0115892 	-0.904372 	-0.107758 	1.87187 	-0.00207336 	3.13891 	90.1609 	62.0931 	-0.591211 	174.843 	360.634 	184.473 	539.793 	
13.2565 	-0.0115214 	-0.903343 	-0.11027 	1.87187 	-0.00193984 	3.13893 	90.1609 	62.093 	-0.591211 	175.343 	360.634 	184.994 	539.793 	
13.3594 	-0.0114536 	-0.902292 	-0.112773 	1.87187 	-0.00180642 	3.13894 	90.1609 	62.0931 	-0.591211 	175.845 	360.634 	185.458 	539.793 	
13.4623 	-0.0113858 	-0.90122 	-0.115266 	1.87187 	-0.00167312 	3.13895 	90.1609 	62.093 	-0.591211 	176.336 	360.634 	185.959 	539.793 	
13.5655 	-0.0113179 	-0.900126 	-0.11775 	1.87187 	-0.00153995 	3.13897 	90.1609 	62.093 	-0.591211 	176.897 	360.634 	186.547 	539.793 	
13.6685 	-0.01125 	-0.89901 	-0.120224 	1.87187 	-0.00140692 	3.13899 	90.1609 	62.0931 	-0.591211 	177.385 	360.634 	187.014 	539.793 	
13.7712 	-0.0111822 	-0.897873 	-0.122689 	1.87187 	-0.00127404 	3.139 	90.1609 	62.093 	-0.591211 	177.885 	360.634 	187.51 	539.793 	
13.8745 	-0.0111143 	-0.896714 	-0.125143 	1.87187 	-0.00114131 	3.13902 	90.1609 	62.093 	-0.591211 	178.436 	360.634 	188.092 	539.793 	
13.9774 	-0.0110464 	-0.895534 	-0.127587 	1.87187 	-0.00100875 	3.13904 	90.1609 	62.093 	-0.591211 	178.941 	360.634 	188.57 	539.793 	
14.0806 	-0.0109786 	-0.894333 	-0.130021 	1.87187 	-0.000876373 	3.13906 	90.1609 	62.093 	-0.591211 	179.437 	360.634 	189.049 	539.793 	
14.1836 	-0.0109107 	-0.89311 	-0.132445 	1.87187 	-0.00074418 	3.13908 	90.1609 	62.093 	-0.591211 	179.989 	360.634 	189.588 	539.793 	
14.2866 	-0.0108429 	-0.891866 	-0.134857 	1.87187 	-0.000612189 	3.13911 	90.1609 	62.093 	-0.591211 	180.484 	360.634 	190.135 	539.793 	
14.3935 	-0.0107751 	-0.890601 	-0.137259 	1.87187 	-0.000480404 	3.13913 	90.1609 	62.093 	-0.591211 	181.036 	360.634 	190.605 	539.793 	
14.4962 	-0.0107074 	-0.889316 	-0.139649 	1.87187 	-0.00034884 	3.13916 	90.1609 	62.093 	-0.591211 	181.536 	360.634 	191.186 	539.793 	
14.5992 	-0.0106396 	-0.888009 	-0.142028 	1.87187 	-0.000217501 	3.13918 	90.1609 	62.093 	-0.591211 	182.034 	360.634 	191.688 	539.793 	
14.7041 	-0.0105043 	-0.885334 	-0.146752 	1.87186 	4.44435e-05 	3.13924 	90.1609 	62.093 	-0.591211 	182.583 	360.634 	192.206 	539.793 	
14.8072 	-0.0104367 	-0.883966 	-0.149096 	1.87186 	0.000175035 	3.13927 	90.1609 	62.093 	-0.591211 	183.081 	360.634 	192.734 	539.793 	
14.9105 	-0.0103692 	-0.882577 	-0.151428 	1.87186 	0.000305356 	3.1393 	90.1609 	62.093 	-0.591211 	183.588 	360.634 	193.25 	539.793 	
15.0133 	-0.0103018 	-0.881168 	-0.153747 	1.87186 	0.000435401 	3.13934 	90.1609 	62.093 	-0.591211 	184.129 	360.634 	193.708 	539.793 	
15.1162 	-0.0102344 	-0.879739 	-0.156055 	1.87186 	0.000565154 	3.13937 	90.1609 	62.093 	-0.591211 	184.634 	360.634 	194.277 	539.793 	
15.2193 	-0.010167 	-0.878289 	-0.15835 	1.87186 	0.000694612 	3.1394 	90.1609 	62.093 	-0.591211 	185.129 	360.634 	194.794 	539.793 	
15.3219 	-0.0100998 	-0.87682 	-0.160632 	1.87186 	0.00082376 	3.13944 	90.1609 	62.093 	-0.591211 	185.631 	360.634 	195.253 	539.793 	
15.4254 	-0.0100326 	-0.875331 	-0.162901 	1.87186 	0.000952592 	3.13948 	90.1609 	62.093 	-0.591211 	186.18 	360.634 	195.813 	539.793 	
15.5283 	-0.00996556 	-0.873822 	-0.165157 	1.87186 	0.00108109 	3.13951 	90.1609 	62.093 	-0.591211 	186.682 	360.634 	196.348 	539.793 	
15.6311 	-0.00989859 	-0.872293 	-0.1674 	1.87186 	0.00120926 	3.13955 	90.1609 	62.093 	-0.591211 	187.171 	360.634 	196.811 	539.793 	
15.7343 	-0.00983171 	-0.870745 	-0.169629 	1.87186 	0.00133708 	3.13959 	90.1609 	62.093 	-0.591211 	187.725 	360.634 	197.361 	539.793 	
15.8376 	-0.00976493 	-0.869178 	-0.171845 	1.87186 	0.00146453 	3.13964 	90.1609 	62.093 	-0.591211 	188.227 	360.634 	197.897 	539.793 	
15.9405 	-0.00969826 	-0.867591 	-0.174047 	1.87186 	0.00159163 	3.13968 	90.1609 	62.093 	-0.591211 	188.723 	360.634 	198.362 	539.793 	
16.0434 	-0.00963171 	-0.865985 	-0.176235 	1.87186 	0.00171835 	3.13972 	90.1609 	62.093 	-0.591211 	189.278 	360.634 	198.854 	539.793 	
16.1467 	-0.00956528 	-0.86436 	-0.17841 	1.87186 	0.00184468 	3.13977 	90.1609 	62.093 	-0.591211 	189.771 	360.634 	199.451 	539.793 	
16.2531 	-0.00949896 	-0.862716 	-0.180569 	1.87185 	0.00197061 	3.13981 	90.1609 	62.0931 	-0.591211 	190.326 	360.634 	199.923 	539.793 	
16.3564 	-0.00943278 	-0.861053 	-0.182715 	1.87185 	0.00209614 	3.13986 	90.1609 	62.093 	-0.591211 	190.815 	360.634 	200.449 	539.793 	
16.4594 	-0.00936673 	-0.859372 	-0.184845 	1.87185 	0.00222126 	3.13991 	90.1609 	62.093 	-0.591211 	191.325 	360.634 	200.989 	539.793 	
16.5624 	-0.00930083 	-0.857672 	-0.186961 	1.87185 	0.00234595 	3.13996 	90.1609 	62.093 	-0.591211 	191.816 	360.634 	201.481 	539.793 	
16.6654 	-0.00923506 	-0.855953 	-0.189062 	1.87185 	0.0024702 	3.14001 	90.1609 	62.093 	-0.591211 	192.367 	360.634 	202 	539.793 	
16.7684 	-0.00916944 	-0.854217 	-0.191148 	1.87185 	0.00259402 	3.14006 	90.1609 	62.0931 	-0.591211 	192.87 	360.634 	202.54 	539.793 	
16.8715 	-0.00910398 	-0.852462 	-0.193219 	1.87185 	0.00271738 	3.14011 	90.1609 	62.0931 	-0.591211 	193.368 	360.634 	203.043 	539.793 	
16.9747 	-0.00903868 	-0.850689 	-0.195274 	1.87185 	0.00284027 	3.14016 	90.1609 	62.093 	-0.591211 	193.916 	360.634 	203.549 	539.793 	
17.0777 	-0.00897354 	-0.848899 	-0.197314 	1.87185 	0.0029627 	3.14022 	90.1609 	62.093 	-0.591211 	194.416 	360.634 	204.079 	539.793 	
17.1806 	-0.00890857 	-0.84709 	-0.199338 	1.87185 	0.00308465 	3.14028 	90.1609 	62.0931 	-0.591211 	194.917 	360.634 	204.591 	539.793 	
17.2834 	-0.00884378 	-0.845264 	-0.201346 	1.87185 	0.0032061 	3.14033 	90.1609 	62.093 	-0.591211 	195.462 	360.634 	205.05 	539.793 	
17.3865 	-0.00877916 	-0.843421 	-0.203339 	1.87185 	0.00332706 	3.14039 	90.1609 	62.0931 	-0.591211 	195.964 	360.634 	205.625 	539.793 	
17.4936 	-0.00871473 	-0.84156 	-0.205315 	1.87185 	0.0034475 	3.14045 	90.1609 	62.0931 	-0.591211 	196.509 	360.634 	206.148 	539.793 	
17.5968 	-0.00865048 	-0.839682 	-0.207274 	1.87184 	0.00356743 	3.14051 	90.1609 	62.0931 	-0.591211 	197.013 	360.634 	206.654 	539.793 	
17.6993 	-0.00858643 	-0.837787 	-0.209218 	1.87184 	0.00368683 	3.14057 	90.1609 	62.0931 	-0.591211 	197.509 	360.634 	207.168 	539.793 	
17.8021 	-0.00852258 	-0.835875 	-0.211144 	1.87184 	0.0038057 	3.14063 	90.1609 	62.0931 	-0.591211 	198.012 	360.634 	207.7 	539.793 	
17.9065 	-0.00845893 	-0.833947 	-0.213054 	1.87184 	0.00392402 	3.14069 	90.1609 	62.0931 	-0.591211 	198.556 	360.634 	208.204 	539.793 	
18.009 	-0.00839549 	-0.832001 	-0.214947 	1.87184 	0.00404179 	3.14076 	90.1609 	62.0931 	-0.591211 	199.058 	360.634 	208.709 	539.793 	
18.1112 	-0.00833226 	-0.83004 	-0.216823 	1.87184 	0.00415899 	3.14082 	90.1609 	62.0931 	-0.591211 	199.551 	360.634 	209.25 	539.793 	
18.2145 	-0.00820646 	-0.826068 	-0.220523 	1.87184 	0.00439167 	3.14096 	90.1609 	62.0931 	-0.591211 	200.109 	360.634 	209.762 	539.793 	
18.3172 	-0.0081439 	-0.824058 	-0.222347 	1.87184 	0.00450713 	3.14102 	90.1609 	62.0931 	-0.591211 	200.601 	360.634 	210.259 	539.793 	
18.4206 	-0.00808157 	-0.822032 	-0.224153 	1.87184 	0.004622 	3.14109 	90.1609 	62.0931 	-0.591211 	201.104 	360.634 	210.793 	539.793 	
18.5232 	-0.00801948 	-0.81999 	-0.225942 	1.87184 	0.00473625 	3.14116 	90.1609 	62.0931 	-0.591211 	201.656 	360.634 	211.271 	539.793 	
18.6262 	-0.00795763 	-0.817933 	-0.227712 	1.87184 	0.00484989 	3.14123 	90.1609 	62.0931 	-0.591211 	202.152 	360.634 	211.8 	539.793 	
18.7292 	-0.00789603 	-0.81586 	-0.229465 	1.87183 	0.0049629 	3.14131 	90.1609 	62.0931 	-0.591211 	202.65 	360.634 	212.343 	539.793 	
18.8321 	-0.00783467 	-0.813772 	-0.231199 	1.87183 	0.00507528 	3.14138 	90.1609 	62.0931 	-0.591211 	203.142 	360.634 	212.829 	539.793 	
18.9349 	-0.00777358 	-0.811669 	-0.232916 	1.87183 	0.00518702 	3.14145 	90.1609 	62.0931 	-0.591211 	203.701 	360.634 	213.345 	539.793 	
19.0386 	-0.00771274 	-0.809552 	-0.234613 	1.87183 	0.00529811 	3.14153 	90.1609 	62.0931 	-0.591211 	204.197 	360.634 	213.882 	539.793 	
19.1414 	-0.00765217 	-0.807419 	-0.236293 	1.87183 	0.00540854 	-3.14158 	90.1609 	62.0932 	-0.591211 	204.694 	360.634 	214.384 	539.793 	
19.2445 	-0.00759187 	-0.805272 	-0.237953 	1.87183 	0.0055183 	-3.1415 	90.1609 	62.0931 	-0.591211 	205.242 	360.634 	214.892 	539.793 	
19.3532 	-0.00753184 	-0.803111 	-0.239595 	1.87183 	0.00562739 	-3.14143 	90.1609 	62.0932 	-0.591211 	205.795 	360.634 	215.426 	539.793 	
19.4566 	-0.00747209 	-0.800935 	-0.241218 	1.87183 	0.00573579 	-3.14135 	90.1609 	62.0932 	-0.591211 	206.287 	360.634 	215.986 	539.793 	
19.5596 	-0.00741263 	-0.798745 	-0.242821 	1.87183 	0.0058435 	-3.14127 	90.1609 	62.0932 	-0.591211 	206.794 	360.634 	216.448 	539.793 	
19.6625 	-0.00735345 	-0.796541 	-0.244406 	1.87183 	0.00595051 	-3.14119 	90.1609 	62.0932 	-0.591211 	207.291 	360.634 	216.976 	539.793 	
19.7656 	-0.00729457 	-0.794324 	-0.245971 	1.87183 	0.00605682 	-3.1411 	90.1609 	62.0932 	-0.591211 	207.838 	360.634 	217.543 	539.793 	
19.8686 	-0.00723598 	-0.792093 	-0.247517 	1.87182 	0.0061624 	-3.14102 	90.1609 	62.0932 	-0.591211 	208.34 	360.634 	217.997 	539.793 	
19.9715 	-0.00717769 	-0.789848 	-0.249043 	1.87182 	0.00626726 	-3.14094 	90.1609 	62.0932 	-0.591211 	208.837 	360.634 	218.515 	539.793 	
20.0744 	-0.00711971 	-0.78759 	-0.25055 	1.87182 	0.00637139 	-3.14085 	90.1609 	62.0932 	-0.591211 	209.382 	360.634 	219.1 	539.793 	
20.1776 	-0.00706204 	-0.78532 	-0.252037 	1.87182 	0.00647477 	-3.14077 	90.1609 	62.0932 	-0.591211 	209.88 	360.634 	219.551 	539.793 	
20.2806 	-0.00700468 	-0.783036 	-0.253504 	1.87182 	0.00657741 	-3.14068 	90.1609 	62.0932 	-0.591211 	210.38 	360.634 	220.063 	539.793 	
20.3836 	-0.00694765 	-0.780739 	-0.254951 	1.87182 	0.00667929 	-3.1406 	90.1609 	62.0932 	-0.591211 	210.925 	360.634 	220.597 	539.793 	
20.4867 	-0.00689093 	-0.77843 	-0.256378 	1.87182 	0.00678041 	-3.14051 	90.1609 	62.0932 	-0.591211 	211.433 	360.634 	221.108 	539.793 	
20.5941 	-0.00683455 	-0.776109 	-0.257785 	1.87182 	0.00688076 	-3.14042 	90.1609 	62.0932 	-0.591211 	211.976 	360.634 	221.601 	539.793 	
20.6966 	-0.00677849 	-0.773776 	-0.259171 	1.87182 	0.00698033 	-3.14033 	90.1609 	62.0933 	-0.591211 	212.478 	360.634 	222.198 	539.793 	
20.7994 	-0.00672277 	-0.77143 	-0.260537 	1.87181 	0.00707911 	-3.14024 	90.1609 	62.0933 	-0.591211 	212.974 	360.634 	222.668 	539.793 	
20.9051 	-0.0066674 	-0.769073 	-0.261883 	1.87181 	0.00717709 	-3.14015 	90.1609 	62.0933 	-0.591211 	213.528 	360.634 	223.2 	539.793 	
21.0096 	-0.00655768 	-0.764323 	-0.264512 	1.87181 	0.00737065 	-3.13996 	90.1609 	62.0933 	-0.591211 	214.019 	360.634 	223.745 	539.793 	
21.1122 	-0.00650335 	-0.761931 	-0.265795 	1.87181 	0.00746621 	-3.13987 	90.1609 	62.0933 	-0.591211 	214.518 	360.634 	224.225 	539.793 	
21.215 	-0.00644937 	-0.759528 	-0.267057 	1.87181 	0.00756094 	-3.13977 	90.1609 	62.0933 	-0.591211 	215.068 	360.634 	224.743 	539.793 	
21.3185 	-0.00639576 	-0.757114 	-0.268299 	1.87181 	0.00765484 	-3.13968 	90.1609 	62.0933 	-0.591211 	215.568 	360.634 	225.285 	539.793 	
21.4211 	-0.00634251 	-0.75469 	-0.269519 	1.87181 	0.00774791 	-3.13958 	90.1609 	62.0933 	-0.591211 	216.066 	360.634 	225.784 	539.793 	
21.5245 	-0.00628963 	-0.752255 	-0.270718 	1.87181 	0.00784012 	-3.13948 	90.1609 	62.0933 	-0.591211 	216.613 	360.634 	226.291 	539.793 	
21.6273 	-0.00623713 	-0.749809 	-0.271896 	1.8718 	0.00793149 	-3.13939 	90.1609 	62.0933 	-0.591211 	217.112 	360.634 	226.834 	539.793 	
21.7305 	-0.006185 	-0.747353 	-0.273052 	1.8718 	0.008022 	-3.13929 	90.1609 	62.0934 	-0.591211 	217.612 	360.634 	227.335 	539.793 	
21.8334 	-0.00613325 	-0.744888 	-0.274187 	1.8718 	0.00811164 	-3.13919 	90.1609 	62.0934 	-0.591211 	218.165 	360.634 	227.795 	539.793 	
21.9362 	-0.00608189 	-0.742412 	-0.2753 	1.8718 	0.0082004 	-3.13909 	90.1609 	62.0934 	-0.591211 	218.657 	360.634 	228.376 	539.793 	
22.0394 	-0.00603092 	-0.739927 	-0.276392 	1.8718 	0.00828829 	-3.13899 	90.1609 	62.0934 	-0.591211 	219.161 	360.634 	228.897 	539.793 	
22.1424 	-0.00598034 	-0.737432 	-0.277462 	1.8718 	0.00837529 	-3.13888 	90.1609 	62.0934 	-0.591211 	219.656 	360.634 	229.347 	539.793 	
22.2455 	-0.00593016 	-0.734928 	-0.27851 	1.8718 	0.0084614 	-3.13878 	90.1609 	62.0934 	-0.591211 	220.206 	360.634 	229.925 	539.793 	
22.3515 	-0.00588038 	-0.732415 	-0.279536 	1.8718 	0.00854661 	-3.13868 	90.1609 	62.0935 	-0.591211 	220.703 	360.634 	230.444 	539.793 	
22.4543 	-0.005831 	-0.729894 	-0.28054 	1.8718 	0.00863091 	-3.13857 	90.1609 	62.0935 	-0.591211 	221.249 	360.634 	230.944 	539.793 	
22.5573 	-0.00578204 	-0.727363 	-0.281523 	1.87179 	0.00871429 	-3.13847 	90.1609 	62.0935 	-0.591211 	221.749 	360.634 	231.468 	539.793 	
22.6605 	-0.00573348 	-0.724824 	-0.282483 	1.87179 	0.00879676 	-3.13836 	90.1609 	62.0935 	-0.591211 	222.251 	360.634 	232 	539.793 	
22.7635 	-0.00568534 	-0.722277 	-0.283421 	1.87179 	0.00887831 	-3.13826 	90.1609 	62.0935 	-0.591211 	222.795 	360.634 	232.461 	539.793 	
22.8665 	-0.00563762 	-0.719722 	-0.284336 	1.87179 	0.00895892 	-3.13815 	90.1609 	62.0935 	-0.591211 	223.295 	360.634 	233.008 	539.793 	
22.9696 	-0.00559032 	-0.717158 	-0.28523 	1.87179 	0.0090386 	-3.13804 	90.1609 	62.0936 	-0.591211 	223.798 	360.634 	233.55 	539.793 	
23.0726 	-0.00554345 	-0.714588 	-0.2861 	1.87179 	0.00911732 	-3.13793 	90.1609 	62.0936 	-0.591211 	224.289 	360.634 	234.008 	539.793 	
23.1755 	-0.00549701 	-0.712009 	-0.286949 	1.87179 	0.00919511 	-3.13782 	90.1609 	62.0936 	-0.591211 	224.841 	360.634 	234.545 	539.793 	
23.2786 	-0.005451 	-0.709423 	-0.287775 	1.87179 	0.00927193 	-3.13771 	90.1609 	62.0936 	-0.591211 	225.337 	360.634 	235.091 	539.793 	
23.3815 	-0.00540543 	-0.706831 	-0.288578 	1.87178 	0.00934779 	-3.1376 	90.1609 	62.0937 	-0.591211 	225.836 	360.634 	235.58 	539.793 	
23.4847 	-0.0053603 	-0.704231 	-0.289359 	1.87178 	0.00942269 	-3.13749 	90.1609 	62.0936 	-0.591211 	226.382 	360.634 	236.095 	539.793 	
23.5938 	-0.00531562 	-0.701624 	-0.290117 	1.87178 	0.00949661 	-3.13738 	90.1609 	62.0937 	-0.591211 	226.933 	360.634 	236.639 	539.793 	
23.6983 	-0.00527138 	-0.699011 	-0.290852 	1.87178 	0.00956956 	-3.13727 	90.1609 	62.0937 	-0.591211 	227.424 	360.634 	237.173 	539.793 	
23.8012 	-0.0052276 	-0.696392 	-0.291564 	1.87178 	0.00964152 	-3.13715 	90.1609 	62.0937 	-0.591211 	227.929 	360.634 	237.638 	539.793 	
23.9051 	-0.00518426 	-0.693767 	-0.292253 	1.87178 	0.00971249 	-3.13704 	90.1609 	62.0937 	-0.591211 	228.474 	360.634 	238.241 	539.793 	
24.0094 	-0.00509897 	-0.688498 	-0.293563 	1.87178 	0.00985144 	-3.13681 	90.1609 	62.0938 	-0.591211 	228.974 	360.634 	238.738 	539.793 	
24.1122 	-0.00505703 	-0.685856 	-0.294184 	1.87177 	0.00991941 	-3.1367 	90.1609 	62.0938 	-0.591211 	229.472 	360.634 	239.196 	539.793 	
24.2151 	-0.00501554 	-0.683208 	-0.294781 	1.87177 	0.00998637 	-3.13658 	90.1609 	62.0938 	-0.591211 	230.015 	360.634 	239.783 	539.793 	
24.3183 	-0.00497453 	-0.680555 	-0.295355 	1.87177 	0.0100523 	-3.13646 	90.1609 	62.0938 	-0.591211 	230.519 	360.634 	240.289 	539.793 	
24.4211 	-0.00493399 	-0.677897 	-0.295906 	1.87177 	0.0101172 	-3.13635 	90.1609 	62.0938 	-0.591211 	231.015 	360.634 	240.739 	539.793 	
24.5244 	-0.00489393 	-0.675234 	-0.296434 	1.87177 	0.0101811 	-3.13623 	90.1609 	62.0938 	-0.591211 	231.563 	360.634 	241.324 	539.793 	
24.6274 	-0.00485435 	-0.672567 	-0.296939 	1.87177 	0.010244 	-3.13611 	90.1609 	62.0938 	-0.591211 	232.06 	360.634 	241.846 	539.793 	
24.7303 	-0.00481525 	-0.669895 	-0.29742 	1.87177 	0.0103058 	-3.13599 	90.1609 	62.0939 	-0.591211 	232.556 	360.634 	242.3 	539.793 	
24.8334 	-0.00477664 	-0.66722 	-0.297878 	1.87176 	0.0103666 	-3.13587 	90.1609 	62.0939 	-0.591211 	233.109 	360.634 	242.81 	539.793 	
24.9367 	-0.00473851 	-0.66454 	-0.298313 	1.87176 	0.0104263 	-3.13575 	90.1609 	62.0939 	-0.591211 	233.603 	360.634 	243.396 	539.793 	
25.0394 	-0.00470088 	-0.661857 	-0.298724 	1.87176 	0.010485 	-3.13563 	90.1609 	62.0939 	-0.591211 	234.1 	360.634 	243.848 	539.793 	
25.1426 	-0.00466374 	-0.659171 	-0.299112 	1.87176 	0.0105427 	-3.13551 	90.1609 	62.094 	-0.591211 	234.596 	360.634 	244.353 	539.793 	
25.2458 	-0.0046271 	-0.656481 	-0.299476 	1.87176 	0.0105993 	-3.13539 	90.1609 	62.094 	-0.591211 	235.149 	360.634 	244.949 	539.793 	
25.3531 	-0.00459096 	-0.653788 	-0.299817 	1.87176 	0.0106548 	-3.13527 	90.1609 	62.0941 	-0.591211 	235.689 	360.634 	245.409 	539.793 	
25.4567 	-0.00455532 	-0.651092 	-0.300134 	1.87176 	0.0107092 	-3.13514 	90.1609 	62.0941 	-0.591211 	236.189 	360.634 	245.949 	539.793 	
25.5596 	-0.00452018 	-0.648393 	-0.300428 	1.87176 	0.0107626 	-3.13502 	90.1609 	62.0941 	-0.591211 	236.682 	360.634 	246.497 	539.793 	
25.6625 	-0.00448556 	-0.645692 	-0.300698 	1.87175 	0.0108149 	-3.1349 	90.1609 	62.0941 	-0.591211 	237.189 	360.634 	246.966 	539.793 	
25.7655 	-0.00445145 	-0.642989 	-0.300945 	1.87175 	0.0108662 	-3.13477 	90.1609 	62.0942 	-0.591211 	237.728 	360.634 	247.494 	539.793 	
25.8685 	-0.00441784 	-0.640284 	-0.301168 	1.87175 	0.0109163 	-3.13465 	90.1609 	62.0942 	-0.591211 	238.227 	360.634 	248.045 	539.793 	
25.9715 	-0.00438476 	-0.637576 	-0.301367 	1.87175 	0.0109654 	-3.13452 	90.1609 	62.0942 	-0.591211 	238.719 	360.634 	248.529 	539.793 	
26.0745 	-0.00435219 	-0.634868 	-0.301543 	1.87175 	0.0110133 	-3.1344 	90.1609 	62.0943 	-0.591211 	239.277 	360.634 	249.044 	539.793 	
26.1774 	-0.00432015 	-0.632157 	-0.301695 	1.87175 	0.0110602 	-3.13427 	90.1609 	62.0943 	-0.591211 	239.766 	360.634 	249.589 	539.793 	
26.2805 	-0.00428862 	-0.629446 	-0.301824 	1.87175 	0.011106 	-3.13415 	90.1609 	62.0944 	-0.591211 	240.268 	360.634 	250.081 	539.793 	
26.3835 	-0.00425763 	-0.626733 	-0.301928 	1.87174 	0.0111506 	-3.13402 	90.1609 	62.0944 	-0.591211 	240.815 	360.634 	250.54 	539.793 	
26.4863 	-0.00422716 	-0.62402 	-0.302009 	1.87174 	0.0111942 	-3.13389 	90.1609 	62.0945 	-0.591211 	241.307 	360.634 	251.135 	539.793 	
26.5942 	-0.00419722 	-0.621306 	-0.302067 	1.87174 	0.0112367 	-3.13377 	90.1609 	62.0945 	-0.591211 	241.863 	360.634 	251.641 	539.793 	
26.6973 	-0.00416782 	-0.618592 	-0.302101 	1.87174 	0.011278 	-3.13364 	90.1609 	62.0945 	-0.591211 	242.356 	360.634 	252.144 	539.793 	
26.8001 	-0.00413895 	-0.615877 	-0.302111 	1.87174 	0.0113182 	-3.13351 	90.1609 	62.0946 	-0.591211 	242.857 	360.634 	252.68 	539.793 	
26.9063 	-0.00411061 	-0.613163 	-0.302097 	1.87174 	0.0113574 	-3.13338 	90.1609 	62.0946 	-0.591211 	243.395 	360.634 	253.243 	539.793 	
27.0092 	-0.00408282 	-0.610448 	-0.30206 	1.87174 	0.0113954 	-3.13326 	90.1609 	62.0947 	-0.591211 	243.904 	360.634 	253.691 	539.793 	
27.1122 	-0.00402886 	-0.605021 	-0.301914 	1.87173 	0.011468 	-3.133 	90.1609 	62.0947 	-0.591211 	244.392 	360.634 	254.216 	539.793 	
27.215 	-0.0040027 	-0.602309 	-0.301806 	1.87173 	0.0115026 	-3.13287 	90.1609 	62.0948 	-0.591211 	244.942 	360.634 	254.8 	539.793 	
27.317 	-0.00397708 	-0.599598 	-0.301674 	1.87173 	0.0115361 	-3.13274 	90.1609 	62.0949 	-0.591211 	245.439 	360.634 	255.247 	539.793 	
27.4203 	-0.00395201 	-0.596888 	-0.301519 	1.87173 	0.0115685 	-3.13261 	90.1609 	62.0949 	-0.591211 	245.939 	360.634 	255.758 	539.793 	
27.5233 	-0.00392749 	-0.594179 	-0.30134 	1.87173 	0.0115997 	-3.13248 	90.1609 	62.0949 	-0.591211 	246.487 	360.634 	256.296 	539.793 	
27.6263 	-0.00390353 	-0.591472 	-0.301138 	1.87173 	0.0116298 	-3.13235 	90.1609 	62.095 	-0.591211 	246.986 	360.634 	256.803 	539.793 	
27.7293 	-0.00388012 	-0.588766 	-0.300912 	1.87174 	0.0116588 	-3.13222 	90.1609 	62.0951 	-0.591211 	247.48 	360.634 	257.299 	539.793 	
27.8328 	-0.00385726 	-0.586063 	-0.300662 	1.87174 	0.0116866 	-3.13208 	90.1609 	62.0952 	-0.591211 	247.977 	360.634 	257.851 	539.793 	
27.9355 	-0.00383496 	-0.583362 	-0.300389 	1.87174 	0.0117132 	-3.13195 	90.1609 	62.0952 	-0.591211 	248.528 	360.634 	258.361 	539.793 	
28.0383 	-0.00381323 	-0.580664 	-0.300093 	1.87174 	0.0117388 	-3.13182 	90.1609 	62.0952 	-0.591211 	249.021 	360.634 	258.846 	539.793 	
28.1415 	-0.00379205 	-0.577968 	-0.299773 	1.87174 	0.0117631 	-3.13169 	90.1609 	62.0953 	-0.591211 	249.527 	360.634 	259.394 	539.793 	
28.2446 	-0.00377144 	-0.575275 	-0.299429 	1.87174 	0.0117864 	-3.13156 	90.1609 	62.0954 	-0.591211 	250.067 	360.634 	259.914 	539.793 	
28.3534 	-0.00375139 	-0.572585 	-0.299062 	1.87174 	0.0118085 	-3.13143 	90.1609 	62.0955 	-0.591211 	250.623 	360.634 	260.387 	539.793 	
28.4566 	-0.00373191 	-0.569899 	-0.298671 	1.87175 	0.0118294 	-3.13129 	90.1609 	62.0956 	-0.591211 	251.112 	360.634 	260.996 	539.793 	
28.559 	-0.003713 	-0.567216 	-0.298257 	1.87175 	0.0118491 	-3.13116 	90.1609 	62.0956 	-0.591211 	251.615 	360.634 	261.481 	539.793 	
28.6617 	-0.00369466 	-0.564537 	-0.29782 	1.87175 	0.0118677 	-3.13103 	90.1609 	62.0957 	-0.591211 	252.107 	360.634 	261.937 	539.793 	
28.7643 	-0.00367688 	-0.561862 	-0.297359 	1.87175 	0.0118852 	-3.1309 	90.1609 	62.0958 	-0.591211 	252.664 	360.634 	262.54 	539.793 	
28.8675 	-0.00365969 	-0.559191 	-0.296875 	1.87175 	0.0119015 	-3.13076 	90.1609 	62.0959 	-0.591211 	253.159 	360.634 	263.033 	539.793 	
28.9706 	-0.00364306 	-0.556524 	-0.296368 	1.87175 	0.0119166 	-3.13063 	90.1609 	62.096 	-0.591211 	253.657 	360.634 	263.482 	539.793 	
29.0735 	-0.00362701 	-0.553861 	-0.295837 	1.87175 	0.0119306 	-3.1305 	90.1609 	62.0961 	-0.591211 	254.206 	360.634 	264.022 	539.793 	
29.1765 	-0.00361153 	-0.551204 	-0.295283 	1.87176 	0.0119434 	-3.13036 	90.1609 	62.0961 	-0.591211 	254.701 	360.634 	264.586 	539.793 	
29.2798 	-0.00359663 	-0.548551 	-0.294707 	1.87176 	0.011955 	-3.13023 	90.1609 	62.0962 	-0.591211 	255.201 	360.634 	265.041 	539.793 	
29.3828 	-0.00358231 	-0.545904 	-0.294106 	1.87176 	0.0119655 	-3.1301 	90.1609 	62.0963 	-0.591211 	255.701 	360.634 	265.566 	539.793 	
29.4857 	-0.00356858 	-0.543262 	-0.293483 	1.87176 	0.0119748 	-3.12996 	90.1609 	62.0965 	-0.591211 	256.25 	360.634 	266.14 	539.793 	
29.5934 	-0.00355543 	-0.540626 	-0.292836 	1.87176 	0.0119829 	-3.12983 	90.1609 	62.0966 	-0.591211 	256.793 	360.634 	266.59 	539.793 	
29.6966 	-0.00354286 	-0.537997 	-0.292167 	1.87176 	0.0119898 	-3.12969 	90.1609 	62.0967 	-0.591211 	257.294 	360.634 	267.159 	539.793 	
29.7994 	-0.00353088 	-0.535373 	-0.291474 	1.87176 	0.0119956 	-3.12956 	90.1609 	62.0968 	-0.591211 	257.787 	360.634 	267.694 	539.793 	
29.9022 	-0.00351947 	-0.532755 	-0.290759 	1.87176 	0.0120002 	-3.12943 	90.1609 	62.097 	-0.591211 	258.288 	360.634 	268.151 	539.793 	
30.0053 	-0.00349842 	-0.527539 	-0.28926 	1.87175 	0.0120059 	-3.12916 	90.1609 	62.0972 	-0.591211 	258.832 	360.634 	268.699 	539.793 	
30.1125 	-0.00348877 	-0.524941 	-0.288476 	1.87175 	0.012007 	-3.12902 	90.1609 	62.0974 	-0.591211 	259.337 	360.634 	269.241 	539.793 	
30.2155 	-0.00347971 	-0.522349 	-0.28767 	1.87175 	0.0120069 	-3.12889 	90.1609 	62.0978 	-0.591211 	259.882 	360.634 	269.741 	539.793 	
30.3184 	-0.00347124 	-0.519765 	-0.286841 	1.87175 	0.0120057 	-3.12876 	90.1609 	62.098 	-0.591211 	260.384 	360.634 	270.241 	539.793 	
30.4212 	-0.00346335 	-0.517189 	-0.285989 	1.87175 	0.0120033 	-3.12862 	90.1609 	62.0987 	-0.591211 	260.876 	360.634 	270.791 	539.793 	
30.5244 	-0.00345605 	-0.514619 	-0.285116 	1.87175 	0.0119997 	-3.12849 	90.1609 	62.1195 	-0.591211 	261.426 	360.634 	271.307 	539.793 	
30.6273 	-0.00344934 	-0.512058 	-0.28422 	1.87175 	0.011995 	-3.12835 	90.1609 	62.1232 	-0.591211 	261.926 	360.634 	271.792 	539.793 	
30.7304 	-0.00344322 	-0.509504 	-0.283301 	1.87175 	0.0119891 	-3.12822 	90.1609 	62.1248 	-0.591211 	262.423 	360.634 	272.342 	539.793 	
30.8334 	-0.00343769 	-0.506959 	-0.28236 	1.87175 	0.011982 	-3.12809 	90.1609 	62.1258 	-0.591211 	262.97 	360.634 	272.818 	539.793 	
30.9365 	-0.00343275 	-0.504422 	-0.281397 	1.87174 	0.0119737 	-3.12795 	90.1609 	62.1261 	-0.591211 	263.464 	360.634 	273.323 	539.793 	
31.0393 	-0.0034284 	-0.501893 	-0.280412 	1.87174 	0.0119643 	-3.12782 	90.1609 	62.1264 	-0.591211 	263.967 	360.634 	273.877 	539.793 	
31.1423 	-0.00342464 	-0.499373 	-0.279405 	1.87174 	0.0119537 	-3.12769 	90.1609 	62.127 	-0.591211 	264.463 	360.634 	274.376 	539.793 	
31.2456 	-0.00342148 	-0.496862 	-0.278376 	1.87174 	0.011942 	-3.12755 	90.1609 	62.1274 	-0.591211 	265.011 	360.634 	274.878 	539.793 	
31.3534 	-0.0034189 	-0.49436 	-0.277326 	1.87174 	0.0119291 	-3.12742 	90.1609 	62.1277 	-0.591211 	265.557 	360.634 	275.42 	539.793 	
31.4565 	-0.00341692 	-0.491867 	-0.276253 	1.87174 	0.011915 	-3.12729 	90.1609 	62.1282 	-0.591211 	266.057 	360.634 	275.971 	539.793 	
31.5595 	-0.00341552 	-0.489384 	-0.275159 	1.87174 	0.0118998 	-3.12715 	90.1609 	62.1284 	-0.591211 	266.559 	360.634 	276.425 	539.793 	
31.6624 	-0.00341472 	-0.48691 	-0.274043 	1.87174 	0.0118834 	-3.12702 	90.1609 	62.1286 	-0.591211 	267.055 	360.634 	276.965 	539.793 	
31.7655 	-0.00341451 	-0.484446 	-0.272905 	1.87174 	0.0118658 	-3.12689 	90.1609 	62.1292 	-0.591211 	267.601 	360.634 	277.534 	539.793 	
31.8687 	-0.0034149 	-0.481993 	-0.271747 	1.87174 	0.0118471 	-3.12675 	90.1609 	62.1295 	-0.591211 	268.097 	360.634 	277.986 	539.793 	
31.9714 	-0.00341587 	-0.479549 	-0.270566 	1.87174 	0.0118272 	-3.12662 	90.1609 	62.1297 	-0.591211 	268.543 	360.634 	278.502 	539.793 	
32.0747 	-0.00344194 	-0.479574 	-0.268577 	1.86483 	0.0117252 	-3.12651 	90.1609 	62.13 	-0.591211 	268.628 	360.634 	279.083 	539.793 	
32.1776 	-0.00347475 	-0.480231 	-0.266372 	1.85611 	0.0116008 	-3.12641 	90.1609 	62.1301 	-0.591211 	268.642 	360.634 	279.534 	539.793 	
32.2808 	-0.00350778 	-0.48087 	-0.264161 	1.84739 	0.0114755 	-3.12631 	90.1609 	62.1302 	-0.591211 	268.655 	360.634 	280.038 	539.793 	
32.3838 	-0.00354105 	-0.481489 	-0.261945 	1.83866 	0.0113493 	-3.12621 	90.1609 	62.1302 	-0.591211 	268.656 	360.634 	280.593 	539.793 	
32.4869 	-0.00357455 	-0.482088 	-0.259724 	1.82994 	0.0112223 	-3.12611 	90.1609 	62.1303 	-0.591211 	268.657 	360.634 	281.091 	539.793 	
32.5939 	-0.00360828 	-0.482669 	-0.257498 	1.82121 	0.0110945 	-3.12601 	90.1609 	62.1303 	-0.591211 	268.657 	360.634 	281.588 	539.793 	
32.6963 	-0.00364222 	-0.483229 	-0.255266 	1.81249 	0.0109657 	-3.12592 	90.1609 	62.1303 	-0.591211 	268.657 	360.634 	282.19 	539.793 	
32.7993 	-0.00367639 	-0.483771 	-0.25303 	1.80376 	0.0108362 	-3.12582 	90.1609 	62.1304 	-0.591211 	268.657 	360.634 	282.643 	539.793 	
32.9031 	-0.00371077 	-0.484293 	-0.250789 	1.79504 	0.0107058 	-3.12573 	90.1609 	62.1304 	-0.591211 	268.657 	360.634 	283.119 	539.793 	
32.9281 	-0.00374537 	-0.484795 	-0.248544 	1.78632 	0.0105746 	-3.12564 	90.1609 	62.1304 	-0.591211 	268.657 	360.634 	283.283 	539.793 	
33.0312 	-0.0037612 	-0.486235 	-0.244591 	1.77864 	0.0105186 	-3.12554 	90.1609 	62.3026 	-0.591211 	268.867 	360.634 	283.774 	539.793 	
33.1344 	-0.00377258 	-0.488313 	-0.239143 	1.76991 	0.0104827 	-3.12542 	90.1609 	62.7865 	-0.591211 	269.371 	360.634 	284.285 	539.793 	
33.2375 	-0.00376738 	-0.490132 	-0.234766 	1.76539 	0.0105105 	-3.12535 	90.1609 	63.2633 	-0.591211 	269.864 	360.634 	284.527 	539.793 	
33.3406 	-0.0037441 	-0.491689 	-0.231544 	1.76539 	0.0106077 	-3.12532 	90.1609 	63.7762 	-0.591211 	270.36 	360.634 	284.547 	539.793 	
33.4435 	-0.003721 	-0.493219 	-0.228308 	1.76538 	0.0107052 	-3.1253 	90.1609 	64.3075 	-0.591211 	270.912 	360.634 	284.563 	539.793 	
33.5465 	-0.00369808 	-0.49472 	-0.225059 	1.76538 	0.0108028 	-3.12527 	90.1609 	64.8285 	-0.591211 	271.412 	360.634 	284.571 	539.793 	
33.6536 	-0.00367533 	-0.496192 	-0.221797 	1.76537 	0.0109007 	-3.12525 	90.1609 	65.3474 	-0.591211 	271.964 	360.634 	284.573 	539.793 	
33.7565 	-0.00365276 	-0.497637 	-0.218523 	1.76537 	0.0109988 	-3.12523 	90.1609 	65.8674 	-0.591211 	272.461 	360.634 	284.574 	539.793 	
33.8594 	-0.00363038 	-0.499052 	-0.215236 	1.76537 	0.011097 	-3.12521 	90.1609 	66.3412 	-0.591211 	272.96 	360.634 	284.575 	539.793 	
33.9624 	-0.00360818 	-0.500439 	-0.211936 	1.76536 	0.0111954 	-3.12519 	90.1609 	66.8627 	-0.591211 	273.459 	360.634 	284.576 	539.793 	
34.0653 	-0.00358617 	-0.501797 	-0.208625 	1.76536 	0.011294 	-3.12517 	90.1609 	67.3919 	-0.591211 	274.012 	360.634 	284.576 	539.793 	
34.1687 	-0.00356435 	-0.503126 	-0.205302 	1.76536 	0.0113928 	-3.12515 	90.1609 	67.9003 	-0.591211 	274.509 	360.634 	284.576 	539.793 	
34.2716 	-0.00354272 	-0.504426 	-0.201968 	1.76535 	0.0114918 	-3.12513 	90.1609 	68.3956 	-0.591211 	275.011 	360.634 	284.576 	539.793 	
34.3746 	-0.00352128 	-0.505697 	-0.198622 	1.76535 	0.0115908 	-3.12512 	90.1609 	68.9433 	-0.591211 	275.561 	360.634 	284.576 	539.793 	
34.4777 	-0.00350003 	-0.506938 	-0.195265 	1.76535 	0.0116901 	-3.1251 	90.1609 	69.4495 	-0.591211 	276.06 	360.634 	284.577 	539.793 	
34.5809 	-0.00347897 	-0.508151 	-0.191898 	1.76534 	0.0117894 	-3.12508 	90.1609 	69.9236 	-0.591211 	276.562 	360.634 	284.577 	539.793 	
34.6835 	-0.00345812 	-0.509333 	-0.18852 	1.76534 	0.0118889 	-3.12507 	90.1609 	70.4995 	-0.591211 	277.108 	360.634 	284.577 	539.793 	
34.7867 	-0.00343745 	-0.510486 	-0.185132 	1.76534 	0.0119885 	-3.12506 	90.1609 	70.9721 	-0.591211 	277.616 	360.634 	284.577 	539.793 	
34.8949 	-0.00341699 	-0.51161 	-0.181734 	1.76533 	0.0120882 	-3.12504 	90.1609 	71.5465 	-0.591211 	278.16 	360.634 	284.577 	539.793 	
34.9974 	-0.00339673 	-0.512704 	-0.178327 	1.76533 	0.012188 	-3.12503 	90.1609 	72.0122 	-0.591211 	278.664 	360.634 	284.577 	539.793 	
35.1002 	-0.00337667 	-0.513768 	-0.17491 	1.76533 	0.012288 	-3.12502 	90.1609 	72.5396 	-0.591211 	279.157 	360.634 	284.577 	539.793 	
35.2067 	-0.00335682 	-0.514803 	-0.171484 	1.76532 	0.012388 	-3.12501 	90.1609 	73.0656 	-0.591211 	279.713 	360.634 	284.577 	539.793 	
35.3101 	-0.00331773 	-0.516781 	-0.164605 	1.76532 	0.0125882 	-3.125 	90.1609 	73.5848 	-0.591211 	280.208 	360.634 	284.577 	539.793 	
35.413 	-0.0032985 	-0.517726 	-0.161153 	1.76531 	0.0126885 	-3.12499 	90.1609 	74.1138 	-0.591211 	280.713 	360.634 	284.577 	539.793 	
35.5163 	-0.00327947 	-0.51864 	-0.157693 	1.76531 	0.0127888 	-3.12498 	90.1609 	74.6216 	-0.591211 	281.256 	360.634 	284.577 	539.793 	
35.6194 	-0.00326066 	-0.519524 	-0.154225 	1.76531 	0.0128891 	-3.12498 	90.1609 	75.1226 	-0.591211 	281.759 	360.634 	284.577 	539.793 	
35.7224 	-0.00324206 	-0.520377 	-0.15075 	1.7653 	0.0129895 	-3.12497 	90.1609 	75.6133 	-0.591211 	282.261 	360.634 	284.577 	539.793 	
35.8252 	-0.00322368 	-0.5212 	-0.147267 	1.7653 	0.0130899 	-3.12497 	90.1609 	76.1768 	-0.591211 	282.81 	360.634 	284.577 	539.793 	
35.9285 	-0.00320551 	-0.521993 	-0.143777 	1.7653 	0.0131904 	-3.12497 	90.1609 	76.6539 	-0.591211 	283.309 	360.634 	284.577 	539.793 	
36.0312 	-0.00318755 	-0.522756 	-0.140281 	1.76529 	0.0132909 	-3.12496 	90.1609 	77.1757 	-0.591211 	283.807 	360.634 	284.577 	539.793 	
36.1338 	-0.00317158 	-0.523416 	-0.137128 	1.76529 	0.0133813 	-3.12496 	90.1609 	77.6977 	-0.591211 	284.359 	360.634 	284.577 	539.793 	
36.2363 	-0.00315231 	-0.524189 	-0.133268 	1.76529 	0.0134918 	-3.12496 	90.1609 	78.2274 	-0.591211 	284.855 	360.634 	284.577 	539.793 	
36.3397 	-0.00313501 	-0.524859 	-0.129753 	1.76528 	0.0135923 	-3.12496 	90.1609 	78.694 	-0.591211 	285.359 	360.634 	284.578 	539.793 	
36.4425 	-0.00311794 	-0.525499 	-0.126232 	1.76528 	0.0136928 	-3.12496 	90.1609 	79.2163 	-0.591211 	285.858 	360.634 	284.578 	539.793 	
36.5457 	-0.00310109 	-0.526108 	-0.122705 	1.76528 	0.0137933 	-3.12497 	90.1609 	79.7482 	-0.591211 	286.411 	360.634 	284.578 	539.793 	
36.6533 	-0.00308447 	-0.526686 	-0.119173 	1.76527 	0.0138937 	-3.12497 	90.1609 	80.3141 	-0.591211 	286.903 	360.634 	284.578 	539.793 	
36.7566 	-0.00306807 	-0.527234 	-0.115637 	1.76527 	0.0139941 	-3.12497 	90.1609 	80.8026 	-0.591211 	287.46 	360.634 	284.578 	539.793 	
36.8596 	-0.00305191 	-0.52775 	-0.112096 	1.76527 	0.0140945 	-3.12498 	90.1609 	81.3002 	-0.591211 	287.953 	360.634 	284.578 	539.793 	
36.9624 	-0.00303596 	-0.528236 	-0.10855 	1.76526 	0.0141948 	-3.12498 	90.1609 	81.8096 	-0.591211 	288.459 	360.634 	284.578 	539.793 	
37.0654 	-0.00302025 	-0.528691 	-0.105 	1.76526 	0.0142951 	-3.12499 	90.1609 	82.3518 	-0.591211 	289.005 	360.634 	284.578 	539.793 	
37.168 	-0.00300477 	-0.529114 	-0.101447 	1.76526 	0.0143953 	-3.125 	90.1609 	82.8659 	-0.591211 	289.504 	360.634 	284.578 	539.793 	
37.2717 	-0.00298953 	-0.529507 	-0.09789 	1.76525 	0.0144954 	-3.12501 	90.1609 	83.3352 	-0.591211 	290.009 	360.634 	284.578 	539.793 	
37.3745 	-0.00297451 	-0.529869 	-0.0943296 	1.76525 	0.0145955 	-3.12502 	90.1609 	83.9125 	-0.591211 	290.56 	360.634 	284.578 	539.793 	
37.4778 	-0.00295973 	-0.530199 	-0.0907663 	1.76525 	0.0146955 	-3.12503 	90.1609 	84.3859 	-0.591211 	291.056 	360.634 	284.578 	539.793 	
37.5809 	-0.00294519 	-0.530498 	-0.0872002 	1.76524 	0.0147953 	-3.12504 	90.1609 	84.9151 	-0.591211 	291.558 	360.634 	284.578 	539.793 	
37.6833 	-0.00293088 	-0.530767 	-0.0836317 	1.76524 	0.0148951 	-3.12505 	90.1609 	85.433 	-0.591211 	292.058 	360.634 	284.578 	539.793 	
37.787 	-0.00291681 	-0.531004 	-0.080061 	1.76524 	0.0149948 	-3.12506 	90.1609 	85.9528 	-0.591211 	292.605 	360.634 	284.578 	539.793 	
37.8937 	-0.00290298 	-0.53121 	-0.0764883 	1.76524 	0.0150943 	-3.12508 	90.1609 	86.4881 	-0.591211 	293.111 	360.634 	284.578 	539.793 	
37.9966 	-0.00288939 	-0.531384 	-0.0729139 	1.76523 	0.0151938 	-3.12509 	90.1609 	87.0069 	-0.591211 	293.654 	360.634 	284.578 	539.793 	
38.0997 	-0.00287605 	-0.531528 	-0.0693383 	1.76523 	0.0152931 	-3.12511 	90.1609 	87.4988 	-0.591211 	294.159 	360.634 	284.578 	539.793 	
38.2028 	-0.00286294 	-0.53164 	-0.0657614 	1.76523 	0.0153922 	-3.12512 	90.1609 	87.9903 	-0.591211 	294.655 	360.634 	284.578 	539.793 	
38.3054 	-0.00285007 	-0.531722 	-0.0621838 	1.76522 	0.0154912 	-3.12514 	90.1609 	88.5479 	-0.591211 	295.208 	360.634 	284.578 	539.793 	
38.4081 	-0.00283746 	-0.531771 	-0.0586057 	1.76522 	0.0155901 	-3.12516 	90.1609 	89.0444 	-0.591211 	295.704 	360.634 	284.578 	539.793 	
38.5113 	-0.00282508 	-0.53179 	-0.0550272 	1.76522 	0.0156888 	-3.12518 	90.1609 	89.5607 	-0.591211 	296.206 	360.634 	284.578 	539.793 	
38.6143 	-0.00280107 	-0.531734 	-0.0478704 	1.76521 	0.0158856 	-3.12522 	90.1609 	90.0843 	-0.591211 	296.754 	360.634 	284.578 	539.793 	
38.7175 	-0.00278943 	-0.531659 	-0.0442927 	1.76521 	0.0159838 	-3.12524 	90.1609 	90.6044 	-0.591211 	297.254 	360.634 	284.578 	539.793 	
38.8205 	-0.00277805 	-0.531553 	-0.0407158 	1.76521 	0.0160818 	-3.12526 	90.1609 	91.088 	-0.591211 	297.759 	360.634 	284.578 	539.793 	
38.923 	-0.00276691 	-0.531415 	-0.0371399 	1.7652 	0.0161796 	-3.12529 	90.1609 	91.6597 	-0.591211 	298.254 	360.634 	284.578 	539.793 	
39.0262 	-0.00275603 	-0.531247 	-0.0335654 	1.7652 	0.0162771 	-3.12531 	90.1609 	92.133 	-0.591211 	298.805 	360.634 	284.578 	539.793 	
39.1292 	-0.00274539 	-0.531047 	-0.0299926 	1.7652 	0.0163745 	-3.12533 	90.1609 	92.6514 	-0.591211 	299.303 	360.634 	284.578 	539.793 	
39.2325 	-0.00273501 	-0.530816 	-0.0264216 	1.76519 	0.0164716 	-3.12536 	90.1609 	93.1399 	-0.591211 	299.808 	360.634 	284.578 	539.793 	
39.3355 	-0.00272488 	-0.530554 	-0.0228527 	1.76519 	0.0165685 	-3.12539 	90.1609 	93.7034 	-0.591211 	300.352 	360.634 	284.578 	539.793 	
39.4385 	-0.002715 	-0.53026 	-0.0192864 	1.76519 	0.0166652 	-3.12541 	90.1609 	94.1982 	-0.591211 	300.858 	360.634 	284.578 	539.793 	
39.5415 	-0.00270538 	-0.529936 	-0.0157226 	1.76519 	0.0167616 	-3.12544 	90.1609 	94.6954 	-0.591211 	301.35 	360.634 	284.578 	539.793 	
39.6445 	-0.00269601 	-0.529581 	-0.0121619 	1.76518 	0.0168578 	-3.12547 	90.1609 	95.2519 	-0.591211 	301.906 	360.634 	284.578 	539.793 	
39.7524 	-0.0026869 	-0.529194 	-0.00860447 	1.76518 	0.0169537 	-3.1255 	90.1609 	95.7449 	-0.591211 	302.403 	360.634 	284.578 	539.793 	
39.8557 	-0.00267805 	-0.528777 	-0.00505048 	1.76518 	0.0170494 	-3.12553 	90.1609 	96.3104 	-0.591211 	302.952 	360.634 	284.578 	539.793 	
39.9587 	-0.00266945 	-0.528328 	-0.00150032 	1.76518 	0.0171448 	-3.12556 	90.1609 	96.7916 	-0.591211 	303.454 	360.634 	284.578 	539.793 	
40.0616 	-0.00266111 	-0.527849 	0.00204578 	1.76517 	0.0172399 	-3.1256 	90.1609 	97.3061 	-0.591211 	303.952 	360.634 	284.578 	539.793 	
40.1643 	-0.00265303 	-0.527338 	0.00558756 	1.76517 	0.0173347 	-3.12563 	90.1609 	97.8438 	-0.591211 	304.503 	360.634 	284.578 	539.793 	
40.2673 	-0.00264598 	-0.526852 	0.00877124 	1.76517 	0.0174198 	-3.12566 	90.1609 	98.3657 	-0.591211 	305.001 	360.634 	284.578 	539.793 	
40.3708 	-0.00263764 	-0.526225 	0.012657 	1.76516 	0.0175234 	-3.1257 	90.1609 	98.8471 	-0.591211 	305.504 	360.634 	284.578 	539.793 	
40.4737 	-0.00263034 	-0.525622 	0.0161842 	1.76516 	0.0176173 	-3.12574 	90.1609 	99.4113 	-0.591211 	306.003 	360.634 	284.578 	539.793 	
40.5768 	-0.0026233 	-0.524988 	0.0197059 	1.76516 	0.0177109 	-3.12577 	90.1609 	99.9033 	-0.591211 	306.552 	360.634 	284.578 	539.793 	
40.6797 	-0.00261652 	-0.524323 	0.0232221 	1.76516 	0.0178042 	-3.12581 	90.1609 	100.411 	-0.591211 	307.05 	360.634 	284.578 	539.793 	
40.7827 	-0.00261 	-0.523628 	0.0267322 	1.76515 	0.0178971 	-3.12585 	90.1609 	100.909 	-0.591211 	307.556 	360.634 	284.578 	539.793 	
40.8859 	-0.00260374 	-0.522903 	0.0302362 	1.76515 	0.0179897 	-3.12589 	90.1609 	101.458 	-0.591211 	308.1 	360.634 	284.578 	539.793 	
40.9899 	-0.00259775 	-0.522146 	0.0337336 	1.76515 	0.018082 	-3.12593 	90.1609 	101.965 	-0.591211 	308.6 	360.634 	284.578 	539.793 	
41.0938 	-0.00259202 	-0.52136 	0.0372243 	1.76515 	0.0181739 	-3.12597 	90.1609 	102.515 	-0.591211 	309.105 	360.634 	284.578 	539.793 	
41.1965 	-0.00258655 	-0.520543 	0.040708 	1.76514 	0.0182654 	-3.12601 	90.1609 	103.024 	-0.591211 	309.653 	360.634 	284.578 	539.793 	
41.2998 	-0.00258135 	-0.519695 	0.0441845 	1.76514 	0.0183566 	-3.12605 	90.1609 	103.509 	-0.591211 	310.152 	360.634 	284.578 	539.793 	
41.4024 	-0.00257641 	-0.518817 	0.0476534 	1.76514 	0.0184474 	-3.12609 	90.1607 	104.023 	-0.591211 	310.653 	360.634 	284.578 	539.793 	
41.5055 	-0.00256733 	-0.516971 	0.0545675 	1.76514 	0.0186279 	-3.12618 	90.1605 	104.563 	-0.591211 	311.201 	360.634 	284.578 	539.793 	
41.6092 	-0.00256319 	-0.516002 	0.0580122 	1.76513 	0.0187176 	-3.12623 	90.1605 	105.078 	-0.591211 	311.699 	360.634 	284.578 	539.793 	
41.7123 	-0.00255931 	-0.515004 	0.0614484 	1.76513 	0.0188068 	-3.12627 	90.1606 	105.566 	-0.591113 	312.206 	360.634 	284.578 	539.793 	
41.8153 	-0.0025557 	-0.513976 	0.0648756 	1.76513 	0.0188957 	-3.12632 	90.1607 	106.123 	-0.591113 	312.748 	360.634 	284.578 	539.793 	
41.9187 	-0.00255235 	-0.512918 	0.0682937 	1.76513 	0.0189841 	-3.12637 	90.1607 	106.619 	-0.591113 	313.254 	360.634 	284.578 	539.793 	
42.0213 	-0.00254928 	-0.51183 	0.0717025 	1.76512 	0.0190721 	-3.12642 	90.1607 	107.132 	-0.591113 	313.747 	360.634 	284.578 	539.793 	
42.1244 	-0.00254647 	-0.510712 	0.0751016 	1.76512 	0.0191597 	-3.12647 	90.1607 	107.675 	-0.591113 	314.3 	360.634 	284.578 	539.793 	
42.2273 	-0.00254392 	-0.509565 	0.0784909 	1.76512 	0.0192469 	-3.12652 	90.1606 	108.177 	-0.591113 	314.799 	360.634 	284.578 	539.793 	
42.3303 	-0.00254165 	-0.508388 	0.08187 	1.76512 	0.0193336 	-3.12657 	90.1606 	108.685 	-0.591211 	315.304 	360.634 	284.578 	539.793 	
42.4337 	-0.00253964 	-0.507181 	0.0852386 	1.76511 	0.0194199 	-3.12662 	90.1606 	109.237 	-0.591113 	315.798 	360.634 	284.578 	539.793 	
42.5365 	-0.0025379 	-0.505946 	0.0885967 	1.76511 	0.0195057 	-3.12667 	90.1606 	109.743 	-0.591113 	316.35 	360.634 	284.578 	539.793 	
42.6395 	-0.00253642 	-0.504681 	0.0919438 	1.76511 	0.0195911 	-3.12672 	90.1607 	110.235 	-0.591113 	316.852 	360.634 	284.578 	539.793 	
42.7426 	-0.00253606 	-0.504125 	0.0955529 	1.76287 	0.0196536 	-3.12677 	90.1607 	110.74 	-0.591113 	317.244 	360.634 	284.578 	539.793 	
42.8458 	-0.00253823 	-0.505676 	0.0999593 	1.75415 	0.0196514 	-3.12678 	90.1606 	111.283 	-0.591113 	317.316 	360.634 	284.578 	539.793 	
42.9523 	-0.00254034 	-0.507189 	0.104379 	1.74542 	0.0196492 	-3.12679 	90.1606 	111.796 	-0.591113 	317.319 	360.634 	284.578 	539.793 	
43.0555 	-0.0025424 	-0.508663 	0.108812 	1.73669 	0.0196471 	-3.1268 	90.1606 	112.337 	-0.591113 	317.32 	360.634 	284.578 	539.793 	
43.1584 	-0.00254441 	-0.510099 	0.113258 	1.72796 	0.0196452 	-3.12682 	90.1606 	112.843 	-0.591211 	317.321 	360.634 	284.578 	539.793 	
43.2615 	-0.00254636 	-0.511495 	0.117715 	1.71924 	0.0196433 	-3.12683 	90.1606 	113.337 	-0.591211 	317.322 	360.634 	284.578 	539.793 	
43.3647 	-0.00254825 	-0.512852 	0.122185 	1.71051 	0.0196416 	-3.12684 	90.1578 	113.892 	-0.591504 	317.324 	360.634 	284.578 	539.793 	
43.4676 	-0.00255009 	-0.514171 	0.126667 	1.70178 	0.0196399 	-3.12685 	90.1565 	114.388 	-0.591211 	317.324 	360.634 	284.578 	539.793 	
43.571 	-0.00255188 	-0.51545 	0.13116 	1.69306 	0.0196384 	-3.12686 	90.1566 	114.884 	-0.591113 	317.325 	360.634 	284.578 	539.793 	
43.6739 	-0.00255361 	-0.51669 	0.135664 	1.68433 	0.0196369 	-3.12688 	90.1564 	115.437 	-0.591016 	317.325 	360.634 	284.578 	539.793 	
43.6973 	-0.00255361 	-0.51669 	0.135664 	1.68433 	0.0196369 	-3.12688 	90.1559 	115.535 	-0.591309 	317.325 	360.634 	284.578 	539.793 	
43.8015 	-0.00255414 	-0.517992 	0.140139 	1.6756 	0.019637 	-3.12689 	90.1561 	115.992 	-0.591113 	317.24 	360.634 	284.564 	539.793 	
43.9055 	-0.00250367 	-0.524514 	0.145178 	1.66257 	0.0196982 	-3.12715 	90.1562 	116.487 	-0.591113 	316.819 	360.634 	284.201 	539.793 	
44.0094 	-0.00247627 	-0.527079 	0.144293 	1.66257 	0.0197301 	-3.12729 	90.1561 	116.563 	-0.591113 	316.333 	360.634 	283.651 	539.793 	
44.1123 	-0.00244936 	-0.529652 	0.143431 	1.66257 	0.0197609 	-3.12742 	90.1559 	116.564 	-0.591113 	315.837 	360.634 	283.211 	539.793 	
44.2155 	-0.00242296 	-0.532232 	0.142591 	1.66257 	0.0197905 	-3.12755 	90.156 	116.565 	-0.591113 	315.286 	360.634 	282.687 	539.793 	
44.3178 	-0.00239962 	-0.534561 	0.141854 	1.66257 	0.0198161 	-3.12766 	90.1559 	116.566 	-0.591113 	314.797 	360.634 	282.112 	539.793 	
44.421 	-0.00237166 	-0.537414 	0.140979 	1.66257 	0.0198463 	-3.12781 	90.1559 	116.566 	-0.591113 	314.296 	360.634 	281.653 	539.793 	
44.5235 	-0.00234677 	-0.540016 	0.140206 	1.66257 	0.0198724 	-3.12794 	90.1559 	116.566 	-0.591113 	313.795 	360.634 	281.193 	539.793 	
44.6264 	-0.0023224 	-0.542624 	0.139457 	1.66257 	0.0198975 	-3.12807 	90.1559 	116.566 	-0.591113 	313.25 	360.634 	280.555 	539.793 	
44.7297 	-0.00229853 	-0.545238 	0.13873 	1.66257 	0.0199213 	-3.1282 	90.156 	116.566 	-0.591113 	312.747 	360.634 	280.085 	539.793 	
44.8326 	-0.00227518 	-0.547859 	0.138026 	1.66258 	0.0199441 	-3.12834 	90.156 	116.566 	-0.591113 	312.254 	360.634 	279.643 	539.793 	
44.9359 	-0.00225234 	-0.550486 	0.137345 	1.66258 	0.0199656 	-3.12847 	90.156 	116.566 	-0.591113 	311.702 	360.634 	279.021 	539.793 	
45.0386 	-0.00223002 	-0.553118 	0.136687 	1.66258 	0.0199861 	-3.1286 	90.156 	116.566 	-0.591113 	311.204 	360.634 	278.524 	539.793 	
45.1415 	-0.00220822 	-0.555757 	0.136052 	1.66258 	0.0200053 	-3.12873 	90.156 	116.566 	-0.591113 	310.704 	360.634 	278.087 	539.793 	
45.2446 	-0.00218694 	-0.5584 	0.13544 	1.66258 	0.0200234 	-3.12887 	90.156 	116.566 	-0.591113 	310.164 	360.634 	277.471 	539.793 	
45.3525 	-0.00216618 	-0.561049 	0.134851 	1.66258 	0.0200404 	-3.129 	90.1561 	116.566 	-0.591113 	309.66 	360.634 	276.963 	539.793 	
45.4557 	-0.00214594 	-0.563703 	0.134285 	1.66258 	0.0200562 	-3.12913 	90.1561 	116.566 	-0.591113 	309.115 	360.634 	276.489 	539.793 	
45.5585 	-0.00212623 	-0.566362 	0.133743 	1.66258 	0.0200708 	-3.12926 	90.156 	116.566 	-0.591113 	308.616 	360.634 	275.945 	539.793 	
45.6615 	-0.00210704 	-0.569026 	0.133223 	1.66258 	0.0200843 	-3.1294 	90.1559 	116.566 	-0.591113 	308.117 	360.634 	275.416 	539.793 	
45.7647 	-0.00208839 	-0.571694 	0.132727 	1.66258 	0.0200966 	-3.12953 	90.1559 	116.566 	-0.591113 	307.569 	360.634 	274.941 	539.793 	
45.8676 	-0.00207026 	-0.574366 	0.132254 	1.66258 	0.0201077 	-3.12966 	90.1559 	116.566 	-0.591113 	307.075 	360.634 	274.398 	539.793 	
45.9711 	-0.00205266 	-0.577042 	0.131805 	1.66259 	0.0201177 	-3.1298 	90.1559 	116.566 	-0.591113 	306.574 	360.634 	273.851 	539.793 	
46.0739 	-0.0020356 	-0.579722 	0.131379 	1.66259 	0.0201265 	-3.12993 	90.1559 	116.566 	-0.591113 	306.074 	360.634 	273.421 	539.793 	
46.1768 	-0.00201907 	-0.582406 	0.130976 	1.66259 	0.0201341 	-3.13007 	90.156 	116.566 	-0.591113 	305.532 	360.634 	272.875 	539.793 	
46.2797 	-0.00200307 	-0.585093 	0.130596 	1.66259 	0.0201406 	-3.1302 	90.156 	116.566 	-0.591113 	305.03 	360.634 	272.302 	539.793 	
46.3828 	-0.00198761 	-0.587783 	0.13024 	1.66259 	0.0201459 	-3.13033 	90.1559 	116.566 	-0.591113 	304.532 	360.634 	271.862 	539.793 	
46.4859 	-0.00197269 	-0.590476 	0.129908 	1.66259 	0.02015 	-3.13047 	90.1559 	116.566 	-0.591113 	303.986 	360.634 	271.32 	539.793 	
46.5953 	-0.0019583 	-0.593172 	0.129599 	1.66259 	0.020153 	-3.1306 	90.1559 	116.566 	-0.591113 	303.437 	360.634 	270.696 	539.793 	
46.6984 	-0.00194446 	-0.595871 	0.129314 	1.66259 	0.0201548 	-3.13074 	90.1559 	116.566 	-0.591113 	302.939 	360.634 	270.26 	539.793 	
46.8014 	-0.00193115 	-0.598572 	0.129052 	1.66259 	0.0201554 	-3.13087 	90.156 	116.566 	-0.591113 	302.442 	360.634 	269.785 	539.793 	
46.9056 	-0.00191839 	-0.601275 	0.128813 	1.66259 	0.0201549 	-3.131 	90.156 	116.566 	-0.591113 	301.892 	360.634 	269.158 	539.793 	
47.0091 	-0.00190616 	-0.60398 	0.128599 	1.66259 	0.0201531 	-3.13114 	90.1559 	116.566 	-0.591113 	301.393 	360.634 	268.702 	539.793 	
47.1122 	-0.00188335 	-0.609396 	0.12824 	1.6626 	0.0201462 	-3.13141 	90.1559 	116.566 	-0.591113 	300.897 	360.634 	268.24 	539.793 	
47.2153 	-0.00187276 	-0.612106 	0.128096 	1.6626 	0.020141 	-3.13154 	90.1559 	116.566 	-0.591113 	300.347 	360.634 	267.607 	539.793 	
47.3186 	-0.00186271 	-0.614817 	0.127976 	1.6626 	0.0201346 	-3.13167 	90.1559 	116.566 	-0.591113 	299.848 	360.634 	267.131 	539.793 	
47.4214 	-0.00185322 	-0.617529 	0.12788 	1.6626 	0.0201271 	-3.13181 	90.1559 	116.566 	-0.591113 	299.356 	360.634 	266.697 	539.793 	
47.5245 	-0.00184427 	-0.620242 	0.127807 	1.6626 	0.0201183 	-3.13194 	90.1559 	116.566 	-0.591113 	298.814 	360.634 	266.089 	539.793 	
47.6275 	-0.00183586 	-0.622955 	0.127757 	1.6626 	0.0201085 	-3.13207 	90.1559 	116.566 	-0.591113 	298.313 	360.634 	265.579 	539.793 	
47.7305 	-0.00182801 	-0.625669 	0.127732 	1.6626 	0.0200974 	-3.13221 	90.1559 	116.566 	-0.591113 	297.811 	360.634 	265.139 	539.793 	
47.8335 	-0.0018207 	-0.628382 	0.12773 	1.66261 	0.0200852 	-3.13234 	90.1559 	116.566 	-0.591113 	297.311 	360.634 	264.589 	539.793 	
47.9366 	-0.00181395 	-0.631096 	0.127752 	1.66261 	0.0200718 	-3.13248 	90.1559 	116.566 	-0.591113 	296.766 	360.634 	264.013 	539.793 	
48.0396 	-0.00180775 	-0.63381 	0.127797 	1.66261 	0.0200573 	-3.13261 	90.1559 	116.566 	-0.591113 	296.269 	360.634 	263.58 	539.793 	
48.1424 	-0.00180209 	-0.636522 	0.127866 	1.66261 	0.0200416 	-3.13274 	90.1559 	116.566 	-0.591113 	295.765 	360.634 	263.057 	539.793 	
48.246 	-0.00179699 	-0.639235 	0.127959 	1.66261 	0.0200247 	-3.13287 	90.1559 	116.566 	-0.591113 	295.217 	360.634 	262.462 	539.793 	
48.3534 	-0.00179244 	-0.641946 	0.128076 	1.66261 	0.0200067 	-3.13301 	90.1559 	116.566 	-0.591113 	294.72 	360.634 	262.025 	539.793 	
48.4566 	-0.00178844 	-0.644656 	0.128216 	1.66261 	0.0199875 	-3.13314 	90.1559 	116.566 	-0.591113 	294.174 	360.634 	261.453 	539.793 	
48.5595 	-0.00178499 	-0.647365 	0.128379 	1.66261 	0.0199671 	-3.13327 	90.1559 	116.566 	-0.591113 	293.678 	360.634 	260.903 	539.793 	
48.6627 	-0.0017821 	-0.650072 	0.128567 	1.66261 	0.0199457 	-3.1334 	90.1559 	116.566 	-0.591113 	293.182 	360.634 	260.467 	539.793 	
48.7657 	-0.00177976 	-0.652778 	0.128778 	1.66262 	0.019923 	-3.13354 	90.1559 	116.566 	-0.591113 	292.63 	360.634 	259.922 	539.793 	
48.8685 	-0.00177797 	-0.655482 	0.129012 	1.66262 	0.0198992 	-3.13367 	90.1559 	116.565 	-0.591113 	292.132 	360.634 	259.358 	539.793 	
48.9715 	-0.00177673 	-0.658183 	0.12927 	1.66262 	0.0198743 	-3.1338 	90.1559 	116.565 	-0.591113 	291.637 	360.634 	258.909 	539.793 	
49.0746 	-0.00177605 	-0.660882 	0.129552 	1.66262 	0.0198482 	-3.13393 	90.1559 	116.565 	-0.591113 	291.084 	360.634 	258.429 	539.793 	
49.1779 	-0.00177592 	-0.663579 	0.129857 	1.66262 	0.0198209 	-3.13406 	90.1559 	116.565 	-0.591113 	290.591 	360.634 	257.803 	539.793 	
49.2811 	-0.00177634 	-0.666273 	0.130186 	1.66262 	0.0197925 	-3.13419 	90.1559 	116.565 	-0.591113 	290.094 	360.634 	257.346 	539.793 	
49.3834 	-0.00177732 	-0.668964 	0.130538 	1.66262 	0.019763 	-3.13432 	90.1559 	116.565 	-0.591113 	289.596 	360.634 	256.888 	539.793 	
49.4869 	-0.00177885 	-0.671651 	0.130914 	1.66262 	0.0197323 	-3.13446 	90.1559 	116.565 	-0.591113 	289.046 	360.634 	256.268 	539.793 	
49.5936 	-0.00178093 	-0.674336 	0.131313 	1.66263 	0.0197005 	-3.13459 	90.1559 	116.565 	-0.591113 	288.546 	360.634 	255.786 	539.793 	
49.697 	-0.00178356 	-0.677016 	0.131735 	1.66263 	0.0196676 	-3.13472 	90.1559 	116.565 	-0.591113 	287.997 	360.634 	255.293 	539.793 	
49.7993 	-0.00178675 	-0.679693 	0.13218 	1.66263 	0.0196336 	-3.13485 	90.1559 	116.565 	-0.591113 	287.501 	360.634 	254.722 	539.793 	
49.9054 	-0.00179048 	-0.682366 	0.132648 	1.66264 	0.0195984 	-3.13497 	90.1559 	116.565 	-0.591113 	286.962 	360.634 	254.181 	539.793 	
50.0095 	-0.00179477 	-0.685035 	0.13314 	1.66264 	0.0195621 	-3.1351 	90.1559 	116.565 	-0.591113 	286.456 	360.634 	253.738 	539.793 	
50.1124 	-0.001805 	-0.690359 	0.134194 	1.66265 	0.0194861 	-3.13536 	90.1559 	116.565 	-0.591113 	285.962 	360.634 	253.186 	539.793 	
50.2154 	-0.00181095 	-0.693014 	0.134755 	1.66265 	0.0194464 	-3.13549 	90.1559 	116.565 	-0.591113 	285.414 	360.634 	252.62 	539.793 	
50.3186 	-0.00181744 	-0.695664 	0.13534 	1.66266 	0.0194056 	-3.13562 	90.1559 	116.565 	-0.591113 	284.917 	360.634 	252.185 	539.793 	
50.4216 	-0.00182449 	-0.698308 	0.135947 	1.66266 	0.0193637 	-3.13574 	90.1559 	116.565 	-0.591113 	284.418 	360.634 	251.643 	539.793 	
50.5245 	-0.00183208 	-0.700948 	0.136578 	1.66266 	0.0193207 	-3.13587 	90.1559 	116.565 	-0.591113 	283.871 	360.634 	251.1 	539.793 	
50.6276 	-0.00184022 	-0.703581 	0.137232 	1.66267 	0.0192766 	-3.136 	90.1559 	116.565 	-0.591113 	283.368 	360.634 	250.633 	539.793 	
50.7305 	-0.00184892 	-0.706209 	0.137909 	1.66267 	0.0192313 	-3.13612 	90.1559 	116.565 	-0.591113 	282.873 	360.634 	250.111 	539.793 	
50.8336 	-0.00185816 	-0.708831 	0.138608 	1.66268 	0.019185 	-3.13625 	90.1559 	116.565 	-0.591113 	282.373 	360.634 	249.556 	539.793 	
50.9367 	-0.00186794 	-0.711447 	0.139331 	1.66268 	0.0191376 	-3.13637 	90.1559 	116.565 	-0.591113 	281.822 	360.634 	249.073 	539.793 	
51.0395 	-0.00187827 	-0.714056 	0.140076 	1.66268 	0.0190891 	-3.1365 	90.1559 	116.565 	-0.591113 	281.331 	360.634 	248.564 	539.793 	
51.1424 	-0.00188915 	-0.716659 	0.140844 	1.66269 	0.0190395 	-3.13662 	90.1559 	116.565 	-0.591113 	280.832 	360.634 	248 	539.793 	
51.2458 	-0.00190058 	-0.719255 	0.141634 	1.66269 	0.0189888 	-3.13675 	90.1559 	116.565 	-0.591113 	280.284 	360.634 	247.514 	539.793 	
51.3536 	-0.00191254 	-0.721843 	0.142448 	1.6627 	0.018937 	-3.13687 	90.1559 	116.565 	-0.591113 	279.784 	360.634 	247.027 	539.793 	
51.4566 	-0.00192505 	-0.724425 	0.143283 	1.6627 	0.0188842 	-3.137 	90.1559 	116.565 	-0.591113 	279.236 	360.634 	246.409 	539.793 	
51.5596 	-0.0019381 	-0.726999 	0.144142 	1.6627 	0.0188303 	-3.13712 	90.1559 	116.565 	-0.591113 	278.738 	360.634 	245.959 	539.793 	
51.6625 	-0.0019517 	-0.729566 	0.145023 	1.66271 	0.0187753 	-3.13724 	90.1559 	116.565 	-0.591113 	278.245 	360.634 	245.483 	539.793 	
51.7655 	-0.00196583 	-0.732125 	0.145926 	1.66271 	0.0187192 	-3.13736 	90.1559 	116.565 	-0.591113 	277.692 	360.634 	244.862 	539.793 	
51.8687 	-0.0019805 	-0.734676 	0.146851 	1.66271 	0.0186621 	-3.13748 	90.1559 	116.565 	-0.591113 	277.194 	360.634 	244.388 	539.793 	
51.9715 	-0.00199571 	-0.737219 	0.147798 	1.66272 	0.018604 	-3.1376 	90.1559 	116.565 	-0.591113 	276.697 	360.634 	243.933 	539.793 	
52.0747 	-0.00201146 	-0.739753 	0.148768 	1.66272 	0.0185447 	-3.13772 	90.1559 	116.565 	-0.591113 	276.15 	360.634 	243.379 	539.793 	
52.1777 	-0.00202774 	-0.742279 	0.14976 	1.66273 	0.0184845 	-3.13784 	90.1559 	116.565 	-0.591113 	275.657 	360.634 	242.828 	539.793 	
52.2807 	-0.00204455 	-0.744796 	0.150774 	1.66273 	0.0184232 	-3.13796 	90.1559 	116.565 	-0.591113 	275.156 	360.634 	242.382 	539.793 	
52.3835 	-0.0020619 	-0.747304 	0.151809 	1.66273 	0.0183608 	-3.13808 	90.1559 	116.565 	-0.591113 	274.66 	360.634 	241.828 	539.793 	
52.4869 	-0.00207978 	-0.749803 	0.152867 	1.66274 	0.0182974 	-3.1382 	90.1559 	116.565 	-0.591113 	274.108 	360.634 	241.258 	539.793 	
52.5938 	-0.00209819 	-0.752293 	0.153946 	1.66274 	0.018233 	-3.13832 	90.1559 	116.565 	-0.591113 	273.612 	360.634 	240.831 	539.793 	
52.6966 	-0.00211713 	-0.754773 	0.155047 	1.66275 	0.0181676 	-3.13843 	90.1559 	116.565 	-0.591113 	273.062 	360.634 	240.246 	539.793 	
52.7992 	-0.0021366 	-0.757243 	0.15617 	1.66275 	0.0181011 	-3.13855 	90.1559 	116.565 	-0.591113 	272.567 	360.634 	239.71 	539.793 	
52.9056 	-0.00215659 	-0.759704 	0.157314 	1.66275 	0.0180337 	-3.13867 	90.1559 	116.565 	-0.591113 	272.017 	360.634 	239.23 	539.793 	
53.0082 	-0.00219815 	-0.764594 	0.159666 	1.66276 	0.0178957 	-3.1389 	90.1559 	116.565 	-0.591113 	271.523 	360.634 	238.688 	539.793 	
53.1114 	-0.00221971 	-0.767024 	0.160874 	1.66277 	0.0178253 	-3.13901 	90.1559 	116.565 	-0.591113 	271.02 	360.634 	238.15 	539.793 	
53.2145 	-0.00224179 	-0.769443 	0.162104 	1.66277 	0.0177538 	-3.13912 	90.1559 	116.565 	-0.591113 	270.472 	360.634 	237.718 	539.793 	
53.3178 	-0.00226439 	-0.771851 	0.163354 	1.66277 	0.0176814 	-3.13924 	90.1559 	116.565 	-0.591113 	269.974 	360.634 	237.159 	539.793 	
53.4208 	-0.0022875 	-0.774249 	0.164625 	1.66278 	0.0176079 	-3.13935 	90.1559 	116.565 	-0.591113 	269.477 	360.634 	236.608 	539.793 	
53.5236 	-0.00231113 	-0.776635 	0.165918 	1.66278 	0.0175335 	-3.13946 	90.1559 	116.565 	-0.591113 	268.983 	360.634 	236.163 	539.793 	
53.6266 	-0.00233527 	-0.779009 	0.16723 	1.66278 	0.0174581 	-3.13957 	90.1559 	116.565 	-0.591113 	268.43 	360.634 	235.611 	539.793 	
53.7295 	-0.00235993 	-0.781373 	0.168564 	1.66279 	0.0173818 	-3.13968 	90.1559 	116.565 	-0.591113 	267.932 	360.634 	235.055 	539.793 	
53.8327 	-0.00238509 	-0.783724 	0.169918 	1.66279 	0.0173045 	-3.13979 	90.1559 	116.565 	-0.591113 	267.433 	360.634 	234.596 	539.793 	
53.9355 	-0.00241076 	-0.786064 	0.171292 	1.6628 	0.0172262 	-3.1399 	90.1559 	116.565 	-0.591113 	266.89 	360.634 	234.074 	539.793 	
54.0386 	-0.00243693 	-0.788391 	0.172687 	1.6628 	0.017147 	-3.14001 	90.1559 	116.565 	-0.591113 	266.387 	360.634 	233.518 	539.793 	
54.1416 	-0.0024636 	-0.790706 	0.174103 	1.6628 	0.0170669 	-3.14012 	90.1559 	116.565 	-0.591113 	265.896 	360.634 	233.035 	539.793 	
54.2448 	-0.00249078 	-0.793009 	0.175538 	1.66281 	0.0169858 	-3.14022 	90.1559 	116.565 	-0.591113 	265.343 	360.634 	232.579 	539.793 	
54.3526 	-0.00251846 	-0.795299 	0.176993 	1.66281 	0.0169038 	-3.14033 	90.1559 	116.565 	-0.591113 	264.85 	360.634 	231.969 	539.793 	
54.4556 	-0.00254663 	-0.797576 	0.178469 	1.66281 	0.0168209 	-3.14043 	90.1559 	116.564 	-0.591113 	264.3 	360.634 	231.423 	539.793 	
54.5587 	-0.0025753 	-0.799841 	0.179964 	1.66282 	0.016737 	-3.14054 	90.1559 	116.564 	-0.591113 	263.799 	360.634 	230.978 	539.793 	
54.6615 	-0.00260446 	-0.802092 	0.181479 	1.66282 	0.0166523 	-3.14064 	90.1559 	116.564 	-0.591113 	263.303 	360.634 	230.433 	539.793 	
54.765 	-0.00263411 	-0.80433 	0.183013 	1.66282 	0.0165666 	-3.14074 	90.1559 	116.564 	-0.591113 	262.756 	360.634 	229.914 	539.793 	
54.8679 	-0.00266425 	-0.806554 	0.184567 	1.66283 	0.0164801 	-3.14085 	90.1559 	116.564 	-0.591113 	262.261 	360.634 	229.427 	539.793 	
54.9706 	-0.00269487 	-0.808765 	0.18614 	1.66283 	0.0163927 	-3.14095 	90.1559 	116.564 	-0.591113 	261.755 	360.634 	228.885 	539.793 	
55.0739 	-0.00272598 	-0.810962 	0.187732 	1.66284 	0.0163043 	-3.14105 	90.1559 	116.564 	-0.591113 	261.259 	360.634 	228.358 	539.793 	
55.1767 	-0.00275757 	-0.813145 	0.189344 	1.66284 	0.0162151 	-3.14115 	90.1559 	116.564 	-0.591113 	260.704 	360.634 	227.874 	539.793 	
55.2799 	-0.00278963 	-0.815314 	0.190974 	1.66284 	0.0161251 	-3.14125 	90.1559 	116.564 	-0.591113 	260.221 	360.634 	227.344 	539.793 	
55.3829 	-0.00282218 	-0.817469 	0.192624 	1.66285 	0.0160341 	-3.14135 	90.1559 	116.564 	-0.591113 	259.715 	360.634 	226.809 	539.793 	
55.4859 	-0.00285519 	-0.819609 	0.194292 	1.66285 	0.0159423 	-3.14145 	90.1559 	116.564 	-0.591113 	259.171 	360.634 	226.323 	539.793 	
55.5937 	-0.00288868 	-0.821734 	0.195978 	1.66285 	0.0158497 	-3.14154 	90.1559 	116.564 	-0.591113 	258.664 	360.634 	225.8 	539.793 	
55.6968 	-0.00292264 	-0.823845 	0.197684 	1.66286 	0.0157562 	3.14155 	90.1559 	116.564 	-0.591113 	258.123 	360.634 	225.205 	539.793 	
55.7993 	-0.00295706 	-0.82594 	0.199407 	1.66286 	0.0156619 	3.14145 	90.1559 	116.564 	-0.591113 	257.622 	360.634 	224.758 	539.793 	
55.9054 	-0.00299194 	-0.828021 	0.201149 	1.66286 	0.0155668 	3.14136 	90.1559 	116.564 	-0.591113 	257.076 	360.634 	224.206 	539.793 	
56.0094 	-0.0030631 	-0.832136 	0.204686 	1.66287 	0.015374 	3.14117 	90.1559 	116.564 	-0.591113 	256.576 	360.634 	223.662 	539.793 	
56.1122 	-0.00309937 	-0.834171 	0.206483 	1.66287 	0.0152764 	3.14108 	90.1559 	116.564 	-0.591113 	256.078 	360.634 	223.198 	539.793 	
56.2147 	-0.00313609 	-0.83619 	0.208298 	1.66287 	0.015178 	3.14099 	90.1559 	116.564 	-0.591113 	255.539 	360.634 	222.714 	539.793 	
56.3176 	-0.00317326 	-0.838193 	0.21013 	1.66287 	0.0150788 	3.1409 	90.1559 	116.564 	-0.591113 	255.033 	360.634 	222.109 	539.793 	
56.4207 	-0.00321088 	-0.84018 	0.211979 	1.66288 	0.0149789 	3.14081 	90.1559 	116.564 	-0.591113 	254.535 	360.634 	221.635 	539.793 	
56.5235 	-0.00324895 	-0.842151 	0.213846 	1.66288 	0.0148781 	3.14072 	90.1559 	116.564 	-0.591113 	254.033 	360.634 	221.173 	539.793 	
56.6267 	-0.00328745 	-0.844106 	0.21573 	1.66288 	0.0147766 	3.14063 	90.1559 	116.564 	-0.591113 	253.496 	360.634 	220.569 	539.793 	
56.7296 	-0.00332639 	-0.846044 	0.217631 	1.66288 	0.0146743 	3.14055 	90.1559 	116.564 	-0.591113 	252.987 	360.634 	220.08 	539.793 	
56.8326 	-0.00336577 	-0.847965 	0.219548 	1.66288 	0.0145713 	3.14046 	90.1559 	116.564 	-0.591113 	252.494 	360.634 	219.627 	539.793 	
56.9356 	-0.00340559 	-0.84987 	0.221483 	1.66288 	0.0144675 	3.14038 	90.1559 	116.564 	-0.591113 	251.936 	360.634 	219.02 	539.793 	
57.0385 	-0.00344583 	-0.851757 	0.223434 	1.66288 	0.014363 	3.14029 	90.1559 	116.564 	-0.591113 	251.445 	360.634 	218.516 	539.793 	
57.1416 	-0.00348649 	-0.853628 	0.225401 	1.66288 	0.0142577 	3.14021 	90.1559 	116.564 	-0.591113 	250.947 	360.634 	218.074 	539.793 	
57.2448 	-0.00352758 	-0.855481 	0.227385 	1.66288 	0.0141518 	3.14013 	90.1559 	116.564 	-0.591113 	250.402 	360.634 	217.528 	539.793 	
57.3527 	-0.00356909 	-0.857317 	0.229384 	1.66288 	0.0140451 	3.14005 	90.1559 	116.564 	-0.591113 	249.895 	360.634 	216.963 	539.793 	
57.4557 	-0.00361102 	-0.859136 	0.2314 	1.66288 	0.0139377 	3.13997 	90.1559 	116.564 	-0.591113 	249.351 	360.634 	216.476 	539.793 	
57.5588 	-0.00365336 	-0.860936 	0.233431 	1.66288 	0.0138297 	3.13989 	90.1559 	116.564 	-0.591113 	248.856 	360.634 	215.928 	539.793 	
57.6615 	-0.00369612 	-0.862719 	0.235478 	1.66289 	0.0137209 	3.13981 	90.1559 	116.564 	-0.591113 	248.35 	360.634 	215.41 	539.793 	
57.7649 	-0.00373927 	-0.864484 	0.237541 	1.66289 	0.0136115 	3.13973 	90.1559 	116.564 	-0.591113 	247.806 	360.634 	214.968 	539.793 	
57.8677 	-0.00378284 	-0.866231 	0.239619 	1.66289 	0.0135013 	3.13965 	90.1559 	116.564 	-0.591113 	247.299 	360.634 	214.391 	539.793 	
57.9709 	-0.0038268 	-0.86796 	0.241712 	1.66289 	0.0133906 	3.13958 	90.1559 	116.564 	-0.591113 	246.81 	360.634 	213.861 	539.793 	
58.0738 	-0.00387116 	-0.86967 	0.24382 	1.66289 	0.0132791 	3.1395 	90.1559 	116.564 	-0.591113 	246.309 	360.634 	213.403 	539.793 	
58.1768 	-0.00391592 	-0.871362 	0.245943 	1.66289 	0.0131671 	3.13943 	90.1559 	116.564 	-0.591113 	245.764 	360.634 	212.841 	539.793 	
58.2798 	-0.00396106 	-0.873035 	0.24808 	1.66289 	0.0130543 	3.13936 	90.1559 	116.564 	-0.591113 	245.256 	360.634 	212.302 	539.793 	
58.383 	-0.0040066 	-0.87469 	0.250232 	1.66289 	0.012941 	3.13929 	90.1559 	116.564 	-0.591113 	244.767 	360.634 	211.845 	539.793 	
58.4864 	-0.00405251 	-0.876325 	0.252399 	1.66289 	0.012827 	3.13922 	90.1559 	116.563 	-0.591113 	244.217 	360.634 	211.31 	539.793 	
58.5952 	-0.00409881 	-0.877942 	0.254579 	1.66289 	0.0127125 	3.13915 	90.1559 	116.563 	-0.591113 	243.67 	360.634 	210.762 	539.793 	
58.6977 	-0.00414548 	-0.87954 	0.256774 	1.66289 	0.0125973 	3.13908 	90.1559 	116.563 	-0.591113 	243.166 	360.634 	210.245 	539.793 	
58.8068 	-0.00423994 	-0.882678 	0.261205 	1.66289 	0.0123652 	3.13894 	90.1559 	116.563 	-0.591113 	242.618 	360.634 	209.708 	539.793 	
58.9106 	-0.00428773 	-0.884217 	0.26344 	1.66289 	0.0122482 	3.13888 	90.1559 	116.563 	-0.591113 	242.124 	360.634 	209.158 	539.793 	
59.0137 	-0.00433587 	-0.885737 	0.265689 	1.66289 	0.0121307 	3.13881 	90.1559 	116.563 	-0.591113 	241.62 	360.634 	208.686 	539.793 	
59.1163 	-0.00438437 	-0.887238 	0.267951 	1.6629 	0.0120127 	3.13875 	90.1559 	116.563 	-0.591113 	241.073 	360.634 	208.168 	539.793 	
59.2186 	-0.00443323 	-0.888718 	0.270227 	1.6629 	0.0118941 	3.13869 	90.1559 	116.563 	-0.591113 	240.566 	360.634 	207.615 	539.793 	
59.3216 	-0.00448244 	-0.890179 	0.272515 	1.6629 	0.0117749 	3.13863 	90.1559 	116.563 	-0.591113 	240.081 	360.634 	207.125 	539.793 	
59.4249 	-0.00453199 	-0.89162 	0.274816 	1.6629 	0.0116552 	3.13857 	90.1559 	116.563 	-0.591113 	239.527 	360.634 	206.676 	539.793 	
59.5275 	-0.00458189 	-0.89304 	0.277129 	1.6629 	0.011535 	3.13851 	90.1559 	116.563 	-0.591113 	239.029 	360.634 	206.063 	539.793 	
59.6308 	-0.00463213 	-0.89444 	0.279454 	1.6629 	0.0114143 	3.13845 	90.1559 	116.563 	-0.591113 	238.52 	360.634 	205.565 	539.793 	
59.7337 	-0.00468271 	-0.89582 	0.281792 	1.6629 	0.0112931 	3.13839 	90.1559 	116.563 	-0.591113 	238.031 	360.634 	205.117 	539.793 	
59.8367 	-0.00473361 	-0.89718 	0.284142 	1.6629 	0.0111714 	3.13833 	90.1559 	116.563 	-0.591113 	237.483 	360.634 	204.523 	539.793 	
59.9394 	-0.00478485 	-0.898519 	0.286503 	1.6629 	0.0110492 	3.13828 	90.1559 	116.563 	-0.591113 	236.987 	360.634 	204.016 	539.793 	
60.0427 	-0.00483641 	-0.899837 	0.288876 	1.6629 	0.0109265 	3.13823 	90.1559 	116.563 	-0.591113 	236.484 	360.634 	203.565 	539.793 	
60.1459 	-0.00488829 	-0.901134 	0.29126 	1.6629 	0.0108034 	3.13817 	90.1559 	116.563 	-0.591113 	235.93 	360.634 	202.973 	539.793 	
60.2527 	-0.00494048 	-0.902411 	0.293656 	1.6629 	0.0106798 	3.13812 	90.1559 	116.563 	-0.591113 	235.442 	360.634 	202.453 	539.793 	
60.3558 	-0.00499299 	-0.903667 	0.296063 	1.6629 	0.0105557 	3.13807 	90.1559 	116.563 	-0.591113 	234.883 	360.634 	201.961 	539.793 	
60.4588 	-0.00504581 	-0.904901 	0.29848 	1.6629 	0.0104312 	3.13802 	90.1559 	116.563 	-0.591113 	234.392 	360.634 	201.438 	539.793 	
60.5616 	-0.00509893 	-0.906115 	0.300908 	1.6629 	0.0103063 	3.13797 	90.1559 	116.563 	-0.591113 	233.878 	360.634 	200.91 	539.793 	
60.6651 	-0.00515235 	-0.907307 	0.303347 	1.6629 	0.010181 	3.13792 	90.1559 	116.563 	-0.591113 	233.35 	360.634 	200.453 	539.793 	
60.7677 	-0.00520607 	-0.908478 	0.305796 	1.6629 	0.0100552 	3.13788 	90.1559 	116.563 	-0.591113 	232.842 	360.634 	199.9 	539.793 	
60.8703 	-0.0052655 	-0.909741 	0.308502 	1.6629 	0.00991647 	3.13783 	90.1559 	116.563 	-0.591113 	232.347 	360.634 	199.355 	539.793 	
60.9721 	-0.00531438 	-0.910755 	0.310724 	1.6629 	0.00980257 	3.13779 	90.1559 	116.563 	-0.591113 	231.839 	360.634 	198.894 	539.793 	
61.076 	-0.00536349 	-0.911752 	0.312955 	1.6629 	0.00968836 	3.13775 	90.1559 	116.563 	-0.591113 	231.293 	360.634 	198.355 	539.793 	
61.1789 	-0.00542383 	-0.912946 	0.315691 	1.6629 	0.00954837 	3.1377 	90.1559 	116.563 	-0.591113 	230.797 	360.634 	197.807 	539.793 	
61.2817 	-0.00547897 	-0.914009 	0.318189 	1.66291 	0.00942072 	3.13766 	90.1559 	116.563 	-0.591113 	230.3 	360.634 	197.337 	539.793 	
61.3851 	-0.00553438 	-0.91505 	0.320696 	1.66291 	0.00929272 	3.13762 	90.1559 	116.563 	-0.591113 	229.745 	360.634 	196.868 	539.793 	
61.4928 	-0.00559006 	-0.916069 	0.323212 	1.66291 	0.00916437 	3.13758 	90.1559 	116.563 	-0.591113 	229.239 	360.634 	196.261 	539.793 	
61.5963 	-0.00564599 	-0.917066 	0.325737 	1.66291 	0.0090357 	3.13755 	90.1559 	116.563 	-0.591113 	228.712 	360.634 	195.74 	539.793 	
61.6988 	-0.00570219 	-0.918041 	0.32827 	1.66291 	0.0089067 	3.13751 	90.1559 	116.563 	-0.591113 	228.202 	360.634 	195.275 	539.793 	
61.8023 	-0.00575865 	-0.918994 	0.330812 	1.66291 	0.00877739 	3.13747 	90.1559 	116.563 	-0.591113 	227.702 	360.634 	194.716 	539.793 	
61.9066 	-0.00581535 	-0.919925 	0.333362 	1.66291 	0.00864777 	3.13744 	90.1559 	116.563 	-0.591113 	227.145 	360.634 	194.178 	539.793 	
62.0113 	-0.0058723 	-0.920833 	0.335919 	1.66291 	0.00851787 	3.13741 	90.1559 	116.563 	-0.591113 	226.659 	360.634 	193.719 	539.793 	
62.1148 	-0.00598692 	-0.922583 	0.341059 	1.66291 	0.00825721 	3.13734 	90.1559 	116.563 	-0.591113 	226.103 	360.634 	193.17 	539.793 	
62.2176 	-0.00604458 	-0.923424 	0.34364 	1.66291 	0.00812649 	3.13732 	90.1559 	116.562 	-0.591113 	225.609 	360.634 	192.616 	539.793 	
62.3207 	-0.00610247 	-0.924242 	0.346228 	1.66291 	0.0079955 	3.13729 	90.1559 	116.562 	-0.591113 	225.102 	360.634 	192.166 	539.793 	
62.4234 	-0.00616059 	-0.925038 	0.348823 	1.66291 	0.00786428 	3.13726 	90.1559 	116.562 	-0.591113 	224.607 	360.634 	191.625 	539.793 	
62.5267 	-0.00621892 	-0.925812 	0.351425 	1.66291 	0.00773282 	3.13723 	90.1559 	116.562 	-0.591113 	224.061 	360.634 	191.062 	539.793 	
62.6296 	-0.00627747 	-0.926562 	0.354033 	1.66291 	0.00760114 	3.13721 	90.1559 	116.562 	-0.591113 	223.559 	360.634 	190.613 	539.793 	
62.7329 	-0.00633623 	-0.92729 	0.356649 	1.66291 	0.00746924 	3.13718 	90.1559 	116.562 	-0.591113 	223.058 	360.634 	190.086 	539.793 	
62.8358 	-0.00639519 	-0.927995 	0.35927 	1.66291 	0.00733715 	3.13716 	90.1559 	116.562 	-0.591113 	222.5 	360.634 	189.513 	539.793 	
62.9389 	-0.00645436 	-0.928676 	0.361897 	1.66291 	0.00720485 	3.13714 	90.1559 	116.562 	-0.591113 	222.019 	360.634 	189.058 	539.793 	
63.0417 	-0.00651372 	-0.929335 	0.36453 	1.66291 	0.00707238 	3.13712 	90.1559 	116.562 	-0.591113 	221.506 	360.634 	188.545 	539.793 	
63.1452 	-0.00657328 	-0.929971 	0.367169 	1.66291 	0.00693973 	3.1371 	90.1559 	116.562 	-0.591113 	220.964 	360.634 	188.006 	539.793 	
63.2528 	-0.00663302 	-0.930584 	0.369814 	1.66291 	0.00680692 	3.13708 	90.1559 	116.562 	-0.591113 	220.455 	360.634 	187.506 	539.793 	
63.3558 	-0.00669295 	-0.931174 	0.372463 	1.66291 	0.00667396 	3.13707 	90.1559 	116.562 	-0.591113 	219.918 	360.634 	186.953 	539.793 	
63.4589 	-0.00675306 	-0.931741 	0.375118 	1.66291 	0.00654085 	3.13705 	90.1559 	116.562 	-0.591113 	219.412 	360.634 	186.407 	539.793 	
63.5616 	-0.00681334 	-0.932284 	0.377777 	1.66291 	0.00640761 	3.13703 	90.1559 	116.562 	-0.591113 	218.921 	360.634 	185.95 	539.793 	
63.665 	-0.00687379 	-0.932804 	0.380441 	1.66291 	0.00627425 	3.13702 	90.1559 	116.562 	-0.591113 	218.36 	360.634 	185.47 	539.793 	
63.7678 	-0.00693441 	-0.933301 	0.38311 	1.66291 	0.00614077 	3.13701 	90.1559 	116.562 	-0.591113 	217.863 	360.634 	184.86 	539.793 	
63.8709 	-0.00699518 	-0.933775 	0.385783 	1.66291 	0.0060072 	3.137 	90.1559 	116.562 	-0.591113 	217.366 	360.634 	184.387 	539.793 	
63.9739 	-0.00705612 	-0.934225 	0.388459 	1.66291 	0.00587353 	3.13699 	90.1559 	116.562 	-0.591113 	216.862 	360.634 	183.918 	539.793 	
64.077 	-0.0071172 	-0.934652 	0.39114 	1.66292 	0.00573978 	3.13698 	90.1559 	116.562 	-0.591113 	216.314 	360.634 	183.309 	539.793 	
64.1799 	-0.00717843 	-0.935055 	0.393824 	1.66292 	0.00560595 	3.13697 	90.1559 	116.562 	-0.591113 	215.807 	360.634 	182.827 	539.793 	
64.283 	-0.00723981 	-0.935435 	0.396512 	1.66292 	0.00547207 	3.13697 	90.1559 	116.562 	-0.591113 	215.322 	360.634 	182.367 	539.793 	
64.386 	-0.00730132 	-0.935792 	0.399203 	1.66292 	0.00533813 	3.13696 	90.1559 	116.562 	-0.591113 	214.765 	360.634 	181.767 	539.793 	
64.4938 	-0.00736296 	-0.936125 	0.401897 	1.66292 	0.00520416 	3.13696 	90.1559 	116.562 	-0.591113 	214.27 	360.634 	181.275 	539.793 	
64.5967 	-0.00742473 	-0.936435 	0.404593 	1.66292 	0.00507015 	3.13695 	90.1559 	116.562 	-0.591113 	213.709 	360.634 	180.77 	539.793 	
64.7009 	-0.00748663 	-0.93672 	0.407293 	1.66292 	0.00493612 	3.13695 	90.1559 	116.562 	-0.591113 	213.219 	360.634 	180.224 	539.793 	
64.8067 	-0.00754864 	-0.936983 	0.409994 	1.66292 	0.00480209 	3.13695 	90.1559 	116.562 	-0.591113 	212.666 	360.634 	179.669 	539.793 	
64.9107 	-0.007673 	-0.937437 	0.415404 	1.66292 	0.00453402 	3.13695 	90.1559 	116.562 	-0.591113 	212.178 	360.634 	179.218 	539.793 	
65.0133 	-0.00773534 	-0.937628 	0.418112 	1.66292 	0.00440001 	3.13696 	90.1559 	116.562 	-0.591113 	211.666 	360.634 	178.677 	539.793 	
65.1158 	-0.00779778 	-0.937796 	0.420821 	1.66292 	0.00426603 	3.13696 	90.1559 	116.562 	-0.591113 	211.116 	360.634 	178.113 	539.793 	
65.2187 	-0.00786032 	-0.93794 	0.423531 	1.66292 	0.0041321 	3.13696 	90.1559 	116.562 	-0.591113 	210.622 	360.634 	177.661 	539.793 	
65.322 	-0.00792294 	-0.938061 	0.426243 	1.66292 	0.00399821 	3.13697 	90.1559 	116.562 	-0.591113 	210.119 	360.634 	177.14 	539.793 	
65.425 	-0.00798565 	-0.938158 	0.428956 	1.66292 	0.00386438 	3.13698 	90.1559 	116.561 	-0.591113 	209.57 	360.634 	176.607 	539.793 	
65.5278 	-0.00804844 	-0.938231 	0.431669 	1.66292 	0.00373063 	3.13699 	90.1559 	116.561 	-0.591113 	209.062 	360.634 	176.108 	539.793 	
65.6308 	-0.00811131 	-0.938281 	0.434383 	1.66292 	0.00359696 	3.137 	90.1559 	116.561 	-0.591113 	208.576 	360.634 	175.605 	539.793 	
65.7338 	-0.00817425 	-0.938306 	0.437097 	1.66292 	0.00346337 	3.13701 	90.1559 	116.561 	-0.591113 	208.071 	360.634 	175.06 	539.793 	
65.8371 	-0.00823725 	-0.938309 	0.439811 	1.66292 	0.00332989 	3.13702 	90.1559 	116.561 	-0.591113 	207.521 	360.634 	174.556 	539.793 	
65.9399 	-0.00830032 	-0.938287 	0.442526 	1.66292 	0.00319653 	3.13703 	90.1559 	116.561 	-0.591113 	207.013 	360.634 	174.062 	539.793 	
66.0429 	-0.00836344 	-0.938242 	0.44524 	1.66292 	0.00306328 	3.13705 	90.1559 	116.561 	-0.591113 	206.523 	360.634 	173.506 	539.793 	
66.1459 	-0.00842661 	-0.938173 	0.447953 	1.66292 	0.00293017 	3.13706 	90.1559 	116.561 	-0.591113 	205.97 	360.634 	173 	539.793 	
66.2529 	-0.00848983 	-0.93808 	0.450666 	1.66292 	0.0027972 	3.13708 	90.1559 	116.561 	-0.591113 	205.471 	360.634 	172.516 	539.793 	
66.3562 	-0.00855309 	-0.937964 	0.453378 	1.66292 	0.00266438 	3.1371 	90.1559 	116.561 	-0.591113 	204.911 	360.634 	171.904 	539.793 	
66.4588 	-0.00861639 	-0.937824 	0.456088 	1.66292 	0.00253172 	3.13712 	90.1559 	116.561 	-0.591113 	204.418 	360.634 	171.438 	539.793 	
66.5617 	-0.00867973 	-0.93766 	0.458798 	1.66292 	0.00239924 	3.13714 	90.1559 	116.561 	-0.591113 	203.924 	360.634 	170.969 	539.793 	
66.6647 	-0.00874309 	-0.937473 	0.461506 	1.66292 	0.00226693 	3.13716 	90.1559 	116.561 	-0.591113 	203.372 	360.634 	170.409 	539.793 	
66.768 	-0.00880647 	-0.937262 	0.464212 	1.66292 	0.00213483 	3.13718 	90.1559 	116.561 	-0.591113 	202.874 	360.634 	169.879 	539.793 	
66.8711 	-0.00886987 	-0.937028 	0.466916 	1.66292 	0.00200292 	3.13721 	90.1559 	116.561 	-0.591113 	202.363 	360.634 	169.42 	539.793 	
66.9739 	-0.00893328 	-0.936769 	0.469618 	1.66292 	0.00187123 	3.13723 	90.1559 	116.561 	-0.591113 	201.871 	360.634 	168.868 	539.793 	
67.0773 	-0.00899671 	-0.936488 	0.472318 	1.66292 	0.00173976 	3.13726 	90.1559 	116.561 	-0.591113 	201.32 	360.634 	168.32 	539.793 	
67.1801 	-0.00906013 	-0.936182 	0.475015 	1.66292 	0.00160852 	3.13728 	90.1559 	116.561 	-0.591113 	200.823 	360.634 	167.87 	539.793 	
67.283 	-0.00912356 	-0.935854 	0.477709 	1.66293 	0.00147753 	3.13731 	90.1559 	116.561 	-0.591113 	200.311 	360.634 	167.327 	539.793 	
67.3861 	-0.00918697 	-0.935501 	0.4804 	1.66293 	0.00134679 	3.13734 	90.1559 	116.561 	-0.591113 	199.774 	360.634 	166.764 	539.793 	
67.4931 	-0.00925038 	-0.935126 	0.483089 	1.66293 	0.00121631 	3.13737 	90.1559 	116.561 	-0.591113 	199.272 	360.634 	166.325 	539.793 	
67.5966 	-0.00931377 	-0.934726 	0.485774 	1.66293 	0.00108611 	3.13741 	90.1559 	116.56 	-0.591113 	198.719 	360.634 	165.732 	539.793 	
67.6991 	-0.00937714 	-0.934304 	0.488455 	1.66293 	0.000956186 	3.13744 	90.1559 	116.56 	-0.591113 	198.211 	360.634 	165.209 	539.793 	
67.8052 	-0.00944049 	-0.933858 	0.491132 	1.66293 	0.000826556 	3.13747 	90.1559 	116.56 	-0.591113 	197.664 	360.634 	164.766 	539.793 	
67.9095 	-0.00956709 	-0.932896 	0.496475 	1.66293 	0.000568214 	3.13754 	90.1559 	116.56 	-0.591113 	197.169 	360.634 	164.191 	539.793 	
68.012 	-0.00963033 	-0.93238 	0.49914 	1.66293 	0.000439523 	3.13758 	90.1559 	116.56 	-0.591113 	196.669 	360.634 	163.656 	539.793 	
68.1149 	-0.00969352 	-0.93184 	0.5018 	1.66293 	0.000311164 	3.13762 	90.1559 	116.56 	-0.591113 	196.116 	360.634 	163.212 	539.793 	
68.2175 	-0.00975667 	-0.931278 	0.504455 	1.66293 	0.000183144 	3.13766 	90.1559 	116.56 	-0.591113 	195.607 	360.634 	162.652 	539.793 	
68.3211 	-0.00981976 	-0.930692 	0.507106 	1.66293 	5.54785e-05 	3.1377 	90.1559 	116.56 	-0.591113 	195.12 	360.634 	162.1 	539.793 	
68.4239 	-0.00988279 	-0.930084 	0.509751 	1.66293 	-7.18289e-05 	3.13774 	90.1559 	116.56 	-0.591113 	194.621 	360.634 	161.656 	539.793 	
68.5269 	-0.00994576 	-0.929452 	0.51239 	1.66293 	-0.000198762 	3.13779 	90.1559 	116.56 	-0.591113 	194.069 	360.634 	161.114 	539.793 	
68.6299 	-0.0100087 	-0.928797 	0.515025 	1.66293 	-0.000325317 	3.13783 	90.1559 	116.56 	-0.591113 	193.56 	360.634 	160.554 	539.793 	
68.7331 	-0.0100715 	-0.928119 	0.517653 	1.66293 	-0.00045148 	3.13788 	90.1559 	116.56 	-0.591113 	193.065 	360.634 	160.096 	539.793 	
68.8361 	-0.0101342 	-0.927419 	0.520275 	1.66293 	-0.000577245 	3.13792 	90.1559 	116.56 	-0.591113 	192.516 	360.634 	159.573 	539.793 	
68.9391 	-0.0101969 	-0.926695 	0.522891 	1.66293 	-0.000702598 	3.13797 	90.1559 	116.56 	-0.591113 	192.016 	360.634 	159.007 	539.793 	
69.042 	-0.0102595 	-0.925949 	0.525501 	1.66293 	-0.000827533 	3.13802 	90.1559 	116.56 	-0.591113 	191.507 	360.634 	158.53 	539.793 	
69.145 	-0.010322 	-0.92518 	0.528104 	1.66293 	-0.000952041 	3.13807 	90.1559 	116.56 	-0.591113 	190.96 	360.634 	158.075 	539.793 	
69.253 	-0.0103843 	-0.924388 	0.5307 	1.66293 	-0.00107611 	3.13812 	90.1559 	116.56 	-0.591113 	190.467 	360.634 	157.462 	539.793 	
69.3561 	-0.0104466 	-0.923573 	0.53329 	1.66293 	-0.00119973 	3.13817 	90.1559 	116.56 	-0.591113 	189.915 	360.634 	156.932 	539.793 	
69.4591 	-0.0105088 	-0.922736 	0.535872 	1.66293 	-0.00132289 	3.13822 	90.1559 	116.56 	-0.591113 	189.412 	360.634 	156.478 	539.793 	
69.562 	-0.0105709 	-0.921877 	0.538446 	1.66293 	-0.00144559 	3.13828 	90.1559 	116.56 	-0.591113 	188.904 	360.634 	155.919 	539.793 	
69.6653 	-0.0106328 	-0.920995 	0.541013 	1.66294 	-0.00156782 	3.13833 	90.1559 	116.56 	-0.591113 	188.363 	360.634 	155.413 	539.793 	
69.768 	-0.0106947 	-0.92009 	0.543573 	1.66294 	-0.00168955 	3.13839 	90.1559 	116.56 	-0.591113 	187.86 	360.634 	154.93 	539.793 	
69.8712 	-0.0107564 	-0.919164 	0.546124 	1.66294 	-0.0018108 	3.13844 	90.1559 	116.56 	-0.591113 	187.363 	360.634 	154.383 	539.793 	
69.9742 	-0.0108179 	-0.918215 	0.548667 	1.66294 	-0.00193154 	3.1385 	90.1559 	116.56 	-0.591113 	186.854 	360.634 	153.858 	539.793 	
70.077 	-0.0108794 	-0.917244 	0.551202 	1.66294 	-0.00205177 	3.13856 	90.1559 	116.56 	-0.591113 	186.305 	360.634 	153.375 	539.793 	
70.1802 	-0.0109407 	-0.916251 	0.553728 	1.66294 	-0.00217147 	3.13862 	90.1559 	116.56 	-0.591113 	185.805 	360.634 	152.84 	539.793 	
70.2831 	-0.0110018 	-0.915236 	0.556245 	1.66294 	-0.00229065 	3.13868 	90.1559 	116.56 	-0.591113 	185.304 	360.634 	152.299 	539.793 	
70.3867 	-0.0110628 	-0.914198 	0.558753 	1.66294 	-0.00240928 	3.13875 	90.1559 	116.56 	-0.591113 	184.75 	360.634 	151.822 	539.793 	
70.4942 	-0.0111237 	-0.913139 	0.561253 	1.66294 	-0.00252737 	3.13881 	90.1559 	116.56 	-0.591113 	184.248 	360.634 	151.305 	539.793 	
70.5969 	-0.0111844 	-0.912059 	0.563742 	1.66294 	-0.00264489 	3.13887 	90.1559 	116.56 	-0.591113 	183.702 	360.634 	150.704 	539.793 	
70.7009 	-0.0112449 	-0.910956 	0.566223 	1.66294 	-0.00276185 	3.13894 	90.1559 	116.56 	-0.591113 	183.206 	360.634 	150.275 	539.793 	
70.8049 	-0.0113052 	-0.909832 	0.568693 	1.66294 	-0.00287824 	3.13901 	90.1559 	116.56 	-0.591113 	182.698 	360.634 	149.767 	539.793 	
70.9076 	-0.0113654 	-0.908687 	0.571154 	1.66294 	-0.00299404 	3.13907 	90.1559 	116.56 	-0.591113 	182.143 	360.634 	149.148 	539.793 	
71.0117 	-0.0114254 	-0.90752 	0.573605 	1.66294 	-0.00310925 	3.13914 	90.1559 	116.56 	-0.591113 	181.645 	360.634 	148.701 	539.793 	
71.1149 	-0.0115449 	-0.905122 	0.578475 	1.66294 	-0.00333784 	3.13928 	90.1559 	116.56 	-0.591113 	181.146 	360.634 	148.224 	539.793 	
71.2181 	-0.0116044 	-0.903891 	0.580894 	1.66295 	-0.00345122 	3.13935 	90.1559 	116.56 	-0.591113 	180.597 	360.634 	147.597 	539.793 	
71.3211 	-0.0116636 	-0.902639 	0.583303 	1.66295 	-0.00356396 	3.13943 	90.1559 	116.56 	-0.591113 	180.096 	360.634 	147.146 	539.793 	
71.424 	-0.0117227 	-0.901366 	0.5857 	1.66295 	-0.00367607 	3.1395 	90.1559 	116.56 	-0.591113 	179.592 	360.634 	146.683 	539.793 	
71.5267 	-0.0117815 	-0.900073 	0.588086 	1.66295 	-0.00378753 	3.13957 	90.1559 	116.56 	-0.591113 	179.042 	360.634 	146.054 	539.793 	
71.6299 	-0.0118402 	-0.898758 	0.590461 	1.66295 	-0.00389834 	3.13965 	90.1559 	116.56 	-0.591113 	178.546 	360.634 	145.582 	539.793 	
71.7332 	-0.0118986 	-0.897423 	0.592824 	1.66295 	-0.00400849 	3.13973 	90.1559 	116.56 	-0.591113 	178.041 	360.634 	145.134 	539.793 	
71.836 	-0.0119568 	-0.896067 	0.595176 	1.66295 	-0.00411797 	3.1398 	90.1559 	116.56 	-0.591113 	177.485 	360.634 	144.518 	539.793 	
71.939 	-0.0120148 	-0.894691 	0.597515 	1.66295 	-0.00422676 	3.13988 	90.1559 	116.56 	-0.591113 	176.989 	360.634 	144.023 	539.793 	
72.042 	-0.0120726 	-0.893294 	0.599843 	1.66295 	-0.00433487 	3.13996 	90.1559 	116.56 	-0.591113 	176.492 	360.634 	143.593 	539.793 	
72.1452 	-0.0121301 	-0.891878 	0.602158 	1.66295 	-0.00444228 	3.14004 	90.1559 	116.56 	-0.591113 	175.988 	360.634 	143.033 	539.793 	
72.2531 	-0.0121874 	-0.890441 	0.604461 	1.66295 	-0.00454899 	3.14012 	90.1559 	116.56 	-0.591113 	175.435 	360.634 	142.463 	539.793 	
72.3561 	-0.0122445 	-0.888984 	0.606751 	1.66295 	-0.00465499 	3.1402 	90.1559 	116.56 	-0.591113 	174.879 	360.634 	141.985 	539.793 	
72.4589 	-0.0123013 	-0.887507 	0.609028 	1.66295 	-0.00476027 	3.14029 	90.1559 	116.56 	-0.591113 	174.388 	360.634 	141.434 	539.793 	
72.5623 	-0.0123579 	-0.88601 	0.611293 	1.66295 	-0.00486482 	3.14037 	90.1559 	116.56 	-0.591113 	173.882 	360.634 	140.904 	539.793 	
72.6653 	-0.0124142 	-0.884493 	0.613544 	1.66296 	-0.00496863 	3.14046 	90.1559 	116.56 	-0.591113 	173.378 	360.634 	140.477 	539.793 	
72.7681 	-0.0124702 	-0.882957 	0.615782 	1.66296 	-0.0050717 	3.14054 	90.1559 	116.56 	-0.591113 	172.826 	360.634 	139.9 	539.793 	
72.8712 	-0.012526 	-0.881402 	0.618006 	1.66296 	-0.00517402 	3.14063 	90.1559 	116.56 	-0.591113 	172.329 	360.634 	139.351 	539.793 	
72.9743 	-0.0125816 	-0.879827 	0.620217 	1.66296 	-0.00527558 	3.14072 	90.1559 	116.56 	-0.591113 	171.826 	360.634 	138.921 	539.793 	
73.0774 	-0.0126368 	-0.878232 	0.622414 	1.66296 	-0.00537637 	3.1408 	90.1559 	116.56 	-0.591113 	171.274 	360.634 	138.364 	539.793 	
73.1803 	-0.0126918 	-0.876619 	0.624597 	1.66296 	-0.00547638 	3.14089 	90.1559 	116.56 	-0.591113 	170.772 	360.634 	137.812 	539.793 	
73.2829 	-0.0127465 	-0.874987 	0.626765 	1.66296 	-0.00557561 	3.14098 	90.1559 	116.56 	-0.591113 	170.277 	360.634 	137.378 	539.793 	
73.3863 	-0.012801 	-0.873336 	0.62892 	1.66296 	-0.00567405 	3.14107 	90.1559 	116.56 	-0.591113 	169.725 	360.634 	136.839 	539.793 	
73.4933 	-0.0128551 	-0.871666 	0.63106 	1.66296 	-0.0057717 	3.14117 	90.1559 	116.56 	-0.591113 	169.217 	360.634 	136.255 	539.793 	
73.5963 	-0.012909 	-0.869977 	0.633185 	1.66296 	-0.00586854 	3.14126 	90.1559 	116.56 	-0.591113 	168.664 	360.634 	135.764 	539.793 	
73.6997 	-0.0129625 	-0.86827 	0.635295 	1.66296 	-0.00596457 	3.14135 	90.1559 	116.56 	-0.591113 	168.163 	360.634 	135.3 	539.793 	
73.8047 	-0.0130158 	-0.866545 	0.637391 	1.66297 	-0.00605977 	3.14145 	90.1559 	116.56 	-0.591113 	167.666 	360.634 	134.715 	539.793 	
73.909 	-0.0131214 	-0.86304 	0.641536 	1.66297 	-0.0062477 	-3.14155 	90.1559 	116.56 	-0.591113 	167.118 	360.634 	134.199 	539.793 	
74.0119 	-0.0131737 	-0.86126 	0.643585 	1.66297 	-0.0063404 	-3.14145 	90.1559 	116.56 	-0.591113 	166.614 	360.634 	133.741 	539.793 	
74.115 	-0.0132258 	-0.859462 	0.645619 	1.66297 	-0.00643226 	-3.14135 	90.1559 	116.56 	-0.591113 	166.111 	360.634 	133.166 	539.793 	
74.2179 	-0.0132775 	-0.857647 	0.647638 	1.66297 	-0.00652326 	-3.14125 	90.1559 	116.56 	-0.591113 	165.561 	360.634 	132.625 	539.793 	
74.3211 	-0.0133288 	-0.855815 	0.64964 	1.66297 	-0.0066134 	-3.14116 	90.1559 	116.56 	-0.591113 	165.058 	360.634 	132.188 	539.793 	
74.4241 	-0.0133799 	-0.853965 	0.651626 	1.66297 	-0.00670267 	-3.14106 	90.1559 	116.56 	-0.591113 	164.552 	360.634 	131.631 	539.793 	
74.527 	-0.0134306 	-0.852097 	0.653596 	1.66297 	-0.00679106 	-3.14095 	90.1559 	116.56 	-0.591113 	164 	360.634 	131.069 	539.793 	
74.63 	-0.013481 	-0.850213 	0.65555 	1.66297 	-0.00687857 	-3.14085 	90.1559 	116.56 	-0.591113 	163.506 	360.634 	130.65 	539.793 	
74.7333 	-0.0135311 	-0.848311 	0.657487 	1.66297 	-0.00696519 	-3.14075 	90.1559 	116.56 	-0.591113 	163.004 	360.634 	130.098 	539.793 	
74.836 	-0.0135808 	-0.846393 	0.659407 	1.66298 	-0.00705092 	-3.14065 	90.1559 	116.56 	-0.591113 	162.447 	360.634 	129.515 	539.793 	
74.9391 	-0.0136302 	-0.844458 	0.661311 	1.66298 	-0.00713574 	-3.14054 	90.1559 	116.56 	-0.591113 	161.945 	360.634 	129.09 	539.793 	
75.0421 	-0.0136792 	-0.842506 	0.663197 	1.66298 	-0.00721965 	-3.14044 	90.1559 	116.56 	-0.591113 	161.439 	360.634 	128.557 	539.793 	
75.1453 	-0.0137278 	-0.840538 	0.665067 	1.66298 	-0.00730265 	-3.14033 	90.1559 	116.56 	-0.591113 	160.945 	360.634 	128.006 	539.793 	
