RISC-NYUAD/HeavyPayloadDrone/projects/kinova-ros/devel/lib/ne_kinova_demo/VulcanTrajectory/Vulcan1_Vicon_y19m11d13h19min5.csv
time (NSec) 	Kinova Tip Position (t_x) 	t_y 	t_z 	Kinova Tip Angle (theta_x) 	Kinova Tip Angle (theta_y) 	Kinova Tip Angle (theta_z) 	Kinova Joint Angle (j1) 	(j2) 	(j3) 	(j4) 	Kinova Joint Angle (j5) 	(j6) 	(j7)
1.5515 	-0.00383052 	-0.485876 	-0.243109 	1.76517 	0.0102515 	-3.10796 	90.1566 	62.3629 	-0.591113 	268.846 	360.635 	285.028 	539.159 	
1.57415 	-0.00383052 	-0.485876 	-0.243109 	1.76517 	0.0102515 	-3.10796 	90.1566 	62.363 	-0.591113 	268.846 	360.635 	285.028 	539.16 	
1.67816 	-0.00382175 	-0.486563 	-0.242012 	1.76516 	0.0102876 	-3.11214 	90.1566 	62.4368 	-0.591113 	268.947 	360.635 	285.028 	539.189 	
1.78154 	-0.00379807 	-0.488184 	-0.238822 	1.76516 	0.0103843 	-3.12084 	90.1566 	62.781 	-0.591113 	269.339 	360.635 	285.028 	539.553 	
1.88461 	-0.00377457 	-0.489777 	-0.235617 	1.76516 	0.0104813 	-3.12536 	90.1566 	63.239 	-0.591113 	269.812 	360.635 	285.028 	539.744 	
1.98755 	-0.00375123 	-0.491342 	-0.232399 	1.76516 	0.0105785 	-3.12533 	90.1566 	63.8016 	-0.591113 	270.359 	360.635 	285.028 	539.781 	
2.09059 	-0.00372808 	-0.492879 	-0.229167 	1.76515 	0.0106758 	-3.12531 	90.1566 	64.2826 	-0.591113 	270.861 	360.635 	285.028 	539.788 	
2.19366 	-0.0037051 	-0.494388 	-0.225921 	1.76515 	0.0107734 	-3.12528 	90.1566 	64.7995 	-0.591113 	271.363 	360.635 	285.028 	539.79 	
2.29677 	-0.00368229 	-0.495869 	-0.222663 	1.76515 	0.0108713 	-3.12526 	90.1566 	65.3218 	-0.591113 	271.914 	360.635 	285.028 	539.791 	
2.39966 	-0.00365968 	-0.497321 	-0.219392 	1.76514 	0.0109693 	-3.12524 	90.1566 	65.8398 	-0.591113 	272.411 	360.635 	285.028 	539.792 	
2.50264 	-0.00363724 	-0.498744 	-0.216108 	1.76514 	0.0110675 	-3.12522 	90.1566 	66.3229 	-0.591113 	272.911 	360.635 	285.028 	539.792 	
2.60555 	-0.00361498 	-0.500139 	-0.212812 	1.76513 	0.0111658 	-3.12519 	90.1566 	66.8835 	-0.591113 	273.411 	360.635 	285.028 	539.793 	
2.7085 	-0.00359291 	-0.501505 	-0.209504 	1.76513 	0.0112644 	-3.12517 	90.1566 	67.3679 	-0.591113 	273.964 	360.635 	285.028 	539.793 	
2.81177 	-0.00357103 	-0.502841 	-0.206184 	1.76513 	0.0113631 	-3.12516 	90.1566 	67.8719 	-0.591113 	274.457 	360.635 	285.028 	539.794 	
2.92048 	-0.00354934 	-0.504149 	-0.202853 	1.76512 	0.011462 	-3.12514 	90.1566 	68.4188 	-0.591113 	275.009 	360.635 	285.028 	539.794 	
3.02356 	-0.00352784 	-0.505428 	-0.19951 	1.76512 	0.011561 	-3.12512 	90.1566 	68.9135 	-0.591113 	275.509 	360.635 	285.028 	539.795 	
3.12913 	-0.00350653 	-0.506678 	-0.196157 	1.76512 	0.0116602 	-3.1251 	90.1566 	69.469 	-0.591113 	276.059 	360.635 	285.028 	539.795 	
3.23257 	-0.00348332 	-0.508018 	-0.192455 	1.76511 	0.0117695 	-3.12509 	90.1566 	69.955 	-0.591113 	276.561 	360.635 	285.028 	539.795 	
3.33618 	-0.00344378 	-0.51025 	-0.186032 	1.76511 	0.0119585 	-3.12506 	90.1566 	70.5231 	-0.591113 	277.106 	360.635 	285.028 	539.795 	
3.43942 	-0.00342326 	-0.511382 	-0.182637 	1.7651 	0.0120582 	-3.12505 	90.1566 	71.0013 	-0.591113 	277.613 	360.635 	285.028 	539.796 	
3.54237 	-0.00340293 	-0.512484 	-0.179232 	1.7651 	0.012158 	-3.12504 	90.1566 	71.5206 	-0.591113 	278.109 	360.635 	285.028 	539.796 	
3.64534 	-0.00338282 	-0.513556 	-0.175818 	1.7651 	0.0122579 	-3.12503 	90.1566 	72.0413 	-0.591113 	278.613 	360.635 	285.028 	539.796 	
3.74835 	-0.0033629 	-0.514599 	-0.172394 	1.76509 	0.0123579 	-3.12502 	90.1566 	72.5651 	-0.591113 	279.159 	360.635 	285.028 	539.796 	
3.85157 	-0.00334319 	-0.515611 	-0.168961 	1.76509 	0.012458 	-3.12501 	90.1566 	73.0404 	-0.591113 	279.66 	360.635 	285.028 	539.796 	
3.95462 	-0.00332368 	-0.516594 	-0.16552 	1.76509 	0.0125581 	-3.125 	90.1566 	73.5593 	-0.591113 	280.161 	360.635 	285.028 	539.796 	
4.05757 	-0.00330438 	-0.517547 	-0.16207 	1.76508 	0.0126583 	-3.12499 	90.1566 	74.0945 	-0.591113 	280.711 	360.635 	285.028 	539.796 	
4.1604 	-0.0032853 	-0.518469 	-0.158612 	1.76508 	0.0127586 	-3.12498 	90.1566 	74.5991 	-0.591113 	281.205 	360.635 	285.028 	539.796 	
4.26375 	-0.00326642 	-0.519361 	-0.155147 	1.76508 	0.0128589 	-3.12498 	90.1566 	75.1007 	-0.591113 	281.712 	360.635 	285.028 	539.796 	
4.36656 	-0.00324776 	-0.520223 	-0.151673 	1.76507 	0.0129593 	-3.12497 	90.1566 	75.6407 	-0.591113 	282.262 	360.635 	285.028 	539.796 	
4.4697 	-0.00322931 	-0.521055 	-0.148192 	1.76507 	0.0130597 	-3.12497 	90.1566 	76.1522 	-0.591113 	282.759 	360.635 	285.028 	539.796 	
4.5786 	-0.00321107 	-0.521856 	-0.144704 	1.76507 	0.0131602 	-3.12497 	90.1566 	76.684 	-0.591113 	283.309 	360.635 	285.028 	539.796 	
4.68156 	-0.00319305 	-0.522626 	-0.14121 	1.76506 	0.0132606 	-3.12496 	90.1566 	77.2002 	-0.591113 	283.81 	360.635 	285.028 	539.796 	
4.78461 	-0.00317525 	-0.523366 	-0.137708 	1.76506 	0.0133611 	-3.12496 	90.1566 	77.6746 	-0.591113 	284.311 	360.635 	285.028 	539.796 	
4.88753 	-0.00315767 	-0.524076 	-0.134201 	1.76506 	0.0134616 	-3.12496 	90.1566 	78.2542 	-0.591113 	284.856 	360.635 	285.028 	539.796 	
4.99074 	-0.00314031 	-0.524755 	-0.130687 	1.76505 	0.0135621 	-3.12496 	90.1566 	78.7246 	-0.591113 	285.359 	360.635 	285.028 	539.797 	
5.09365 	-0.00312317 	-0.525403 	-0.127167 	1.76505 	0.0136626 	-3.12496 	90.1566 	79.2405 	-0.591113 	285.852 	360.635 	285.028 	539.797 	
5.19665 	-0.00310625 	-0.526021 	-0.123642 	1.76505 	0.0137631 	-3.12497 	90.1566 	79.7719 	-0.591113 	286.411 	360.635 	285.028 	539.797 	
5.29959 	-0.00308956 	-0.526607 	-0.120112 	1.76504 	0.0138635 	-3.12497 	90.1566 	80.2918 	-0.591113 	286.907 	360.635 	285.028 	539.797 	
5.4025 	-0.0030731 	-0.527163 	-0.116577 	1.76504 	0.0139639 	-3.12497 	90.1566 	80.7804 	-0.591113 	287.408 	360.635 	285.028 	539.797 	
5.50551 	-0.00305686 	-0.527688 	-0.113037 	1.76504 	0.0140643 	-3.12498 	90.1566 	81.329 	-0.591113 	287.903 	360.635 	285.028 	539.797 	
5.60932 	-0.00304085 	-0.528182 	-0.109492 	1.76503 	0.0141647 	-3.12498 	90.1566 	81.8338 	-0.591113 	288.459 	360.635 	285.028 	539.797 	
5.71182 	-0.00302507 	-0.528646 	-0.105944 	1.76503 	0.014265 	-3.12499 	90.1566 	82.3285 	-0.591113 	288.958 	360.635 	285.028 	539.797 	
5.82058 	-0.00300952 	-0.529078 	-0.102391 	1.76503 	0.0143652 	-3.125 	90.1566 	82.8882 	-0.591113 	289.506 	360.635 	285.028 	539.797 	
5.92351 	-0.0029942 	-0.529479 	-0.0988352 	1.76502 	0.0144653 	-3.12501 	90.1566 	83.3664 	-0.591113 	290.007 	360.635 	285.028 	539.797 	
6.02962 	-0.00297911 	-0.529849 	-0.0952758 	1.76502 	0.0145654 	-3.12501 	90.1566 	83.9384 	-0.591113 	290.556 	360.635 	285.028 	539.797 	
6.1334 	-0.00296426 	-0.530188 	-0.0917132 	1.76502 	0.0146654 	-3.12502 	90.1566 	84.4188 	-0.591113 	291.06 	360.635 	285.028 	539.797 	
6.23654 	-0.00294964 	-0.530496 	-0.0881479 	1.76502 	0.0147653 	-3.12504 	90.1566 	84.9896 	-0.591113 	291.609 	360.635 	285.028 	539.797 	
6.33923 	-0.00292112 	-0.531018 	-0.0810098 	1.76501 	0.0149648 	-3.12506 	90.1566 	85.4623 	-0.591113 	292.109 	360.635 	285.028 	539.797 	
6.44254 	-0.00290722 	-0.531233 	-0.0774377 	1.76501 	0.0150644 	-3.12507 	90.1566 	85.9816 	-0.591113 	292.602 	360.635 	285.028 	539.797 	
6.54557 	-0.00289356 	-0.531416 	-0.0738638 	1.765 	0.0151639 	-3.12509 	90.1566 	86.5172 	-0.591113 	293.111 	360.635 	285.028 	539.797 	
6.64854 	-0.00288014 	-0.531568 	-0.0702885 	1.765 	0.0152632 	-3.1251 	90.1566 	87.0314 	-0.591113 	293.654 	360.635 	285.028 	539.797 	
6.75165 	-0.00286696 	-0.531689 	-0.0667119 	1.765 	0.0153624 	-3.12512 	90.1566 	87.5197 	-0.591113 	294.155 	360.635 	285.028 	539.797 	
6.85463 	-0.00285402 	-0.531779 	-0.0631345 	1.76499 	0.0154615 	-3.12514 	90.1566 	88.0214 	-0.591113 	294.655 	360.635 	285.028 	539.797 	
6.95772 	-0.00284132 	-0.531837 	-0.0595565 	1.76499 	0.0155604 	-3.12515 	90.1566 	88.5716 	-0.591113 	295.207 	360.635 	285.028 	539.797 	
7.06061 	-0.00282887 	-0.531864 	-0.055978 	1.76499 	0.0156591 	-3.12517 	90.1566 	89.0724 	-0.591113 	295.702 	360.635 	285.028 	539.797 	
7.16339 	-0.00281667 	-0.53186 	-0.0523995 	1.76498 	0.0157577 	-3.12519 	90.1566 	89.584 	-0.591113 	296.204 	360.635 	285.028 	539.797 	
7.26666 	-0.00280471 	-0.531825 	-0.0488212 	1.76498 	0.0158561 	-3.12521 	90.1566 	90.1146 	-0.591113 	296.756 	360.635 	285.028 	539.797 	
7.36958 	-0.002793 	-0.531759 	-0.0452432 	1.76498 	0.0159543 	-3.12523 	90.1566 	90.6337 	-0.591113 	297.252 	360.635 	285.028 	539.797 	
7.47852 	-0.00278154 	-0.531661 	-0.0416662 	1.76498 	0.0160524 	-3.12526 	90.1566 	91.1672 	-0.591113 	297.805 	360.635 	285.028 	539.797 	
7.58166 	-0.00277033 	-0.531532 	-0.0380899 	1.76497 	0.0161502 	-3.12528 	90.1566 	91.684 	-0.591113 	298.308 	360.635 	285.028 	539.797 	
7.68452 	-0.00275937 	-0.531372 	-0.034515 	1.76497 	0.0162478 	-3.1253 	90.1566 	92.1587 	-0.591113 	298.805 	360.635 	285.028 	539.797 	
7.78761 	-0.00274865 	-0.531181 	-0.0309417 	1.76497 	0.0163452 	-3.12533 	90.1566 	92.7281 	-0.591113 	299.356 	360.635 	285.028 	539.797 	
7.89073 	-0.0027382 	-0.530958 	-0.0273701 	1.76496 	0.0164424 	-3.12535 	90.1566 	93.2149 	-0.591113 	299.857 	360.635 	285.028 	539.797 	
7.99369 	-0.00272799 	-0.530705 	-0.0238007 	1.76496 	0.0165394 	-3.12538 	90.1566 	93.7318 	-0.591113 	300.351 	360.635 	285.028 	539.797 	
8.09658 	-0.00271803 	-0.53042 	-0.0202336 	1.76496 	0.0166362 	-3.12541 	90.1566 	94.273 	-0.591113 	300.908 	360.635 	285.028 	539.797 	
8.19963 	-0.00270833 	-0.530104 	-0.0166691 	1.76496 	0.0167327 	-3.12543 	90.1566 	94.7736 	-0.591113 	301.404 	360.635 	285.028 	539.797 	
8.30295 	-0.00269889 	-0.529757 	-0.0131075 	1.76495 	0.0168289 	-3.12546 	90.1566 	95.2772 	-0.591113 	301.905 	360.635 	285.028 	539.797 	
8.40586 	-0.0026897 	-0.529379 	-0.00954918 	1.76495 	0.0169249 	-3.12549 	90.1566 	95.8247 	-0.591113 	302.404 	360.635 	285.028 	539.797 	
8.50903 	-0.00268077 	-0.52897 	-0.00599424 	1.76495 	0.0170206 	-3.12552 	90.1566 	96.3337 	-0.591113 	302.957 	360.635 	285.028 	539.797 	
8.61206 	-0.00267209 	-0.52853 	-0.00244302 	1.76495 	0.0171161 	-3.12556 	90.1566 	96.8187 	-0.591113 	303.454 	360.635 	285.028 	539.797 	
8.71881 	-0.00266285 	-0.52801 	0.00145877 	1.76494 	0.0172208 	-3.12559 	90.1566 	97.3821 	-0.591113 	304.004 	360.635 	285.028 	539.797 	
8.82136 	-0.00265551 	-0.527557 	0.00464726 	1.76494 	0.0173062 	-3.12562 	90.1566 	97.8726 	-0.591113 	304.505 	360.635 	285.028 	539.797 	
8.92468 	-0.00264761 	-0.527024 	0.0081856 	1.76494 	0.0174008 	-3.12565 	90.1566 	98.3887 	-0.591113 	305.005 	360.635 	285.028 	539.797 	
9.0275 	-0.00263997 	-0.52646 	0.0117194 	1.76493 	0.0174951 	-3.12569 	90.1566 	98.917 	-0.591113 	305.554 	360.635 	285.028 	539.797 	
9.13022 	-0.00263259 	-0.525866 	0.015248 	1.76493 	0.0175891 	-3.12572 	90.1566 	99.4312 	-0.591113 	306.052 	360.635 	285.028 	539.797 	
9.23436 	-0.00262547 	-0.52524 	0.0187712 	1.76493 	0.0176828 	-3.12576 	90.1566 	99.9294 	-0.591113 	306.553 	360.635 	285.028 	539.797 	
9.33724 	-0.00261201 	-0.523898 	0.0258007 	1.76492 	0.0178692 	-3.12584 	90.1566 	100.492 	-0.591113 	307.101 	360.635 	285.028 	539.797 	
9.43957 	-0.00260567 	-0.52318 	0.0293064 	1.76492 	0.0179619 	-3.12587 	90.1566 	100.983 	-0.591113 	307.606 	360.635 	285.028 	539.797 	
9.54259 	-0.0025996 	-0.522432 	0.0328057 	1.76492 	0.0180543 	-3.12591 	90.1566 	101.483 	-0.591113 	308.102 	360.635 	285.028 	539.797 	
9.64565 	-0.00259379 	-0.521654 	0.0362982 	1.76492 	0.0181463 	-3.12596 	90.1566 	102.034 	-0.591113 	308.602 	360.635 	285.028 	539.797 	
9.74847 	-0.00258824 	-0.520845 	0.0397839 	1.76491 	0.018238 	-3.126 	90.1566 	102.539 	-0.591113 	309.155 	360.635 	285.028 	539.797 	
9.8519 	-0.00258296 	-0.520006 	0.0432623 	1.76491 	0.0183293 	-3.12604 	90.1566 	103.047 	-0.591113 	309.656 	360.635 	285.028 	539.797 	
9.95465 	-0.00257794 	-0.519136 	0.0467333 	1.76491 	0.0184202 	-3.12608 	90.1566 	103.534 	-0.591113 	310.154 	360.635 	285.028 	539.797 	
10.0577 	-0.00257318 	-0.518237 	0.0501966 	1.76491 	0.0185107 	-3.12612 	90.1566 	104.094 	-0.591113 	310.704 	360.635 	285.028 	539.797 	
10.1607 	-0.00256869 	-0.517307 	0.0536519 	1.76491 	0.0186009 	-3.12617 	90.1566 	104.59 	-0.591113 	311.205 	360.635 	285.028 	539.797 	
10.2636 	-0.00256447 	-0.516346 	0.0570988 	1.7649 	0.0186907 	-3.12621 	90.1566 	105.099 	-0.591113 	311.7 	360.635 	285.028 	539.797 	
10.3658 	-0.00256051 	-0.515356 	0.0605373 	1.7649 	0.01878 	-3.12626 	90.1566 	105.64 	-0.591113 	312.252 	360.635 	285.028 	539.797 	
10.4687 	-0.00255682 	-0.514336 	0.063967 	1.7649 	0.018869 	-3.12631 	90.1566 	106.148 	-0.591113 	312.751 	360.635 	285.028 	539.797 	
10.5719 	-0.0025534 	-0.513286 	0.0673877 	1.7649 	0.0189576 	-3.12635 	90.1566 	106.644 	-0.591113 	313.256 	360.635 	285.028 	539.797 	
10.6785 	-0.00255024 	-0.512206 	0.070799 	1.76489 	0.0190457 	-3.1264 	90.1566 	107.206 	-0.591113 	313.803 	360.635 	285.028 	539.797 	
10.7817 	-0.00254735 	-0.511097 	0.0742008 	1.76489 	0.0191334 	-3.12645 	90.1566 	107.702 	-0.591113 	314.304 	360.635 	285.028 	539.797 	
10.8847 	-0.00254472 	-0.509958 	0.0775928 	1.76489 	0.0192207 	-3.1265 	90.1566 	108.2 	-0.591113 	314.8 	360.635 	285.028 	539.797 	
10.9877 	-0.00254236 	-0.508789 	0.0809747 	1.76489 	0.0193076 	-3.12655 	90.1566 	108.757 	-0.591113 	315.349 	360.635 	285.028 	539.797 	
11.0907 	-0.00254028 	-0.507591 	0.0843463 	1.76488 	0.019394 	-3.1266 	90.1566 	109.261 	-0.591113 	315.854 	360.635 	285.028 	539.797 	
11.1937 	-0.00253845 	-0.506363 	0.0877073 	1.76488 	0.0194799 	-3.12666 	90.1566 	109.768 	-0.591113 	316.353 	360.635 	285.028 	539.797 	
11.2963 	-0.0025369 	-0.505106 	0.0910574 	1.76488 	0.0195654 	-3.12671 	90.1566 	110.31 	-0.591113 	316.901 	360.635 	285.028 	539.797 	
11.3998 	-0.00253561 	-0.50382 	0.0943963 	1.76488 	0.0196505 	-3.12676 	90.1566 	110.815 	-0.591113 	317.258 	360.635 	285.028 	539.797 	
11.5028 	-0.00253764 	-0.505256 	0.0987526 	1.75653 	0.019652 	-3.12678 	90.1566 	111.311 	-0.591113 	317.315 	360.635 	285.028 	539.797 	
11.6056 	-0.00253977 	-0.506779 	0.103169 	1.74781 	0.0196498 	-3.12679 	90.1566 	111.867 	-0.591113 	317.319 	360.635 	285.028 	539.797 	
11.7088 	-0.00254184 	-0.508264 	0.107598 	1.73908 	0.0196477 	-3.1268 	90.1566 	112.362 	-0.591113 	317.319 	360.635 	285.028 	539.797 	
11.8123 	-0.00254386 	-0.50971 	0.11204 	1.73035 	0.0196457 	-3.12681 	90.1566 	112.862 	-0.591113 	317.32 	360.635 	285.028 	539.797 	
11.9188 	-0.00254583 	-0.511117 	0.116495 	1.72162 	0.0196438 	-3.12682 	90.1566 	113.408 	-0.591113 	317.321 	360.635 	285.028 	539.797 	
12.0216 	-0.00254774 	-0.512485 	0.120961 	1.7129 	0.019642 	-3.12684 	90.1566 	113.917 	-0.591113 	317.321 	360.635 	285.028 	539.797 	
12.1248 	-0.0025496 	-0.513814 	0.12544 	1.70417 	0.0196404 	-3.12685 	90.1566 	114.415 	-0.591113 	317.322 	360.635 	285.028 	539.797 	
12.2294 	-0.00255314 	-0.516355 	0.13443 	1.68672 	0.0196373 	-3.12687 	90.1566 	114.959 	-0.591113 	317.323 	360.635 	285.028 	539.797 	
12.3325 	-0.00255483 	-0.517566 	0.138942 	1.67799 	0.019636 	-3.12688 	90.1566 	115.464 	-0.591113 	317.324 	360.635 	285.028 	539.797 	
12.3574 	-0.00255483 	-0.517566 	0.138942 	1.67799 	0.019636 	-3.12688 	90.1566 	115.608 	-0.591113 	317.324 	360.635 	285.028 	539.797 	
12.4602 	-0.00255797 	-0.520038 	0.143616 	1.66577 	0.0195901 	-3.12687 	90.1566 	116.066 	-0.591113 	317.239 	360.635 	285.028 	539.797 	
12.5637 	-0.00256284 	-0.52378 	0.148991 	1.64937 	0.0195029 	-3.12684 	90.1566 	116.508 	-0.591113 	316.858 	360.635 	285.028 	539.797 	
12.6665 	-0.00256669 	-0.526579 	0.150667 	1.64012 	0.0194162 	-3.1268 	90.1566 	116.602 	-0.591113 	316.335 	360.635 	285.028 	539.797 	
12.7699 	-0.00257075 	-0.529299 	0.152092 	1.6314 	0.0193292 	-3.12676 	90.1566 	116.604 	-0.591113 	315.836 	360.635 	285.028 	539.797 	
12.8783 	-0.00257509 	-0.532007 	0.153542 	1.62267 	0.0192419 	-3.12672 	90.1566 	116.605 	-0.591113 	315.291 	360.635 	285.028 	539.797 	
12.9815 	-0.00257973 	-0.534702 	0.155015 	1.61395 	0.0191543 	-3.12669 	90.1566 	116.605 	-0.591113 	314.797 	360.635 	285.028 	539.797 	
13.0849 	-0.00258465 	-0.537384 	0.156511 	1.60522 	0.0190663 	-3.12665 	90.1566 	116.605 	-0.591113 	314.296 	360.635 	285.028 	539.797 	
13.1876 	-0.00258987 	-0.540053 	0.158031 	1.5965 	0.018978 	-3.12661 	90.1566 	116.605 	-0.591113 	313.744 	360.635 	285.028 	539.797 	
13.2907 	-0.00259537 	-0.542708 	0.159574 	1.58777 	0.0188894 	-3.12658 	90.1566 	116.605 	-0.591113 	313.251 	360.635 	285.028 	539.797 	
13.3939 	-0.00260117 	-0.54535 	0.16114 	1.57905 	0.0188005 	-3.12654 	90.1566 	116.605 	-0.591113 	312.748 	360.635 	285.028 	539.797 	
13.4966 	-0.00260725 	-0.547978 	0.162729 	1.57032 	0.0187113 	-3.12651 	90.1566 	116.605 	-0.591113 	312.206 	360.635 	285.028 	539.797 	
13.5999 	-0.00261362 	-0.550592 	0.164341 	1.5616 	0.0186218 	-3.12647 	90.1566 	116.605 	-0.591113 	311.704 	360.635 	285.028 	539.797 	
13.703 	-0.00262028 	-0.553192 	0.165976 	1.55287 	0.018532 	-3.12644 	90.1566 	116.605 	-0.591113 	311.205 	360.635 	285.028 	539.797 	
13.8057 	-0.00262723 	-0.555778 	0.167633 	1.54415 	0.0184419 	-3.12641 	90.1566 	116.605 	-0.591113 	310.708 	360.635 	285.028 	539.797 	
13.909 	-0.00263447 	-0.558349 	0.169313 	1.53542 	0.0183516 	-3.12638 	90.1566 	116.605 	-0.591113 	310.163 	360.635 	285.028 	539.797 	
14.0121 	-0.00264199 	-0.560905 	0.171015 	1.5267 	0.0182609 	-3.12635 	90.1566 	116.605 	-0.591113 	309.661 	360.635 	285.028 	539.797 	
14.1193 	-0.00264979 	-0.563447 	0.172739 	1.51798 	0.0181701 	-3.12632 	90.1566 	116.605 	-0.591113 	309.113 	360.635 	285.028 	539.797 	
14.2215 	-0.00265788 	-0.565973 	0.174486 	1.50925 	0.0180789 	-3.12629 	90.1566 	116.605 	-0.591113 	308.614 	360.635 	285.028 	539.797 	
14.3244 	-0.00266626 	-0.568484 	0.176254 	1.50053 	0.0179876 	-3.12626 	90.1566 	116.605 	-0.591113 	308.12 	360.635 	285.028 	539.797 	
14.4278 	-0.00267492 	-0.570979 	0.178045 	1.4918 	0.0178959 	-3.12624 	90.1566 	116.605 	-0.591113 	307.571 	360.635 	285.028 	539.797 	
14.5313 	-0.00268386 	-0.573459 	0.179857 	1.48308 	0.0178041 	-3.12621 	90.1566 	116.605 	-0.591113 	307.071 	360.635 	285.028 	539.797 	
14.6344 	-0.00270259 	-0.57837 	0.183545 	1.46563 	0.0176197 	-3.12616 	90.1566 	116.605 	-0.591113 	306.576 	360.635 	285.028 	539.797 	
14.7373 	-0.00271238 	-0.580802 	0.185421 	1.4569 	0.0175272 	-3.12614 	90.1566 	116.605 	-0.591113 	306.026 	360.635 	285.028 	539.797 	
14.8396 	-0.00272245 	-0.583217 	0.187319 	1.44818 	0.0174345 	-3.12611 	90.1566 	116.605 	-0.591113 	305.533 	360.635 	285.028 	539.797 	
14.9424 	-0.00273279 	-0.585615 	0.189237 	1.43946 	0.0173416 	-3.12609 	90.1566 	116.605 	-0.591113 	305.029 	360.635 	285.028 	539.797 	
15.0463 	-0.00274342 	-0.587996 	0.191176 	1.43073 	0.0172485 	-3.12607 	90.1566 	116.605 	-0.591113 	304.532 	360.635 	285.028 	539.797 	
15.1486 	-0.00275433 	-0.590361 	0.193137 	1.42201 	0.0171552 	-3.12605 	90.1566 	116.605 	-0.591113 	303.984 	360.635 	285.028 	539.797 	
15.2516 	-0.00276551 	-0.592708 	0.195117 	1.41328 	0.0170617 	-3.12603 	90.1566 	116.605 	-0.591113 	303.488 	360.635 	285.028 	539.797 	
15.3548 	-0.00277697 	-0.595038 	0.197118 	1.40456 	0.0169681 	-3.12601 	90.1566 	116.605 	-0.591113 	302.988 	360.635 	285.028 	539.797 	
15.4575 	-0.0027887 	-0.59735 	0.199139 	1.39583 	0.0168743 	-3.12599 	90.1566 	116.605 	-0.591113 	302.441 	360.635 	285.028 	539.797 	
15.5607 	-0.00280071 	-0.599645 	0.20118 	1.38711 	0.0167804 	-3.12597 	90.1566 	116.605 	-0.591113 	301.939 	360.635 	285.028 	539.797 	
15.6637 	-0.00281299 	-0.601922 	0.203242 	1.37839 	0.0166863 	-3.12596 	90.1566 	116.605 	-0.591113 	301.447 	360.635 	285.028 	539.797 	
15.7669 	-0.00282554 	-0.60418 	0.205322 	1.36966 	0.016592 	-3.12594 	90.1566 	116.605 	-0.591113 	300.898 	360.635 	285.028 	539.797 	
15.87 	-0.00283837 	-0.606421 	0.207423 	1.36094 	0.0164977 	-3.12593 	90.1566 	116.605 	-0.591113 	300.396 	360.635 	285.028 	539.797 	
15.9786 	-0.00285146 	-0.608643 	0.209543 	1.35221 	0.0164032 	-3.12591 	90.1566 	116.605 	-0.591113 	299.853 	360.635 	285.028 	539.797 	
16.0816 	-0.00286483 	-0.610846 	0.211682 	1.34349 	0.0163085 	-3.1259 	90.1566 	116.605 	-0.591113 	299.353 	360.635 	285.028 	539.797 	
16.1845 	-0.00287847 	-0.613031 	0.213841 	1.33476 	0.0162138 	-3.12589 	90.1566 	116.605 	-0.591113 	298.855 	360.635 	285.028 	539.797 	
16.2878 	-0.00289237 	-0.615197 	0.216019 	1.32604 	0.016119 	-3.12588 	90.1566 	116.605 	-0.591113 	298.306 	360.635 	285.028 	539.797 	
16.3907 	-0.00290654 	-0.617343 	0.218215 	1.31732 	0.0160241 	-3.12586 	90.1566 	116.605 	-0.591113 	297.807 	360.635 	285.028 	539.797 	
16.4939 	-0.00292097 	-0.619471 	0.22043 	1.30859 	0.015929 	-3.12585 	90.1566 	116.605 	-0.591113 	297.31 	360.635 	285.028 	539.797 	
16.597 	-0.00293567 	-0.621579 	0.222663 	1.29987 	0.0158339 	-3.12585 	90.1566 	116.605 	-0.591113 	296.762 	360.635 	285.028 	539.797 	
16.6999 	-0.00295063 	-0.623667 	0.224915 	1.29114 	0.0157388 	-3.12584 	90.1566 	116.605 	-0.591113 	296.268 	360.635 	285.028 	539.797 	
16.8029 	-0.00296586 	-0.625736 	0.227185 	1.28242 	0.0156435 	-3.12583 	90.1566 	116.605 	-0.591113 	295.768 	360.635 	285.028 	539.797 	
16.906 	-0.00298134 	-0.627785 	0.229472 	1.2737 	0.0155482 	-3.12582 	90.1566 	116.605 	-0.591113 	295.27 	360.635 	285.028 	539.797 	
17.0087 	-0.00299709 	-0.629814 	0.231778 	1.26497 	0.0154528 	-3.12582 	90.1566 	116.605 	-0.591113 	294.718 	360.635 	285.028 	539.797 	
17.112 	-0.0030131 	-0.631822 	0.234101 	1.25625 	0.0153574 	-3.12581 	90.1566 	116.605 	-0.591113 	294.221 	360.635 	285.028 	539.797 	
17.2207 	-0.00302936 	-0.633811 	0.236442 	1.24752 	0.015262 	-3.12581 	90.1566 	116.605 	-0.591113 	293.676 	360.635 	285.028 	539.797 	
17.3234 	-0.00304588 	-0.635778 	0.2388 	1.2388 	0.0151665 	-3.12581 	90.1566 	116.605 	-0.591113 	293.175 	360.635 	285.028 	539.797 	
17.4281 	-0.00306265 	-0.637725 	0.241175 	1.23007 	0.015071 	-3.1258 	90.1566 	116.605 	-0.591113 	292.625 	360.635 	285.028 	539.797 	
17.5326 	-0.00309695 	-0.641557 	0.245975 	1.21263 	0.01488 	-3.1258 	90.1566 	116.605 	-0.591113 	292.133 	360.635 	285.028 	539.797 	
17.6362 	-0.00311448 	-0.643441 	0.2484 	1.2039 	0.0147844 	-3.1258 	90.1566 	116.605 	-0.591113 	291.582 	360.635 	285.028 	539.797 	
17.7397 	-0.00313226 	-0.645305 	0.250842 	1.19518 	0.0146889 	-3.1258 	90.1566 	116.605 	-0.591113 	291.083 	360.635 	285.028 	539.797 	
17.8425 	-0.00315029 	-0.647146 	0.2533 	1.18645 	0.0145934 	-3.1258 	90.1566 	116.605 	-0.591113 	290.585 	360.635 	285.028 	539.797 	
17.9487 	-0.00316857 	-0.648967 	0.255773 	1.17773 	0.0144979 	-3.12581 	90.1566 	116.605 	-0.591113 	290.04 	360.635 	285.028 	539.797 	
18.0509 	-0.00318709 	-0.650765 	0.258263 	1.16901 	0.0144024 	-3.12581 	90.1566 	116.605 	-0.591113 	289.541 	360.635 	285.028 	539.797 	
18.1536 	-0.00320585 	-0.652542 	0.260768 	1.16028 	0.0143069 	-3.12581 	90.1566 	116.605 	-0.591113 	289.039 	360.635 	285.028 	539.797 	
18.2566 	-0.00322486 	-0.654297 	0.263288 	1.15156 	0.0142115 	-3.12582 	90.1566 	116.605 	-0.591113 	288.49 	360.635 	285.028 	539.797 	
18.3599 	-0.00324411 	-0.65603 	0.265824 	1.14284 	0.0141162 	-3.12582 	90.1566 	116.605 	-0.591113 	287.994 	360.635 	285.028 	539.797 	
18.4629 	-0.0032636 	-0.65774 	0.268374 	1.13411 	0.0140209 	-3.12583 	90.1566 	116.605 	-0.591113 	287.499 	360.635 	285.028 	539.797 	
18.5652 	-0.00328333 	-0.659428 	0.27094 	1.12539 	0.0139257 	-3.12584 	90.1566 	116.605 	-0.591113 	287.003 	360.635 	285.028 	539.797 	
18.6688 	-0.00330329 	-0.661094 	0.27352 	1.11666 	0.0138305 	-3.12585 	90.1566 	116.605 	-0.591113 	286.449 	360.635 	285.028 	539.797 	
18.7718 	-0.00332349 	-0.662737 	0.276114 	1.10794 	0.0137354 	-3.12586 	90.1566 	116.605 	-0.591113 	285.951 	360.635 	285.028 	539.797 	
18.8786 	-0.00334392 	-0.664358 	0.278723 	1.09922 	0.0136404 	-3.12587 	90.1566 	116.605 	-0.591113 	285.406 	360.635 	285.028 	539.797 	
18.9817 	-0.00336459 	-0.665956 	0.281346 	1.09049 	0.0135455 	-3.12588 	90.1566 	116.605 	-0.591113 	284.907 	360.635 	285.028 	539.797 	
19.0847 	-0.00338549 	-0.667531 	0.283982 	1.08177 	0.0134507 	-3.12589 	90.1566 	116.605 	-0.591113 	284.411 	360.635 	285.028 	539.797 	
19.1877 	-0.00340661 	-0.669082 	0.286632 	1.07304 	0.0133559 	-3.1259 	90.1566 	116.605 	-0.591113 	283.863 	360.635 	285.028 	539.797 	
19.2908 	-0.00342796 	-0.670611 	0.289296 	1.06432 	0.0132613 	-3.12591 	90.1566 	116.605 	-0.591113 	283.363 	360.635 	285.028 	539.797 	
19.3939 	-0.00344954 	-0.672116 	0.291973 	1.0556 	0.0131669 	-3.12593 	90.1566 	116.605 	-0.591113 	282.864 	360.635 	285.028 	539.797 	
19.4967 	-0.00347135 	-0.673598 	0.294663 	1.04687 	0.0130725 	-3.12594 	90.1566 	116.605 	-0.591113 	282.318 	360.635 	285.028 	539.797 	
19.5998 	-0.00349337 	-0.675056 	0.297366 	1.03815 	0.0129783 	-3.12596 	90.1566 	116.605 	-0.591113 	281.814 	360.635 	285.028 	539.797 	
19.703 	-0.00351562 	-0.676491 	0.300081 	1.02943 	0.0128842 	-3.12598 	90.1566 	116.605 	-0.591113 	281.317 	360.635 	285.028 	539.797 	
19.8056 	-0.00353808 	-0.677902 	0.302809 	1.0207 	0.0127903 	-3.12599 	90.1566 	116.605 	-0.591113 	280.822 	360.635 	285.028 	539.797 	
19.9087 	-0.00356077 	-0.679289 	0.305549 	1.01198 	0.0126965 	-3.12601 	90.1566 	116.605 	-0.591113 	280.274 	360.635 	285.028 	539.797 	
20.0121 	-0.00358367 	-0.680652 	0.308301 	1.00325 	0.0126029 	-3.12603 	90.1566 	116.605 	-0.591113 	279.772 	360.635 	285.028 	539.797 	
20.1162 	-0.00360678 	-0.681991 	0.311065 	0.99453 	0.0125095 	-3.12605 	90.1566 	116.605 	-0.591113 	279.278 	360.635 	285.028 	539.797 	
20.2188 	-0.00363245 	-0.683436 	0.314118 	0.984934 	0.0124069 	-3.12607 	90.1566 	116.605 	-0.591113 	278.727 	360.635 	285.028 	539.797 	
20.3216 	-0.00365364 	-0.684597 	0.316627 	0.977083 	0.0123232 	-3.12609 	90.1566 	116.605 	-0.591113 	278.233 	360.635 	285.028 	539.797 	
20.4245 	-0.00367738 	-0.685863 	0.319425 	0.968359 	0.0122303 	-3.12612 	90.1566 	116.605 	-0.591113 	277.734 	360.635 	285.028 	539.797 	
20.5279 	-0.00370133 	-0.687105 	0.322234 	0.959636 	0.0121376 	-3.12614 	90.1566 	116.605 	-0.591113 	277.184 	360.635 	285.028 	539.797 	
20.6321 	-0.00372549 	-0.688322 	0.325053 	0.950912 	0.0120451 	-3.12616 	90.1566 	116.605 	-0.591113 	276.684 	360.635 	285.028 	539.797 	
20.7345 	-0.00377441 	-0.690683 	0.330724 	0.933465 	0.0118608 	-3.12621 	90.1566 	116.605 	-0.591113 	276.186 	360.635 	285.028 	539.797 	
20.8377 	-0.00379917 	-0.691826 	0.333574 	0.924741 	0.011769 	-3.12624 	90.1566 	116.605 	-0.591113 	275.642 	360.635 	285.028 	539.797 	
20.9408 	-0.00382413 	-0.692944 	0.336434 	0.916017 	0.0116774 	-3.12627 	90.1566 	116.605 	-0.591113 	275.143 	360.635 	285.028 	539.797 	
21.0435 	-0.00384928 	-0.694037 	0.339304 	0.907294 	0.011586 	-3.12629 	90.1566 	116.605 	-0.591113 	274.646 	360.635 	285.028 	539.797 	
21.1465 	-0.00387463 	-0.695105 	0.342184 	0.89857 	0.0114949 	-3.12632 	90.1566 	116.605 	-0.591113 	274.095 	360.635 	285.028 	539.797 	
21.2499 	-0.00390017 	-0.696148 	0.345072 	0.889846 	0.0114041 	-3.12635 	90.1566 	116.605 	-0.591113 	273.599 	360.635 	285.028 	539.797 	
21.3529 	-0.0039259 	-0.697165 	0.34797 	0.881122 	0.0113135 	-3.12638 	90.1566 	116.605 	-0.591113 	273.096 	360.635 	285.028 	539.797 	
21.4557 	-0.00395182 	-0.698158 	0.350876 	0.872399 	0.0112232 	-3.12641 	90.1566 	116.605 	-0.591113 	272.602 	360.635 	285.028 	539.797 	
21.5588 	-0.00397792 	-0.699125 	0.353791 	0.863675 	0.0111331 	-3.12645 	90.1566 	116.605 	-0.591113 	272.051 	360.635 	285.028 	539.797 	
21.6617 	-0.00400421 	-0.700066 	0.356714 	0.854952 	0.0110434 	-3.12648 	90.1566 	116.605 	-0.591113 	271.557 	360.635 	285.028 	539.797 	
21.7648 	-0.00403067 	-0.700982 	0.359645 	0.846228 	0.0109539 	-3.12651 	90.1566 	116.605 	-0.591113 	271.057 	360.635 	285.028 	539.797 	
21.8678 	-0.00405732 	-0.701873 	0.362585 	0.837504 	0.0108647 	-3.12655 	90.1566 	116.605 	-0.591113 	270.505 	360.635 	285.028 	539.797 	
21.971 	-0.00408415 	-0.702737 	0.365532 	0.828781 	0.0107759 	-3.12658 	90.1566 	116.605 	-0.591113 	270.01 	360.635 	285.028 	539.797 	
22.0788 	-0.00411115 	-0.703576 	0.368486 	0.820057 	0.0106873 	-3.12662 	90.1566 	116.605 	-0.591113 	269.464 	360.635 	285.028 	539.797 	
22.1815 	-0.00413833 	-0.704389 	0.371447 	0.811333 	0.0105991 	-3.12665 	90.1566 	116.605 	-0.591113 	268.962 	360.635 	285.028 	539.797 	
22.2847 	-0.00416568 	-0.705176 	0.374416 	0.80261 	0.0105111 	-3.12669 	90.1566 	116.605 	-0.591113 	268.463 	360.635 	285.028 	539.797 	
22.3877 	-0.0041932 	-0.705938 	0.377391 	0.793887 	0.0104235 	-3.12673 	90.1566 	116.605 	-0.591113 	267.915 	360.635 	285.028 	539.797 	
22.4908 	-0.00422089 	-0.706673 	0.380373 	0.785163 	0.0103363 	-3.12677 	90.1566 	116.605 	-0.591113 	267.415 	360.635 	285.028 	539.797 	
22.5939 	-0.00424874 	-0.707382 	0.383361 	0.776439 	0.0102494 	-3.12681 	90.1566 	116.604 	-0.591113 	266.919 	360.635 	285.028 	539.797 	
22.697 	-0.00427675 	-0.708066 	0.386355 	0.767716 	0.0101628 	-3.12685 	90.1566 	116.604 	-0.591113 	266.37 	360.635 	285.028 	539.797 	
22.7997 	-0.00430493 	-0.708722 	0.389355 	0.758992 	0.0100766 	-3.12689 	90.1566 	116.604 	-0.591113 	265.873 	360.635 	285.028 	539.797 	
22.9029 	-0.00433326 	-0.709353 	0.39236 	0.750269 	0.00999074 	-3.12693 	90.1566 	116.604 	-0.591113 	265.368 	360.635 	285.028 	539.797 	
23.006 	-0.00436175 	-0.709958 	0.395371 	0.741545 	0.00990526 	-3.12697 	90.1566 	116.604 	-0.591113 	264.875 	360.635 	285.028 	539.797 	
23.1091 	-0.0043904 	-0.710536 	0.398387 	0.732821 	0.00982016 	-3.12702 	90.1566 	116.604 	-0.591113 	264.326 	360.635 	285.028 	539.797 	
23.2121 	-0.0044192 	-0.711088 	0.401408 	0.724098 	0.00973544 	-3.12706 	90.1566 	116.604 	-0.591113 	263.829 	360.635 	285.028 	539.797 	
23.3188 	-0.00444815 	-0.711614 	0.404434 	0.715374 	0.0096511 	-3.12711 	90.1566 	116.604 	-0.591113 	263.279 	360.635 	285.028 	539.797 	
23.422 	-0.00447725 	-0.712113 	0.407464 	0.70665 	0.00956716 	-3.12715 	90.1566 	116.604 	-0.591113 	262.782 	360.635 	285.028 	539.797 	
23.5244 	-0.00450649 	-0.712586 	0.410499 	0.697927 	0.00948363 	-3.1272 	90.1566 	116.604 	-0.591113 	262.283 	360.635 	285.028 	539.797 	
23.6286 	-0.00453588 	-0.713032 	0.413537 	0.689204 	0.0094005 	-3.12725 	90.1566 	116.604 	-0.591113 	261.73 	360.635 	285.028 	539.797 	
23.7329 	-0.00456541 	-0.713451 	0.416579 	0.68048 	0.00931778 	-3.12729 	90.1566 	116.604 	-0.591113 	261.24 	360.635 	285.028 	539.797 	
23.8388 	-0.00459508 	-0.713845 	0.419625 	0.671756 	0.00923548 	-3.12734 	90.1566 	116.604 	-0.591113 	260.683 	360.635 	285.028 	539.797 	
23.9419 	-0.00465483 	-0.714551 	0.425726 	0.65431 	0.00907218 	-3.12744 	90.1566 	116.604 	-0.591113 	260.19 	360.635 	285.028 	539.797 	
24.0446 	-0.0046849 	-0.714864 	0.428781 	0.645586 	0.00899118 	-3.12749 	90.1566 	116.604 	-0.591113 	259.691 	360.635 	285.028 	539.797 	
24.1477 	-0.0047151 	-0.715151 	0.431839 	0.636862 	0.00891062 	-3.12754 	90.1566 	116.604 	-0.591113 	259.142 	360.635 	285.028 	539.797 	
24.2509 	-0.00474543 	-0.715411 	0.434899 	0.628139 	0.00883052 	-3.1276 	90.1566 	116.604 	-0.591113 	258.641 	360.635 	285.028 	539.797 	
24.3539 	-0.00477589 	-0.715644 	0.437961 	0.619415 	0.00875088 	-3.12765 	90.1566 	116.604 	-0.591113 	258.147 	360.635 	285.028 	539.797 	
24.4567 	-0.00480647 	-0.715851 	0.441025 	0.610692 	0.00867169 	-3.1277 	90.1566 	116.604 	-0.591113 	257.6 	360.635 	285.028 	539.797 	
24.5598 	-0.00483717 	-0.71603 	0.444091 	0.601968 	0.00859298 	-3.12776 	90.1566 	116.604 	-0.591113 	257.099 	360.635 	285.028 	539.797 	
24.6628 	-0.00486799 	-0.716183 	0.447158 	0.593245 	0.00851475 	-3.12781 	90.1566 	116.604 	-0.591113 	256.597 	360.635 	285.028 	539.797 	
24.7656 	-0.00489893 	-0.71631 	0.450227 	0.58452 	0.00843698 	-3.12787 	90.1566 	116.604 	-0.591113 	256.095 	360.635 	285.028 	539.797 	
24.8688 	-0.00492999 	-0.716409 	0.453298 	0.575793 	0.00835968 	-3.12792 	90.1566 	116.604 	-0.591113 	255.557 	360.635 	285.028 	539.797 	
24.972 	-0.00496116 	-0.716482 	0.456369 	0.567067 	0.00828289 	-3.12798 	90.1566 	116.604 	-0.591113 	255.053 	360.635 	285.028 	539.797 	
25.0789 	-0.00499244 	-0.716528 	0.45944 	0.558341 	0.00820658 	-3.12804 	90.1566 	116.604 	-0.591113 	254.506 	360.635 	285.028 	539.797 	
25.1817 	-0.00502383 	-0.716547 	0.462512 	0.549615 	0.00813079 	-3.1281 	90.1566 	116.604 	-0.591113 	254 	360.635 	285.028 	539.797 	
25.2849 	-0.00505532 	-0.716539 	0.465584 	0.540889 	0.00805551 	-3.12815 	90.1566 	116.604 	-0.591113 	253.509 	360.635 	285.028 	539.797 	
25.3877 	-0.00508691 	-0.716504 	0.468656 	0.532163 	0.00798074 	-3.12821 	90.1566 	116.604 	-0.591113 	252.958 	360.635 	285.028 	539.797 	
25.4908 	-0.00511861 	-0.716443 	0.471727 	0.523436 	0.0079065 	-3.12827 	90.1566 	116.604 	-0.591113 	252.459 	360.635 	285.028 	539.797 	
25.594 	-0.0051504 	-0.716355 	0.474798 	0.51471 	0.00783278 	-3.12833 	90.1566 	116.604 	-0.591113 	251.954 	360.635 	285.028 	539.797 	
25.6968 	-0.00518228 	-0.71624 	0.477868 	0.505984 	0.00775959 	-3.1284 	90.1566 	116.604 	-0.591113 	251.41 	360.635 	285.028 	539.797 	
25.7998 	-0.00521426 	-0.716098 	0.480936 	0.497258 	0.00768695 	-3.12846 	90.1566 	116.604 	-0.591113 	250.91 	360.635 	285.028 	539.797 	
25.9031 	-0.00524633 	-0.715929 	0.484004 	0.488532 	0.00761485 	-3.12852 	90.1565 	116.604 	-0.591113 	250.417 	360.635 	285.028 	539.797 	
26.006 	-0.00527848 	-0.715734 	0.48707 	0.479805 	0.0075433 	-3.12858 	90.1566 	116.604 	-0.591113 	249.913 	360.635 	285.028 	539.797 	
26.109 	-0.00531072 	-0.715512 	0.490134 	0.471079 	0.00747231 	-3.12865 	90.1566 	116.604 	-0.591113 	249.36 	360.635 	285.028 	539.797 	
26.2122 	-0.00534305 	-0.715263 	0.493195 	0.462353 	0.00740187 	-3.12871 	90.1565 	116.604 	-0.591113 	248.869 	360.635 	285.028 	539.797 	
26.3151 	-0.00537545 	-0.714988 	0.496255 	0.453627 	0.00733201 	-3.12878 	90.1566 	116.604 	-0.591113 	248.366 	360.635 	285.028 	539.797 	
26.4189 	-0.00540793 	-0.714686 	0.499312 	0.444901 	0.00726271 	-3.12884 	90.1566 	116.604 	-0.591113 	247.817 	360.635 	285.028 	539.797 	
26.5219 	-0.00544048 	-0.714357 	0.502366 	0.436174 	0.00719399 	-3.12891 	90.1566 	116.604 	-0.591113 	247.312 	360.635 	285.028 	539.797 	
26.6264 	-0.00547311 	-0.714001 	0.505418 	0.427448 	0.00712585 	-3.12898 	90.1566 	116.604 	-0.591113 	246.824 	360.635 	285.028 	539.797 	
26.7315 	-0.00550581 	-0.713619 	0.508466 	0.418722 	0.0070583 	-3.12905 	90.1566 	116.604 	-0.591113 	246.268 	360.635 	285.028 	539.797 	
26.8357 	-0.00557141 	-0.712775 	0.514551 	0.401269 	0.00692499 	-3.12918 	90.1566 	116.604 	-0.591113 	245.771 	360.635 	285.028 	539.797 	
26.9388 	-0.0056043 	-0.712313 	0.517588 	0.392544 	0.00685923 	-3.12925 	90.1566 	116.604 	-0.591113 	245.217 	360.635 	285.028 	539.797 	
27.0417 	-0.00563726 	-0.711825 	0.520621 	0.383817 	0.00679408 	-3.12932 	90.1566 	116.604 	-0.591113 	244.724 	360.635 	285.028 	539.797 	
27.1448 	-0.00567027 	-0.71131 	0.52365 	0.375091 	0.00672955 	-3.12939 	90.1566 	116.604 	-0.591113 	244.224 	360.635 	285.028 	539.797 	
27.2477 	-0.00570334 	-0.710769 	0.526673 	0.366365 	0.00666563 	-3.12946 	90.1566 	116.604 	-0.591113 	243.682 	360.635 	285.028 	539.797 	
27.3507 	-0.00573646 	-0.710202 	0.529693 	0.357639 	0.00660233 	-3.12953 	90.1566 	116.604 	-0.591113 	243.173 	360.635 	285.028 	539.797 	
27.4537 	-0.00576963 	-0.709608 	0.532707 	0.348913 	0.00653966 	-3.12961 	90.1566 	116.604 	-0.591113 	242.669 	360.635 	285.028 	539.797 	
27.5567 	-0.00580285 	-0.708988 	0.535715 	0.340187 	0.00647762 	-3.12968 	90.1566 	116.604 	-0.591113 	242.125 	360.635 	285.028 	539.797 	
27.6595 	-0.00583611 	-0.708341 	0.538718 	0.33146 	0.00641622 	-3.12975 	90.1565 	116.604 	-0.591113 	241.625 	360.635 	285.028 	539.797 	
27.7632 	-0.00586941 	-0.707669 	0.541716 	0.322734 	0.00635546 	-3.12983 	90.1566 	116.604 	-0.591113 	241.132 	360.635 	285.028 	539.797 	
27.866 	-0.00590276 	-0.70697 	0.544707 	0.314008 	0.00629535 	-3.1299 	90.1566 	116.604 	-0.591113 	240.62 	360.635 	285.028 	539.797 	
27.9688 	-0.00593614 	-0.706246 	0.547693 	0.305282 	0.00623589 	-3.12998 	90.1566 	116.604 	-0.591113 	240.083 	360.635 	285.028 	539.797 	
28.0718 	-0.00596956 	-0.705495 	0.550671 	0.296556 	0.00617708 	-3.13005 	90.1566 	116.604 	-0.591113 	239.577 	360.635 	285.028 	539.797 	
28.1779 	-0.00600301 	-0.704718 	0.553643 	0.28783 	0.00611893 	-3.13013 	90.1566 	116.604 	-0.591113 	239.034 	360.635 	285.028 	539.797 	
28.2808 	-0.00603649 	-0.703915 	0.556609 	0.279103 	0.00606144 	-3.1302 	90.1566 	116.604 	-0.591113 	238.524 	360.635 	285.029 	539.797 	
28.3839 	-0.00607 	-0.703087 	0.559567 	0.270377 	0.00600463 	-3.13028 	90.1566 	116.604 	-0.591113 	238.032 	360.635 	285.029 	539.797 	
28.4867 	-0.00610353 	-0.702232 	0.562518 	0.261651 	0.00594849 	-3.13036 	90.1565 	116.604 	-0.591113 	237.483 	360.635 	285.029 	539.797 	
28.5899 	-0.00613709 	-0.701352 	0.565461 	0.252925 	0.00589302 	-3.13043 	90.1566 	116.604 	-0.591113 	236.986 	360.635 	285.029 	539.797 	
28.6928 	-0.00617066 	-0.700447 	0.568396 	0.244199 	0.00583824 	-3.13051 	90.1566 	116.604 	-0.591113 	236.483 	360.635 	285.029 	539.797 	
28.7961 	-0.00620425 	-0.699516 	0.571324 	0.235472 	0.00578413 	-3.13059 	90.1566 	116.604 	-0.591113 	235.977 	360.635 	285.029 	539.797 	
28.8989 	-0.00623786 	-0.698559 	0.574243 	0.226746 	0.00573073 	-3.13067 	90.1566 	116.604 	-0.591113 	235.444 	360.635 	285.029 	539.797 	
29.0021 	-0.00627148 	-0.697577 	0.577153 	0.21802 	0.00567801 	-3.13075 	90.1565 	116.604 	-0.591113 	234.936 	360.635 	285.029 	539.797 	
29.1049 	-0.00630511 	-0.696569 	0.580055 	0.209294 	0.00562599 	-3.13083 	90.1566 	116.604 	-0.591113 	234.436 	360.635 	285.029 	539.797 	
29.208 	-0.00633874 	-0.695536 	0.582949 	0.200567 	0.00557467 	-3.13091 	90.1566 	116.604 	-0.591113 	233.876 	360.635 	285.029 	539.797 	
29.3111 	-0.00637238 	-0.694478 	0.585832 	0.191841 	0.00552406 	-3.13099 	90.1566 	116.604 	-0.591113 	233.389 	360.635 	285.029 	539.797 	
29.4204 	-0.00640602 	-0.693395 	0.588707 	0.183115 	0.00547416 	-3.13107 	90.1566 	116.604 	-0.591113 	232.835 	360.635 	285.029 	539.797 	
29.5228 	-0.00643966 	-0.692287 	0.591572 	0.174389 	0.00542497 	-3.13116 	90.1566 	116.604 	-0.591113 	232.339 	360.635 	285.029 	539.797 	
29.6258 	-0.0064733 	-0.691154 	0.594427 	0.165663 	0.00537649 	-3.13124 	90.1566 	116.604 	-0.591113 	231.832 	360.635 	285.029 	539.797 	
29.732 	-0.00650693 	-0.689995 	0.597273 	0.156936 	0.00532874 	-3.13132 	90.1566 	116.604 	-0.591113 	231.285 	360.635 	285.029 	539.797 	
29.8367 	-0.00657416 	-0.687605 	0.602932 	0.139484 	0.00523541 	-3.13149 	90.1566 	116.604 	-0.591113 	230.741 	360.635 	285.029 	539.797 	
29.9397 	-0.00660776 	-0.686373 	0.605746 	0.130758 	0.00518984 	-3.13157 	90.1566 	116.604 	-0.591113 	230.242 	360.635 	285.029 	539.797 	
30.0428 	-0.00664134 	-0.685116 	0.60855 	0.122031 	0.00514501 	-3.13166 	90.1566 	116.604 	-0.591113 	229.738 	360.635 	285.029 	539.797 	
30.1459 	-0.0066749 	-0.683835 	0.611342 	0.113305 	0.00510091 	-3.13174 	90.1566 	116.604 	-0.591113 	229.234 	360.635 	285.029 	539.797 	
30.2487 	-0.00670844 	-0.68253 	0.614122 	0.104579 	0.00505756 	-3.13183 	90.1566 	116.604 	-0.591113 	228.698 	360.635 	285.029 	539.797 	
30.3516 	-0.00674196 	-0.6812 	0.616892 	0.095853 	0.00501495 	-3.13191 	90.1566 	116.603 	-0.591113 	228.189 	360.635 	285.029 	539.797 	
30.4549 	-0.00677545 	-0.679846 	0.619649 	0.0871266 	0.00497308 	-3.132 	90.1566 	116.603 	-0.591113 	227.691 	360.635 	285.029 	539.797 	
30.558 	-0.00680891 	-0.678468 	0.622395 	0.0784005 	0.00493197 	-3.13208 	90.1566 	116.603 	-0.591113 	227.133 	360.635 	285.03 	539.798 	
30.6608 	-0.00684234 	-0.677067 	0.625128 	0.0696741 	0.00489162 	-3.13217 	90.1566 	116.603 	-0.591113 	226.643 	360.635 	285.03 	539.798 	
30.7637 	-0.00687574 	-0.675641 	0.627849 	0.060948 	0.00485202 	-3.13226 	90.1566 	116.603 	-0.591113 	226.137 	360.635 	285.03 	539.798 	
30.867 	-0.0069091 	-0.674192 	0.630558 	0.0522216 	0.00481318 	-3.13235 	90.1566 	116.603 	-0.591113 	225.589 	360.635 	285.03 	539.798 	
30.9699 	-0.00694242 	-0.672719 	0.633254 	0.0434955 	0.0047751 	-3.13243 	90.1566 	116.603 	-0.591113 	225.088 	360.635 	285.03 	539.798 	
31.0785 	-0.0069757 	-0.671223 	0.635937 	0.0347691 	0.00473779 	-3.13252 	90.1566 	116.603 	-0.591113 	224.54 	360.635 	285.03 	539.798 	
31.182 	-0.00700893 	-0.669703 	0.638607 	0.026043 	0.00470126 	-3.13261 	90.1566 	116.603 	-0.591113 	224.04 	360.635 	285.03 	539.798 	
31.2848 	-0.00704212 	-0.668161 	0.641263 	0.0173168 	0.00466549 	-3.1327 	90.1566 	116.603 	-0.591113 	223.544 	360.635 	285.03 	539.798 	
31.3878 	-0.00707526 	-0.666595 	0.643906 	0.00859044 	0.00463049 	-3.13279 	90.1566 	116.603 	-0.591113 	222.986 	360.635 	285.03 	539.798 	
31.4908 	-0.00710834 	-0.665006 	0.646535 	-0.000135645 	0.00459628 	-3.13288 	90.1566 	116.603 	-0.591113 	222.484 	360.635 	285.03 	539.798 	
31.5939 	-0.00714138 	-0.663394 	0.64915 	-0.00886203 	0.00456284 	-3.13297 	90.1566 	116.603 	-0.591113 	221.998 	360.635 	285.03 	539.798 	
31.6969 	-0.00717435 	-0.661759 	0.651751 	-0.0175883 	0.00453019 	-3.13306 	90.1566 	116.603 	-0.591113 	221.44 	360.635 	285.03 	539.798 	
31.8001 	-0.00720727 	-0.660102 	0.654338 	-0.0263145 	0.00449832 	-3.13315 	90.1566 	116.603 	-0.591113 	220.942 	360.635 	285.03 	539.798 	
31.9031 	-0.00724012 	-0.658422 	0.656909 	-0.0350407 	0.00446724 	-3.13324 	90.1566 	116.603 	-0.591113 	220.433 	360.635 	285.03 	539.798 	
32.0061 	-0.00727292 	-0.65672 	0.659467 	-0.0437671 	0.00443695 	-3.13333 	90.1566 	116.603 	-0.591113 	219.941 	360.635 	285.031 	539.798 	
32.1091 	-0.00730564 	-0.654996 	0.662009 	-0.0524932 	0.00440745 	-3.13342 	90.1566 	116.603 	-0.591113 	219.387 	360.635 	285.031 	539.798 	
32.2123 	-0.00733829 	-0.653249 	0.664536 	-0.0612194 	0.00437874 	-3.13351 	90.1566 	116.603 	-0.591113 	218.892 	360.635 	285.031 	539.798 	
32.3189 	-0.00737087 	-0.65148 	0.667048 	-0.0699458 	0.00435083 	-3.1336 	90.1566 	116.603 	-0.591113 	218.334 	360.635 	285.031 	539.798 	
32.4219 	-0.00740338 	-0.64969 	0.669544 	-0.0786719 	0.00432372 	-3.13369 	90.1566 	116.603 	-0.591113 	217.836 	360.635 	285.031 	539.798 	
32.5247 	-0.00743581 	-0.647878 	0.672025 	-0.0873983 	0.00429742 	-3.13378 	90.1566 	116.603 	-0.591113 	217.341 	360.635 	285.031 	539.798 	
32.6306 	-0.00746816 	-0.646044 	0.674489 	-0.0961245 	0.00427191 	-3.13388 	90.1566 	116.603 	-0.591113 	216.793 	360.635 	285.031 	539.798 	
32.7349 	-0.00753262 	-0.642313 	0.67937 	-0.113577 	0.00422331 	-3.13406 	90.1566 	116.603 	-0.591113 	216.285 	360.635 	285.031 	539.798 	
32.8375 	-0.00756472 	-0.640415 	0.681786 	-0.122303 	0.00420023 	-3.13415 	90.1566 	116.603 	-0.591113 	215.736 	360.635 	285.031 	539.798 	
32.9408 	-0.00759673 	-0.638497 	0.684185 	-0.13103 	0.00417795 	-3.13425 	90.1566 	116.603 	-0.591113 	215.242 	360.635 	285.031 	539.798 	
33.0438 	-0.00762865 	-0.636557 	0.686568 	-0.139756 	0.00415648 	-3.13434 	90.1566 	116.603 	-0.591113 	214.734 	360.635 	285.031 	539.798 	
33.1466 	-0.00766047 	-0.634597 	0.688933 	-0.148482 	0.00413583 	-3.13443 	90.1566 	116.603 	-0.591113 	214.187 	360.635 	285.032 	539.798 	
33.2499 	-0.0076922 	-0.632616 	0.691281 	-0.157208 	0.004116 	-3.13453 	90.1566 	116.603 	-0.591113 	213.679 	360.635 	285.032 	539.798 	
33.3529 	-0.00772383 	-0.630615 	0.693612 	-0.165935 	0.00409698 	-3.13462 	90.1566 	116.603 	-0.591113 	213.188 	360.635 	285.032 	539.798 	
33.4558 	-0.00775536 	-0.628594 	0.695925 	-0.174661 	0.00407877 	-3.13471 	90.1566 	116.603 	-0.591113 	212.685 	360.635 	285.032 	539.798 	
33.5588 	-0.00778679 	-0.626552 	0.69822 	-0.183387 	0.00406139 	-3.13481 	90.1566 	116.603 	-0.591113 	212.138 	360.635 	285.032 	539.798 	
33.6619 	-0.0078181 	-0.62449 	0.700498 	-0.192114 	0.00404483 	-3.1349 	90.1566 	116.603 	-0.591113 	211.63 	360.635 	285.032 	539.798 	
33.7648 	-0.00784932 	-0.622409 	0.702757 	-0.20084 	0.00402909 	-3.135 	90.1566 	116.603 	-0.591113 	211.133 	360.635 	285.032 	539.798 	
33.868 	-0.00788041 	-0.620308 	0.704998 	-0.209566 	0.00401417 	-3.13509 	90.1566 	116.603 	-0.591113 	210.586 	360.635 	285.032 	539.798 	
33.971 	-0.0079114 	-0.618188 	0.707221 	-0.218292 	0.00400008 	-3.13518 	90.1566 	116.603 	-0.591113 	210.082 	360.635 	285.032 	539.798 	
34.0777 	-0.00794227 	-0.616048 	0.709425 	-0.227019 	0.00398681 	-3.13528 	90.1566 	116.603 	-0.591113 	209.53 	360.635 	285.032 	539.798 	
34.1808 	-0.00797303 	-0.613889 	0.711611 	-0.235745 	0.00397437 	-3.13537 	90.1566 	116.603 	-0.591113 	209.03 	360.635 	285.032 	539.798 	
34.2838 	-0.00800366 	-0.611711 	0.713777 	-0.244471 	0.00396275 	-3.13547 	90.1566 	116.603 	-0.591113 	208.537 	360.635 	285.032 	539.798 	
34.3868 	-0.00803417 	-0.609515 	0.715925 	-0.253197 	0.00395197 	-3.13556 	90.1566 	116.603 	-0.591113 	208.029 	360.635 	285.033 	539.798 	
34.4902 	-0.00806456 	-0.607299 	0.718053 	-0.261924 	0.00394201 	-3.13566 	90.1566 	116.603 	-0.591113 	207.478 	360.635 	285.033 	539.798 	
34.5929 	-0.00809482 	-0.605065 	0.720162 	-0.27065 	0.00393289 	-3.13575 	90.1566 	116.603 	-0.591113 	206.976 	360.635 	285.033 	539.798 	
34.6961 	-0.00812494 	-0.602813 	0.722251 	-0.279376 	0.00392459 	-3.13585 	90.1566 	116.603 	-0.591113 	206.483 	360.635 	285.033 	539.798 	
34.799 	-0.00815494 	-0.600543 	0.72432 	-0.288103 	0.00391712 	-3.13594 	90.1566 	116.603 	-0.591113 	205.928 	360.635 	285.033 	539.798 	
34.9019 	-0.00818481 	-0.598255 	0.72637 	-0.296829 	0.00391049 	-3.13604 	90.1566 	116.603 	-0.591113 	205.429 	360.635 	285.033 	539.798 	
35.0052 	-0.00821453 	-0.595949 	0.7284 	-0.305555 	0.00390469 	-3.13614 	90.1566 	116.603 	-0.591113 	204.92 	360.635 	285.033 	539.798 	
35.108 	-0.00824412 	-0.593625 	0.730409 	-0.314281 	0.00389972 	-3.13623 	90.1566 	116.603 	-0.591113 	204.376 	360.635 	285.033 	539.798 	
35.2112 	-0.00827357 	-0.591284 	0.732398 	-0.323008 	0.00389558 	-3.13633 	90.1566 	116.603 	-0.591113 	203.874 	360.635 	285.033 	539.798 	
35.3191 	-0.00830287 	-0.588925 	0.734366 	-0.331734 	0.00389228 	-3.13642 	90.1566 	116.603 	-0.591113 	203.327 	360.635 	285.033 	539.798 	
35.4219 	-0.00833204 	-0.58655 	0.736314 	-0.34046 	0.00388981 	-3.13652 	90.1566 	116.603 	-0.591113 	202.823 	360.635 	285.033 	539.798 	
35.5247 	-0.00836105 	-0.584157 	0.738241 	-0.349187 	0.00388817 	-3.13661 	90.1566 	116.603 	-0.591113 	202.319 	360.635 	285.033 	539.798 	
35.6278 	-0.00838991 	-0.581748 	0.740147 	-0.357913 	0.00388737 	-3.13671 	90.1566 	116.603 	-0.591113 	201.778 	360.635 	285.033 	539.798 	
35.7306 	-0.00841862 	-0.579322 	0.742032 	-0.366639 	0.0038874 	-3.1368 	90.1566 	116.603 	-0.591113 	201.271 	360.635 	285.033 	539.798 	
35.8335 	-0.00847558 	-0.574422 	0.745738 	-0.384092 	0.00388997 	-3.13699 	90.1566 	116.603 	-0.591113 	200.774 	360.635 	285.033 	539.798 	
35.9374 	-0.00850382 	-0.571948 	0.747559 	-0.392818 	0.00389251 	-3.13709 	90.1566 	116.603 	-0.591113 	200.218 	360.635 	285.033 	539.798 	
36.0397 	-0.0085319 	-0.569458 	0.749358 	-0.401544 	0.00389587 	-3.13719 	90.1566 	116.603 	-0.591113 	199.722 	360.635 	285.033 	539.798 	
36.1428 	-0.00855982 	-0.566952 	0.751135 	-0.410271 	0.00390007 	-3.13728 	90.1566 	116.603 	-0.591113 	199.223 	360.635 	285.033 	539.798 	
36.2457 	-0.00858757 	-0.564431 	0.752891 	-0.418997 	0.00390511 	-3.13738 	90.1566 	116.603 	-0.591113 	198.721 	360.635 	285.033 	539.798 	
36.3488 	-0.00861516 	-0.561895 	0.754624 	-0.427723 	0.00391097 	-3.13747 	90.1566 	116.603 	-0.591113 	198.163 	360.635 	285.033 	539.798 	
36.452 	-0.00864257 	-0.559343 	0.756335 	-0.436449 	0.00391767 	-3.13757 	90.1566 	116.603 	-0.591113 	197.663 	360.635 	285.033 	539.798 	
36.555 	-0.00866982 	-0.556777 	0.758024 	-0.445176 	0.0039252 	-3.13766 	90.1566 	116.603 	-0.591113 	197.166 	360.635 	285.033 	539.798 	
36.658 	-0.00869689 	-0.554197 	0.75969 	-0.453902 	0.00393356 	-3.13776 	90.1566 	116.603 	-0.591113 	196.617 	360.635 	285.033 	539.798 	
36.761 	-0.00872379 	-0.551601 	0.761334 	-0.462628 	0.00394275 	-3.13785 	90.1566 	116.603 	-0.591113 	196.114 	360.635 	285.033 	539.798 	
36.864 	-0.00875051 	-0.548992 	0.762955 	-0.471354 	0.00395277 	-3.13795 	90.1566 	116.603 	-0.591113 	195.607 	360.635 	285.033 	539.798 	
36.967 	-0.00877705 	-0.546368 	0.764553 	-0.480081 	0.00396362 	-3.13804 	90.1566 	116.603 	-0.591113 	195.112 	360.635 	285.034 	539.798 	
37.0701 	-0.00880341 	-0.543731 	0.766128 	-0.488807 	0.0039753 	-3.13814 	90.1566 	116.603 	-0.591113 	194.566 	360.635 	285.034 	539.798 	
37.1779 	-0.00882959 	-0.54108 	0.767681 	-0.497533 	0.0039878 	-3.13823 	90.1566 	116.603 	-0.591113 	194.01 	360.635 	285.034 	539.798 	
37.2808 	-0.00885558 	-0.538415 	0.76921 	-0.50626 	0.00400114 	-3.13833 	90.1566 	116.603 	-0.591113 	193.503 	360.635 	285.034 	539.798 	
37.384 	-0.00888138 	-0.535738 	0.770715 	-0.514986 	0.0040153 	-3.13842 	90.1566 	116.603 	-0.591113 	193.005 	360.635 	285.034 	539.798 	
37.487 	-0.008907 	-0.533047 	0.772198 	-0.523712 	0.00403028 	-3.13852 	90.1566 	116.603 	-0.591113 	192.506 	360.635 	285.034 	539.798 	
37.5903 	-0.00893242 	-0.530343 	0.773656 	-0.532438 	0.00404608 	-3.13861 	90.1566 	116.603 	-0.591113 	191.958 	360.635 	285.034 	539.798 	
37.6929 	-0.00895765 	-0.527627 	0.775091 	-0.541165 	0.0040627 	-3.1387 	90.1566 	116.603 	-0.591113 	191.451 	360.635 	285.034 	539.798 	
37.7962 	-0.00898268 	-0.524898 	0.776503 	-0.549891 	0.00408015 	-3.1388 	90.1566 	116.603 	-0.591113 	190.95 	360.635 	285.034 	539.798 	
37.899 	-0.00900752 	-0.522157 	0.77789 	-0.558617 	0.00409842 	-3.13889 	90.1566 	116.603 	-0.591113 	190.404 	360.635 	285.034 	539.798 	
38.002 	-0.00903216 	-0.519405 	0.779253 	-0.567344 	0.0041175 	-3.13899 	90.1566 	116.603 	-0.591113 	189.904 	360.635 	285.034 	539.798 	
38.1049 	-0.0090566 	-0.51664 	0.780593 	-0.57607 	0.0041374 	-3.13908 	90.1566 	116.603 	-0.591113 	189.399 	360.635 	285.034 	539.798 	
38.208 	-0.00908083 	-0.513864 	0.781908 	-0.584796 	0.00415811 	-3.13917 	90.1566 	116.603 	-0.591113 	188.847 	360.635 	285.034 	539.798 	
38.3113 	-0.00910486 	-0.511076 	0.783199 	-0.593522 	0.00417964 	-3.13927 	90.1566 	116.603 	-0.591113 	188.35 	360.635 	285.034 	539.798 	
38.4193 	-0.00912868 	-0.508277 	0.784466 	-0.602249 	0.00420198 	-3.13936 	90.1566 	116.603 	-0.591113 	187.797 	360.635 	285.034 	539.798 	
38.5224 	-0.0091523 	-0.505468 	0.785708 	-0.610975 	0.00422513 	-3.13945 	90.1566 	116.603 	-0.591113 	187.291 	360.635 	285.034 	539.798 	
38.6253 	-0.00917571 	-0.502647 	0.786925 	-0.619701 	0.00424909 	-3.13954 	90.1566 	116.603 	-0.591113 	186.788 	360.635 	285.034 	539.798 	
38.7276 	-0.0091989 	-0.499816 	0.788118 	-0.628427 	0.00427385 	-3.13964 	90.1566 	116.603 	-0.591113 	186.242 	360.635 	285.034 	539.798 	
38.8307 	-0.00924465 	-0.494123 	0.790429 	-0.64588 	0.00432579 	-3.13982 	90.1566 	116.603 	-0.591113 	185.74 	360.635 	285.034 	539.798 	
38.9336 	-0.00926719 	-0.491262 	0.791548 	-0.654606 	0.00435296 	-3.13991 	90.1566 	116.603 	-0.591113 	185.242 	360.635 	285.034 	539.798 	
39.0376 	-0.00928952 	-0.488391 	0.792641 	-0.663332 	0.00438094 	-3.14 	90.1566 	116.603 	-0.591113 	184.684 	360.635 	285.034 	539.798 	
39.1394 	-0.00931163 	-0.485511 	0.793709 	-0.672059 	0.0044097 	-3.14009 	90.1566 	116.603 	-0.591113 	184.184 	360.635 	285.034 	539.798 	
39.2428 	-0.00933352 	-0.482621 	0.794752 	-0.680785 	0.00443926 	-3.14019 	90.1566 	116.603 	-0.591113 	183.684 	360.635 	285.034 	539.798 	
39.3463 	-0.00935518 	-0.479723 	0.79577 	-0.689511 	0.00446961 	-3.14028 	90.1566 	116.603 	-0.591113 	183.188 	360.635 	285.034 	539.798 	
39.4489 	-0.00937662 	-0.476816 	0.796763 	-0.698237 	0.00450076 	-3.14037 	90.1566 	116.603 	-0.591113 	182.633 	360.635 	285.034 	539.798 	
39.552 	-0.00939783 	-0.4739 	0.79773 	-0.706964 	0.00453269 	-3.14046 	90.1566 	116.603 	-0.591113 	182.128 	360.635 	285.034 	539.798 	
39.6548 	-0.00941881 	-0.470976 	0.798671 	-0.71569 	0.0045654 	-3.14055 	90.1566 	116.603 	-0.591113 	181.634 	360.635 	285.034 	539.798 	
39.7578 	-0.00943956 	-0.468043 	0.799587 	-0.724416 	0.0045989 	-3.14064 	90.1566 	116.603 	-0.591113 	181.082 	360.635 	285.034 	539.798 	
39.8609 	-0.00946008 	-0.465103 	0.800478 	-0.733142 	0.00463317 	-3.14072 	90.1566 	116.603 	-0.591113 	180.577 	360.635 	285.034 	539.798 	
39.9638 	-0.00948037 	-0.462155 	0.801342 	-0.741869 	0.00466823 	-3.14081 	90.1566 	116.603 	-0.591113 	180.07 	360.635 	285.034 	539.798 	
40.0666 	-0.00950042 	-0.4592 	0.802181 	-0.750595 	0.00470405 	-3.1409 	90.1566 	116.603 	-0.591113 	179.574 	360.635 	285.034 	539.798 	
40.17 	-0.00952024 	-0.456237 	0.802994 	-0.759321 	0.00474065 	-3.14099 	90.1566 	116.603 	-0.591113 	179.02 	360.635 	285.034 	539.798 	
40.2777 	-0.00953981 	-0.453268 	0.803782 	-0.768047 	0.00477802 	-3.14108 	90.1566 	116.603 	-0.591113 	178.473 	360.635 	285.034 	539.798 	
40.381 	-0.00955915 	-0.450292 	0.804543 	-0.776774 	0.00481616 	-3.14117 	90.1566 	116.603 	-0.591113 	177.964 	360.635 	285.034 	539.798 	
40.484 	-0.00957825 	-0.447309 	0.805278 	-0.7855 	0.00485505 	-3.14125 	90.1566 	116.604 	-0.591113 	177.466 	360.635 	285.034 	539.798 	
40.587 	-0.0095971 	-0.44432 	0.805987 	-0.794226 	0.00489471 	-3.14134 	90.1566 	116.604 	-0.591113 	176.969 	360.635 	285.035 	539.798 	
40.6902 	-0.00961571 	-0.441325 	0.80667 	-0.802952 	0.00493513 	-3.14143 	90.1566 	116.604 	-0.591113 	176.42 	360.635 	285.035 	539.798 	
40.7931 	-0.00963408 	-0.438324 	0.807327 	-0.811678 	0.00497629 	-3.14151 	90.1566 	116.604 	-0.591113 	175.912 	360.635 	285.035 	539.798 	
40.8962 	-0.00965219 	-0.435317 	0.807958 	-0.820405 	0.00501821 	3.14159 	90.1566 	116.604 	-0.591113 	175.412 	360.635 	285.035 	539.798 	
40.999 	-0.00967006 	-0.432305 	0.808563 	-0.829131 	0.00506088 	3.1415 	90.1566 	116.604 	-0.591113 	174.86 	360.635 	285.035 	539.798 	
41.1023 	-0.00968768 	-0.429288 	0.809141 	-0.837857 	0.00510429 	3.14142 	90.1566 	116.604 	-0.591113 	174.362 	360.635 	285.035 	539.798 	
41.205 	-0.00970505 	-0.426266 	0.809693 	-0.846583 	0.00514845 	3.14133 	90.1566 	116.604 	-0.591113 	173.858 	360.635 	285.035 	539.798 	
41.3082 	-0.00972217 	-0.423239 	0.810218 	-0.85531 	0.00519334 	3.14125 	90.1566 	116.604 	-0.591113 	173.3 	360.635 	285.035 	539.798 	
41.4111 	-0.00973904 	-0.420208 	0.810717 	-0.864036 	0.00523897 	3.14116 	90.1566 	116.604 	-0.591113 	172.801 	360.635 	285.035 	539.798 	
41.519 	-0.00975564 	-0.417172 	0.81119 	-0.872762 	0.00528532 	3.14108 	90.1566 	116.604 	-0.591113 	172.252 	360.635 	285.035 	539.798 	
41.6221 	-0.009772 	-0.414133 	0.811635 	-0.881488 	0.00533241 	3.141 	90.1566 	116.604 	-0.591113 	171.749 	360.635 	285.035 	539.798 	
41.7248 	-0.0097881 	-0.411089 	0.812055 	-0.890215 	0.00538022 	3.14091 	90.1566 	116.604 	-0.591113 	171.243 	360.635 	285.035 	539.798 	
41.8278 	-0.00980393 	-0.408042 	0.812448 	-0.898941 	0.00542874 	3.14083 	90.1566 	116.604 	-0.591113 	170.693 	360.635 	285.035 	539.798 	
41.9322 	-0.00981951 	-0.404992 	0.812814 	-0.907667 	0.00547799 	3.14075 	90.1566 	116.604 	-0.591113 	170.195 	360.635 	285.035 	539.798 	
42.0358 	-0.00983483 	-0.401939 	0.813154 	-0.916393 	0.00552795 	3.14067 	90.1566 	116.604 	-0.591113 	169.696 	360.635 	285.035 	539.798 	
42.1386 	-0.00986468 	-0.395824 	0.813753 	-0.933846 	0.00562999 	3.14051 	90.1566 	116.604 	-0.591113 	169.139 	360.635 	285.035 	539.798 	
42.2416 	-0.00987921 	-0.392763 	0.814013 	-0.942572 	0.00568206 	3.14043 	90.1566 	116.604 	-0.591113 	168.635 	360.635 	285.035 	539.798 	
42.3446 	-0.00989347 	-0.3897 	0.814246 	-0.951298 	0.00573483 	3.14035 	90.1566 	116.604 	-0.591113 	168.141 	360.635 	285.035 	539.798 	
42.4478 	-0.00990747 	-0.386635 	0.814452 	-0.960024 	0.00578829 	3.14027 	90.1566 	116.604 	-0.591113 	167.586 	360.635 	285.035 	539.798 	
42.5508 	-0.0099212 	-0.383568 	0.814631 	-0.96875 	0.00584245 	3.14019 	90.1566 	116.604 	-0.591113 	167.085 	360.635 	285.035 	539.798 	
42.6539 	-0.00993466 	-0.3805 	0.814784 	-0.977477 	0.00589729 	3.14011 	90.1566 	116.604 	-0.591113 	166.579 	360.635 	285.035 	539.798 	
42.7567 	-0.00994785 	-0.37743 	0.81491 	-0.986203 	0.0059528 	3.14003 	90.1566 	116.604 	-0.591113 	166.083 	360.635 	285.035 	539.798 	
42.86 	-0.00996077 	-0.37436 	0.815009 	-0.994929 	0.006009 	3.13995 	90.1566 	116.604 	-0.591113 	165.528 	360.635 	285.035 	539.798 	
42.9629 	-0.00997342 	-0.371288 	0.815081 	-1.00366 	0.00606587 	3.13988 	90.1566 	116.604 	-0.591211 	165.026 	360.635 	285.035 	539.798 	
43.0659 	-0.0099858 	-0.368217 	0.815126 	-1.01238 	0.0061234 	3.1398 	90.1566 	116.604 	-0.591211 	164.519 	360.635 	285.035 	539.798 	
43.169 	-0.0099979 	-0.365144 	0.815145 	-1.02111 	0.0061816 	3.13973 	90.1566 	116.604 	-0.591211 	163.971 	360.635 	285.035 	539.798 	
43.2722 	-0.0100097 	-0.362072 	0.815137 	-1.02983 	0.00624046 	3.13965 	90.1566 	116.604 	-0.591211 	163.477 	360.635 	285.035 	539.798 	
43.3782 	-0.0100213 	-0.359001 	0.815102 	-1.03856 	0.00629998 	3.13958 	90.1566 	116.604 	-0.591211 	162.919 	360.635 	285.035 	539.798 	
43.481 	-0.0100326 	-0.355929 	0.81504 	-1.04729 	0.00636014 	3.1395 	90.1566 	116.604 	-0.591211 	162.422 	360.635 	285.035 	539.798 	
43.5841 	-0.0100436 	-0.352858 	0.814951 	-1.05601 	0.00642095 	3.13943 	90.1566 	116.604 	-0.591211 	161.914 	360.635 	285.035 	539.798 	
43.6868 	-0.0100543 	-0.349788 	0.814836 	-1.06474 	0.0064824 	3.13935 	90.1566 	116.604 	-0.591211 	161.413 	360.635 	285.035 	539.798 	
43.7901 	-0.0100647 	-0.346719 	0.814694 	-1.07346 	0.00654448 	3.13928 	90.1566 	116.604 	-0.591211 	160.862 	360.635 	285.035 	539.798 	
43.8931 	-0.0100749 	-0.343652 	0.814525 	-1.08219 	0.0066072 	3.13921 	90.1566 	116.604 	-0.591211 	160.36 	360.635 	285.035 	539.798 	
43.996 	-0.0100848 	-0.340586 	0.814329 	-1.09092 	0.00667055 	3.13914 	90.1566 	116.604 	-0.591211 	159.859 	360.635 	285.035 	539.798 	
44.0993 	-0.0100944 	-0.337522 	0.814107 	-1.09964 	0.00673451 	3.13907 	90.1566 	116.604 	-0.591211 	159.307 	360.635 	285.035 	539.798 	
44.2022 	-0.0101037 	-0.33446 	0.813858 	-1.10837 	0.0067991 	3.139 	90.1566 	116.604 	-0.591211 	158.808 	360.635 	285.035 	539.798 	
44.3051 	-0.0101127 	-0.3314 	0.813582 	-1.1171 	0.00686429 	3.13893 	90.1566 	116.604 	-0.591211 	158.305 	360.635 	285.035 	539.798 	
44.4078 	-0.0101215 	-0.328343 	0.813279 	-1.12582 	0.0069301 	3.13886 	90.1566 	116.604 	-0.591211 	157.75 	360.635 	285.035 	539.798 	
44.5113 	-0.01013 	-0.325289 	0.81295 	-1.13455 	0.0069965 	3.13879 	90.1566 	116.604 	-0.591211 	157.246 	360.635 	285.035 	539.798 	
44.619 	-0.0101381 	-0.322237 	0.812594 	-1.14327 	0.00706351 	3.13872 	90.1566 	116.604 	-0.591211 	156.697 	360.635 	285.035 	539.798 	
44.7222 	-0.0101461 	-0.319189 	0.812211 	-1.152 	0.0071311 	3.13865 	90.1566 	116.604 	-0.591211 	156.193 	360.635 	285.035 	539.798 	
44.8248 	-0.0101537 	-0.316144 	0.811802 	-1.16073 	0.00719928 	3.13859 	90.1566 	116.604 	-0.591211 	155.694 	360.635 	285.035 	539.798 	
44.9307 	-0.010161 	-0.313103 	0.811367 	-1.16945 	0.00726805 	3.13852 	90.1566 	116.604 	-0.591211 	155.138 	360.635 	285.036 	539.798 	
45.0339 	-0.0101748 	-0.307033 	0.810416 	-1.1869 	0.0074073 	3.13839 	90.1566 	116.604 	-0.591211 	154.645 	360.635 	285.036 	539.798 	
45.1364 	-0.0101813 	-0.304005 	0.809901 	-1.19563 	0.00747777 	3.13832 	90.1566 	116.604 	-0.591211 	154.136 	360.635 	285.036 	539.798 	
45.2389 	-0.0101874 	-0.300981 	0.809359 	-1.20436 	0.00754881 	3.13826 	90.1566 	116.604 	-0.591211 	153.584 	360.635 	285.036 	539.798 	
45.3414 	-0.0101933 	-0.297961 	0.808791 	-1.21308 	0.00762041 	3.1382 	90.1566 	116.604 	-0.591211 	153.083 	360.635 	285.036 	539.798 	
45.4439 	-0.0101989 	-0.294947 	0.808197 	-1.22181 	0.00769255 	3.13813 	90.1566 	116.604 	-0.591211 	152.58 	360.635 	285.036 	539.798 	
45.5467 	-0.0102042 	-0.291939 	0.807577 	-1.23054 	0.00776523 	3.13807 	90.1566 	116.604 	-0.591211 	152.09 	360.635 	285.036 	539.798 	
45.6499 	-0.0102093 	-0.288935 	0.80693 	-1.23926 	0.00783846 	3.13801 	90.1566 	116.604 	-0.591211 	151.529 	360.635 	285.036 	539.798 	
45.7529 	-0.010214 	-0.285938 	0.806257 	-1.24799 	0.00791222 	3.13795 	90.1566 	116.604 	-0.591211 	151.023 	360.635 	285.036 	539.798 	
45.8559 	-0.0102184 	-0.282946 	0.805558 	-1.25671 	0.0079865 	3.13789 	90.1566 	116.604 	-0.591211 	150.52 	360.635 	285.036 	539.798 	
45.959 	-0.0102226 	-0.279961 	0.804833 	-1.26544 	0.00806131 	3.13783 	90.1566 	116.604 	-0.591211 	149.971 	360.635 	285.036 	539.798 	
46.0622 	-0.0102265 	-0.276982 	0.804082 	-1.27417 	0.00813663 	3.13777 	90.1566 	116.604 	-0.591211 	149.471 	360.635 	285.036 	539.798 	
46.1648 	-0.01023 	-0.27401 	0.803304 	-1.28289 	0.00821247 	3.13771 	90.1566 	116.604 	-0.591211 	148.967 	360.635 	285.036 	539.798 	
46.268 	-0.0102333 	-0.271044 	0.802501 	-1.29162 	0.00828881 	3.13766 	90.1566 	116.604 	-0.591211 	148.413 	360.635 	285.036 	539.798 	
46.3714 	-0.0102363 	-0.268086 	0.801673 	-1.30035 	0.00836564 	3.1376 	90.1566 	116.604 	-0.591211 	147.916 	360.635 	285.036 	539.798 	
46.4782 	-0.010239 	-0.265136 	0.800818 	-1.30907 	0.00844297 	3.13754 	90.1566 	116.604 	-0.591211 	147.363 	360.635 	285.036 	539.798 	
46.5809 	-0.0102414 	-0.262192 	0.799938 	-1.3178 	0.00852079 	3.13749 	90.1566 	116.604 	-0.591211 	146.858 	360.635 	285.036 	539.798 	
46.6841 	-0.0102435 	-0.259257 	0.799032 	-1.32652 	0.00859909 	3.13743 	90.1566 	116.604 	-0.591211 	146.357 	360.635 	285.036 	539.798 	
46.7867 	-0.0102453 	-0.256329 	0.7981 	-1.33525 	0.00867786 	3.13738 	90.1566 	116.604 	-0.591211 	145.854 	360.635 	285.036 	539.798 	
46.89 	-0.0102468 	-0.25341 	0.797143 	-1.34398 	0.0087571 	3.13733 	90.1566 	116.604 	-0.591211 	145.3 	360.635 	285.036 	539.798 	
46.993 	-0.010248 	-0.250499 	0.79616 	-1.3527 	0.00883681 	3.13727 	90.1566 	116.604 	-0.591211 	144.8 	360.635 	285.036 	539.798 	
47.0964 	-0.0102489 	-0.247597 	0.795152 	-1.36143 	0.00891697 	3.13722 	90.1566 	116.604 	-0.591211 	144.296 	360.635 	285.036 	539.798 	
47.199 	-0.0102496 	-0.244704 	0.794119 	-1.37015 	0.00899758 	3.13717 	90.1566 	116.604 	-0.591211 	143.748 	360.635 	285.036 	539.798 	
47.3024 	-0.0102499 	-0.24182 	0.793061 	-1.37888 	0.00907864 	3.13712 	90.1566 	116.604 	-0.591211 	143.249 	360.635 	285.036 	539.798 	
47.4051 	-0.01025 	-0.238945 	0.791977 	-1.38761 	0.00916014 	3.13707 	90.1566 	116.604 	-0.591211 	142.741 	360.635 	285.036 	539.798 	
47.5086 	-0.0102497 	-0.23608 	0.790869 	-1.39633 	0.00924207 	3.13702 	90.1566 	116.604 	-0.591211 	142.188 	360.635 	285.036 	539.798 	
47.6124 	-0.0102492 	-0.233225 	0.789735 	-1.40506 	0.00932442 	3.13697 	90.1566 	116.604 	-0.591211 	141.687 	360.635 	285.036 	539.798 	
47.7201 	-0.0102484 	-0.23038 	0.788577 	-1.41379 	0.0094072 	3.13692 	90.1566 	116.604 	-0.591211 	141.14 	360.635 	285.036 	539.798 	
47.8232 	-0.0102472 	-0.227544 	0.787394 	-1.42251 	0.00949039 	3.13688 	90.1566 	116.604 	-0.591211 	140.633 	360.635 	285.036 	539.798 	
47.9267 	-0.0102458 	-0.22472 	0.786186 	-1.43124 	0.00957398 	3.13683 	90.1566 	116.604 	-0.591211 	140.134 	360.635 	285.036 	539.798 	
48.0333 	-0.0102441 	-0.221906 	0.784953 	-1.43996 	0.00965798 	3.13678 	90.1566 	116.604 	-0.591211 	139.577 	360.635 	285.036 	539.798 	
48.1366 	-0.0102421 	-0.219102 	0.783696 	-1.44869 	0.00974237 	3.13674 	90.1566 	116.604 	-0.591211 	139.081 	360.635 	285.036 	539.798 	
48.24 	-0.0102372 	-0.21353 	0.781109 	-1.46614 	0.00991231 	3.13665 	90.1566 	116.604 	-0.591211 	138.526 	360.635 	285.036 	539.798 	
48.3429 	-0.0102343 	-0.21076 	0.779779 	-1.47487 	0.00999785 	3.13661 	90.1566 	116.604 	-0.591211 	138.029 	360.635 	285.036 	539.798 	
48.446 	-0.0102312 	-0.208003 	0.778425 	-1.4836 	0.0100838 	3.13657 	90.1566 	116.604 	-0.591211 	137.523 	360.635 	285.036 	539.798 	
48.5489 	-0.0102277 	-0.205257 	0.777047 	-1.49232 	0.01017 	3.13653 	90.1566 	116.604 	-0.591211 	136.971 	360.635 	285.036 	539.798 	
48.652 	-0.0102239 	-0.202523 	0.775645 	-1.50105 	0.0102566 	3.13649 	90.1566 	116.604 	-0.591211 	136.468 	360.635 	285.036 	539.798 	
48.755 	-0.0102199 	-0.199802 	0.774219 	-1.50977 	0.0103436 	3.13645 	90.1566 	116.604 	-0.591211 	135.966 	360.635 	285.036 	539.798 	
48.8581 	-0.0102155 	-0.197094 	0.77277 	-1.5185 	0.0104309 	3.13641 	90.1566 	116.604 	-0.591211 	135.413 	360.635 	285.036 	539.798 	
48.9608 	-0.0102109 	-0.194398 	0.771296 	-1.52723 	0.0105186 	3.13637 	90.1566 	116.605 	-0.591211 	134.909 	360.635 	285.036 	539.798 	
49.0638 	-0.010206 	-0.191715 	0.7698 	-1.53595 	0.0106066 	3.13633 	90.1566 	116.605 	-0.591211 	134.414 	360.635 	285.036 	539.798 	
49.167 	-0.0102008 	-0.189045 	0.76828 	-1.54468 	0.0106949 	3.1363 	90.1566 	116.605 	-0.591211 	133.909 	360.635 	285.036 	539.798 	
49.2702 	-0.0101953 	-0.186388 	0.766737 	-1.55341 	0.0107835 	3.13626 	90.1566 	116.605 	-0.591211 	133.356 	360.635 	285.036 	539.798 	
49.3781 	-0.0101895 	-0.183746 	0.765171 	-1.56213 	0.0108724 	3.13622 	90.1566 	116.605 	-0.591211 	132.801 	360.635 	285.036 	539.798 	
49.4809 	-0.0101834 	-0.181116 	0.763581 	-1.57086 	0.0109616 	3.13619 	90.1566 	116.605 	-0.591211 	132.307 	360.635 	285.036 	539.798 	
49.5839 	-0.010177 	-0.178501 	0.761969 	-1.57958 	0.0110511 	3.13616 	90.1566 	116.605 	-0.591211 	131.8 	360.635 	285.036 	539.798 	
49.6869 	-0.0101704 	-0.1759 	0.760334 	-1.58831 	0.011141 	3.13612 	90.1566 	116.605 	-0.591211 	131.298 	360.635 	285.036 	539.798 	
49.7902 	-0.0101634 	-0.173314 	0.758677 	-1.59704 	0.0112311 	3.13609 	90.1566 	116.605 	-0.591211 	130.745 	360.635 	285.036 	539.798 	
49.8931 	-0.0101562 	-0.170742 	0.756997 	-1.60576 	0.0113214 	3.13606 	90.1566 	116.605 	-0.591211 	130.246 	360.635 	285.036 	539.798 	
49.996 	-0.0101487 	-0.168185 	0.755294 	-1.61449 	0.0114121 	3.13603 	90.1566 	116.605 	-0.591211 	129.75 	360.635 	285.036 	539.798 	
50.099 	-0.0101409 	-0.165642 	0.75357 	-1.62322 	0.0115029 	3.136 	90.1566 	116.605 	-0.591211 	129.191 	360.635 	285.036 	539.798 	
50.2025 	-0.0101328 	-0.163115 	0.751823 	-1.63194 	0.0115941 	3.13597 	90.1566 	116.605 	-0.591211 	128.689 	360.635 	285.036 	539.798 	
50.305 	-0.0101244 	-0.160603 	0.750054 	-1.64067 	0.0116855 	3.13595 	90.1566 	116.605 	-0.591211 	128.187 	360.635 	285.036 	539.798 	
50.4081 	-0.0101157 	-0.158107 	0.748263 	-1.64939 	0.0117771 	3.13592 	90.1566 	116.606 	-0.591211 	127.64 	360.635 	285.036 	539.798 	
50.5112 	-0.0101068 	-0.155626 	0.746451 	-1.65812 	0.011869 	3.13589 	90.1566 	116.606 	-0.591211 	127.129 	360.635 	285.036 	539.798 	
50.6193 	-0.0100976 	-0.153162 	0.744617 	-1.66685 	0.0119611 	3.13587 	90.1566 	116.606 	-0.591211 	126.579 	360.635 	285.036 	539.798 	
50.7219 	-0.0100881 	-0.150713 	0.742762 	-1.67557 	0.0120534 	3.13584 	90.1566 	116.606 	-0.591211 	126.076 	360.635 	285.036 	539.798 	
50.8248 	-0.0100783 	-0.148281 	0.740885 	-1.6843 	0.0121459 	3.13582 	90.1566 	116.606 	-0.591211 	125.58 	360.635 	285.036 	539.798 	
50.9277 	-0.0100682 	-0.145865 	0.738987 	-1.69303 	0.0122387 	3.13579 	90.1566 	116.606 	-0.591211 	125.023 	360.635 	285.036 	539.798 	
51.0308 	-0.0100472 	-0.141084 	0.735129 	-1.71048 	0.0124247 	3.13575 	90.1566 	116.606 	-0.591211 	124.521 	360.635 	285.036 	539.798 	
51.1349 	-0.0100363 	-0.138718 	0.733168 	-1.71921 	0.012518 	3.13573 	90.1566 	116.606 	-0.591211 	124.017 	360.635 	285.036 	539.798 	
51.2382 	-0.0100251 	-0.13637 	0.731187 	-1.72793 	0.0126115 	3.13571 	90.1566 	116.606 	-0.591211 	123.469 	360.635 	285.036 	539.798 	
51.341 	-0.0100137 	-0.13404 	0.729186 	-1.73666 	0.0127052 	3.13569 	90.1566 	116.606 	-0.591211 	122.969 	360.635 	285.036 	539.798 	
51.444 	-0.0100019 	-0.131726 	0.727164 	-1.74539 	0.012799 	3.13567 	90.1566 	116.607 	-0.591211 	122.464 	360.635 	285.036 	539.798 	
51.5469 	-0.00998994 	-0.129431 	0.725123 	-1.75411 	0.0128929 	3.13566 	90.1566 	116.619 	-0.591211 	121.96 	360.635 	285.036 	539.798 	
51.6503 	-0.00997766 	-0.127153 	0.723061 	-1.76284 	0.0129871 	3.13564 	90.1566 	116.629 	-0.591211 	121.411 	360.635 	285.036 	539.798 	
51.7527 	-0.0099651 	-0.124894 	0.720979 	-1.77156 	0.0130813 	3.13562 	90.1566 	116.645 	-0.591211 	120.911 	360.635 	285.036 	539.798 	
51.8564 	-0.00995227 	-0.122653 	0.718878 	-1.78029 	0.0131757 	3.13561 	90.1566 	116.648 	-0.591211 	120.407 	360.635 	285.036 	539.798 	
51.9589 	-0.00993917 	-0.12043 	0.716758 	-1.78902 	0.0132702 	3.13559 	90.1566 	116.65 	-0.591211 	119.855 	360.635 	285.036 	539.798 	
52.0622 	-0.0099258 	-0.118226 	0.714618 	-1.79774 	0.0133649 	3.13558 	90.1566 	116.65 	-0.591211 	119.35 	360.635 	285.036 	539.798 	
52.1651 	-0.00991216 	-0.11604 	0.712458 	-1.80647 	0.0134596 	3.13557 	90.1566 	116.651 	-0.591211 	118.853 	360.635 	285.036 	539.798 	
52.268 	-0.00989826 	-0.113874 	0.71028 	-1.8152 	0.0135545 	3.13556 	90.1566 	116.652 	-0.591211 	118.294 	360.635 	285.036 	539.798 	
52.3711 	-0.00988409 	-0.111727 	0.708084 	-1.82392 	0.0136494 	3.13555 	90.1566 	116.654 	-0.591211 	117.794 	360.635 	285.036 	539.798 	
52.4778 	-0.00986965 	-0.109598 	0.705868 	-1.83265 	0.0137445 	3.13554 	90.1566 	116.656 	-0.591211 	117.24 	360.635 	285.036 	539.798 	
52.5811 	-0.00985494 	-0.10749 	0.703634 	-1.84138 	0.0138396 	3.13553 	90.1566 	116.658 	-0.591211 	116.74 	360.635 	285.036 	539.798 	
52.6842 	-0.00983998 	-0.1054 	0.701382 	-1.8501 	0.0139348 	3.13552 	90.1566 	116.66 	-0.591211 	116.239 	360.635 	285.036 	539.798 	
52.7869 	-0.00982475 	-0.103331 	0.699111 	-1.85883 	0.0140301 	3.13551 	90.1566 	116.662 	-0.591211 	115.734 	360.635 	285.036 	539.798 	
52.8903 	-0.00980926 	-0.101282 	0.696823 	-1.86756 	0.0141254 	3.1355 	90.1566 	116.663 	-0.591211 	115.179 	360.635 	285.036 	539.798 	
52.9127 	-0.00980926 	-0.101282 	0.696823 	-1.86756 	0.0141254 	3.1355 	90.1566 	116.663 	-0.591211 	115.078 	360.635 	285.036 	539.798 	
53.0191 	-0.00979594 	-0.0995728 	0.694801 	-1.87471 	0.014209 	3.13549 	90.1566 	116.664 	-0.591211 	114.581 	360.635 	284.969 	539.798 	
53.1219 	-0.00979615 	-0.0969158 	0.694675 	-1.87471 	0.0142423 	3.13537 	90.1566 	116.664 	-0.591211 	114.089 	360.635 	284.596 	539.798 	
53.2249 	-0.00979641 	-0.0942057 	0.694522 	-1.87471 	0.0142752 	3.13524 	90.1566 	116.665 	-0.591211 	113.622 	360.635 	284.07 	539.798 	
53.3282 	-0.00980379 	-0.092362 	0.695363 	-1.87099 	0.0142662 	3.13511 	90.1566 	116.665 	-0.591211 	113.502 	360.635 	283.563 	539.798 	
53.4323 	-0.00982086 	-0.0916909 	0.697564 	-1.86226 	0.0142015 	3.13499 	90.1566 	116.665 	-0.591211 	113.502 	360.635 	283.047 	539.798 	
53.5346 	-0.00985585 	-0.0904066 	0.701983 	-1.84481 	0.0140688 	3.13474 	90.1566 	116.665 	-0.591211 	113.501 	360.635 	282.527 	539.798 	
53.638 	-0.00987377 	-0.0897933 	0.704201 	-1.83609 	0.0140009 	3.13462 	90.1566 	116.665 	-0.591211 	113.501 	360.635 	282.012 	539.798 	
53.741 	-0.00989197 	-0.0891995 	0.706424 	-1.82736 	0.0139319 	3.13449 	90.1566 	116.665 	-0.591211 	113.501 	360.635 	281.495 	539.798 	
53.8439 	-0.00991045 	-0.088625 	0.708652 	-1.81864 	0.0138618 	3.13437 	90.1566 	116.665 	-0.591211 	113.501 	360.635 	280.971 	539.798 	
53.9469 	-0.00992921 	-0.0880701 	0.710885 	-1.80991 	0.0137907 	3.13425 	90.1566 	116.665 	-0.591211 	113.501 	360.635 	280.454 	539.798 	
54.0501 	-0.00994824 	-0.0875346 	0.713123 	-1.80119 	0.0137185 	3.13413 	90.1566 	116.665 	-0.591211 	113.501 	360.635 	279.935 	539.798 	
54.1529 	-0.00996755 	-0.0870187 	0.715366 	-1.79246 	0.0136453 	3.13401 	90.1566 	116.666 	-0.591211 	113.501 	360.635 	279.434 	539.798 	
54.2559 	-0.00998714 	-0.0865223 	0.717613 	-1.78373 	0.013571 	3.13389 	90.1566 	116.666 	-0.591211 	113.501 	360.635 	278.913 	539.798 	
54.359 	-0.010007 	-0.0860456 	0.719863 	-1.77501 	0.0134957 	3.13378 	90.1566 	116.666 	-0.591211 	113.5 	360.635 	278.385 	539.798 	
54.4622 	-0.0100271 	-0.0855885 	0.722119 	-1.76629 	0.0134194 	3.13366 	90.1566 	116.666 	-0.591211 	113.5 	360.635 	277.89 	539.798 	
54.5651 	-0.0100475 	-0.0851512 	0.724378 	-1.75756 	0.0133421 	3.13354 	90.1566 	116.666 	-0.591211 	113.5 	360.635 	277.361 	539.798 	
54.6679 	-0.0100682 	-0.0847335 	0.72664 	-1.74884 	0.0132637 	3.13343 	90.1566 	116.666 	-0.591211 	113.5 	360.635 	276.877 	539.798 	
54.7712 	-0.0100891 	-0.0843356 	0.728907 	-1.74011 	0.0131843 	3.13331 	90.1566 	116.666 	-0.591211 	113.5 	360.635 	276.352 	539.798 	
54.8781 	-0.0101103 	-0.0839576 	0.731176 	-1.73139 	0.013104 	3.1332 	90.1566 	116.666 	-0.591211 	113.5 	360.635 	275.815 	539.798 	
54.981 	-0.0101318 	-0.0835992 	0.733449 	-1.72266 	0.0130226 	3.13308 	90.1566 	116.666 	-0.591211 	113.5 	360.635 	275.279 	539.798 	
55.0839 	-0.0101535 	-0.0832608 	0.735725 	-1.71394 	0.0129402 	3.13297 	90.1566 	116.666 	-0.591211 	113.5 	360.635 	274.799 	539.798 	
55.1869 	-0.0101755 	-0.0829422 	0.738004 	-1.70521 	0.0128569 	3.13286 	90.1566 	116.666 	-0.591211 	113.5 	360.635 	274.262 	539.798 	
55.2905 	-0.0101977 	-0.0826435 	0.740286 	-1.69649 	0.0127726 	3.13274 	90.1566 	116.666 	-0.591211 	113.5 	360.635 	273.718 	539.798 	
55.3934 	-0.0102202 	-0.0823648 	0.74257 	-1.68776 	0.0126873 	3.13263 	90.1566 	116.666 	-0.591211 	113.5 	360.635 	273.252 	539.798 	
55.496 	-0.010243 	-0.0821059 	0.744856 	-1.67904 	0.012601 	3.13252 	90.1566 	116.666 	-0.591211 	113.5 	360.635 	272.724 	539.798 	
55.5992 	-0.010266 	-0.081867 	0.747145 	-1.67031 	0.0125138 	3.13241 	90.1566 	116.666 	-0.591211 	113.5 	360.635 	272.175 	539.798 	
55.7022 	-0.0102892 	-0.0816481 	0.749435 	-1.66159 	0.0124256 	3.1323 	90.1566 	116.666 	-0.591211 	113.5 	360.635 	271.7 	539.798 	
55.8051 	-0.0103127 	-0.0814492 	0.751728 	-1.65286 	0.0123365 	3.1322 	90.1566 	116.666 	-0.591211 	113.5 	360.635 	271.175 	539.798 	
55.908 	-0.0103365 	-0.0812703 	0.754022 	-1.64414 	0.0122464 	3.13209 	90.1566 	116.666 	-0.591211 	113.5 	360.635 	270.661 	539.798 	
56.0114 	-0.0103605 	-0.0811114 	0.756317 	-1.63541 	0.0121554 	3.13198 	90.1566 	116.666 	-0.591211 	113.5 	360.635 	270.144 	539.798 	
56.1182 	-0.0103847 	-0.0809726 	0.758614 	-1.62669 	0.0120635 	3.13188 	90.1566 	116.666 	-0.591211 	113.5 	360.635 	269.638 	539.798 	
56.221 	-0.0104092 	-0.0808538 	0.760912 	-1.61796 	0.0119707 	3.13177 	90.1566 	116.666 	-0.591211 	113.5 	360.635 	269.067 	539.798 	
56.3242 	-0.0104339 	-0.080755 	0.76321 	-1.60924 	0.0118769 	3.13167 	90.1566 	116.666 	-0.591211 	113.5 	360.635 	268.597 	539.798 	
56.4267 	-0.0104589 	-0.0806763 	0.76551 	-1.60051 	0.0117823 	3.13157 	90.1566 	116.666 	-0.591211 	113.5 	360.635 	268.087 	539.798 	
56.5307 	-0.0104841 	-0.0806177 	0.76781 	-1.59179 	0.0116867 	3.13146 	90.1566 	116.666 	-0.591211 	113.5 	360.635 	267.515 	539.798 	
56.637 	-0.0105352 	-0.0805607 	0.772412 	-1.57434 	0.011493 	3.13126 	90.1566 	116.666 	-0.591211 	113.5 	360.635 	267.035 	539.798 	
56.7397 	-0.0105611 	-0.0805622 	0.774713 	-1.56562 	0.0113948 	3.13116 	90.1566 	116.666 	-0.591211 	113.5 	360.635 	266.493 	539.798 	
56.8429 	-0.0105872 	-0.0805839 	0.777013 	-1.55689 	0.0112957 	3.13106 	90.1566 	116.666 	-0.591211 	113.5 	360.635 	265.968 	539.798 	
56.9462 	-0.0106135 	-0.0806256 	0.779314 	-1.54817 	0.0111958 	3.13096 	90.1566 	116.666 	-0.591211 	113.5 	360.635 	265.492 	539.798 	
57.0489 	-0.0106401 	-0.0806874 	0.781614 	-1.53944 	0.0110951 	3.13087 	90.1566 	116.666 	-0.591211 	113.5 	360.635 	264.952 	539.798 	
57.152 	-0.0106669 	-0.0807693 	0.783914 	-1.53072 	0.0109934 	3.13077 	90.1566 	116.666 	-0.591211 	113.5 	360.635 	264.416 	539.798 	
57.255 	-0.0106939 	-0.0808712 	0.786212 	-1.52199 	0.010891 	3.13067 	90.1566 	116.666 	-0.591211 	113.5 	360.635 	263.932 	539.798 	
57.358 	-0.0107212 	-0.0809932 	0.78851 	-1.51327 	0.0107877 	3.13058 	90.1566 	116.666 	-0.591211 	113.5 	360.635 	263.467 	539.798 	
57.461 	-0.0107486 	-0.0811352 	0.790807 	-1.50454 	0.0106836 	3.13049 	90.1566 	116.666 	-0.591211 	113.5 	360.635 	262.872 	539.798 	
57.5642 	-0.0107763 	-0.0812973 	0.793102 	-1.49582 	0.0105787 	3.13039 	90.1566 	116.666 	-0.591211 	113.5 	360.635 	262.376 	539.798 	
57.6669 	-0.0108042 	-0.0814793 	0.795395 	-1.4871 	0.010473 	3.1303 	90.1566 	116.666 	-0.591211 	113.5 	360.635 	261.903 	539.798 	
57.7701 	-0.0108323 	-0.0816814 	0.797687 	-1.47837 	0.0103665 	3.13021 	90.1566 	116.666 	-0.591211 	113.5 	360.635 	261.319 	539.798 	
57.8782 	-0.0108606 	-0.0819035 	0.799978 	-1.46965 	0.0102591 	3.13012 	90.1566 	116.666 	-0.591211 	113.5 	360.635 	260.816 	539.798 	
57.9812 	-0.0108891 	-0.0821455 	0.802266 	-1.46092 	0.0101511 	3.13003 	90.1566 	116.666 	-0.591211 	113.5 	360.635 	260.297 	539.798 	
58.0842 	-0.0109178 	-0.0824075 	0.804552 	-1.4522 	0.0100422 	3.12994 	90.1566 	116.666 	-0.591211 	113.5 	360.635 	259.781 	539.798 	
58.187 	-0.0109467 	-0.0826894 	0.806835 	-1.44347 	0.00993258 	3.12986 	90.1566 	116.666 	-0.591211 	113.5 	360.635 	259.267 	539.798 	
58.2902 	-0.0109758 	-0.0829912 	0.809116 	-1.43475 	0.0098222 	3.12977 	90.1566 	116.666 	-0.591211 	113.5 	360.635 	258.75 	539.798 	
58.3932 	-0.0110051 	-0.083313 	0.811395 	-1.42603 	0.00971107 	3.12969 	90.1566 	116.666 	-0.591211 	113.5 	360.635 	258.233 	539.798 	
58.4964 	-0.0110346 	-0.0836546 	0.81367 	-1.4173 	0.0095992 	3.1296 	90.1566 	116.666 	-0.591211 	113.5 	360.635 	257.717 	539.798 	
58.5991 	-0.0110643 	-0.0840159 	0.815942 	-1.40858 	0.0094866 	3.12952 	90.1566 	116.666 	-0.591211 	113.5 	360.635 	257.203 	539.798 	
58.7023 	-0.0110942 	-0.0843972 	0.818211 	-1.39985 	0.00937328 	3.12944 	90.1566 	116.666 	-0.591211 	113.5 	360.635 	256.691 	539.798 	
58.8054 	-0.0111243 	-0.0847982 	0.820477 	-1.39113 	0.00925925 	3.12935 	90.1566 	116.666 	-0.591211 	113.5 	360.635 	256.165 	539.798 	
58.9083 	-0.0111546 	-0.0852191 	0.82274 	-1.3824 	0.00914448 	3.12927 	90.1566 	116.666 	-0.591211 	113.5 	360.635 	255.691 	539.798 	
59.0118 	-0.011185 	-0.0856598 	0.824999 	-1.37368 	0.00902901 	3.12919 	90.1566 	116.666 	-0.591211 	113.5 	360.635 	255.139 	539.798 	
59.1197 	-0.0112157 	-0.0861201 	0.827254 	-1.36495 	0.00891285 	3.12912 	90.1566 	116.666 	-0.591211 	113.5 	360.635 	254.556 	539.798 	
59.2221 	-0.0112465 	-0.0866001 	0.829505 	-1.35622 	0.00879601 	3.12904 	90.1566 	116.666 	-0.591211 	113.5 	360.635 	254.084 	539.798 	
59.3253 	-0.0112775 	-0.0870997 	0.831752 	-1.3475 	0.00867851 	3.12896 	90.1566 	116.666 	-0.591211 	113.5 	360.635 	253.593 	539.798 	
59.4307 	-0.0113086 	-0.0876189 	0.833994 	-1.33877 	0.00856035 	3.12889 	90.1566 	116.666 	-0.591211 	113.5 	360.635 	253.015 	539.798 	
59.5347 	-0.0113715 	-0.088716 	0.838464 	-1.32132 	0.00832207 	3.12874 	90.1566 	116.666 	-0.591211 	113.5 	360.635 	252.533 	539.798 	
59.6367 	-0.0114031 	-0.0892937 	0.840692 	-1.31259 	0.00820197 	3.12867 	90.1566 	116.666 	-0.591211 	113.5 	360.635 	252.048 	539.798 	
59.7402 	-0.011435 	-0.0898908 	0.842915 	-1.30386 	0.00808126 	3.1286 	90.1566 	116.666 	-0.591211 	113.5 	360.635 	251.461 	539.798 	
59.8431 	-0.011467 	-0.0905074 	0.845132 	-1.29514 	0.00795992 	3.12853 	90.1566 	116.666 	-0.591211 	113.5 	360.635 	250.969 	539.798 	
59.9462 	-0.0114991 	-0.0911432 	0.847344 	-1.28641 	0.00783799 	3.12846 	90.1566 	116.666 	-0.591211 	113.5 	360.635 	250.494 	539.798 	
60.0492 	-0.0115315 	-0.0917984 	0.849551 	-1.27768 	0.00771544 	3.12839 	90.1566 	116.666 	-0.591211 	113.5 	360.635 	249.92 	539.798 	
60.1521 	-0.0115639 	-0.0924728 	0.851751 	-1.26896 	0.00759232 	3.12832 	90.1566 	116.666 	-0.591211 	113.5 	360.635 	249.415 	539.798 	
60.255 	-0.0115966 	-0.0931663 	0.853946 	-1.26023 	0.00746862 	3.12826 	90.1566 	116.666 	-0.591211 	113.5 	360.635 	248.947 	539.798 	
60.3581 	-0.0116293 	-0.093879 	0.856134 	-1.2515 	0.00734435 	3.12819 	90.1566 	116.666 	-0.591211 	113.5 	360.635 	248.423 	539.798 	
60.4613 	-0.0116623 	-0.0946107 	0.858316 	-1.24278 	0.00721951 	3.12813 	90.1566 	116.666 	-0.591211 	113.5 	360.635 	247.856 	539.798 	
60.5638 	-0.0116953 	-0.0953615 	0.860492 	-1.23405 	0.00709413 	3.12807 	90.1566 	116.666 	-0.591211 	113.5 	360.635 	247.39 	539.798 	
60.667 	-0.0117285 	-0.0961312 	0.862661 	-1.22532 	0.00696821 	3.12801 	90.1566 	116.666 	-0.591211 	113.5 	360.635 	246.875 	539.798 	
60.7701 	-0.0117619 	-0.0969198 	0.864823 	-1.2166 	0.00684176 	3.12795 	90.1566 	116.666 	-0.591211 	113.5 	360.635 	246.31 	539.798 	
60.8782 	-0.0117954 	-0.0977273 	0.866979 	-1.20787 	0.00671479 	3.12789 	90.1566 	116.666 	-0.591211 	113.5 	360.635 	245.836 	539.798 	
60.9811 	-0.011829 	-0.0985536 	0.869127 	-1.19914 	0.0065873 	3.12783 	90.1566 	116.666 	-0.591211 	113.5 	360.635 	245.274 	539.798 	
61.0842 	-0.0118628 	-0.0993985 	0.871268 	-1.19042 	0.00645932 	3.12777 	90.1566 	116.666 	-0.591211 	113.5 	360.635 	244.747 	539.798 	
61.187 	-0.0118966 	-0.100262 	0.873401 	-1.18169 	0.00633084 	3.12772 	90.1566 	116.666 	-0.591211 	113.5 	360.635 	244.277 	539.798 	
61.2903 	-0.0119306 	-0.101144 	0.875527 	-1.17296 	0.00620189 	3.12766 	90.1566 	116.666 	-0.591211 	113.5 	360.635 	243.729 	539.798 	
61.3932 	-0.0119648 	-0.102045 	0.877645 	-1.16424 	0.00607245 	3.12761 	90.1566 	116.666 	-0.591211 	113.5 	360.635 	243.202 	539.798 	
61.4964 	-0.011999 	-0.102964 	0.879755 	-1.15551 	0.00594256 	3.12755 	90.1566 	116.666 	-0.591211 	113.5 	360.635 	242.731 	539.798 	
61.599 	-0.0120334 	-0.103902 	0.881857 	-1.14679 	0.00581221 	3.1275 	90.1566 	116.666 	-0.591211 	113.5 	360.635 	242.177 	539.798 	
61.7025 	-0.0120679 	-0.104858 	0.88395 	-1.13806 	0.00568143 	3.12745 	90.1566 	116.666 	-0.591211 	113.5 	360.635 	241.646 	539.798 	
61.8051 	-0.0121025 	-0.105832 	0.886035 	-1.12933 	0.00555021 	3.1274 	90.1566 	116.666 	-0.591211 	113.5 	360.635 	241.16 	539.798 	
61.9079 	-0.0121372 	-0.106824 	0.888112 	-1.12061 	0.00541855 	3.12736 	90.1566 	116.666 	-0.591211 	113.5 	360.635 	240.68 	539.798 	
62.0112 	-0.0121721 	-0.107834 	0.89018 	-1.11188 	0.0052865 	3.12731 	90.1566 	116.666 	-0.591211 	113.5 	360.635 	240.104 	539.798 	
62.1154 	-0.012207 	-0.108863 	0.892239 	-1.10315 	0.00515404 	3.12726 	90.1566 	116.666 	-0.591211 	113.5 	360.635 	239.605 	539.798 	
62.2192 	-0.0122421 	-0.109909 	0.894289 	-1.09443 	0.00502119 	3.12722 	90.1566 	116.666 	-0.591211 	113.5 	360.635 	239.078 	539.798 	
62.3222 	-0.0122772 	-0.110973 	0.89633 	-1.0857 	0.00488795 	3.12718 	90.1566 	116.666 	-0.591211 	113.5 	360.635 	238.552 	539.798 	
62.426 	-0.0123124 	-0.112055 	0.898361 	-1.07697 	0.00475435 	3.12713 	90.1566 	116.666 	-0.591211 	113.5 	360.635 	238.047 	539.798 	
62.5308 	-0.0123478 	-0.113155 	0.900383 	-1.06825 	0.00462038 	3.12709 	90.1566 	116.666 	-0.591211 	113.5 	360.635 	237.527 	539.798 	
62.6358 	-0.0124187 	-0.115406 	0.904397 	-1.0508 	0.0043514 	3.12702 	90.1566 	116.666 	-0.591211 	113.5 	360.635 	237.006 	539.798 	
62.738 	-0.0124543 	-0.116559 	0.90639 	-1.04207 	0.0042164 	3.12698 	90.1566 	116.666 	-0.591211 	113.5 	360.635 	236.495 	539.798 	
62.8411 	-0.01249 	-0.117728 	0.908372 	-1.03334 	0.00408109 	3.12694 	90.1566 	116.666 	-0.591211 	113.5 	360.635 	235.979 	539.798 	
62.9438 	-0.0125258 	-0.118915 	0.910344 	-1.02462 	0.00394547 	3.12691 	90.1566 	116.666 	-0.591211 	113.5 	360.635 	235.454 	539.798 	
63.0467 	-0.0125616 	-0.120119 	0.912305 	-1.01589 	0.00380954 	3.12687 	90.1566 	116.666 	-0.591211 	113.5 	360.635 	234.934 	539.798 	
63.15 	-0.0125975 	-0.12134 	0.914256 	-1.00716 	0.00367332 	3.12684 	90.1566 	116.666 	-0.591211 	113.5 	360.635 	234.416 	539.798 	
63.253 	-0.0126335 	-0.122578 	0.916197 	-0.998439 	0.00353683 	3.12681 	90.1566 	116.666 	-0.591211 	113.5 	360.635 	233.906 	539.798 	
63.3561 	-0.0126696 	-0.123833 	0.918126 	-0.989713 	0.00340006 	3.12678 	90.1566 	116.666 	-0.591211 	113.5 	360.635 	233.387 	539.798 	
63.459 	-0.0127058 	-0.125104 	0.920044 	-0.980987 	0.00326304 	3.12675 	90.1566 	116.666 	-0.591211 	113.5 	360.635 	232.868 	539.798 	
63.5623 	-0.012742 	-0.126393 	0.921951 	-0.972261 	0.00312577 	3.12672 	90.1566 	116.666 	-0.591211 	113.5 	360.635 	232.361 	539.798 	
63.6644 	-0.0127782 	-0.127698 	0.923847 	-0.963534 	0.00298826 	3.1267 	90.1566 	116.666 	-0.591211 	113.5 	360.635 	231.825 	539.798 	
63.7668 	-0.0128146 	-0.129019 	0.925731 	-0.954808 	0.00285052 	3.12667 	90.1566 	116.666 	-0.591211 	113.5 	360.635 	231.346 	539.798 	
63.8685 	-0.0128509 	-0.130357 	0.927604 	-0.946082 	0.00271257 	3.12665 	90.1566 	116.666 	-0.591211 	113.5 	360.635 	230.807 	539.798 	
63.9705 	-0.0128874 	-0.131711 	0.929465 	-0.937356 	0.00257441 	3.12662 	90.1566 	116.666 	-0.591211 	113.5 	360.635 	230.281 	539.798 	
64.0779 	-0.0129239 	-0.133081 	0.931314 	-0.92863 	0.00243605 	3.1266 	90.1566 	116.666 	-0.591211 	113.5 	360.635 	229.792 	539.798 	
64.181 	-0.0129604 	-0.134468 	0.933151 	-0.919904 	0.00229751 	3.12658 	90.1566 	116.666 	-0.591211 	113.5 	360.635 	229.257 	539.798 	
64.2826 	-0.012997 	-0.13587 	0.934976 	-0.911178 	0.00215879 	3.12656 	90.1566 	116.666 	-0.591211 	113.5 	360.635 	228.725 	539.798 	
64.3846 	-0.0130336 	-0.137288 	0.936789 	-0.902452 	0.00201991 	3.12654 	90.1566 	116.666 	-0.591211 	113.5 	360.635 	228.233 	539.798 	
64.4866 	-0.0130703 	-0.138722 	0.938589 	-0.893726 	0.00188087 	3.12653 	90.1566 	116.666 	-0.591211 	113.5 	360.635 	227.762 	539.798 	
64.5886 	-0.013107 	-0.140172 	0.940376 	-0.885 	0.00174169 	3.12651 	90.1566 	116.666 	-0.591211 	113.5 	360.635 	227.194 	539.798 	
64.6907 	-0.0131438 	-0.141637 	0.942151 	-0.876273 	0.00160238 	3.12649 	90.1566 	116.666 	-0.591211 	113.5 	360.635 	226.675 	539.798 	
64.7927 	-0.0131805 	-0.143118 	0.943913 	-0.867547 	0.00146295 	3.12648 	90.1566 	116.666 	-0.591211 	113.5 	360.635 	226.203 	539.798 	
64.8945 	-0.0132173 	-0.144614 	0.945662 	-0.858821 	0.0013234 	3.12647 	90.1566 	116.666 	-0.591211 	113.5 	360.635 	225.681 	539.798 	
64.9966 	-0.0132542 	-0.146125 	0.947398 	-0.850095 	0.00118376 	3.12646 	90.1566 	116.666 	-0.591211 	113.5 	360.635 	225.162 	539.798 	
65.0986 	-0.013291 	-0.147651 	0.949121 	-0.841369 	0.00104402 	3.12645 	90.1566 	116.666 	-0.591211 	113.5 	360.635 	224.648 	539.798 	
65.2007 	-0.0133279 	-0.149192 	0.95083 	-0.832643 	0.000904206 	3.12644 	90.1566 	116.666 	-0.591211 	113.5 	360.635 	224.131 	539.798 	
65.3037 	-0.0133648 	-0.150749 	0.952525 	-0.823917 	0.000764323 	3.12643 	90.1566 	116.666 	-0.591211 	113.5 	360.635 	223.609 	539.798 	
65.4066 	-0.0134017 	-0.152319 	0.954208 	-0.815191 	0.00062438 	3.12643 	90.1566 	116.666 	-0.591211 	113.5 	360.635 	223.137 	539.798 	
65.5086 	-0.0134386 	-0.153905 	0.955876 	-0.806465 	0.000484391 	3.12642 	90.1566 	116.666 	-0.591211 	113.5 	360.635 	222.575 	539.798 	
65.6106 	-0.0134756 	-0.155505 	0.95753 	-0.797739 	0.000344362 	3.12642 	90.1566 	116.666 	-0.591211 	113.5 	360.635 	222.05 	539.798 	
65.7176 	-0.0135125 	-0.157119 	0.95917 	-0.789013 	0.000204311 	3.12642 	90.1566 	116.666 	-0.591211 	113.5 	360.635 	221.576 	539.798 	
65.8196 	-0.0135494 	-0.158748 	0.960797 	-0.780287 	6.4244e-05 	3.12641 	90.1566 	116.666 	-0.591211 	113.5 	360.635 	221.031 	539.798 	
65.9216 	-0.0135864 	-0.160391 	0.962409 	-0.771561 	-7.58307e-05 	3.12641 	90.1566 	116.666 	-0.591211 	113.5 	360.635 	220.506 	539.798 	
66.0276 	-0.0136603 	-0.163718 	0.965589 	-0.754108 	-0.000355951 	3.12642 	90.1566 	116.666 	-0.591211 	113.5 	360.635 	220.075 	539.798 	
66.1316 	-0.0136972 	-0.165402 	0.967157 	-0.745383 	-0.000495974 	3.12642 	90.1566 	116.666 	-0.591211 	113.5 	360.635 	219.488 	539.798 	
66.2336 	-0.0137341 	-0.1671 	0.968711 	-0.736656 	-0.000635962 	3.12643 	90.1566 	116.666 	-0.591211 	113.5 	360.635 	218.951 	539.798 	
66.3356 	-0.013771 	-0.168812 	0.97025 	-0.72793 	-0.000775898 	3.12643 	90.1566 	116.666 	-0.591211 	113.5 	360.635 	218.459 	539.798 	
66.4387 	-0.0138079 	-0.170537 	0.971773 	-0.719204 	-0.000915779 	3.12644 	90.1566 	116.666 	-0.591211 	113.5 	360.635 	217.93 	539.798 	
66.5406 	-0.0138448 	-0.172275 	0.973282 	-0.710478 	-0.00105559 	3.12645 	90.1566 	116.666 	-0.591211 	113.5 	360.635 	217.398 	539.798 	
66.6425 	-0.0138816 	-0.174026 	0.974775 	-0.701752 	-0.00119531 	3.12646 	90.1566 	116.666 	-0.591211 	113.5 	360.635 	216.899 	539.798 	
66.7445 	-0.0139185 	-0.17579 	0.976253 	-0.693026 	-0.00133495 	3.12647 	90.1566 	116.666 	-0.591211 	113.5 	360.635 	216.427 	539.798 	
66.8467 	-0.0139553 	-0.177567 	0.977716 	-0.6843 	-0.00147449 	3.12648 	90.1566 	116.666 	-0.591211 	113.5 	360.635 	215.899 	539.798 	
66.9485 	-0.0139921 	-0.179357 	0.979163 	-0.675574 	-0.00161391 	3.1265 	90.1566 	116.666 	-0.591211 	113.5 	360.635 	215.333 	539.798 	
67.0506 	-0.0140288 	-0.181159 	0.980594 	-0.666848 	-0.00175321 	3.12651 	90.1566 	116.666 	-0.591211 	113.5 	360.635 	214.874 	539.798 	
67.1526 	-0.0140655 	-0.182974 	0.98201 	-0.658122 	-0.00189238 	3.12653 	90.1566 	116.666 	-0.591211 	113.5 	360.635 	214.355 	539.798 	
67.2547 	-0.0141022 	-0.184801 	0.983409 	-0.649396 	-0.0020314 	3.12654 	90.1566 	116.666 	-0.591211 	113.5 	360.635 	213.834 	539.798 	
67.3566 	-0.0141388 	-0.18664 	0.984793 	-0.64067 	-0.00217028 	3.12656 	90.1566 	116.666 	-0.591211 	113.5 	360.635 	213.368 	539.798 	
67.4585 	-0.0141754 	-0.188491 	0.986161 	-0.631944 	-0.00230898 	3.12658 	90.1566 	116.666 	-0.591211 	113.5 	360.635 	212.805 	539.798 	
67.5606 	-0.0142119 	-0.190354 	0.987512 	-0.623217 	-0.0024475 	3.1266 	90.1566 	116.666 	-0.591211 	113.5 	360.635 	212.276 	539.798 	
67.663 	-0.0142484 	-0.192229 	0.988847 	-0.614491 	-0.00258585 	3.12662 	90.1566 	116.666 	-0.591211 	113.5 	360.635 	211.799 	539.798 	
67.7655 	-0.0142848 	-0.194115 	0.990166 	-0.605765 	-0.00272399 	3.12665 	90.1566 	116.666 	-0.591211 	113.5 	360.635 	211.312 	539.798 	
67.8676 	-0.0143212 	-0.196013 	0.991468 	-0.597039 	-0.00286193 	3.12667 	90.1566 	116.666 	-0.591211 	113.5 	360.635 	210.787 	539.798 	
67.9697 	-0.0143575 	-0.197922 	0.992753 	-0.588313 	-0.00299964 	3.1267 	90.1566 	116.666 	-0.591211 	113.5 	360.635 	210.247 	539.798 	
68.0778 	-0.0143938 	-0.199842 	0.994022 	-0.579587 	-0.00313714 	3.12672 	90.1566 	116.666 	-0.591211 	113.5 	360.635 	209.749 	539.798 	
68.1797 	-0.01443 	-0.201773 	0.995274 	-0.570861 	-0.00327439 	3.12675 	90.1566 	116.666 	-0.591211 	113.5 	360.635 	209.167 	539.798 	
68.2817 	-0.0144661 	-0.203715 	0.996509 	-0.562134 	-0.00341139 	3.12678 	90.1566 	116.666 	-0.591211 	113.5 	360.635 	208.678 	539.798 	
68.3836 	-0.0145022 	-0.205668 	0.997727 	-0.553408 	-0.00354813 	3.12681 	90.1566 	116.666 	-0.591211 	113.5 	360.635 	208.201 	539.798 	
68.4856 	-0.0145382 	-0.207631 	0.998928 	-0.544682 	-0.0036846 	3.12684 	90.1566 	116.666 	-0.591211 	113.5 	360.635 	207.667 	539.798 	
68.5876 	-0.0145741 	-0.209605 	1.00011 	-0.535956 	-0.0038208 	3.12688 	90.1566 	116.666 	-0.591211 	113.5 	360.635 	207.176 	539.798 	
68.6895 	-0.01461 	-0.211589 	1.00128 	-0.52723 	-0.0039567 	3.12691 	90.1566 	116.666 	-0.591211 	113.5 	360.635 	206.654 	539.798 	
68.7916 	-0.0146457 	-0.213583 	1.00243 	-0.518504 	-0.0040923 	3.12694 	90.1566 	116.666 	-0.591211 	113.5 	360.635 	206.119 	539.798 	
68.8937 	-0.0146814 	-0.215587 	1.00356 	-0.509777 	-0.00422759 	3.12698 	90.1566 	116.666 	-0.591211 	113.5 	360.635 	205.611 	539.798 	
68.9956 	-0.014717 	-0.217601 	1.00467 	-0.501051 	-0.00436255 	3.12702 	90.1566 	116.666 	-0.591211 	113.5 	360.635 	205.145 	539.798 	
69.0976 	-0.0147525 	-0.219625 	1.00577 	-0.492325 	-0.00449719 	3.12706 	90.1566 	116.666 	-0.591211 	113.5 	360.635 	204.626 	539.798 	
69.1996 	-0.0147879 	-0.221657 	1.00685 	-0.483599 	-0.00463148 	3.1271 	90.1566 	116.666 	-0.591211 	113.5 	360.635 	204.058 	539.798 	
69.3017 	-0.0148233 	-0.2237 	1.00791 	-0.474873 	-0.00476542 	3.12714 	90.1566 	116.666 	-0.591211 	113.5 	360.635 	203.583 	539.798 	
69.4036 	-0.0148585 	-0.225751 	1.00895 	-0.466146 	-0.00489899 	3.12718 	90.1566 	116.666 	-0.591211 	113.5 	360.635 	203.072 	539.798 	
69.5056 	-0.0148936 	-0.227812 	1.00998 	-0.45742 	-0.0050322 	3.12722 	90.1566 	116.666 	-0.591211 	113.5 	360.635 	202.546 	539.798 	
69.6076 	-0.0149287 	-0.229881 	1.01099 	-0.448694 	-0.00516501 	3.12727 	90.1566 	116.666 	-0.591211 	113.5 	360.635 	202.068 	539.798 	
69.7096 	-0.0149636 	-0.231959 	1.01197 	-0.439967 	-0.00529744 	3.12731 	90.1566 	116.666 	-0.591211 	113.5 	360.635 	201.518 	539.798 	
69.8178 	-0.0149984 	-0.234046 	1.01295 	-0.431241 	-0.00542946 	3.12736 	90.1566 	116.666 	-0.591211 	113.5 	360.635 	200.989 	539.798 	
69.9206 	-0.0150331 	-0.236141 	1.0139 	-0.422515 	-0.00556108 	3.12741 	90.1566 	116.666 	-0.591211 	113.5 	360.635 	200.466 	539.798 	
70.0237 	-0.0150677 	-0.238244 	1.01483 	-0.413788 	-0.00569226 	3.12746 	90.1566 	116.666 	-0.591211 	113.5 	360.635 	199.97 	539.798 	
70.1276 	-0.0151022 	-0.240356 	1.01575 	-0.405062 	-0.00582301 	3.12751 	90.1566 	116.666 	-0.591211 	113.5 	360.635 	199.441 	539.798 	
70.2318 	-0.0151366 	-0.242475 	1.01665 	-0.396336 	-0.00595332 	3.12756 	90.1566 	116.666 	-0.591211 	113.5 	360.635 	198.948 	539.798 	
70.3346 	-0.0152049 	-0.246737 	1.01839 	-0.378883 	-0.00621257 	3.12767 	90.1566 	116.666 	-0.591211 	113.5 	360.635 	198.417 	539.798 	
70.4366 	-0.0152389 	-0.248879 	1.01923 	-0.370157 	-0.00634149 	3.12772 	90.1566 	116.666 	-0.591211 	113.5 	360.635 	197.886 	539.798 	
70.5386 	-0.0152728 	-0.251028 	1.02005 	-0.36143 	-0.00646993 	3.12778 	90.1566 	116.666 	-0.591211 	113.5 	360.635 	197.346 	539.798 	
70.6406 	-0.0153066 	-0.253185 	1.02086 	-0.352704 	-0.00659787 	3.12783 	90.1566 	116.666 	-0.591211 	113.5 	360.635 	196.872 	539.798 	
70.7427 	-0.0153402 	-0.255348 	1.02164 	-0.343977 	-0.00672532 	3.12789 	90.1566 	116.666 	-0.591211 	113.5 	360.635 	196.336 	539.798 	
70.8445 	-0.0153736 	-0.257518 	1.02241 	-0.335251 	-0.00685224 	3.12795 	90.1566 	116.666 	-0.591211 	113.5 	360.635 	195.83 	539.798 	
70.9467 	-0.015407 	-0.259695 	1.02315 	-0.326524 	-0.00697865 	3.12801 	90.1566 	116.666 	-0.591211 	113.5 	360.635 	195.359 	539.798 	
71.0485 	-0.0154402 	-0.261878 	1.02388 	-0.317798 	-0.00710453 	3.12807 	90.1566 	116.666 	-0.591211 	113.5 	360.635 	194.783 	539.798 	
71.1506 	-0.0154732 	-0.264068 	1.02459 	-0.309071 	-0.00722986 	3.12813 	90.1566 	116.666 	-0.591211 	113.5 	360.635 	194.275 	539.798 	
71.253 	-0.0155062 	-0.266263 	1.02528 	-0.300345 	-0.00735465 	3.1282 	90.1566 	116.666 	-0.591211 	113.5 	360.635 	193.803 	539.798 	
71.3562 	-0.0155389 	-0.268465 	1.02595 	-0.291618 	-0.00747887 	3.12826 	90.1566 	116.666 	-0.591211 	113.5 	360.635 	193.285 	539.798 	
71.4591 	-0.0155715 	-0.270672 	1.02661 	-0.282892 	-0.00760253 	3.12833 	90.1566 	116.666 	-0.591211 	113.5 	360.635 	192.711 	539.798 	
71.5623 	-0.015604 	-0.272885 	1.02724 	-0.274165 	-0.0077256 	3.1284 	90.1566 	116.666 	-0.591211 	113.5 	360.635 	192.247 	539.798 	
71.6653 	-0.0156363 	-0.275104 	1.02785 	-0.265439 	-0.00784809 	3.12846 	90.1566 	116.666 	-0.591211 	113.5 	360.635 	191.742 	539.798 	
71.7683 	-0.0156684 	-0.277327 	1.02845 	-0.256712 	-0.00796998 	3.12853 	90.1566 	116.666 	-0.591211 	113.5 	360.635 	191.209 	539.798 	
71.8713 	-0.0157004 	-0.279556 	1.02902 	-0.247986 	-0.00809126 	3.1286 	90.1566 	116.666 	-0.591211 	113.5 	360.635 	190.692 	539.798 	
71.9784 	-0.0157323 	-0.28179 	1.02957 	-0.239259 	-0.00821193 	3.12867 	90.1566 	116.666 	-0.591211 	113.5 	360.635 	190.196 	539.798 	
72.0812 	-0.0157639 	-0.284028 	1.03011 	-0.230532 	-0.00833198 	3.12875 	90.1566 	116.666 	-0.591211 	113.5 	360.635 	189.606 	539.798 	
72.1843 	-0.0157954 	-0.286271 	1.03063 	-0.221805 	-0.00845138 	3.12882 	90.1566 	116.666 	-0.591211 	113.5 	360.635 	189.123 	539.798 	
72.2872 	-0.0158267 	-0.288518 	1.03112 	-0.213079 	-0.00857015 	3.12889 	90.1566 	116.666 	-0.591211 	113.5 	360.635 	188.634 	539.798 	
72.3905 	-0.0158579 	-0.29077 	1.0316 	-0.204352 	-0.00868826 	3.12897 	90.1566 	116.666 	-0.591211 	113.5 	360.635 	188.044 	539.798 	
72.4932 	-0.0158889 	-0.293026 	1.03206 	-0.195625 	-0.00880571 	3.12905 	90.1566 	116.666 	-0.591211 	113.5 	360.635 	187.573 	539.798 	
72.5964 	-0.0159197 	-0.295285 	1.03249 	-0.186899 	-0.00892249 	3.12912 	90.1566 	116.666 	-0.591211 	113.5 	360.635 	187.088 	539.798 	
72.6994 	-0.0159503 	-0.297549 	1.03291 	-0.178172 	-0.00903859 	3.1292 	90.1566 	116.666 	-0.591211 	113.501 	360.635 	186.495 	539.798 	
72.8024 	-0.0159807 	-0.299816 	1.03331 	-0.169445 	-0.009154 	3.12928 	90.1566 	116.666 	-0.591211 	113.501 	360.635 	186.01 	539.798 	
72.9052 	-0.016011 	-0.302086 	1.03369 	-0.160718 	-0.00926871 	3.12936 	90.1566 	116.666 	-0.591211 	113.501 	360.635 	185.533 	539.798 	
73.0084 	-0.016041 	-0.30436 	1.03404 	-0.151992 	-0.00938272 	3.12944 	90.1566 	116.666 	-0.591211 	113.501 	360.635 	184.99 	539.798 	
73.1118 	-0.0160709 	-0.306636 	1.03438 	-0.143265 	-0.00949602 	3.12952 	90.1566 	116.666 	-0.591211 	113.501 	360.635 	184.447 	539.798 	
73.2174 	-0.0161006 	-0.308916 	1.0347 	-0.134538 	-0.00960859 	3.12961 	90.1566 	116.666 	-0.591211 	113.501 	360.635 	183.975 	539.798 	
73.3202 	-0.0161301 	-0.311198 	1.035 	-0.125811 	-0.00972043 	3.12969 	90.1566 	116.666 	-0.591211 	113.501 	360.635 	183.384 	539.798 	
73.4234 	-0.0161594 	-0.313483 	1.03528 	-0.117084 	-0.00983153 	3.12978 	90.1566 	116.666 	-0.591211 	113.501 	360.635 	182.88 	539.798 	
73.5259 	-0.0161885 	-0.31577 	1.03554 	-0.108357 	-0.00994187 	3.12986 	90.1566 	116.666 	-0.591211 	113.501 	360.635 	182.422 	539.798 	
73.6311 	-0.0162174 	-0.318059 	1.03578 	-0.0996302 	-0.0100515 	3.12995 	90.1566 	116.666 	-0.591211 	113.501 	360.635 	181.842 	539.798 	
73.734 	-0.0162746 	-0.322643 	1.03619 	-0.0821762 	-0.0102683 	3.13013 	90.1566 	116.666 	-0.591211 	113.501 	360.635 	181.33 	539.798 	
73.8369 	-0.0163029 	-0.324938 	1.03637 	-0.0734494 	-0.0103756 	3.13022 	90.1566 	116.666 	-0.591211 	113.501 	360.635 	180.863 	539.798 	
73.9403 	-0.016331 	-0.327234 	1.03653 	-0.0647222 	-0.0104821 	3.13031 	90.1566 	116.666 	-0.591211 	113.501 	360.635 	180.305 	539.798 	
74.0433 	-0.0163589 	-0.329531 	1.03667 	-0.0559953 	-0.0105878 	3.1304 	90.1566 	116.666 	-0.591211 	113.501 	360.635 	179.775 	539.798 	
74.146 	-0.0163865 	-0.33183 	1.03679 	-0.0472681 	-0.0106927 	3.13049 	90.1566 	116.666 	-0.591211 	113.501 	360.635 	179.299 	539.798 	
74.2494 	-0.016414 	-0.334129 	1.03689 	-0.0385412 	-0.0107967 	3.13059 	90.1566 	116.666 	-0.591211 	113.501 	360.635 	178.739 	539.798 	
74.3523 	-0.0164412 	-0.33643 	1.03696 	-0.0298142 	-0.0109 	3.13068 	90.1566 	116.666 	-0.591211 	113.501 	360.635 	178.215 	539.798 	
74.4552 	-0.0164682 	-0.338731 	1.03702 	-0.021087 	-0.0110024 	3.13078 	90.1566 	116.666 	-0.591211 	113.501 	360.635 	177.748 	539.798 	
74.5582 	-0.016495 	-0.341032 	1.03706 	-0.0123599 	-0.0111039 	3.13087 	90.1566 	116.666 	-0.591211 	113.501 	360.635 	177.247 	539.798 	
74.6611 	-0.0165216 	-0.343334 	1.03708 	-0.00363266 	-0.0112047 	3.13097 	90.1566 	116.666 	-0.591211 	113.501 	360.635 	176.652 	539.798 	
74.7642 	-0.0165479 	-0.345635 	1.03708 	0.00509439 	-0.0113045 	3.13107 	90.1566 	116.666 	-0.591211 	113.501 	360.635 	176.184 	539.798 	
74.8671 	-0.016574 	-0.347937 	1.03705 	0.0138217 	-0.0114036 	3.13117 	90.1566 	116.666 	-0.591211 	113.501 	360.635 	175.692 	539.798 	
74.9705 	-0.0165999 	-0.350238 	1.03701 	0.0225488 	-0.0115017 	3.13127 	90.1566 	116.666 	-0.591211 	113.501 	360.635 	175.098 	539.798 	
75.0782 	-0.0166255 	-0.352539 	1.03695 	0.0312761 	-0.011599 	3.13137 	90.1566 	116.666 	-0.591211 	113.501 	360.635 	174.625 	539.798 	
75.1814 	-0.016651 	-0.354839 	1.03687 	0.0400033 	-0.0116954 	3.13147 	90.1566 	116.666 	-0.591211 	113.501 	360.635 	174.093 	539.798 	
75.2844 	-0.0166762 	-0.357138 	1.03676 	0.0487304 	-0.0117909 	3.13157 	90.1566 	116.666 	-0.591211 	113.501 	360.635 	173.552 	539.798 	
75.3874 	-0.0167011 	-0.359437 	1.03664 	0.0574578 	-0.0118855 	3.13168 	90.1566 	116.666 	-0.591211 	113.501 	360.635 	173.063 	539.798 	
75.4905 	-0.0167258 	-0.361734 	1.0365 	0.066185 	-0.0119791 	3.13178 	90.1566 	116.666 	-0.591211 	113.501 	360.635 	172.535 	539.798 	
