RISC-NYUAD/HeavyPayloadDrone/projects/kinova-ros/devel/lib/ne_kinova_demo/VulcanTrajectory/Vulcan1_Vicon_y19m11d13h18min37.csv
time (NSec) 	Kinova Tip Position (t_x) 	t_y 	t_z 	Kinova Tip Angle (theta_x) 	Kinova Tip Angle (theta_y) 	Kinova Tip Angle (theta_z) 	Kinova Joint Angle (j1) 	(j2) 	(j3) 	(j4) 	Kinova Joint Angle (j5) 	(j6) 	(j7)
1.67045 	-0.00255779 	-0.519685 	0.147241 	1.66199 	0.0196338 	-3.12691 	90.161 	116.607 	-0.591113 	317.337 	360.634 	284.632 	539.793 	
1.77248 	-0.0025603 	-0.520865 	0.145038 	1.66164 	0.0195678 	-3.12686 	90.161 	116.541 	-0.591113 	317.219 	360.634 	284.632 	539.793 	
1.87437 	-0.00256224 	-0.522469 	0.141839 	1.66164 	0.0194824 	-3.12681 	90.161 	116.18 	-0.591113 	316.822 	360.634 	284.632 	539.793 	
1.97639 	-0.00256445 	-0.524044 	0.138627 	1.66165 	0.0193966 	-3.12676 	90.161 	115.7 	-0.591113 	316.333 	360.634 	284.632 	539.793 	
2.07849 	-0.00256694 	-0.525591 	0.135401 	1.66165 	0.0193103 	-3.1267 	90.161 	115.202 	-0.591113 	315.836 	360.634 	284.632 	539.793 	
2.18032 	-0.00256969 	-0.52711 	0.132161 	1.66165 	0.0192236 	-3.12665 	90.161 	114.694 	-0.591113 	315.333 	360.634 	284.632 	539.793 	
2.28256 	-0.00257271 	-0.528601 	0.128908 	1.66165 	0.0191364 	-3.1266 	90.161 	114.151 	-0.591113 	314.789 	360.634 	284.632 	539.793 	
2.38432 	-0.002576 	-0.530064 	0.125642 	1.66165 	0.0190488 	-3.12655 	90.161 	113.643 	-0.591113 	314.288 	360.634 	284.632 	539.793 	
2.48648 	-0.00257955 	-0.531497 	0.122364 	1.66166 	0.0189608 	-3.12651 	90.161 	113.15 	-0.591113 	313.782 	360.634 	284.632 	539.793 	
2.58888 	-0.00258338 	-0.532902 	0.119073 	1.66166 	0.0188723 	-3.12646 	90.161 	112.641 	-0.591113 	313.287 	360.634 	284.632 	539.793 	
2.69216 	-0.00258747 	-0.534279 	0.11577 	1.66166 	0.0187835 	-3.12641 	90.161 	112.141 	-0.591113 	312.782 	360.634 	284.632 	539.793 	
2.79548 	-0.00259183 	-0.535626 	0.112456 	1.66166 	0.0186942 	-3.12636 	90.161 	111.588 	-0.591113 	312.24 	360.634 	284.632 	539.793 	
2.90193 	-0.00259646 	-0.536945 	0.109129 	1.66167 	0.0186045 	-3.12632 	90.161 	111.091 	-0.591113 	311.734 	360.634 	284.632 	539.793 	
3.00486 	-0.00260136 	-0.538234 	0.105791 	1.66167 	0.0185145 	-3.12627 	90.161 	110.534 	-0.591113 	311.184 	360.634 	284.632 	539.793 	
3.10802 	-0.00260652 	-0.539494 	0.102442 	1.66167 	0.0184241 	-3.12623 	90.161 	110.032 	-0.591113 	310.681 	360.634 	284.632 	539.793 	
3.21085 	-0.00261195 	-0.540725 	0.0990824 	1.66167 	0.0183332 	-3.12619 	90.161 	109.537 	-0.591113 	310.19 	360.634 	284.632 	539.793 	
3.31372 	-0.00261764 	-0.541927 	0.0957118 	1.66168 	0.018242 	-3.12615 	90.161 	108.982 	-0.591113 	309.638 	360.634 	284.632 	539.793 	
3.41731 	-0.0026236 	-0.543099 	0.0923311 	1.66168 	0.0181505 	-3.1261 	90.161 	108.483 	-0.591113 	309.136 	360.634 	284.632 	539.793 	
3.5198 	-0.00262982 	-0.544241 	0.0889401 	1.66168 	0.0180586 	-3.12606 	90.161 	107.977 	-0.591113 	308.636 	360.634 	284.632 	539.793 	
3.62318 	-0.00263631 	-0.545354 	0.0855393 	1.66168 	0.0179663 	-3.12602 	90.161 	107.435 	-0.591113 	308.09 	360.634 	284.632 	539.793 	
3.72624 	-0.00264306 	-0.546438 	0.0821289 	1.66169 	0.0178737 	-3.12598 	90.161 	106.925 	-0.591113 	307.587 	360.634 	284.632 	539.793 	
3.82914 	-0.00265008 	-0.547491 	0.0787092 	1.66169 	0.0177808 	-3.12595 	90.161 	106.424 	-0.591113 	307.086 	360.634 	284.632 	539.793 	
3.93202 	-0.00265736 	-0.548515 	0.0752804 	1.66169 	0.0176875 	-3.12591 	90.161 	105.923 	-0.591113 	306.584 	360.634 	284.632 	539.793 	
4.0353 	-0.0026649 	-0.549508 	0.0718428 	1.66169 	0.0175939 	-3.12587 	90.161 	105.377 	-0.591113 	306.035 	360.634 	284.632 	539.793 	
4.143 	-0.0026727 	-0.550472 	0.0683965 	1.6617 	0.0175 	-3.12584 	90.161 	104.822 	-0.591113 	305.488 	360.634 	284.632 	539.793 	
4.24602 	-0.00268076 	-0.551405 	0.0649421 	1.6617 	0.0174057 	-3.1258 	90.161 	104.317 	-0.591113 	304.986 	360.634 	284.632 	539.793 	
4.34868 	-0.00268909 	-0.552309 	0.0614797 	1.6617 	0.0173112 	-3.12577 	90.161 	103.819 	-0.591113 	304.485 	360.634 	284.632 	539.793 	
4.45469 	-0.00270652 	-0.554024 	0.0545317 	1.66171 	0.0171213 	-3.1257 	90.161 	103.266 	-0.591113 	303.932 	360.634 	284.632 	539.793 	
4.56008 	-0.00271562 	-0.554837 	0.0510467 	1.66171 	0.0170259 	-3.12567 	90.161 	102.769 	-0.591113 	303.439 	360.634 	284.632 	539.793 	
4.66282 	-0.00272498 	-0.555619 	0.0475548 	1.66171 	0.0169302 	-3.12564 	90.161 	102.217 	-0.591113 	302.886 	360.634 	284.632 	539.793 	
4.76578 	-0.00273459 	-0.55637 	0.0440562 	1.66171 	0.0168343 	-3.12561 	90.161 	101.714 	-0.591113 	302.39 	360.634 	284.632 	539.793 	
4.86911 	-0.00274446 	-0.557091 	0.0405511 	1.66172 	0.0167381 	-3.12558 	90.161 	101.209 	-0.591113 	301.887 	360.634 	284.632 	539.793 	
4.97191 	-0.00275459 	-0.557781 	0.0370399 	1.66172 	0.0166417 	-3.12555 	90.161 	100.728 	-0.591113 	301.397 	360.634 	284.632 	539.793 	
5.07487 	-0.00276498 	-0.558441 	0.0335229 	1.66172 	0.016545 	-3.12552 	90.161 	100.169 	-0.591113 	300.839 	360.634 	284.632 	539.793 	
5.1781 	-0.00277562 	-0.55907 	0.03 	1.66173 	0.0164481 	-3.1255 	90.161 	99.6622 	-0.591113 	300.335 	360.634 	284.632 	539.793 	
5.28065 	-0.00278651 	-0.559668 	0.0264719 	1.66173 	0.016351 	-3.12547 	90.161 	99.1616 	-0.591113 	299.836 	360.634 	284.632 	539.793 	
5.38402 	-0.00279765 	-0.560235 	0.0229388 	1.66173 	0.0162536 	-3.12545 	90.161 	98.6144 	-0.591113 	299.287 	360.634 	284.632 	539.793 	
5.48694 	-0.00280904 	-0.560771 	0.0194007 	1.66173 	0.0161561 	-3.12542 	90.161 	98.1118 	-0.591113 	298.794 	360.634 	284.632 	539.793 	
5.58999 	-0.00282069 	-0.561277 	0.015858 	1.66174 	0.0160583 	-3.1254 	90.161 	97.6052 	-0.591113 	298.287 	360.634 	284.632 	539.793 	
5.693 	-0.00283258 	-0.561751 	0.0123111 	1.66174 	0.0159603 	-3.12538 	90.161 	97.0542 	-0.591113 	297.735 	360.634 	284.632 	539.793 	
5.7962 	-0.00284473 	-0.562195 	0.00876026 	1.66174 	0.0158621 	-3.12536 	90.161 	96.555 	-0.591113 	297.238 	360.634 	284.632 	539.793 	
5.90252 	-0.00285712 	-0.562608 	0.00520561 	1.66175 	0.0157638 	-3.12534 	90.161 	96.0541 	-0.591113 	296.74 	360.634 	284.632 	539.793 	
6.00496 	-0.00286976 	-0.562989 	0.0016475 	1.66175 	0.0156652 	-3.12532 	90.161 	95.5115 	-0.591113 	296.187 	360.634 	284.632 	539.793 	
6.10815 	-0.00288264 	-0.56334 	-0.00191381 	1.66175 	0.0155665 	-3.1253 	90.161 	95.0036 	-0.591113 	295.688 	360.634 	284.632 	539.793 	
6.21096 	-0.00289577 	-0.563659 	-0.00547803 	1.66175 	0.0154677 	-3.12528 	90.161 	94.5028 	-0.591113 	295.188 	360.634 	284.632 	539.793 	
6.3142 	-0.00290915 	-0.563947 	-0.00904503 	1.66176 	0.0153687 	-3.12526 	90.161 	93.9555 	-0.591113 	294.642 	360.634 	284.632 	539.793 	
6.41736 	-0.00292277 	-0.564205 	-0.0126143 	1.66176 	0.0152695 	-3.12524 	90.161 	93.4579 	-0.591113 	294.14 	360.634 	284.632 	539.793 	
6.51996 	-0.00293663 	-0.564431 	-0.0161857 	1.66176 	0.0151702 	-3.12523 	90.161 	92.9548 	-0.591113 	293.641 	360.634 	284.632 	539.793 	
6.62302 	-0.00295073 	-0.564625 	-0.019759 	1.66177 	0.0150708 	-3.12521 	90.161 	92.4022 	-0.591113 	293.138 	360.634 	284.632 	539.793 	
6.72606 	-0.00296507 	-0.564789 	-0.0233338 	1.66177 	0.0149712 	-3.1252 	90.161 	91.9008 	-0.591113 	292.588 	360.634 	284.632 	539.793 	
6.829 	-0.00297965 	-0.564922 	-0.02691 	1.66177 	0.0148716 	-3.12519 	90.161 	91.4052 	-0.591113 	292.089 	360.634 	284.632 	539.793 	
6.93216 	-0.00299446 	-0.565023 	-0.0304871 	1.66178 	0.0147718 	-3.12518 	90.161 	90.901 	-0.591113 	291.586 	360.634 	284.632 	539.793 	
7.03486 	-0.00300952 	-0.565093 	-0.034065 	1.66178 	0.0146719 	-3.12516 	90.161 	90.3508 	-0.591113 	291.041 	360.634 	284.632 	539.793 	
7.14253 	-0.00302481 	-0.565132 	-0.0376435 	1.66178 	0.0145719 	-3.12515 	90.161 	89.8572 	-0.591113 	290.536 	360.634 	284.632 	539.793 	
7.2451 	-0.00304033 	-0.565139 	-0.0412221 	1.66178 	0.0144719 	-3.12515 	90.161 	89.3036 	-0.591113 	289.993 	360.634 	284.632 	539.793 	
7.34786 	-0.00305609 	-0.565116 	-0.0448007 	1.66179 	0.0143717 	-3.12514 	90.161 	88.8084 	-0.591113 	289.492 	360.634 	284.632 	539.793 	
7.4526 	-0.0030883 	-0.564975 	-0.0519565 	1.66179 	0.0141713 	-3.12512 	90.161 	88.2553 	-0.591113 	288.989 	360.634 	284.632 	539.793 	
7.55697 	-0.00310475 	-0.564857 	-0.0555333 	1.6618 	0.0140709 	-3.12512 	90.161 	87.7562 	-0.591113 	288.435 	360.634 	284.632 	539.793 	
7.66061 	-0.00312142 	-0.564709 	-0.0591089 	1.6618 	0.0139706 	-3.12511 	90.161 	87.2556 	-0.591113 	287.942 	360.634 	284.632 	539.793 	
7.7627 	-0.00313832 	-0.564529 	-0.062683 	1.6618 	0.0138702 	-3.12511 	90.161 	86.7081 	-0.591113 	287.441 	360.634 	284.632 	539.793 	
7.86624 	-0.00315545 	-0.564318 	-0.0662556 	1.66181 	0.0137697 	-3.1251 	90.161 	86.2083 	-0.591113 	286.887 	360.634 	284.632 	539.793 	
7.96892 	-0.00317281 	-0.564076 	-0.0698261 	1.66181 	0.0136692 	-3.1251 	90.161 	85.7083 	-0.591113 	286.39 	360.634 	284.632 	539.793 	
8.07232 	-0.00319039 	-0.563803 	-0.0733943 	1.66181 	0.0135688 	-3.1251 	90.161 	85.2029 	-0.591113 	285.888 	360.634 	284.632 	539.793 	
8.17513 	-0.00320818 	-0.563498 	-0.0769601 	1.66182 	0.0134683 	-3.1251 	90.161 	84.6562 	-0.591113 	285.342 	360.634 	284.632 	539.793 	
8.27808 	-0.0032262 	-0.563163 	-0.080523 	1.66182 	0.0133678 	-3.1251 	90.161 	84.1514 	-0.591113 	284.841 	360.634 	284.632 	539.793 	
8.38115 	-0.00324444 	-0.562796 	-0.0840829 	1.66182 	0.0132673 	-3.1251 	90.161 	83.6538 	-0.591113 	284.341 	360.634 	284.632 	539.793 	
8.48408 	-0.0032629 	-0.562399 	-0.0876395 	1.66183 	0.0131668 	-3.1251 	90.161 	83.1064 	-0.591113 	283.786 	360.634 	284.632 	539.793 	
8.58705 	-0.00328157 	-0.56197 	-0.0911925 	1.66183 	0.0130663 	-3.12511 	90.161 	82.6062 	-0.591113 	283.295 	360.634 	284.632 	539.793 	
8.69012 	-0.00330046 	-0.561511 	-0.0947416 	1.66183 	0.0129659 	-3.12511 	90.161 	82.1096 	-0.591113 	282.789 	360.634 	284.632 	539.793 	
8.79307 	-0.00331955 	-0.56102 	-0.0982867 	1.66184 	0.0128655 	-3.12511 	90.161 	81.5579 	-0.591113 	282.294 	360.634 	284.632 	539.793 	
8.89633 	-0.00333887 	-0.560499 	-0.101827 	1.66184 	0.0127652 	-3.12512 	90.161 	81.0599 	-0.591113 	281.743 	360.634 	284.632 	539.793 	
9.00205 	-0.00335839 	-0.559946 	-0.105363 	1.66184 	0.0126649 	-3.12513 	90.161 	80.5564 	-0.591113 	281.242 	360.634 	284.632 	539.793 	
9.10486 	-0.00337812 	-0.559363 	-0.108894 	1.66185 	0.0125647 	-3.12513 	90.161 	80.0112 	-0.591113 	280.69 	360.634 	284.632 	539.793 	
9.2081 	-0.00339806 	-0.558749 	-0.11242 	1.66185 	0.0124645 	-3.12514 	90.161 	79.5092 	-0.591113 	280.193 	360.634 	284.632 	539.793 	
9.311 	-0.0034182 	-0.558104 	-0.11594 	1.66185 	0.0123644 	-3.12515 	90.161 	79.0129 	-0.591113 	279.694 	360.634 	284.632 	539.793 	
9.41431 	-0.00343855 	-0.557429 	-0.119455 	1.66186 	0.0122644 	-3.12516 	90.161 	78.4551 	-0.591113 	279.14 	360.634 	284.632 	539.793 	
9.51723 	-0.0034591 	-0.556723 	-0.122963 	1.66186 	0.0121645 	-3.12517 	90.161 	77.9633 	-0.591113 	278.646 	360.634 	284.632 	539.793 	
9.62035 	-0.00347985 	-0.555986 	-0.126465 	1.66186 	0.0120646 	-3.12518 	90.161 	77.4606 	-0.591113 	278.141 	360.634 	284.632 	539.793 	
9.72323 	-0.00350081 	-0.555219 	-0.129961 	1.66187 	0.0119649 	-3.1252 	90.161 	76.9142 	-0.591113 	277.643 	360.634 	284.632 	539.793 	
9.82646 	-0.00352196 	-0.554421 	-0.13345 	1.66187 	0.0118653 	-3.12521 	90.161 	76.4139 	-0.591113 	277.092 	360.634 	284.632 	539.793 	
9.92926 	-0.0035433 	-0.553593 	-0.136932 	1.66187 	0.0117658 	-3.12522 	90.161 	75.9203 	-0.591113 	276.597 	360.634 	284.632 	539.793 	
10.0323 	-0.00356484 	-0.552735 	-0.140406 	1.66188 	0.0116665 	-3.12524 	90.161 	75.4191 	-0.591113 	276.091 	360.634 	284.632 	539.793 	
10.1353 	-0.00358658 	-0.551846 	-0.143873 	1.66188 	0.0115673 	-3.12525 	90.161 	74.8652 	-0.591113 	275.542 	360.634 	284.632 	539.793 	
10.2433 	-0.00360851 	-0.550927 	-0.147332 	1.66188 	0.0114682 	-3.12527 	90.161 	74.3212 	-0.591113 	275.042 	360.634 	284.632 	539.793 	
10.3461 	-0.00363062 	-0.549978 	-0.150782 	1.66189 	0.0113693 	-3.12529 	90.161 	73.8135 	-0.591113 	274.493 	360.634 	284.632 	539.793 	
10.4489 	-0.00365293 	-0.548999 	-0.154225 	1.66189 	0.0112705 	-3.12531 	90.161 	73.327 	-0.591113 	273.994 	360.634 	284.632 	539.793 	
10.5549 	-0.00367542 	-0.54799 	-0.157658 	1.66189 	0.0111719 	-3.12533 	90.161 	72.7668 	-0.591113 	273.446 	360.634 	284.632 	539.793 	
10.6592 	-0.00372095 	-0.545882 	-0.164499 	1.6619 	0.0109752 	-3.12537 	90.161 	72.28 	-0.591113 	272.942 	360.634 	284.632 	539.793 	
10.762 	-0.00374399 	-0.544783 	-0.167905 	1.6619 	0.0108772 	-3.12539 	90.161 	71.7674 	-0.591113 	272.44 	360.634 	284.632 	539.793 	
10.865 	-0.00376721 	-0.543655 	-0.171301 	1.66191 	0.0107793 	-3.12541 	90.161 	71.2332 	-0.591113 	271.899 	360.634 	284.632 	539.793 	
10.968 	-0.00379061 	-0.542497 	-0.174688 	1.66191 	0.0106816 	-3.12544 	90.161 	70.7229 	-0.591113 	271.391 	360.634 	284.632 	539.793 	
11.0713 	-0.00381418 	-0.541309 	-0.178064 	1.66192 	0.0105842 	-3.12546 	90.161 	70.2269 	-0.591113 	270.894 	360.634 	284.632 	539.793 	
11.1742 	-0.00383793 	-0.540092 	-0.18143 	1.66192 	0.0104869 	-3.12549 	90.161 	69.6822 	-0.591113 	270.343 	360.634 	284.632 	539.793 	
11.2772 	-0.00386185 	-0.538846 	-0.184785 	1.66192 	0.0103899 	-3.12551 	90.161 	69.1811 	-0.591113 	269.845 	360.634 	284.632 	539.793 	
11.3801 	-0.00388594 	-0.537571 	-0.188129 	1.66193 	0.0102932 	-3.12554 	90.161 	68.6833 	-0.591113 	269.347 	360.634 	284.632 	539.793 	
11.483 	-0.00389951 	-0.535283 	-0.191942 	1.66504 	0.0102314 	-3.12555 	90.161 	68.1349 	-0.591113 	268.965 	360.634 	284.632 	539.793 	
11.5861 	-0.00389378 	-0.531183 	-0.196596 	1.67376 	0.0102326 	-3.12554 	90.161 	67.6409 	-0.591113 	268.884 	360.634 	284.632 	539.793 	
11.6894 	-0.003888 	-0.527043 	-0.201213 	1.68249 	0.0102339 	-3.12553 	90.161 	67.1391 	-0.591113 	268.881 	360.634 	284.632 	539.793 	
11.7921 	-0.00388217 	-0.522863 	-0.205795 	1.69122 	0.0102353 	-3.12552 	90.161 	66.648 	-0.591113 	268.88 	360.634 	284.632 	539.793 	
11.8957 	-0.00387627 	-0.518643 	-0.21034 	1.69995 	0.0102368 	-3.1255 	90.161 	66.0922 	-0.591113 	268.879 	360.634 	284.632 	539.793 	
11.9977 	-0.00387033 	-0.514383 	-0.214847 	1.70867 	0.0102384 	-3.12549 	90.161 	65.6031 	-0.591113 	268.877 	360.634 	284.632 	539.793 	
12.102 	-0.00386432 	-0.510084 	-0.219318 	1.7174 	0.0102402 	-3.12548 	90.161 	65.0991 	-0.591113 	268.875 	360.634 	284.632 	539.793 	
12.2056 	-0.00385827 	-0.505746 	-0.223751 	1.72613 	0.010242 	-3.12547 	90.161 	64.5588 	-0.591113 	268.875 	360.634 	284.632 	539.793 	
12.2239 	-0.00385827 	-0.505746 	-0.223751 	1.72613 	0.010242 	-3.12547 	90.161 	64.4637 	-0.591113 	268.874 	360.634 	284.632 	539.793 	
12.3273 	-0.00384935 	-0.502594 	-0.226797 	1.73311 	0.0102604 	-3.12546 	90.161 	64.3408 	-0.591113 	268.966 	360.634 	284.632 	539.793 	
12.4304 	-0.00382549 	-0.504117 	-0.223559 	1.7331 	0.010357 	-3.12543 	90.161 	64.6265 	-0.591113 	269.347 	360.634 	284.632 	539.793 	
12.5333 	-0.00380181 	-0.505613 	-0.220307 	1.7331 	0.0104539 	-3.12541 	90.161 	65.1052 	-0.591113 	269.822 	360.634 	284.632 	539.793 	
12.6361 	-0.00377829 	-0.50708 	-0.217043 	1.7331 	0.0105511 	-3.12538 	90.161 	65.602 	-0.591113 	270.366 	360.634 	284.632 	539.793 	
12.7435 	-0.00375496 	-0.508518 	-0.213766 	1.73309 	0.0106484 	-3.12535 	90.161 	66.1534 	-0.591113 	270.871 	360.634 	284.632 	539.793 	
12.8462 	-0.00373179 	-0.509928 	-0.210476 	1.73309 	0.010746 	-3.12533 	90.161 	66.6439 	-0.591113 	271.417 	360.634 	284.632 	539.793 	
12.949 	-0.00370881 	-0.511309 	-0.207174 	1.73309 	0.0108437 	-3.12531 	90.161 	67.1567 	-0.591113 	271.919 	360.634 	284.632 	539.793 	
13.0551 	-0.00368601 	-0.512661 	-0.203861 	1.73308 	0.0109417 	-3.12528 	90.161 	67.6803 	-0.591113 	272.469 	360.634 	284.632 	539.793 	
13.1588 	-0.00364095 	-0.515279 	-0.197198 	1.73308 	0.0111382 	-3.12524 	90.161 	68.2043 	-0.591113 	272.97 	360.634 	284.632 	539.793 	
13.2621 	-0.00361869 	-0.516544 	-0.193851 	1.73307 	0.0112367 	-3.12522 	90.161 	68.6782 	-0.591113 	273.463 	360.634 	284.632 	539.793 	
13.3646 	-0.00359662 	-0.517779 	-0.190492 	1.73307 	0.0113354 	-3.1252 	90.161 	69.2534 	-0.591113 	274.019 	360.634 	284.632 	539.793 	
13.467 	-0.00357474 	-0.518986 	-0.187122 	1.73307 	0.0114343 	-3.12519 	90.161 	69.7211 	-0.591113 	274.515 	360.634 	284.632 	539.793 	
13.57 	-0.00355305 	-0.520162 	-0.183742 	1.73306 	0.0115333 	-3.12517 	90.161 	70.2419 	-0.591113 	275.017 	360.634 	284.632 	539.793 	
13.6731 	-0.00353156 	-0.52131 	-0.180352 	1.73306 	0.0116324 	-3.12515 	90.161 	70.7731 	-0.591113 	275.515 	360.634 	284.632 	539.793 	
13.7757 	-0.00351025 	-0.522428 	-0.176953 	1.73306 	0.0117317 	-3.12514 	90.161 	71.2843 	-0.591113 	276.065 	360.634 	284.632 	539.793 	
13.8787 	-0.00348914 	-0.523515 	-0.173543 	1.73305 	0.0118311 	-3.12512 	90.161 	71.7802 	-0.591113 	276.564 	360.634 	284.632 	539.793 	
13.981 	-0.00346823 	-0.524574 	-0.170124 	1.73305 	0.0119307 	-3.12511 	90.161 	72.2683 	-0.591113 	277.066 	360.634 	284.632 	539.793 	
14.0841 	-0.00344751 	-0.525602 	-0.166696 	1.73305 	0.0120303 	-3.1251 	90.161 	72.8299 	-0.591113 	277.619 	360.634 	284.632 	539.793 	
14.1869 	-0.003427 	-0.5266 	-0.16326 	1.73304 	0.0121301 	-3.12508 	90.161 	73.3149 	-0.591113 	278.118 	360.634 	284.632 	539.793 	
14.2901 	-0.00340669 	-0.527569 	-0.159814 	1.73304 	0.01223 	-3.12507 	90.161 	73.8351 	-0.591113 	278.618 	360.634 	284.632 	539.793 	
14.3932 	-0.00338657 	-0.528507 	-0.156361 	1.73304 	0.0123299 	-3.12506 	90.161 	74.3528 	-0.591113 	279.116 	360.634 	284.632 	539.793 	
14.4963 	-0.00336667 	-0.529415 	-0.152899 	1.73303 	0.01243 	-3.12505 	90.161 	74.8792 	-0.591113 	279.667 	360.634 	284.632 	539.793 	
14.6018 	-0.00334697 	-0.530293 	-0.149429 	1.73303 	0.0125301 	-3.12504 	90.161 	75.3546 	-0.591113 	280.162 	360.634 	284.632 	539.793 	
14.7051 	-0.00332747 	-0.53114 	-0.145952 	1.73302 	0.0126303 	-3.12504 	90.161 	75.9296 	-0.591113 	280.719 	360.634 	284.632 	539.793 	
14.8082 	-0.00330819 	-0.531958 	-0.142468 	1.73302 	0.0127306 	-3.12503 	90.161 	76.4021 	-0.591113 	281.213 	360.634 	284.632 	539.793 	
14.9113 	-0.00328911 	-0.532744 	-0.138977 	1.73302 	0.0128309 	-3.12502 	90.161 	76.9185 	-0.591113 	281.716 	360.634 	284.632 	539.793 	
15.0141 	-0.00327025 	-0.5335 	-0.135479 	1.73302 	0.0129313 	-3.12502 	90.161 	77.4534 	-0.591113 	282.267 	360.634 	284.632 	539.793 	
15.1173 	-0.0032516 	-0.534226 	-0.131974 	1.73301 	0.0130317 	-3.12501 	90.161 	77.9645 	-0.591113 	282.763 	360.634 	284.632 	539.793 	
15.2202 	-0.00323316 	-0.534921 	-0.128464 	1.73301 	0.0131321 	-3.12501 	90.161 	78.461 	-0.591113 	283.266 	360.634 	284.632 	539.793 	
15.3232 	-0.00321494 	-0.535586 	-0.124947 	1.73301 	0.0132326 	-3.12501 	90.161 	78.998 	-0.591113 	283.763 	360.634 	284.632 	539.793 	
15.4264 	-0.00319694 	-0.536219 	-0.121425 	1.733 	0.0133331 	-3.12501 	90.161 	79.5144 	-0.591113 	284.315 	360.634 	284.632 	539.793 	
15.5293 	-0.00317916 	-0.536822 	-0.117897 	1.733 	0.0134336 	-3.12501 	90.161 	79.9972 	-0.591113 	284.815 	360.634 	284.632 	539.793 	
15.6321 	-0.0031616 	-0.537394 	-0.114365 	1.733 	0.0135341 	-3.12501 	90.161 	80.5162 	-0.591113 	285.317 	360.634 	284.632 	539.793 	
15.7356 	-0.00314425 	-0.537936 	-0.110827 	1.73299 	0.0136346 	-3.12501 	90.161 	81.0397 	-0.591113 	285.859 	360.634 	284.632 	539.793 	
15.8429 	-0.00312714 	-0.538446 	-0.107285 	1.73299 	0.0137351 	-3.12501 	90.161 	81.6132 	-0.591113 	286.364 	360.634 	284.632 	539.793 	
15.946 	-0.00311024 	-0.538925 	-0.103739 	1.73299 	0.0138355 	-3.12501 	90.161 	82.0854 	-0.591113 	286.912 	360.634 	284.632 	539.793 	
16.0495 	-0.00309357 	-0.539374 	-0.100188 	1.73298 	0.0139359 	-3.12502 	90.161 	82.6137 	-0.591113 	287.416 	360.634 	284.632 	539.793 	
16.1549 	-0.00307713 	-0.539791 	-0.096634 	1.73298 	0.0140363 	-3.12502 	90.161 	83.1387 	-0.591113 	287.962 	360.634 	284.632 	539.793 	
16.2588 	-0.00306091 	-0.540178 	-0.0930761 	1.73298 	0.0141367 	-3.12503 	90.161 	83.654 	-0.591113 	288.464 	360.634 	284.632 	539.793 	
16.3621 	-0.00302917 	-0.540857 	-0.0859513 	1.73297 	0.0143372 	-3.12504 	90.161 	84.1435 	-0.591113 	288.962 	360.634 	284.632 	539.793 	
16.4651 	-0.00301365 	-0.541151 	-0.0823846 	1.73297 	0.0144374 	-3.12505 	90.161 	84.7027 	-0.591113 	289.513 	360.634 	284.632 	539.793 	
16.5682 	-0.00299836 	-0.541413 	-0.0788156 	1.73296 	0.0145375 	-3.12506 	90.161 	85.1998 	-0.591113 	290.01 	360.634 	284.632 	539.793 	
16.6708 	-0.0029833 	-0.541643 	-0.0752445 	1.73296 	0.0146375 	-3.12507 	90.161 	85.6887 	-0.591113 	290.513 	360.634 	284.632 	539.793 	
16.7741 	-0.00296848 	-0.541843 	-0.0716714 	1.73296 	0.0147374 	-3.12508 	90.161 	86.251 	-0.591113 	291.065 	360.634 	284.632 	539.793 	
16.8773 	-0.00295389 	-0.542012 	-0.0680968 	1.73295 	0.0148372 	-3.12509 	90.161 	86.7404 	-0.591113 	291.563 	360.634 	284.632 	539.793 	
16.98 	-0.00293954 	-0.542149 	-0.0645208 	1.73295 	0.014937 	-3.1251 	90.161 	87.2599 	-0.591113 	292.061 	360.634 	284.632 	539.793 	
17.0829 	-0.00292543 	-0.542255 	-0.0609438 	1.73295 	0.0150366 	-3.12511 	90.161 	87.7834 	-0.591113 	292.559 	360.634 	284.632 	539.793 	
17.1862 	-0.00291156 	-0.54233 	-0.057366 	1.73294 	0.0151361 	-3.12513 	90.161 	88.3069 	-0.591113 	293.113 	360.634 	284.632 	539.793 	
17.2891 	-0.00289793 	-0.542374 	-0.0537877 	1.73294 	0.0152354 	-3.12514 	90.161 	88.7836 	-0.591113 	293.612 	360.634 	284.632 	539.793 	
17.3921 	-0.00288454 	-0.542386 	-0.0502091 	1.73294 	0.0153347 	-3.12516 	90.161 	89.3062 	-0.591113 	294.116 	360.634 	284.632 	539.793 	
17.4956 	-0.00287139 	-0.542367 	-0.0466306 	1.73294 	0.0154337 	-3.12518 	90.161 	89.8382 	-0.591113 	294.659 	360.634 	284.632 	539.793 	
17.6021 	-0.00285849 	-0.542317 	-0.0430524 	1.73293 	0.0155327 	-3.12519 	90.161 	90.3438 	-0.591113 	295.165 	360.634 	284.632 	539.793 	
17.705 	-0.00284583 	-0.542236 	-0.0394748 	1.73293 	0.0156314 	-3.12521 	90.161 	90.889 	-0.591113 	295.712 	360.634 	284.632 	539.793 	
17.8082 	-0.00283342 	-0.542124 	-0.0358981 	1.73293 	0.0157301 	-3.12523 	90.161 	91.3942 	-0.591113 	296.214 	360.634 	284.632 	539.793 	
17.9112 	-0.00282125 	-0.54198 	-0.0323224 	1.73292 	0.0158285 	-3.12525 	90.161 	91.8998 	-0.591113 	296.712 	360.634 	284.632 	539.793 	
18.0145 	-0.00280933 	-0.541805 	-0.0287482 	1.73292 	0.0159268 	-3.12527 	90.161 	92.4407 	-0.591113 	297.262 	360.634 	284.632 	539.793 	
18.1172 	-0.00279766 	-0.541599 	-0.0251755 	1.73292 	0.0160248 	-3.1253 	90.161 	92.9508 	-0.591113 	297.763 	360.634 	284.632 	539.793 	
18.2203 	-0.00278624 	-0.541362 	-0.021605 	1.73292 	0.0161227 	-3.12532 	90.161 	93.4396 	-0.591113 	298.26 	360.634 	284.632 	539.793 	
18.3232 	-0.00277507 	-0.541093 	-0.0180366 	1.73291 	0.0162204 	-3.12534 	90.161 	94.008 	-0.591113 	298.762 	360.634 	284.632 	539.793 	
18.4265 	-0.00276414 	-0.540794 	-0.0144707 	1.73291 	0.0163178 	-3.12537 	90.161 	94.4863 	-0.591113 	299.312 	360.634 	284.632 	539.793 	
18.5294 	-0.00275347 	-0.540463 	-0.0109075 	1.73291 	0.0164151 	-3.12539 	90.161 	95.0008 	-0.591113 	299.813 	360.634 	284.632 	539.793 	
18.6321 	-0.00274306 	-0.540102 	-0.00734746 	1.7329 	0.0165121 	-3.12542 	90.161 	95.492 	-0.591113 	300.309 	360.634 	284.632 	539.793 	
18.7353 	-0.00273289 	-0.539709 	-0.00379057 	1.7329 	0.0166089 	-3.12544 	90.161 	96.057 	-0.591113 	300.864 	360.634 	284.632 	539.793 	
18.8435 	-0.00272298 	-0.539285 	-0.000237327 	1.7329 	0.0167055 	-3.12547 	90.161 	96.5902 	-0.591113 	301.357 	360.634 	284.632 	539.793 	
18.9461 	-0.00271333 	-0.53883 	0.00331204 	1.7329 	0.0168018 	-3.1255 	90.161 	97.1001 	-0.591113 	301.911 	360.634 	284.632 	539.793 	
19.0497 	-0.00270393 	-0.538345 	0.00685742 	1.73289 	0.0168978 	-3.12553 	90.161 	97.598 	-0.591113 	302.408 	360.634 	284.632 	539.793 	
19.155 	-0.00269478 	-0.537828 	0.0103984 	1.73289 	0.0169936 	-3.12556 	90.161 	98.1564 	-0.591113 	302.962 	360.634 	284.632 	539.793 	
19.2611 	-0.00267727 	-0.536702 	0.0174659 	1.73289 	0.0171844 	-3.12562 	90.161 	98.6562 	-0.591113 	303.46 	360.634 	284.632 	539.793 	
19.3639 	-0.0026689 	-0.536093 	0.020992 	1.73288 	0.0172793 	-3.12566 	90.161 	99.1991 	-0.591113 	304.011 	360.634 	284.632 	539.793 	
19.4667 	-0.00266079 	-0.535453 	0.0245127 	1.73288 	0.017374 	-3.12569 	90.161 	99.7073 	-0.591113 	304.513 	360.634 	284.632 	539.793 	
19.5701 	-0.00265294 	-0.534783 	0.0280277 	1.73288 	0.0174683 	-3.12573 	90.161 	100.202 	-0.591113 	305.008 	360.634 	284.632 	539.793 	
19.6731 	-0.00264535 	-0.534081 	0.0315366 	1.73287 	0.0175624 	-3.12576 	90.161 	100.765 	-0.591113 	305.513 	360.634 	284.632 	539.793 	
19.7763 	-0.00263801 	-0.53335 	0.0350394 	1.73287 	0.0176562 	-3.1258 	90.161 	101.248 	-0.591113 	306.058 	360.634 	284.632 	539.793 	
19.8789 	-0.00263095 	-0.532587 	0.0385355 	1.73287 	0.0177496 	-3.12583 	90.161 	101.763 	-0.591113 	306.564 	360.634 	284.632 	539.793 	
19.9823 	-0.00262414 	-0.531794 	0.0420249 	1.73287 	0.0178427 	-3.12587 	90.161 	102.251 	-0.591113 	307.061 	360.634 	284.632 	539.793 	
20.0854 	-0.00261759 	-0.530971 	0.0455072 	1.73286 	0.0179355 	-3.12591 	90.161 	102.818 	-0.591113 	307.61 	360.634 	284.632 	539.793 	
20.188 	-0.00261131 	-0.530118 	0.0489822 	1.73286 	0.0180279 	-3.12595 	90.161 	103.304 	-0.591113 	308.107 	360.634 	284.632 	539.793 	
20.2911 	-0.00260529 	-0.529234 	0.0524496 	1.73286 	0.01812 	-3.12599 	90.161 	103.813 	-0.591113 	308.611 	360.634 	284.632 	539.793 	
20.3946 	-0.00259954 	-0.52832 	0.0559092 	1.73286 	0.0182117 	-3.12603 	90.161 	104.359 	-0.591113 	309.157 	360.634 	284.632 	539.793 	
20.5022 	-0.00259404 	-0.527375 	0.0593605 	1.73285 	0.0183031 	-3.12607 	90.161 	104.868 	-0.591113 	309.659 	360.634 	284.632 	539.793 	
20.6051 	-0.00258882 	-0.526401 	0.0628036 	1.73285 	0.0183941 	-3.12612 	90.161 	105.414 	-0.591113 	310.208 	360.634 	284.632 	539.793 	
20.7081 	-0.00258386 	-0.525397 	0.066238 	1.73285 	0.0184847 	-3.12616 	90.161 	105.915 	-0.591113 	310.708 	360.634 	284.632 	539.793 	
20.8112 	-0.00257916 	-0.524362 	0.0696635 	1.73285 	0.018575 	-3.1262 	90.161 	106.421 	-0.591113 	311.208 	360.634 	284.632 	539.793 	
20.9145 	-0.00257473 	-0.523298 	0.0730798 	1.73284 	0.0186648 	-3.12625 	90.161 	106.971 	-0.591113 	311.756 	360.634 	284.632 	539.793 	
21.0173 	-0.00257057 	-0.522204 	0.0764866 	1.73284 	0.0187543 	-3.1263 	90.161 	107.483 	-0.591113 	312.258 	360.634 	284.632 	539.793 	
21.1203 	-0.00256667 	-0.52108 	0.0798839 	1.73284 	0.0188433 	-3.12634 	90.161 	107.966 	-0.591113 	312.754 	360.634 	284.632 	539.793 	
21.2233 	-0.00256304 	-0.519927 	0.0832712 	1.73284 	0.018932 	-3.12639 	90.161 	108.53 	-0.591113 	313.263 	360.634 	284.632 	539.793 	
21.3265 	-0.00255967 	-0.518745 	0.0866482 	1.73284 	0.0190202 	-3.12644 	90.161 	109.023 	-0.591113 	313.809 	360.634 	284.632 	539.793 	
21.4293 	-0.00255658 	-0.517533 	0.0900149 	1.73283 	0.019108 	-3.12649 	90.161 	109.54 	-0.591113 	314.313 	360.634 	284.632 	539.793 	
21.5324 	-0.00255375 	-0.516291 	0.0933708 	1.73283 	0.0191954 	-3.12654 	90.161 	110.029 	-0.591113 	314.805 	360.634 	284.632 	539.793 	
21.6354 	-0.00255119 	-0.51502 	0.0967157 	1.73283 	0.0192823 	-3.12659 	90.161 	110.585 	-0.591113 	315.357 	360.634 	284.632 	539.793 	
21.7424 	-0.00254889 	-0.51372 	0.100049 	1.73283 	0.0193688 	-3.12664 	90.161 	111.084 	-0.591113 	315.859 	360.634 	284.632 	539.793 	
21.8451 	-0.00254687 	-0.512391 	0.103372 	1.73282 	0.0194549 	-3.12669 	90.161 	111.645 	-0.591113 	316.41 	360.634 	284.632 	539.793 	
21.9481 	-0.00254511 	-0.511034 	0.106682 	1.73282 	0.0195404 	-3.12674 	90.161 	112.143 	-0.591113 	316.908 	360.634 	284.632 	539.793 	
22.051 	-0.00254362 	-0.509647 	0.109981 	1.73282 	0.0196256 	-3.1268 	90.161 	112.637 	-0.591113 	317.267 	360.634 	284.632 	539.793 	
22.154 	-0.0025448 	-0.510381 	0.114148 	1.72622 	0.0196448 	-3.12682 	90.161 	113.189 	-0.591113 	317.32 	360.634 	284.632 	539.793 	
22.2568 	-0.00254674 	-0.51177 	0.118608 	1.71749 	0.019643 	-3.12683 	90.161 	113.696 	-0.591113 	317.322 	360.634 	284.632 	539.793 	
22.3601 	-0.00255045 	-0.51443 	0.127564 	1.70004 	0.0196396 	-3.12685 	90.161 	114.204 	-0.591113 	317.323 	360.634 	284.632 	539.793 	
22.4624 	-0.00255205 	-0.515576 	0.131609 	1.69218 	0.0196382 	-3.12686 	90.161 	114.744 	-0.591113 	317.324 	360.634 	284.632 	539.793 	
22.5655 	-0.00255395 	-0.516934 	0.136565 	1.68258 	0.0196367 	-3.12688 	90.161 	115.245 	-0.591113 	317.325 	360.634 	284.632 	539.793 	
22.583 	-0.00255395 	-0.516934 	0.136565 	1.68258 	0.0196367 	-3.12688 	90.161 	115.347 	-0.591113 	317.325 	360.634 	284.632 	539.793 	
22.6864 	-0.0025406 	-0.519304 	0.140038 	1.67491 	0.0196534 	-3.12696 	90.161 	115.789 	-0.591113 	317.24 	360.634 	284.613 	539.793 	
22.7891 	-0.00251412 	-0.523018 	0.14365 	1.66618 	0.0196856 	-3.1271 	90.161 	116.297 	-0.591113 	316.861 	360.634 	284.273 	539.793 	
22.8922 	-0.00248717 	-0.526052 	0.144645 	1.66257 	0.0197175 	-3.12723 	90.161 	116.556 	-0.591113 	316.382 	360.634 	283.715 	539.793 	
22.9952 	-0.00246006 	-0.528622 	0.143773 	1.66257 	0.0197487 	-3.12736 	90.161 	116.566 	-0.591113 	315.839 	360.634 	283.218 	539.793 	
23.1023 	-0.00243346 	-0.531199 	0.142924 	1.66257 	0.0197788 	-3.12749 	90.161 	116.568 	-0.591113 	315.338 	360.634 	282.751 	539.793 	
23.2053 	-0.00240735 	-0.533784 	0.142098 	1.66257 	0.0198077 	-3.12762 	90.161 	116.569 	-0.591113 	314.795 	360.634 	282.118 	539.793 	
23.3082 	-0.00238176 	-0.536376 	0.141294 	1.66257 	0.0198355 	-3.12776 	90.161 	116.569 	-0.591113 	314.297 	360.634 	281.661 	539.793 	
23.4113 	-0.00235667 	-0.538974 	0.140513 	1.66257 	0.0198621 	-3.12789 	90.161 	116.569 	-0.591113 	313.797 	360.634 	281.201 	539.793 	
23.5137 	-0.00233208 	-0.54158 	0.139754 	1.66257 	0.0198876 	-3.12802 	90.161 	116.569 	-0.591113 	313.249 	360.634 	280.62 	539.793 	
23.6172 	-0.00230802 	-0.544192 	0.139018 	1.66257 	0.0199119 	-3.12815 	90.161 	116.569 	-0.591113 	312.748 	360.634 	280.092 	539.793 	
23.7207 	-0.00228446 	-0.54681 	0.138305 	1.66258 	0.0199351 	-3.12828 	90.161 	116.569 	-0.591113 	312.252 	360.634 	279.651 	539.793 	
23.823 	-0.00226141 	-0.549434 	0.137615 	1.66258 	0.0199572 	-3.12841 	90.161 	116.569 	-0.591113 	311.756 	360.634 	279.087 	539.793 	
23.9264 	-0.00223889 	-0.552065 	0.136948 	1.66258 	0.019978 	-3.12855 	90.161 	116.569 	-0.591113 	311.208 	360.634 	278.536 	539.793 	
24.0296 	-0.00221688 	-0.554701 	0.136303 	1.66258 	0.0199978 	-3.12868 	90.161 	116.569 	-0.591113 	310.71 	360.634 	278.095 	539.793 	
24.1324 	-0.00219539 	-0.557342 	0.135682 	1.66258 	0.0200163 	-3.12881 	90.161 	116.569 	-0.591113 	310.213 	360.634 	277.541 	539.793 	
24.2351 	-0.00217442 	-0.559989 	0.135084 	1.66258 	0.0200337 	-3.12895 	90.161 	116.569 	-0.591113 	309.661 	360.634 	276.969 	539.793 	
24.3392 	-0.00215397 	-0.562641 	0.134509 	1.66258 	0.02005 	-3.12908 	90.161 	116.569 	-0.591113 	309.169 	360.634 	276.547 	539.793 	
24.4434 	-0.00213405 	-0.565298 	0.133957 	1.66258 	0.0200651 	-3.12921 	90.161 	116.569 	-0.591113 	308.665 	360.634 	276.017 	539.793 	
24.5462 	-0.00211465 	-0.56796 	0.133428 	1.66258 	0.020079 	-3.12934 	90.161 	116.569 	-0.591113 	308.117 	360.634 	275.421 	539.793 	
24.6501 	-0.00209579 	-0.570626 	0.132923 	1.66258 	0.0200918 	-3.12948 	90.161 	116.569 	-0.591113 	307.624 	360.634 	274.986 	539.793 	
24.7541 	-0.00207745 	-0.573296 	0.132441 	1.66258 	0.0201034 	-3.12961 	90.161 	116.569 	-0.591113 	307.072 	360.634 	274.468 	539.793 	
24.858 	-0.00204236 	-0.578649 	0.131546 	1.66259 	0.0201231 	-3.12988 	90.161 	116.569 	-0.591113 	306.577 	360.634 	273.86 	539.793 	
24.9608 	-0.00202562 	-0.581332 	0.131134 	1.66259 	0.0201312 	-3.13001 	90.161 	116.569 	-0.591113 	306.076 	360.634 	273.425 	539.793 	
25.0628 	-0.00200941 	-0.584018 	0.130745 	1.66259 	0.0201381 	-3.13015 	90.161 	116.569 	-0.591113 	305.632 	360.634 	272.994 	539.793 	
25.1647 	-0.00199373 	-0.586706 	0.13038 	1.66259 	0.0201439 	-3.13028 	90.161 	116.569 	-0.591113 	305.028 	360.634 	272.31 	539.793 	
25.2682 	-0.00197859 	-0.589399 	0.130038 	1.66259 	0.0201485 	-3.13041 	90.161 	116.569 	-0.591113 	304.532 	360.634 	271.868 	539.793 	
25.371 	-0.00196399 	-0.592094 	0.12972 	1.66259 	0.0201519 	-3.13055 	90.161 	116.569 	-0.591113 	304.034 	360.634 	271.391 	539.793 	
25.4741 	-0.00194993 	-0.594791 	0.129425 	1.66259 	0.0201542 	-3.13068 	90.161 	116.569 	-0.591113 	303.488 	360.634 	270.812 	539.793 	
25.5772 	-0.00193641 	-0.597491 	0.129154 	1.66259 	0.0201553 	-3.13082 	90.161 	116.569 	-0.591113 	302.988 	360.634 	270.304 	539.793 	
25.6801 	-0.00192342 	-0.600194 	0.128906 	1.66259 	0.0201552 	-3.13095 	90.161 	116.569 	-0.591113 	302.492 	360.634 	269.849 	539.793 	
25.7832 	-0.00191099 	-0.602898 	0.128682 	1.66259 	0.020154 	-3.13108 	90.161 	116.569 	-0.591113 	301.993 	360.634 	269.277 	539.793 	
25.8864 	-0.00189909 	-0.605604 	0.128481 	1.6626 	0.0201516 	-3.13122 	90.161 	116.569 	-0.591113 	301.446 	360.634 	268.746 	539.793 	
25.9891 	-0.00188774 	-0.608312 	0.128304 	1.6626 	0.020148 	-3.13135 	90.161 	116.569 	-0.591113 	300.946 	360.634 	268.297 	539.793 	
26.0923 	-0.00187693 	-0.611022 	0.128151 	1.6626 	0.0201432 	-3.13149 	90.161 	116.569 	-0.591113 	300.452 	360.634 	267.732 	539.793 	
26.1953 	-0.00186667 	-0.613733 	0.128021 	1.6626 	0.0201373 	-3.13162 	90.161 	116.569 	-0.591113 	299.901 	360.634 	267.18 	539.793 	
26.3022 	-0.00185695 	-0.616444 	0.127915 	1.6626 	0.0201302 	-3.13175 	90.161 	116.569 	-0.591113 	299.402 	360.634 	266.748 	539.793 	
26.4052 	-0.00184778 	-0.619157 	0.127833 	1.6626 	0.020122 	-3.13189 	90.161 	116.569 	-0.591113 	298.857 	360.634 	266.142 	539.793 	
26.5074 	-0.00183916 	-0.62187 	0.127774 	1.6626 	0.0201126 	-3.13202 	90.161 	116.569 	-0.591113 	298.359 	360.634 	265.626 	539.793 	
26.6103 	-0.00183187 	-0.624312 	0.127742 	1.6626 	0.0201031 	-3.13214 	90.161 	116.569 	-0.591113 	297.858 	360.634 	265.193 	539.793 	
26.7134 	-0.00182356 	-0.627297 	0.127728 	1.6626 	0.0200902 	-3.13229 	90.161 	116.569 	-0.591113 	297.363 	360.634 	264.653 	539.793 	
26.8164 	-0.00181659 	-0.630011 	0.12774 	1.66261 	0.0200773 	-3.13242 	90.161 	116.569 	-0.591113 	296.816 	360.634 	264.061 	539.793 	
26.9193 	-0.00181016 	-0.632724 	0.127776 	1.66261 	0.0200632 	-3.13256 	90.161 	116.569 	-0.591113 	296.314 	360.634 	263.634 	539.793 	
27.0225 	-0.00180429 	-0.635437 	0.127836 	1.66261 	0.020048 	-3.13269 	90.161 	116.569 	-0.591113 	295.82 	360.634 	263.126 	539.793 	
27.1255 	-0.00179896 	-0.63815 	0.127919 	1.66261 	0.0200316 	-3.13282 	90.161 	116.569 	-0.591113 	295.269 	360.634 	262.51 	539.793 	
27.2283 	-0.00179419 	-0.640862 	0.128026 	1.66261 	0.020014 	-3.13295 	90.161 	116.569 	-0.591113 	294.775 	360.634 	262.081 	539.793 	
27.3313 	-0.00178997 	-0.643572 	0.128157 	1.66261 	0.0199953 	-3.13309 	90.161 	116.569 	-0.591113 	294.276 	360.634 	261.581 	539.793 	
27.4351 	-0.0017863 	-0.646282 	0.128311 	1.66261 	0.0199754 	-3.13322 	90.161 	116.569 	-0.591113 	293.727 	360.634 	261.007 	539.793 	
27.5425 	-0.00178319 	-0.64899 	0.128489 	1.66261 	0.0199544 	-3.13335 	90.161 	116.569 	-0.591113 	293.226 	360.634 	260.517 	539.793 	
27.6451 	-0.00178063 	-0.651696 	0.128691 	1.66261 	0.0199322 	-3.13348 	90.161 	116.569 	-0.591113 	292.677 	360.634 	259.988 	539.793 	
27.748 	-0.00177862 	-0.6544 	0.128916 	1.66262 	0.0199089 	-3.13362 	90.161 	116.569 	-0.591113 	292.182 	360.634 	259.413 	539.793 	
27.8509 	-0.00177716 	-0.657103 	0.129164 	1.66262 	0.0198844 	-3.13375 	90.161 	116.569 	-0.591113 	291.686 	360.634 	258.957 	539.793 	
27.9539 	-0.00177625 	-0.659803 	0.129437 	1.66262 	0.0198587 	-3.13388 	90.161 	116.569 	-0.591113 	291.139 	360.634 	258.5 	539.793 	
28.0588 	-0.0017759 	-0.662501 	0.129732 	1.66262 	0.019832 	-3.13401 	90.161 	116.569 	-0.591113 	290.64 	360.634 	257.867 	539.793 	
28.1608 	-0.00177611 	-0.665196 	0.130052 	1.66262 	0.019804 	-3.13414 	90.161 	116.569 	-0.591113 	290.143 	360.634 	257.394 	539.793 	
28.2627 	-0.00177817 	-0.670577 	0.130761 	1.66262 	0.0197447 	-3.1344 	90.161 	116.569 	-0.591113 	289.645 	360.634 	256.947 	539.793 	
28.3652 	-0.00178003 	-0.673262 	0.131151 	1.66262 	0.0197134 	-3.13453 	90.161 	116.569 	-0.591113 	289.099 	360.634 	256.331 	539.793 	
28.4682 	-0.00178244 	-0.675944 	0.131563 	1.66263 	0.0196809 	-3.13466 	90.161 	116.569 	-0.591113 	288.596 	360.634 	255.837 	539.793 	
28.5711 	-0.00178541 	-0.678623 	0.131999 	1.66263 	0.0196473 	-3.13479 	90.161 	116.569 	-0.591113 	288.1 	360.634 	255.391 	539.793 	
28.6744 	-0.00178892 	-0.681297 	0.132458 	1.66264 	0.0196126 	-3.13492 	90.161 	116.569 	-0.591113 	287.558 	360.634 	254.839 	539.793 	
28.7774 	-0.00179299 	-0.683968 	0.132941 	1.66264 	0.0195767 	-3.13505 	90.161 	116.569 	-0.591113 	287.06 	360.634 	254.269 	539.793 	
28.8802 	-0.00179761 	-0.686634 	0.133446 	1.66264 	0.0195397 	-3.13518 	90.161 	116.569 	-0.591113 	286.557 	360.634 	253.839 	539.793 	
28.9831 	-0.00180278 	-0.689295 	0.133975 	1.66265 	0.0195016 	-3.13531 	90.161 	116.569 	-0.591113 	286.059 	360.634 	253.309 	539.793 	
29.0865 	-0.00180851 	-0.691952 	0.134528 	1.66265 	0.0194624 	-3.13544 	90.161 	116.569 	-0.591113 	285.511 	360.634 	252.717 	539.793 	
29.1893 	-0.00181478 	-0.694604 	0.135103 	1.66265 	0.0194221 	-3.13557 	90.161 	116.569 	-0.591113 	285.02 	360.634 	252.285 	539.793 	
29.2923 	-0.0018216 	-0.697251 	0.135701 	1.66266 	0.0193806 	-3.13569 	90.161 	116.569 	-0.591113 	284.512 	360.634 	251.764 	539.793 	
29.3953 	-0.00182898 	-0.699893 	0.136323 	1.66266 	0.019338 	-3.13582 	90.161 	116.569 	-0.591113 	283.967 	360.634 	251.157 	539.793 	
29.5021 	-0.0018369 	-0.702529 	0.136968 	1.66267 	0.0192943 	-3.13595 	90.161 	116.569 	-0.591113 	283.47 	360.634 	250.725 	539.793 	
29.6053 	-0.00184537 	-0.705159 	0.137635 	1.66267 	0.0192496 	-3.13607 	90.161 	116.569 	-0.591113 	282.92 	360.634 	250.176 	539.793 	
29.7083 	-0.00185439 	-0.707783 	0.138326 	1.66267 	0.0192037 	-3.1362 	90.161 	116.569 	-0.591113 	282.425 	360.634 	249.616 	539.793 	
29.8112 	-0.00186396 	-0.710401 	0.139039 	1.66268 	0.0191567 	-3.13632 	90.161 	116.569 	-0.591113 	281.923 	360.634 	249.172 	539.793 	
29.9145 	-0.00187408 	-0.713013 	0.139775 	1.66268 	0.0191086 	-3.13645 	90.161 	116.569 	-0.591113 	281.379 	360.634 	248.691 	539.793 	
30.0176 	-0.00188474 	-0.715618 	0.140534 	1.66269 	0.0190594 	-3.13657 	90.161 	116.569 	-0.591113 	280.879 	360.634 	248.061 	539.793 	
30.1202 	-0.00189594 	-0.718217 	0.141315 	1.66269 	0.0190092 	-3.1367 	90.161 	116.569 	-0.591113 	280.384 	360.634 	247.609 	539.793 	
30.2234 	-0.00190769 	-0.720809 	0.14212 	1.66269 	0.0189579 	-3.13682 	90.161 	116.569 	-0.591113 	279.881 	360.634 	247.143 	539.793 	
30.3267 	-0.00191998 	-0.723393 	0.142947 	1.6627 	0.0189054 	-3.13695 	90.161 	116.569 	-0.591113 	279.342 	360.634 	246.527 	539.793 	
30.4295 	-0.00193282 	-0.725971 	0.143796 	1.6627 	0.018852 	-3.13707 	90.161 	116.568 	-0.591113 	278.837 	360.634 	246.046 	539.793 	
30.5325 	-0.0019462 	-0.72854 	0.144668 	1.66271 	0.0187974 	-3.13719 	90.161 	116.568 	-0.591113 	278.346 	360.634 	245.591 	539.793 	
30.6348 	-0.00196011 	-0.731102 	0.145562 	1.66271 	0.0187418 	-3.13731 	90.161 	116.568 	-0.591113 	277.797 	360.634 	244.974 	539.793 	
30.7434 	-0.00197457 	-0.733656 	0.146478 	1.66271 	0.0186851 	-3.13743 	90.161 	116.568 	-0.591113 	277.298 	360.634 	244.474 	539.793 	
30.8463 	-0.00198956 	-0.736203 	0.147417 	1.66272 	0.0186273 	-3.13756 	90.161 	116.568 	-0.591113 	276.748 	360.634 	243.99 	539.793 	
30.9491 	-0.00200509 	-0.73874 	0.148378 	1.66272 	0.0185685 	-3.13768 	90.161 	116.568 	-0.591113 	276.247 	360.634 	243.442 	539.793 	
31.0552 	-0.00202116 	-0.74127 	0.149361 	1.66272 	0.0185087 	-3.1378 	90.161 	116.568 	-0.591113 	275.706 	360.634 	242.874 	539.793 	
31.1589 	-0.0020549 	-0.746302 	0.151393 	1.66273 	0.0183859 	-3.13803 	90.161 	116.568 	-0.591113 	275.202 	360.634 	242.442 	539.793 	
31.261 	-0.00207257 	-0.748804 	0.152441 	1.66274 	0.0183229 	-3.13815 	90.161 	116.568 	-0.591113 	274.704 	360.634 	241.898 	539.793 	
31.3642 	-0.00209077 	-0.751298 	0.153512 	1.66274 	0.0182589 	-3.13827 	90.161 	116.568 	-0.591113 	274.159 	360.634 	241.362 	539.793 	
31.4671 	-0.00210949 	-0.753782 	0.154604 	1.66274 	0.0181939 	-3.13839 	90.161 	116.568 	-0.591113 	273.665 	360.634 	240.887 	539.793 	
31.5703 	-0.00212875 	-0.756256 	0.155718 	1.66275 	0.0181278 	-3.1385 	90.161 	116.568 	-0.591113 	273.163 	360.634 	240.362 	539.793 	
31.6732 	-0.00214853 	-0.758721 	0.156854 	1.66275 	0.0180608 	-3.13862 	90.161 	116.568 	-0.591113 	272.667 	360.634 	239.811 	539.793 	
31.7763 	-0.00216884 	-0.761175 	0.158011 	1.66276 	0.0179927 	-3.13874 	90.161 	116.568 	-0.591113 	272.113 	360.634 	239.329 	539.793 	
31.8792 	-0.00218967 	-0.76362 	0.159189 	1.66276 	0.0179236 	-3.13885 	90.161 	116.568 	-0.591113 	271.622 	360.634 	238.821 	539.793 	
31.9824 	-0.00221102 	-0.766053 	0.160389 	1.66276 	0.0178536 	-3.13897 	90.161 	116.568 	-0.591113 	271.123 	360.634 	238.259 	539.793 	
32.0852 	-0.0022329 	-0.768477 	0.161609 	1.66277 	0.0177825 	-3.13908 	90.161 	116.568 	-0.591113 	270.575 	360.634 	237.77 	539.793 	
32.1881 	-0.00225529 	-0.77089 	0.162851 	1.66277 	0.0177104 	-3.13919 	90.161 	116.568 	-0.591113 	270.078 	360.634 	237.281 	539.793 	
32.2912 	-0.0022782 	-0.773291 	0.164114 	1.66277 	0.0176374 	-3.1393 	90.161 	116.568 	-0.591113 	269.577 	360.634 	236.723 	539.793 	
32.3946 	-0.00230162 	-0.775682 	0.165398 	1.66278 	0.0175634 	-3.13942 	90.161 	116.568 	-0.591113 	269.036 	360.634 	236.252 	539.793 	
32.5024 	-0.00232556 	-0.778061 	0.166703 	1.66278 	0.0174884 	-3.13953 	90.161 	116.568 	-0.591113 	268.53 	360.634 	235.735 	539.793 	
32.6049 	-0.00235 	-0.780429 	0.168028 	1.66279 	0.0174124 	-3.13964 	90.161 	116.568 	-0.591113 	267.983 	360.634 	235.115 	539.793 	
32.7085 	-0.00237496 	-0.782785 	0.169374 	1.66279 	0.0173355 	-3.13975 	90.161 	116.568 	-0.591113 	267.481 	360.634 	234.64 	539.793 	
32.8112 	-0.00240043 	-0.785129 	0.17074 	1.66279 	0.0172576 	-3.13986 	90.161 	116.568 	-0.591113 	266.996 	360.634 	234.184 	539.793 	
32.9146 	-0.0024264 	-0.787462 	0.172127 	1.6628 	0.0171788 	-3.13996 	90.161 	116.568 	-0.591113 	266.439 	360.634 	233.631 	539.793 	
33.0174 	-0.00245287 	-0.789782 	0.173534 	1.6628 	0.0170991 	-3.14007 	90.161 	116.568 	-0.591113 	265.947 	360.634 	233.079 	539.793 	
33.121 	-0.00247985 	-0.792089 	0.174961 	1.6628 	0.0170184 	-3.14018 	90.161 	116.568 	-0.591113 	265.444 	360.634 	232.636 	539.793 	
33.2233 	-0.00250733 	-0.794385 	0.176409 	1.66281 	0.0169367 	-3.14029 	90.161 	116.568 	-0.591113 	264.945 	360.634 	232.087 	539.793 	
33.3265 	-0.0025353 	-0.796667 	0.177876 	1.66281 	0.0168542 	-3.14039 	90.161 	116.568 	-0.591113 	264.399 	360.634 	231.52 	539.793 	
33.4294 	-0.00256377 	-0.798937 	0.179363 	1.66282 	0.0167707 	-3.1405 	90.161 	116.568 	-0.591113 	263.898 	360.634 	231.083 	539.793 	
33.5324 	-0.00259273 	-0.801193 	0.18087 	1.66282 	0.0166863 	-3.1406 	90.161 	116.568 	-0.591113 	263.4 	360.634 	230.548 	539.793 	
33.6362 	-0.00262219 	-0.803437 	0.182397 	1.66282 	0.016601 	-3.1407 	90.161 	116.568 	-0.591113 	262.849 	360.634 	229.966 	539.793 	
33.7425 	-0.00265213 	-0.805666 	0.183943 	1.66283 	0.0165148 	-3.14081 	90.161 	116.568 	-0.591113 	262.36 	360.634 	229.532 	539.793 	
33.8455 	-0.00268256 	-0.807883 	0.185508 	1.66283 	0.0164277 	-3.14091 	90.161 	116.568 	-0.591113 	261.807 	360.634 	228.95 	539.793 	
33.9482 	-0.00271348 	-0.810085 	0.187093 	1.66283 	0.0163398 	-3.14101 	90.161 	116.568 	-0.591113 	261.313 	360.634 	228.411 	539.793 	
34.0511 	-0.00274487 	-0.812274 	0.188697 	1.66284 	0.0162509 	-3.14111 	90.161 	116.568 	-0.591113 	260.806 	360.634 	227.977 	539.793 	
34.1552 	-0.0028091 	-0.816608 	0.191962 	1.66285 	0.0160706 	-3.14131 	90.161 	116.568 	-0.591113 	260.266 	360.634 	227.411 	539.793 	
34.2589 	-0.00284193 	-0.818754 	0.193622 	1.66285 	0.0159792 	-3.14141 	90.161 	116.568 	-0.591113 	259.764 	360.634 	226.863 	539.793 	
34.361 	-0.00287523 	-0.820886 	0.195302 	1.66285 	0.0158869 	-3.1415 	90.161 	116.568 	-0.591113 	259.272 	360.634 	226.413 	539.793 	
34.4629 	-0.002909 	-0.823002 	0.196999 	1.66286 	0.0157937 	3.14159 	90.161 	116.568 	-0.591113 	258.766 	360.634 	225.916 	539.793 	
34.5661 	-0.00294323 	-0.825104 	0.198715 	1.66286 	0.0156997 	3.14149 	90.161 	116.568 	-0.591113 	258.223 	360.634 	225.313 	539.793 	
34.6692 	-0.00297793 	-0.827191 	0.20045 	1.66286 	0.0156049 	3.1414 	90.161 	116.568 	-0.591113 	257.732 	360.634 	224.846 	539.793 	
34.7724 	-0.0030131 	-0.829262 	0.202202 	1.66287 	0.0155093 	3.1413 	90.161 	116.568 	-0.591113 	257.226 	360.634 	224.377 	539.793 	
34.8751 	-0.00304872 	-0.831318 	0.203973 	1.66287 	0.0154128 	3.14121 	90.161 	116.568 	-0.591113 	256.675 	360.634 	223.767 	539.793 	
34.9783 	-0.0030848 	-0.833359 	0.205762 	1.66287 	0.0153156 	3.14112 	90.161 	116.567 	-0.591113 	256.173 	360.634 	223.287 	539.793 	
35.0814 	-0.00312134 	-0.835384 	0.20757 	1.66287 	0.0152175 	3.14102 	90.161 	116.567 	-0.591113 	255.687 	360.634 	222.833 	539.793 	
35.1846 	-0.00315834 	-0.837394 	0.209395 	1.66287 	0.0151186 	3.14093 	90.161 	116.567 	-0.591113 	255.13 	360.634 	222.278 	539.793 	
35.2874 	-0.00319578 	-0.839387 	0.211237 	1.66288 	0.0150189 	3.14084 	90.161 	116.567 	-0.591113 	254.641 	360.634 	221.734 	539.793 	
35.3903 	-0.00323367 	-0.841365 	0.213097 	1.66288 	0.0149185 	3.14076 	90.161 	116.567 	-0.591113 	254.129 	360.634 	221.292 	539.793 	
35.4935 	-0.003272 	-0.843326 	0.214974 	1.66288 	0.0148173 	3.14067 	90.161 	116.567 	-0.591113 	253.645 	360.634 	220.744 	539.793 	
35.5966 	-0.00331076 	-0.845271 	0.216868 	1.66288 	0.0147153 	3.14058 	90.161 	116.567 	-0.591113 	253.089 	360.634 	220.172 	539.793 	
35.702 	-0.00334997 	-0.847199 	0.218779 	1.66288 	0.0146126 	3.14049 	90.161 	116.567 	-0.591113 	252.592 	360.634 	219.737 	539.793 	
35.8054 	-0.00338961 	-0.84911 	0.220707 	1.66288 	0.0145091 	3.14041 	90.161 	116.567 	-0.591113 	252.041 	360.634 	219.133 	539.793 	
35.9084 	-0.00342968 	-0.851004 	0.222651 	1.66288 	0.0144049 	3.14033 	90.161 	116.567 	-0.591113 	251.542 	360.634 	218.619 	539.793 	
36.0114 	-0.00347018 	-0.852882 	0.224612 	1.66288 	0.0142999 	3.14024 	90.161 	116.567 	-0.591113 	251.053 	360.634 	218.18 	539.793 	
36.1147 	-0.0035111 	-0.854742 	0.226589 	1.66288 	0.0141943 	3.14016 	90.161 	116.567 	-0.591113 	250.498 	360.634 	217.655 	539.793 	
36.2176 	-0.00355244 	-0.856585 	0.228583 	1.66288 	0.0140879 	3.14008 	90.161 	116.567 	-0.591113 	250 	360.634 	217.071 	539.793 	
36.3204 	-0.0035942 	-0.85841 	0.230592 	1.66288 	0.0139808 	3.14 	90.161 	116.567 	-0.591113 	249.493 	360.634 	216.618 	539.793 	
36.4236 	-0.00363638 	-0.860218 	0.232617 	1.66288 	0.013873 	3.13992 	90.161 	116.567 	-0.591113 	249.014 	360.634 	216.101 	539.793 	
36.5266 	-0.00367897 	-0.862008 	0.234658 	1.66288 	0.0137645 	3.13984 	90.161 	116.567 	-0.591113 	248.45 	360.634 	215.51 	539.793 	
36.6295 	-0.00372196 	-0.86378 	0.236714 	1.66289 	0.0136553 	3.13976 	90.161 	116.567 	-0.591113 	247.956 	360.634 	215.061 	539.793 	
36.7324 	-0.00376537 	-0.865534 	0.238786 	1.66289 	0.0135455 	3.13968 	90.161 	116.567 	-0.591113 	247.45 	360.634 	214.57 	539.793 	
36.8354 	-0.00380917 	-0.86727 	0.240873 	1.66289 	0.013435 	3.13961 	90.161 	116.567 	-0.591113 	246.911 	360.634 	213.963 	539.793 	
36.9454 	-0.00385337 	-0.868988 	0.242975 	1.66289 	0.0133238 	3.13953 	90.161 	116.567 	-0.591113 	246.36 	360.634 	213.459 	539.793 	
37.0483 	-0.00389797 	-0.870687 	0.245092 	1.66289 	0.013212 	3.13946 	90.161 	116.567 	-0.591113 	245.864 	360.634 	212.967 	539.793 	
37.1541 	-0.00394296 	-0.872368 	0.247224 	1.66289 	0.0130995 	3.13939 	90.161 	116.567 	-0.591113 	245.309 	360.634 	212.416 	539.793 	
37.2571 	-0.00398834 	-0.87403 	0.24937 	1.66289 	0.0129864 	3.13931 	90.161 	116.567 	-0.591113 	244.817 	360.634 	211.903 	539.793 	
37.3609 	-0.0040341 	-0.875674 	0.25153 	1.66289 	0.0128727 	3.13924 	90.161 	116.567 	-0.591113 	244.322 	360.634 	211.431 	539.793 	
37.4643 	-0.00412677 	-0.878903 	0.255894 	1.66289 	0.0126434 	3.1391 	90.161 	116.567 	-0.591113 	243.77 	360.634 	210.874 	539.793 	
37.5669 	-0.00417367 	-0.880489 	0.258097 	1.66289 	0.0125279 	3.13904 	90.161 	116.567 	-0.591113 	243.268 	360.634 	210.337 	539.793 	
37.6694 	-0.00422093 	-0.882056 	0.260314 	1.66289 	0.0124118 	3.13897 	90.161 	116.567 	-0.591113 	242.765 	360.634 	209.876 	539.793 	
37.7722 	-0.00426857 	-0.883604 	0.262544 	1.66289 	0.0122951 	3.1389 	90.161 	116.567 	-0.591113 	242.282 	360.634 	209.322 	539.793 	
37.8754 	-0.00431657 	-0.885132 	0.264788 	1.66289 	0.0121778 	3.13884 	90.161 	116.567 	-0.591113 	241.721 	360.634 	208.775 	539.793 	
37.9784 	-0.00436493 	-0.88664 	0.267045 	1.6629 	0.01206 	3.13878 	90.161 	116.567 	-0.591113 	241.229 	360.634 	208.331 	539.793 	
38.0812 	-0.00441364 	-0.888128 	0.269315 	1.6629 	0.0119416 	3.13871 	90.161 	116.567 	-0.591113 	240.716 	360.634 	207.784 	539.793 	
38.1845 	-0.00446271 	-0.889597 	0.271598 	1.6629 	0.0118226 	3.13865 	90.161 	116.567 	-0.591113 	240.18 	360.634 	207.27 	539.793 	
38.2872 	-0.00451213 	-0.891046 	0.273894 	1.6629 	0.0117032 	3.13859 	90.161 	116.567 	-0.591113 	239.683 	360.634 	206.779 	539.793 	
38.3905 	-0.00456189 	-0.892474 	0.276202 	1.6629 	0.0115832 	3.13853 	90.161 	116.567 	-0.591113 	239.18 	360.634 	206.237 	539.793 	
38.4933 	-0.004612 	-0.893883 	0.278523 	1.6629 	0.0114627 	3.13847 	90.161 	116.567 	-0.591113 	238.682 	360.634 	205.714 	539.793 	
38.5965 	-0.00466244 	-0.895271 	0.280856 	1.6629 	0.0113416 	3.13841 	90.161 	116.567 	-0.591113 	238.128 	360.634 	205.219 	539.793 	
38.7024 	-0.00471321 	-0.896638 	0.2832 	1.6629 	0.0112201 	3.13836 	90.161 	116.567 	-0.591113 	237.638 	360.634 	204.695 	539.793 	
38.8051 	-0.00476431 	-0.897985 	0.285557 	1.6629 	0.0110981 	3.1383 	90.161 	116.567 	-0.591113 	237.08 	360.634 	204.112 	539.793 	
38.9086 	-0.00481574 	-0.899312 	0.287925 	1.6629 	0.0109756 	3.13825 	90.161 	116.567 	-0.591113 	236.587 	360.634 	203.659 	539.793 	
39.0114 	-0.0048675 	-0.900618 	0.290305 	1.6629 	0.0108527 	3.13819 	90.161 	116.567 	-0.591113 	236.075 	360.634 	203.151 	539.793 	
39.1147 	-0.00491957 	-0.901903 	0.292696 	1.6629 	0.0107293 	3.13814 	90.161 	116.567 	-0.591113 	235.547 	360.634 	202.61 	539.793 	
39.2177 	-0.00497195 	-0.903167 	0.295099 	1.6629 	0.0106054 	3.13809 	90.161 	116.567 	-0.591113 	235.04 	360.634 	202.105 	539.793 	
39.3206 	-0.00502465 	-0.90441 	0.297512 	1.6629 	0.0104811 	3.13804 	90.161 	116.567 	-0.591113 	234.542 	360.634 	201.614 	539.793 	
39.4234 	-0.00507765 	-0.905632 	0.299936 	1.6629 	0.0103563 	3.13799 	90.161 	116.567 	-0.591113 	234.033 	360.634 	201.065 	539.793 	
39.5264 	-0.00513095 	-0.906832 	0.30237 	1.6629 	0.0102312 	3.13794 	90.161 	116.567 	-0.591113 	233.494 	360.634 	200.552 	539.793 	
39.6296 	-0.00518455 	-0.908012 	0.304815 	1.6629 	0.0101056 	3.1379 	90.161 	116.567 	-0.591113 	232.999 	360.634 	200.075 	539.793 	
39.7324 	-0.00523844 	-0.90917 	0.30727 	1.6629 	0.00997961 	3.13785 	90.161 	116.567 	-0.591113 	232.495 	360.634 	199.515 	539.793 	
39.8361 	-0.00529263 	-0.910306 	0.309735 	1.6629 	0.00985323 	3.13781 	90.161 	116.567 	-0.591113 	231.94 	360.634 	198.988 	539.793 	
39.9428 	-0.0053471 	-0.911421 	0.31221 	1.6629 	0.00972647 	3.13776 	90.161 	116.566 	-0.591113 	231.439 	360.634 	198.535 	539.793 	
40.0456 	-0.00540185 	-0.912515 	0.314695 	1.66291 	0.00959932 	3.13772 	90.161 	116.566 	-0.591113 	230.9 	360.634 	197.922 	539.793 	
40.1483 	-0.00545688 	-0.913586 	0.317189 	1.66291 	0.00947182 	3.13768 	90.161 	116.566 	-0.591113 	230.394 	360.634 	197.432 	539.793 	
40.2511 	-0.00551218 	-0.914636 	0.319692 	1.66291 	0.00934396 	3.13764 	90.161 	116.566 	-0.591113 	229.901 	360.634 	196.975 	539.793 	
40.354 	-0.00556775 	-0.915664 	0.322205 	1.66291 	0.00921575 	3.1376 	90.161 	116.566 	-0.591113 	229.342 	360.634 	196.425 	539.793 	
40.457 	-0.00562359 	-0.91667 	0.324726 	1.66291 	0.00908721 	3.13756 	90.161 	116.566 	-0.591113 	228.862 	360.634 	195.869 	539.793 	
40.561 	-0.00573604 	-0.918616 	0.329794 	1.66291 	0.00882915 	3.13749 	90.161 	116.566 	-0.591113 	228.354 	360.634 	195.423 	539.793 	
40.664 	-0.00579264 	-0.919555 	0.332341 	1.66291 	0.00869966 	3.13745 	90.161 	116.566 	-0.591113 	227.806 	360.634 	194.889 	539.793 	
40.7672 	-0.00584949 	-0.920473 	0.334895 	1.66291 	0.00856987 	3.13742 	90.161 	116.566 	-0.591113 	227.299 	360.634 	194.318 	539.793 	
40.8703 	-0.00590659 	-0.921368 	0.337458 	1.66291 	0.00843978 	3.13739 	90.161 	116.566 	-0.591113 	226.804 	360.634 	193.87 	539.793 	
40.9733 	-0.00596392 	-0.92224 	0.340028 	1.66291 	0.00830943 	3.13736 	90.161 	116.566 	-0.591113 	226.304 	360.634 	193.341 	539.793 	
41.0765 	-0.00602149 	-0.92309 	0.342606 	1.66291 	0.00817881 	3.13733 	90.161 	116.566 	-0.591113 	225.76 	360.634 	192.767 	539.793 	
41.1794 	-0.00607929 	-0.923918 	0.345192 	1.66291 	0.00804792 	3.1373 	90.161 	116.566 	-0.591113 	225.255 	360.634 	192.32 	539.793 	
41.2827 	-0.00613731 	-0.924723 	0.347784 	1.66291 	0.00791679 	3.13727 	90.161 	116.566 	-0.591113 	224.747 	360.634 	191.818 	539.793 	
41.3855 	-0.00619556 	-0.925505 	0.350383 	1.66291 	0.00778543 	3.13724 	90.161 	116.566 	-0.591113 	224.216 	360.634 	191.216 	539.793 	
41.4882 	-0.00625402 	-0.926265 	0.352989 	1.66291 	0.00765384 	3.13722 	90.161 	116.566 	-0.591113 	223.702 	360.634 	190.76 	539.793 	
41.5914 	-0.0063127 	-0.927001 	0.355602 	1.66291 	0.00752202 	3.13719 	90.161 	116.566 	-0.591113 	223.214 	360.634 	190.264 	539.793 	
41.6947 	-0.00637158 	-0.927715 	0.358221 	1.66291 	0.00739001 	3.13717 	90.161 	116.566 	-0.591113 	222.703 	360.634 	189.713 	539.793 	
41.8023 	-0.00643067 	-0.928406 	0.360846 	1.66291 	0.00725779 	3.13715 	90.161 	116.566 	-0.591113 	222.167 	360.634 	189.202 	539.793 	
41.9055 	-0.00648995 	-0.929075 	0.363476 	1.66291 	0.00712539 	3.13713 	90.161 	116.566 	-0.591113 	221.612 	360.634 	188.668 	539.793 	
42.0085 	-0.00654943 	-0.92972 	0.366113 	1.66291 	0.00699281 	3.13711 	90.161 	116.566 	-0.591113 	221.117 	360.634 	188.114 	539.793 	
42.1116 	-0.0066091 	-0.930342 	0.368755 	1.66291 	0.00686006 	3.13709 	90.161 	116.566 	-0.591113 	220.609 	360.634 	187.647 	539.793 	
42.2146 	-0.00666896 	-0.930941 	0.371403 	1.66291 	0.00672716 	3.13707 	90.161 	116.566 	-0.591113 	220.111 	360.634 	187.178 	539.793 	
42.3177 	-0.00672899 	-0.931517 	0.374055 	1.66291 	0.00659411 	3.13706 	90.161 	116.566 	-0.591113 	219.571 	360.634 	186.569 	539.793 	
42.4207 	-0.0067892 	-0.93207 	0.376713 	1.66291 	0.00646092 	3.13704 	90.161 	116.566 	-0.591113 	219.064 	360.634 	186.088 	539.793 	
42.5236 	-0.00684959 	-0.932599 	0.379375 	1.66291 	0.00632761 	3.13703 	90.161 	116.566 	-0.591113 	218.566 	360.634 	185.63 	539.793 	
42.6266 	-0.00691014 	-0.933105 	0.382042 	1.66291 	0.00619418 	3.13701 	90.161 	116.566 	-0.591113 	218.006 	360.634 	185.026 	539.793 	
42.7295 	-0.00697085 	-0.933588 	0.384713 	1.66291 	0.00606064 	3.137 	90.161 	116.566 	-0.591113 	217.525 	360.634 	184.523 	539.793 	
42.8325 	-0.00703173 	-0.934048 	0.387388 	1.66291 	0.005927 	3.13699 	90.161 	116.566 	-0.591113 	217.016 	360.634 	184.074 	539.793 	
42.936 	-0.00709275 	-0.934484 	0.390067 	1.66291 	0.00579328 	3.13698 	90.161 	116.566 	-0.591113 	216.473 	360.634 	183.476 	539.793 	
43.0437 	-0.00715392 	-0.934897 	0.39275 	1.66292 	0.00565949 	3.13697 	90.161 	116.566 	-0.591113 	215.955 	360.634 	182.976 	539.793 	
43.1465 	-0.00721524 	-0.935286 	0.395436 	1.66292 	0.00552563 	3.13697 	90.161 	116.566 	-0.591113 	215.423 	360.634 	182.475 	539.793 	
43.2513 	-0.0072767 	-0.935652 	0.398126 	1.66292 	0.00539171 	3.13696 	90.161 	116.566 	-0.591113 	214.922 	360.634 	181.94 	539.793 	
43.3553 	-0.00733829 	-0.935995 	0.400819 	1.66292 	0.00525775 	3.13696 	90.161 	116.566 	-0.591113 	214.374 	360.634 	181.368 	539.793 	
43.4591 	-0.00746185 	-0.936609 	0.406213 	1.66292 	0.00498974 	3.13695 	90.161 	116.566 	-0.591113 	213.863 	360.634 	180.916 	539.793 	
43.562 	-0.00752382 	-0.936881 	0.408913 	1.66292 	0.0048557 	3.13695 	90.161 	116.566 	-0.591113 	213.366 	360.634 	180.398 	539.793 	
43.6652 	-0.0075859 	-0.937129 	0.411616 	1.66292 	0.00472166 	3.13695 	90.161 	116.566 	-0.591113 	212.824 	360.634 	179.814 	539.793 	
43.7683 	-0.0076481 	-0.937353 	0.414322 	1.66292 	0.00458763 	3.13695 	90.161 	116.566 	-0.591113 	212.322 	360.634 	179.369 	539.793 	
43.8712 	-0.00771039 	-0.937554 	0.417028 	1.66292 	0.00445361 	3.13695 	90.161 	116.566 	-0.591113 	211.819 	360.634 	178.865 	539.793 	
43.9742 	-0.00777279 	-0.937732 	0.419737 	1.66292 	0.00431962 	3.13696 	90.161 	116.566 	-0.591113 	211.31 	360.634 	178.314 	539.793 	
44.0774 	-0.00783529 	-0.937886 	0.422447 	1.66292 	0.00418566 	3.13696 	90.161 	116.566 	-0.591113 	210.775 	360.634 	177.816 	539.793 	
44.1805 	-0.00789788 	-0.938016 	0.425158 	1.66292 	0.00405176 	3.13697 	90.161 	116.566 	-0.591113 	210.267 	360.634 	177.317 	539.793 	
44.2834 	-0.00796056 	-0.938122 	0.42787 	1.66292 	0.0039179 	3.13698 	90.161 	116.566 	-0.591113 	209.771 	360.634 	176.76 	539.793 	
44.3867 	-0.00802332 	-0.938205 	0.430583 	1.66292 	0.00378412 	3.13698 	90.161 	116.566 	-0.591113 	209.209 	360.634 	176.255 	539.793 	
44.4896 	-0.00808616 	-0.938264 	0.433297 	1.66292 	0.00365041 	3.13699 	90.161 	116.566 	-0.591113 	208.726 	360.634 	175.786 	539.793 	
44.5926 	-0.00814906 	-0.938299 	0.436011 	1.66292 	0.0035168 	3.137 	90.161 	116.566 	-0.591113 	208.221 	360.634 	175.219 	539.793 	
44.6955 	-0.00821204 	-0.938311 	0.438726 	1.66292 	0.00338327 	3.13702 	90.161 	116.566 	-0.591113 	207.675 	360.634 	174.693 	539.793 	
44.8025 	-0.00827508 	-0.938299 	0.44144 	1.66292 	0.00324986 	3.13703 	90.161 	116.566 	-0.591113 	207.167 	360.634 	174.226 	539.793 	
44.9055 	-0.00833818 	-0.938263 	0.444154 	1.66292 	0.00311657 	3.13704 	90.161 	116.566 	-0.591113 	206.617 	360.634 	173.614 	539.793 	
45.0086 	-0.00840134 	-0.938203 	0.446868 	1.66292 	0.0029834 	3.13706 	90.161 	116.566 	-0.591113 	206.122 	360.634 	173.136 	539.793 	
45.1118 	-0.00846454 	-0.93812 	0.449581 	1.66292 	0.00285037 	3.13707 	90.161 	116.566 	-0.591113 	205.62 	360.634 	172.679 	539.793 	
45.2146 	-0.00852778 	-0.938013 	0.452293 	1.66292 	0.00271748 	3.13709 	90.161 	116.566 	-0.591113 	205.12 	360.634 	172.126 	539.793 	
45.3173 	-0.00859107 	-0.937883 	0.455004 	1.66292 	0.00258476 	3.13711 	90.161 	116.566 	-0.591113 	204.562 	360.634 	171.574 	539.793 	
45.4208 	-0.00865439 	-0.937729 	0.457714 	1.66292 	0.00245221 	3.13713 	90.161 	116.566 	-0.591113 	204.073 	360.634 	171.125 	539.793 	
45.5235 	-0.00871774 	-0.937551 	0.460423 	1.66292 	0.00231983 	3.13715 	90.161 	116.565 	-0.591113 	203.569 	360.634 	170.581 	539.793 	
45.6269 	-0.00878111 	-0.937349 	0.46313 	1.66292 	0.00218765 	3.13717 	90.161 	116.565 	-0.591113 	203.021 	360.634 	170.021 	539.793 	
45.7301 	-0.00884451 	-0.937124 	0.465835 	1.66292 	0.00205566 	3.1372 	90.161 	116.565 	-0.591113 	202.512 	360.634 	169.576 	539.793 	
45.8327 	-0.00890792 	-0.936876 	0.468537 	1.66292 	0.00192388 	3.13722 	90.161 	116.565 	-0.591113 	202.023 	360.634 	169.05 	539.793 	
45.9358 	-0.00897134 	-0.936603 	0.471238 	1.66292 	0.00179232 	3.13725 	90.161 	116.565 	-0.591113 	201.474 	360.634 	168.463 	539.793 	
46.0426 	-0.00903476 	-0.936307 	0.473936 	1.66292 	0.00166099 	3.13727 	90.161 	116.565 	-0.591113 	200.977 	360.634 	168.022 	539.793 	
46.1454 	-0.00909819 	-0.935988 	0.476632 	1.66292 	0.0015299 	3.1373 	90.161 	116.565 	-0.591113 	200.416 	360.634 	167.447 	539.793 	
46.2484 	-0.00916161 	-0.935645 	0.479324 	1.66293 	0.00139905 	3.13733 	90.161 	116.565 	-0.591113 	199.915 	360.634 	166.913 	539.793 	
46.3545 	-0.00922502 	-0.935279 	0.482014 	1.66293 	0.00126847 	3.13736 	90.161 	116.565 	-0.591113 	199.42 	360.634 	166.469 	539.793 	
46.4581 	-0.0093518 	-0.934476 	0.487383 	1.66293 	0.00100812 	3.13743 	90.161 	116.565 	-0.591113 	198.87 	360.634 	165.91 	539.793 	
46.561 	-0.00941516 	-0.934039 	0.490062 	1.66293 	0.000878371 	3.13746 	90.161 	116.565 	-0.591113 	198.368 	360.634 	165.354 	539.793 	
46.6644 	-0.00947848 	-0.933579 	0.492737 	1.66293 	0.000748924 	3.13749 	90.161 	116.565 	-0.591113 	197.859 	360.634 	164.905 	539.793 	
46.7673 	-0.00954178 	-0.933096 	0.495408 	1.66293 	0.000619781 	3.13753 	90.161 	116.565 	-0.591113 	197.319 	360.634 	164.369 	539.793 	
46.8704 	-0.00960503 	-0.932589 	0.498074 	1.66293 	0.000490961 	3.13757 	90.161 	116.565 	-0.591113 	196.821 	360.634 	163.81 	539.793 	
46.9732 	-0.00966825 	-0.932059 	0.500736 	1.66293 	0.000362466 	3.1376 	90.161 	116.565 	-0.591113 	196.323 	360.634 	163.351 	539.793 	
47.0764 	-0.00973141 	-0.931506 	0.503394 	1.66293 	0.00023431 	3.13764 	90.161 	116.565 	-0.591113 	195.759 	360.634 	162.828 	539.793 	
47.1794 	-0.00979453 	-0.930929 	0.506046 	1.66293 	0.000106501 	3.13768 	90.161 	116.565 	-0.591113 	195.269 	360.634 	162.266 	539.793 	
47.2826 	-0.00985758 	-0.93033 	0.508693 	1.66293 	-2.09498e-05 	3.13773 	90.161 	116.565 	-0.591113 	194.769 	360.634 	161.784 	539.793 	
47.3855 	-0.00992058 	-0.929707 	0.511335 	1.66293 	-0.000148032 	3.13777 	90.161 	116.565 	-0.591113 	194.221 	360.634 	161.278 	539.793 	
47.4885 	-0.00998351 	-0.929062 	0.513972 	1.66293 	-0.000274742 	3.13781 	90.161 	116.565 	-0.591113 	193.709 	360.634 	160.714 	539.793 	
47.5914 	-0.0100464 	-0.928393 	0.516602 	1.66293 	-0.000401061 	3.13786 	90.161 	116.565 	-0.591113 	193.212 	360.634 	160.225 	539.793 	
47.6948 	-0.0101091 	-0.927702 	0.519227 	1.66293 	-0.000526988 	3.1379 	90.161 	116.565 	-0.591113 	192.718 	360.634 	159.788 	539.793 	
47.8025 	-0.0101718 	-0.926987 	0.521846 	1.66293 	-0.000652506 	3.13795 	90.161 	116.565 	-0.591113 	192.165 	360.634 	159.175 	539.793 	
47.9051 	-0.0102345 	-0.92625 	0.524458 	1.66293 	-0.000777611 	3.138 	90.161 	116.565 	-0.591113 	191.613 	360.634 	158.625 	539.793 	
48.0084 	-0.010297 	-0.92549 	0.527064 	1.66293 	-0.00090229 	3.13805 	90.161 	116.565 	-0.591113 	191.106 	360.634 	158.182 	539.793 	
48.1114 	-0.0103594 	-0.924707 	0.529663 	1.66293 	-0.00102654 	3.1381 	90.161 	116.565 	-0.591113 	190.609 	360.634 	157.64 	539.793 	
48.2147 	-0.0104217 	-0.923902 	0.532255 	1.66293 	-0.00115034 	3.13815 	90.161 	116.565 	-0.591113 	190.115 	360.634 	157.113 	539.793 	
48.3177 	-0.0104839 	-0.923074 	0.53484 	1.66293 	-0.00127368 	3.1382 	90.161 	116.565 	-0.591113 	189.564 	360.634 	156.634 	539.793 	
48.4205 	-0.0105461 	-0.922223 	0.537417 	1.66293 	-0.00139657 	3.13826 	90.161 	116.565 	-0.591113 	189.056 	360.634 	156.099 	539.793 	
48.5235 	-0.0106081 	-0.92135 	0.539987 	1.66294 	-0.00151898 	3.13831 	90.161 	116.565 	-0.591113 	188.563 	360.634 	155.556 	539.793 	
48.6268 	-0.0106699 	-0.920455 	0.54255 	1.66294 	-0.00164092 	3.13837 	90.161 	116.565 	-0.591113 	188.011 	360.634 	155.076 	539.793 	
48.7293 	-0.0107317 	-0.919537 	0.545104 	1.66294 	-0.00176236 	3.13842 	90.161 	116.565 	-0.591113 	187.513 	360.634 	154.559 	539.793 	
48.8325 	-0.0107933 	-0.918597 	0.547651 	1.66294 	-0.0018833 	3.13848 	90.161 	116.565 	-0.591113 	187.002 	360.634 	153.999 	539.793 	
48.9357 	-0.0108548 	-0.917635 	0.550189 	1.66294 	-0.00200374 	3.13854 	90.161 	116.565 	-0.591113 	186.451 	360.634 	153.521 	539.793 	
49.0429 	-0.0109162 	-0.916651 	0.552718 	1.66294 	-0.00212365 	3.1386 	90.161 	116.565 	-0.591113 	185.957 	360.634 	153.025 	539.793 	
49.1454 	-0.0109774 	-0.915644 	0.555239 	1.66294 	-0.00224304 	3.13866 	90.161 	116.565 	-0.591113 	185.406 	360.634 	152.4 	539.793 	
49.2483 	-0.0110384 	-0.914616 	0.557751 	1.66294 	-0.00236189 	3.13872 	90.161 	116.565 	-0.591113 	184.907 	360.634 	151.958 	539.793 	
49.3543 	-0.0110993 	-0.913566 	0.560254 	1.66294 	-0.0024802 	3.13878 	90.161 	116.565 	-0.591113 	184.4 	360.634 	151.477 	539.793 	
49.4581 	-0.0111601 	-0.912494 	0.562748 	1.66294 	-0.00259795 	3.13885 	90.161 	116.565 	-0.591113 	183.852 	360.634 	150.859 	539.793 	
49.561 	-0.0112207 	-0.9114 	0.565232 	1.66294 	-0.00271514 	3.13891 	90.161 	116.565 	-0.591113 	183.351 	360.634 	150.403 	539.793 	
49.6645 	-0.0113414 	-0.909148 	0.570171 	1.66294 	-0.00294779 	3.13905 	90.161 	116.565 	-0.591113 	182.85 	360.634 	149.945 	539.793 	
49.767 	-0.0114015 	-0.907989 	0.572626 	1.66294 	-0.00306324 	3.13911 	90.161 	116.565 	-0.591113 	182.296 	360.634 	149.315 	539.793 	
49.8706 	-0.0114614 	-0.906809 	0.57507 	1.66294 	-0.00317808 	3.13918 	90.161 	116.565 	-0.591113 	181.798 	360.634 	148.834 	539.793 	
49.9735 	-0.0115211 	-0.905608 	0.577504 	1.66294 	-0.00329232 	3.13925 	90.161 	116.565 	-0.591113 	181.294 	360.634 	148.386 	539.793 	
50.0764 	-0.0115806 	-0.904386 	0.579928 	1.66294 	-0.00340594 	3.13933 	90.161 	116.565 	-0.591113 	180.751 	360.634 	147.764 	539.793 	
50.1796 	-0.0116399 	-0.903142 	0.582341 	1.66295 	-0.00351894 	3.1394 	90.161 	116.565 	-0.591113 	180.24 	360.634 	147.274 	539.793 	
50.2827 	-0.0116991 	-0.901878 	0.584742 	1.66295 	-0.0036313 	3.13947 	90.161 	116.565 	-0.591113 	179.741 	360.634 	146.839 	539.793 	
50.3855 	-0.011758 	-0.900593 	0.587133 	1.66295 	-0.00374303 	3.13954 	90.161 	116.565 	-0.591113 	179.19 	360.634 	146.226 	539.793 	
50.4886 	-0.0118167 	-0.899286 	0.589513 	1.66295 	-0.0038541 	3.13962 	90.161 	116.565 	-0.591113 	178.697 	360.634 	145.712 	539.793 	
50.5915 	-0.0118753 	-0.89796 	0.591881 	1.66295 	-0.00396451 	3.1397 	90.161 	116.565 	-0.591113 	178.193 	360.634 	145.285 	539.793 	
50.6946 	-0.0119336 	-0.896612 	0.594237 	1.66295 	-0.00407426 	3.13977 	90.161 	116.565 	-0.591113 	177.686 	360.634 	144.744 	539.793 	
50.8025 	-0.0119916 	-0.895244 	0.596581 	1.66295 	-0.00418332 	3.13985 	90.161 	116.565 	-0.591113 	177.142 	360.634 	144.162 	539.793 	
50.9056 	-0.0120495 	-0.893856 	0.598913 	1.66295 	-0.00429171 	3.13993 	90.161 	116.565 	-0.591113 	176.591 	360.634 	143.695 	539.793 	
51.0087 	-0.0121071 	-0.892447 	0.601234 	1.66295 	-0.0043994 	3.14001 	90.161 	116.565 	-0.591113 	176.09 	360.634 	143.158 	539.793 	
51.1116 	-0.0121645 	-0.891018 	0.603541 	1.66295 	-0.00450639 	3.14009 	90.161 	116.565 	-0.591113 	175.581 	360.634 	142.605 	539.793 	
51.2147 	-0.0122217 	-0.889569 	0.605837 	1.66295 	-0.00461268 	3.14017 	90.161 	116.565 	-0.591113 	175.086 	360.634 	142.173 	539.793 	
51.3175 	-0.0122786 	-0.8881 	0.608119 	1.66295 	-0.00471824 	3.14025 	90.161 	116.565 	-0.591113 	174.535 	360.634 	141.617 	539.793 	
51.4207 	-0.0123353 	-0.886611 	0.610388 	1.66295 	-0.00482308 	3.14034 	90.161 	116.565 	-0.591113 	174.035 	360.634 	141.05 	539.793 	
51.5236 	-0.0123917 	-0.885102 	0.612645 	1.66296 	-0.00492719 	3.14042 	90.161 	116.565 	-0.591113 	173.526 	360.634 	140.615 	539.793 	
51.6269 	-0.0124478 	-0.883574 	0.614888 	1.66296 	-0.00503056 	3.14051 	90.161 	116.565 	-0.591113 	172.978 	360.634 	140.082 	539.793 	
51.7298 	-0.0125037 	-0.882026 	0.617118 	1.66296 	-0.00513318 	3.14059 	90.161 	116.565 	-0.591113 	172.484 	360.634 	139.505 	539.793 	
51.8327 	-0.0125594 	-0.880459 	0.619334 	1.66296 	-0.00523504 	3.14068 	90.161 	116.565 	-0.591113 	171.98 	360.634 	139.047 	539.793 	
51.9359 	-0.0126148 	-0.878872 	0.621537 	1.66296 	-0.00533614 	3.14077 	90.161 	116.565 	-0.591113 	171.422 	360.634 	138.534 	539.793 	
52.0399 	-0.0126699 	-0.877267 	0.623725 	1.66296 	-0.00543647 	3.14086 	90.161 	116.565 	-0.591113 	170.921 	360.634 	137.966 	539.793 	
52.1437 	-0.0127247 	-0.875642 	0.625899 	1.66296 	-0.00553601 	3.14095 	90.161 	116.565 	-0.591113 	170.418 	360.634 	137.493 	539.793 	
52.2466 	-0.0127792 	-0.873998 	0.62806 	1.66296 	-0.00563478 	3.14104 	90.161 	116.565 	-0.591113 	169.874 	360.634 	136.996 	539.793 	
52.3493 	-0.0128335 	-0.872336 	0.630205 	1.66296 	-0.00573274 	3.14113 	90.161 	116.565 	-0.591113 	169.372 	360.634 	136.423 	539.793 	
52.4551 	-0.0129411 	-0.868955 	0.634453 	1.66296 	-0.00592626 	3.14131 	90.161 	116.565 	-0.591113 	168.815 	360.634 	135.881 	539.793 	
52.5593 	-0.0129945 	-0.867237 	0.636554 	1.66296 	-0.00602179 	3.14141 	90.161 	116.565 	-0.591113 	168.314 	360.634 	135.443 	539.793 	
52.6621 	-0.0130476 	-0.865501 	0.638641 	1.66297 	-0.0061165 	3.1415 	90.161 	116.565 	-0.591113 	167.818 	360.634 	134.881 	539.793 	
52.7655 	-0.0131004 	-0.863746 	0.640712 	1.66297 	-0.00621038 	-3.14159 	90.161 	116.565 	-0.591113 	167.264 	360.634 	134.324 	539.793 	
52.8685 	-0.0131528 	-0.861974 	0.642768 	1.66297 	-0.00630343 	-3.14149 	90.161 	116.565 	-0.591113 	166.755 	360.634 	133.897 	539.793 	
52.9713 	-0.013205 	-0.860184 	0.644808 	1.66297 	-0.00639562 	-3.14139 	90.161 	116.565 	-0.591113 	166.257 	360.634 	133.343 	539.793 	
53.0744 	-0.0132568 	-0.858375 	0.646832 	1.66297 	-0.00648697 	-3.14129 	90.161 	116.565 	-0.591113 	165.756 	360.634 	132.808 	539.793 	
53.1775 	-0.0133083 	-0.85655 	0.648841 	1.66297 	-0.00657745 	-3.1412 	90.161 	116.565 	-0.591113 	165.207 	360.634 	132.336 	539.793 	
53.2804 	-0.0133595 	-0.854707 	0.650834 	1.66297 	-0.00666707 	-3.1411 	90.161 	116.565 	-0.591113 	164.705 	360.634 	131.808 	539.793 	
53.3836 	-0.0134104 	-0.852846 	0.65281 	1.66297 	-0.00675581 	-3.141 	90.161 	116.565 	-0.591113 	164.204 	360.634 	131.258 	539.793 	
53.4865 	-0.0134609 	-0.850968 	0.65477 	1.66297 	-0.00684367 	-3.14089 	90.161 	116.565 	-0.591113 	163.652 	360.634 	130.788 	539.793 	
53.5894 	-0.0135111 	-0.849074 	0.656714 	1.66297 	-0.00693065 	-3.14079 	90.161 	116.565 	-0.591113 	163.152 	360.634 	130.281 	539.793 	
53.6925 	-0.0135609 	-0.847162 	0.658641 	1.66298 	-0.00701673 	-3.14069 	90.161 	116.565 	-0.591113 	162.648 	360.634 	129.708 	539.793 	
53.7959 	-0.0136104 	-0.845234 	0.660551 	1.66298 	-0.00710192 	-3.14059 	90.161 	116.565 	-0.591113 	162.096 	360.634 	129.223 	539.793 	
53.9024 	-0.0136596 	-0.843289 	0.662445 	1.66298 	-0.0071862 	-3.14048 	90.161 	116.565 	-0.591113 	161.596 	360.634 	128.737 	539.793 	
54.0056 	-0.0137084 	-0.841327 	0.664321 	1.66298 	-0.00726956 	-3.14038 	90.161 	116.565 	-0.591113 	161.043 	360.634 	128.111 	539.793 	
54.1086 	-0.0137569 	-0.83935 	0.66618 	1.66298 	-0.00735201 	-3.14027 	90.161 	116.565 	-0.591113 	160.542 	360.634 	127.662 	539.793 	
54.2115 	-0.013805 	-0.837356 	0.668022 	1.66298 	-0.00743353 	-3.14016 	90.161 	116.565 	-0.591113 	160.038 	360.634 	127.199 	539.793 	
54.3147 	-0.0138527 	-0.835346 	0.669847 	1.66298 	-0.00751411 	-3.14006 	90.161 	116.565 	-0.591113 	159.536 	360.634 	126.617 	539.793 	
54.4176 	-0.0139 	-0.83332 	0.671653 	1.66298 	-0.00759376 	-3.13995 	90.161 	116.565 	-0.591113 	158.988 	360.634 	126.091 	539.793 	
54.5204 	-0.013947 	-0.831279 	0.673442 	1.66298 	-0.00767247 	-3.13984 	90.161 	116.565 	-0.591113 	158.487 	360.634 	125.642 	539.793 	
54.6237 	-0.0139937 	-0.829222 	0.675213 	1.66299 	-0.00775023 	-3.13973 	90.161 	116.565 	-0.591113 	157.985 	360.634 	125.071 	539.793 	
54.7267 	-0.0140399 	-0.827149 	0.676967 	1.66299 	-0.00782703 	-3.13962 	90.161 	116.565 	-0.591113 	157.432 	360.634 	124.537 	539.793 	
54.8294 	-0.0140858 	-0.825062 	0.678702 	1.66299 	-0.00790287 	-3.13951 	90.161 	116.565 	-0.591113 	156.931 	360.634 	124.104 	539.793 	
54.9328 	-0.0141312 	-0.822959 	0.680418 	1.66299 	-0.00797774 	-3.1394 	90.161 	116.565 	-0.591113 	156.435 	360.634 	123.622 	539.793 	
55.0361 	-0.0141786 	-0.820986 	0.683726 	1.65686 	-0.00806025 	-3.13934 	90.161 	116.565 	-0.591113 	155.879 	360.634 	123.502 	539.793 	
55.1431 	-0.0142268 	-0.819041 	0.6877 	1.64814 	-0.00814659 	-3.1393 	90.161 	116.565 	-0.591113 	155.375 	360.634 	123.465 	539.793 	
55.2455 	-0.014275 	-0.817062 	0.691657 	1.63941 	-0.00823329 	-3.13926 	90.161 	116.565 	-0.591113 	154.822 	360.634 	123.46 	539.793 	
55.3483 	-0.0143232 	-0.815048 	0.695596 	1.63068 	-0.00832033 	-3.13922 	90.161 	116.565 	-0.591113 	154.32 	360.634 	123.458 	539.793 	
55.4541 	-0.0143713 	-0.813001 	0.699518 	1.62196 	-0.00840771 	-3.13918 	90.161 	116.565 	-0.591113 	153.823 	360.634 	123.457 	539.793 	
55.5571 	-0.0144193 	-0.810919 	0.703421 	1.61323 	-0.00849542 	-3.13914 	90.161 	116.565 	-0.591113 	153.268 	360.634 	123.457 	539.793 	
55.66 	-0.0145153 	-0.806653 	0.711173 	1.59578 	-0.00867183 	-3.13907 	90.161 	116.566 	-0.591113 	152.764 	360.634 	123.456 	539.793 	
55.762 	-0.0145631 	-0.80447 	0.715021 	1.58705 	-0.00876051 	-3.13903 	90.161 	116.566 	-0.591113 	152.264 	360.634 	123.456 	539.793 	
55.8656 	-0.014611 	-0.802253 	0.718849 	1.57833 	-0.0088495 	-3.139 	90.161 	116.566 	-0.591113 	151.717 	360.634 	123.456 	539.793 	
55.9683 	-0.0146587 	-0.800002 	0.722658 	1.5696 	-0.00893878 	-3.13896 	90.161 	116.566 	-0.591113 	151.21 	360.634 	123.456 	539.793 	
56.071 	-0.0147063 	-0.797719 	0.726447 	1.56087 	-0.00902836 	-3.13893 	90.161 	116.566 	-0.591113 	150.71 	360.634 	123.456 	539.793 	
56.1745 	-0.0147539 	-0.795403 	0.730217 	1.55215 	-0.00911823 	-3.1389 	90.161 	116.566 	-0.591113 	150.205 	360.634 	123.456 	539.793 	
56.2774 	-0.0148014 	-0.793053 	0.733965 	1.54342 	-0.00920838 	-3.13886 	90.161 	116.566 	-0.591113 	149.655 	360.634 	123.455 	539.793 	
56.3807 	-0.0148488 	-0.790671 	0.737694 	1.53469 	-0.0092988 	-3.13883 	90.161 	116.566 	-0.591113 	149.15 	360.634 	123.455 	539.793 	
56.4836 	-0.0148962 	-0.788257 	0.741401 	1.52597 	-0.00938949 	-3.1388 	90.161 	116.566 	-0.591113 	148.647 	360.634 	123.455 	539.793 	
56.5865 	-0.0149434 	-0.78581 	0.745087 	1.51724 	-0.00948044 	-3.13877 	90.161 	116.566 	-0.591113 	148.098 	360.634 	123.455 	539.793 	
56.6895 	-0.0149905 	-0.783332 	0.748751 	1.50851 	-0.00957164 	-3.13875 	90.161 	116.566 	-0.591113 	147.599 	360.634 	123.455 	539.793 	
56.7925 	-0.0150376 	-0.780821 	0.752394 	1.49979 	-0.00966309 	-3.13872 	90.161 	116.566 	-0.591113 	147.095 	360.634 	123.455 	539.793 	
56.8961 	-0.0150845 	-0.778279 	0.756015 	1.49106 	-0.00975477 	-3.13869 	90.161 	116.566 	-0.591113 	146.542 	360.634 	123.455 	539.793 	
57.0025 	-0.0151313 	-0.775705 	0.759613 	1.48234 	-0.00984669 	-3.13866 	90.161 	116.566 	-0.591113 	146.038 	360.634 	123.455 	539.793 	
57.1054 	-0.0151781 	-0.7731 	0.763189 	1.47361 	-0.00993883 	-3.13864 	90.161 	116.566 	-0.591113 	145.491 	360.634 	123.455 	539.793 	
57.2086 	-0.0152247 	-0.770464 	0.766742 	1.46488 	-0.0100312 	-3.13861 	90.161 	116.566 	-0.591113 	144.989 	360.634 	123.455 	539.793 	
57.3116 	-0.0152712 	-0.767797 	0.770272 	1.45616 	-0.0101238 	-3.13859 	90.161 	116.566 	-0.591113 	144.48 	360.634 	123.455 	539.793 	
57.4149 	-0.0153175 	-0.765099 	0.773778 	1.44743 	-0.0102165 	-3.13857 	90.161 	116.566 	-0.591113 	143.98 	360.634 	123.455 	539.793 	
57.5176 	-0.0153638 	-0.762371 	0.777261 	1.4387 	-0.0103095 	-3.13855 	90.161 	116.566 	-0.591113 	143.429 	360.634 	123.455 	539.793 	
57.6207 	-0.0154053 	-0.75989 	0.780375 	1.43085 	-0.0103933 	-3.13853 	90.161 	116.566 	-0.591113 	142.93 	360.634 	123.455 	539.793 	
57.7238 	-0.0154559 	-0.756824 	0.784154 	1.42125 	-0.010496 	-3.1385 	90.161 	116.566 	-0.591113 	142.429 	360.634 	123.455 	539.793 	
57.8268 	-0.0155017 	-0.754005 	0.787564 	1.41252 	-0.0105895 	-3.13848 	90.161 	116.566 	-0.591113 	141.874 	360.634 	123.455 	539.793 	
57.93 	-0.0155474 	-0.751157 	0.790949 	1.4038 	-0.0106832 	-3.13847 	90.161 	116.566 	-0.591113 	141.367 	360.634 	123.455 	539.793 	
58.0331 	-0.015593 	-0.74828 	0.79431 	1.39507 	-0.0107771 	-3.13845 	90.161 	116.566 	-0.591113 	140.873 	360.634 	123.455 	539.793 	
58.1358 	-0.0156384 	-0.745373 	0.797645 	1.38634 	-0.0108711 	-3.13843 	90.161 	116.566 	-0.591113 	140.32 	360.634 	123.455 	539.793 	
58.2428 	-0.0156837 	-0.742437 	0.800954 	1.37762 	-0.0109652 	-3.13841 	90.161 	116.566 	-0.591113 	139.815 	360.634 	123.455 	539.793 	
58.3455 	-0.0157288 	-0.739472 	0.804238 	1.36889 	-0.0110595 	-3.1384 	90.161 	116.566 	-0.591113 	139.262 	360.634 	123.455 	539.793 	
58.4484 	-0.0157738 	-0.736479 	0.807496 	1.36017 	-0.0111539 	-3.13838 	90.161 	116.566 	-0.591113 	138.761 	360.634 	123.455 	539.793 	
58.5538 	-0.0158186 	-0.733458 	0.810728 	1.35144 	-0.0112485 	-3.13837 	90.161 	116.566 	-0.591113 	138.262 	360.634 	123.455 	539.793 	
58.6573 	-0.0159077 	-0.727331 	0.817111 	1.33399 	-0.0114379 	-3.13834 	90.161 	116.566 	-0.591113 	137.708 	360.634 	123.455 	539.793 	
58.7605 	-0.015952 	-0.724226 	0.820263 	1.32526 	-0.0115328 	-3.13833 	90.161 	116.566 	-0.591113 	137.204 	360.634 	123.455 	539.793 	
58.8635 	-0.0159961 	-0.721093 	0.823387 	1.31653 	-0.0116278 	-3.13832 	90.161 	116.566 	-0.591113 	136.703 	360.634 	123.455 	539.793 	
58.9661 	-0.0160401 	-0.717934 	0.826484 	1.30781 	-0.0117228 	-3.13831 	90.161 	116.566 	-0.591113 	136.153 	360.634 	123.455 	539.793 	
59.0695 	-0.0160839 	-0.714747 	0.829553 	1.29908 	-0.011818 	-3.1383 	90.161 	116.566 	-0.591113 	135.652 	360.634 	123.455 	539.793 	
59.1724 	-0.0161275 	-0.711534 	0.832594 	1.29035 	-0.0119132 	-3.13829 	90.161 	116.566 	-0.591113 	135.145 	360.634 	123.455 	539.793 	
59.2755 	-0.0161666 	-0.70862 	0.835307 	1.2825 	-0.011999 	-3.13829 	90.161 	116.566 	-0.591113 	134.591 	360.634 	123.455 	539.793 	
59.3788 	-0.0162141 	-0.705029 	0.838591 	1.2729 	-0.0121038 	-3.13828 	90.161 	116.566 	-0.591113 	134.093 	360.634 	123.455 	539.793 	
59.4815 	-0.0162571 	-0.701737 	0.841547 	1.26417 	-0.0121993 	-3.13828 	90.161 	116.566 	-0.591113 	133.592 	360.634 	123.455 	539.793 	
59.585 	-0.0163 	-0.69842 	0.844475 	1.25545 	-0.0122947 	-3.13827 	90.161 	116.566 	-0.591113 	133.085 	360.634 	123.455 	539.793 	
59.6874 	-0.0163426 	-0.695077 	0.847373 	1.24672 	-0.0123902 	-3.13827 	90.161 	116.566 	-0.591113 	132.532 	360.634 	123.455 	539.793 	
59.7907 	-0.016385 	-0.691709 	0.850241 	1.23799 	-0.0124857 	-3.13826 	90.161 	116.566 	-0.591113 	132.035 	360.634 	123.455 	539.793 	
59.8938 	-0.0164273 	-0.688316 	0.853081 	1.22927 	-0.0125812 	-3.13826 	90.161 	116.566 	-0.591113 	131.529 	360.634 	123.455 	539.793 	
60.0026 	-0.0164693 	-0.684899 	0.85589 	1.22054 	-0.0126768 	-3.13826 	90.161 	116.566 	-0.591113 	130.973 	360.634 	123.455 	539.793 	
60.1057 	-0.0165069 	-0.681802 	0.858393 	1.21269 	-0.0127628 	-3.13826 	90.161 	116.566 	-0.591113 	130.42 	360.634 	123.455 	539.793 	
60.2086 	-0.0165527 	-0.677991 	0.861419 	1.20309 	-0.0128679 	-3.13826 	90.161 	116.566 	-0.591211 	129.925 	360.634 	123.455 	539.793 	
60.3116 	-0.0165899 	-0.674851 	0.863868 	1.19523 	-0.012954 	-3.13826 	90.161 	116.566 	-0.591211 	129.421 	360.634 	123.455 	539.793 	
60.4147 	-0.0166352 	-0.670988 	0.866827 	1.18563 	-0.0130591 	-3.13826 	90.161 	116.566 	-0.591211 	128.915 	360.634 	123.455 	539.793 	
60.518 	-0.0166761 	-0.667451 	0.869485 	1.17691 	-0.0131546 	-3.13826 	90.161 	116.566 	-0.591211 	128.364 	360.634 	123.455 	539.793 	
60.6207 	-0.0167168 	-0.663891 	0.872112 	1.16818 	-0.0132501 	-3.13827 	90.161 	116.566 	-0.591211 	127.863 	360.634 	123.455 	539.793 	
60.7236 	-0.0167532 	-0.660668 	0.874449 	1.16033 	-0.013336 	-3.13827 	90.161 	116.566 	-0.591211 	127.363 	360.634 	123.455 	539.793 	
60.8267 	-0.0167975 	-0.656703 	0.877272 	1.15073 	-0.013441 	-3.13828 	90.161 	116.566 	-0.591211 	126.81 	360.634 	123.455 	539.793 	
60.9297 	-0.0168375 	-0.653076 	0.879805 	1.142 	-0.0135364 	-3.13828 	90.161 	116.566 	-0.591211 	126.305 	360.634 	123.455 	539.793 	
61.0325 	-0.0168773 	-0.649426 	0.882306 	1.13327 	-0.0136317 	-3.13829 	90.161 	116.566 	-0.591211 	125.803 	360.634 	123.455 	539.793 	
61.1361 	-0.0169168 	-0.645755 	0.884775 	1.12455 	-0.013727 	-3.1383 	90.161 	116.567 	-0.591211 	125.255 	360.634 	123.455 	539.793 	
61.2419 	-0.016956 	-0.642063 	0.887212 	1.11582 	-0.0138222 	-3.13831 	90.161 	116.567 	-0.591211 	124.75 	360.634 	123.455 	539.793 	
61.3458 	-0.0169951 	-0.638349 	0.889616 	1.10709 	-0.0139173 	-3.13832 	90.161 	116.567 	-0.591211 	124.195 	360.634 	123.455 	539.793 	
61.4484 	-0.0170338 	-0.634615 	0.891988 	1.09837 	-0.0140123 	-3.13833 	90.161 	116.567 	-0.591211 	123.693 	360.634 	123.455 	539.793 	
61.5518 	-0.0170723 	-0.63086 	0.894328 	1.08964 	-0.0141072 	-3.13834 	90.161 	116.567 	-0.591211 	123.189 	360.634 	123.455 	539.793 	
61.6555 	-0.0171106 	-0.627084 	0.896634 	1.08091 	-0.0142021 	-3.13835 	90.161 	116.567 	-0.591211 	122.639 	360.634 	123.455 	539.793 	
61.7583 	-0.0171486 	-0.623289 	0.898908 	1.07219 	-0.0142968 	-3.13836 	90.161 	116.567 	-0.591211 	122.135 	360.634 	123.455 	539.793 	
61.8614 	-0.0172237 	-0.61564 	0.903355 	1.05473 	-0.0144859 	-3.13839 	90.161 	116.567 	-0.591211 	121.634 	360.634 	123.455 	539.793 	
61.9646 	-0.0172609 	-0.611786 	0.905529 	1.04601 	-0.0145803 	-3.1384 	90.161 	116.567 	-0.591211 	121.133 	360.634 	123.455 	539.793 	
62.0673 	-0.0172978 	-0.607914 	0.907668 	1.03728 	-0.0146745 	-3.13842 	90.161 	116.567 	-0.591211 	120.582 	360.634 	123.455 	539.793 	
62.1706 	-0.0173308 	-0.604413 	0.909565 	1.02942 	-0.0147592 	-3.13844 	90.161 	116.567 	-0.591211 	120.078 	360.634 	123.455 	539.793 	
62.2737 	-0.0173708 	-0.600114 	0.911846 	1.01982 	-0.0148625 	-3.13846 	90.161 	116.567 	-0.591211 	119.573 	360.634 	123.455 	539.793 	
62.3768 	-0.0174069 	-0.596187 	0.913884 	1.0111 	-0.0149563 	-3.13847 	90.161 	116.567 	-0.591211 	119.024 	360.634 	123.455 	539.793 	
62.4795 	-0.0174427 	-0.592242 	0.915887 	1.00237 	-0.0150499 	-3.13849 	90.161 	116.567 	-0.591211 	118.52 	360.634 	123.455 	539.793 	
62.5826 	-0.0174782 	-0.58828 	0.917856 	0.993644 	-0.0151434 	-3.13851 	90.161 	116.567 	-0.591211 	118.02 	360.634 	123.455 	539.793 	
62.6856 	-0.0175135 	-0.584301 	0.91979 	0.984917 	-0.0152366 	-3.13853 	90.161 	116.567 	-0.591211 	117.461 	360.634 	123.455 	539.793 	
62.7886 	-0.0175484 	-0.580306 	0.921689 	0.97619 	-0.0153297 	-3.13856 	90.161 	116.567 	-0.591211 	116.961 	360.634 	123.455 	539.793 	
62.8917 	-0.017583 	-0.576293 	0.923553 	0.967463 	-0.0154226 	-3.13858 	90.161 	116.567 	-0.591211 	116.462 	360.634 	123.455 	539.793 	
62.9947 	-0.0176174 	-0.572265 	0.925383 	0.958736 	-0.0155153 	-3.1386 	90.161 	116.567 	-0.591211 	115.96 	360.634 	123.455 	539.793 	
63.1032 	-0.0176514 	-0.568221 	0.927177 	0.950009 	-0.0156078 	-3.13863 	90.161 	116.567 	-0.591211 	115.406 	360.634 	123.455 	539.793 	
