RISC-NYUAD/HeavyPayloadDrone/projects/kinova-ros/devel/lib/ne_kinova_demo/VulcanTrajectory/Vulcan1_Vicon_y19m11d12h15min12.csv
time (NSec) 	Kinova Tip Position (t_x) 	t_y 	t_z 	Kinova Tip Angle (theta_x) 	Kinova Tip Angle (theta_y) 	Kinova Tip Angle (theta_z) 	Kinova Joint Angle (j1) 	(j2) 	(j3) 	(j4) 	Kinova Joint Angle (j5) 	(j6) 	(j7)
12.8367 	0.208174 	-0.574973 	0.0532907 	2.83326 	0.953934 	-0.583298 	90.178 	117.703 	-0.586328 	265.307 	99.7405 	235.49 	285.839 	
12.8468 	0.208174 	-0.574973 	0.0532907 	2.83326 	0.953934 	-0.583298 	90.178 	117.703 	-0.586328 	265.307 	99.7405 	235.49 	285.839 	
12.857 	0.208174 	-0.574973 	0.0532907 	2.83326 	0.953934 	-0.583298 	90.178 	117.703 	-0.586328 	265.307 	99.7405 	235.49 	285.839 	
12.8668 	0.208174 	-0.574973 	0.0532907 	2.83326 	0.953934 	-0.583298 	90.178 	117.703 	-0.586328 	265.307 	99.7405 	235.49 	285.839 	
12.8769 	0.208174 	-0.574973 	0.0532907 	2.83326 	0.953934 	-0.583298 	90.178 	117.703 	-0.586328 	265.307 	99.7405 	235.49 	285.839 	
12.8869 	0.208174 	-0.574973 	0.0532907 	2.83326 	0.953934 	-0.583298 	90.178 	117.703 	-0.586328 	265.307 	99.7405 	235.49 	285.839 	
12.8969 	0.208174 	-0.574973 	0.0532907 	2.83326 	0.953934 	-0.583298 	90.178 	117.703 	-0.586328 	265.307 	99.7405 	235.49 	285.839 	
12.907 	0.208174 	-0.574973 	0.0532907 	2.83326 	0.953934 	-0.583298 	90.178 	117.703 	-0.586328 	265.307 	99.7405 	235.49 	285.839 	
12.917 	0.208174 	-0.574973 	0.0532907 	2.83326 	0.953934 	-0.583298 	90.178 	117.703 	-0.586328 	265.307 	99.7405 	235.49 	285.839 	
12.927 	0.208174 	-0.574973 	0.0532907 	2.83326 	0.953934 	-0.583298 	90.178 	117.703 	-0.586328 	265.307 	99.7405 	235.49 	285.839 	
12.9368 	0.208174 	-0.574973 	0.0532907 	2.83326 	0.953934 	-0.583298 	90.178 	117.703 	-0.586328 	265.307 	99.7405 	235.49 	285.839 	
12.9468 	0.208174 	-0.574973 	0.0532907 	2.83326 	0.953934 	-0.583298 	90.178 	117.703 	-0.586328 	265.307 	99.7405 	235.49 	285.839 	
12.957 	0.208174 	-0.574973 	0.0532907 	2.83326 	0.953934 	-0.583298 	90.178 	117.703 	-0.586328 	265.307 	99.7405 	235.49 	285.839 	
12.967 	0.208174 	-0.574973 	0.0532907 	2.83326 	0.953934 	-0.583298 	90.178 	117.703 	-0.586328 	265.307 	99.7405 	235.49 	285.839 	
12.977 	0.208174 	-0.574973 	0.0532907 	2.83326 	0.953934 	-0.583298 	90.178 	117.703 	-0.586328 	265.307 	99.7405 	235.49 	285.839 	
12.9868 	0.208174 	-0.574973 	0.0532907 	2.83326 	0.953934 	-0.583298 	90.178 	117.703 	-0.586328 	265.307 	99.7405 	235.49 	285.839 	
12.997 	0.208174 	-0.574973 	0.0532907 	2.83326 	0.953934 	-0.583298 	90.178 	117.703 	-0.586328 	265.307 	99.7405 	235.49 	285.839 	
13.0069 	0.208174 	-0.574973 	0.0532907 	2.83326 	0.953934 	-0.583298 	90.178 	117.703 	-0.586328 	265.307 	99.7405 	235.49 	285.839 	
13.017 	0.208174 	-0.574973 	0.0532907 	2.83326 	0.953934 	-0.583298 	90.178 	117.703 	-0.586328 	265.307 	99.7405 	235.49 	285.839 	
13.0269 	0.208174 	-0.574973 	0.0532907 	2.83326 	0.953934 	-0.583298 	90.178 	117.703 	-0.586328 	265.307 	99.7405 	235.49 	285.839 	
13.0369 	0.208174 	-0.574973 	0.0532907 	2.83326 	0.953934 	-0.583298 	90.178 	117.703 	-0.586328 	265.307 	99.7405 	235.49 	285.839 	
13.0468 	0.208174 	-0.574973 	0.0532907 	2.83326 	0.953934 	-0.583298 	90.178 	117.703 	-0.586328 	265.307 	99.7405 	235.49 	285.839 	
13.057 	0.208174 	-0.574973 	0.0532907 	2.83326 	0.953934 	-0.583298 	90.178 	117.703 	-0.586328 	265.307 	99.7405 	235.49 	285.839 	
13.0669 	0.208174 	-0.574973 	0.0532907 	2.83326 	0.953934 	-0.583298 	90.178 	117.703 	-0.586328 	265.307 	99.7405 	235.49 	285.839 	
13.077 	0.208174 	-0.574973 	0.0532907 	2.83326 	0.953934 	-0.583298 	90.178 	117.703 	-0.586328 	265.307 	99.7405 	235.49 	285.839 	
13.0868 	0.208174 	-0.574973 	0.0532907 	2.83326 	0.953934 	-0.583298 	90.178 	117.703 	-0.586328 	265.307 	99.7405 	235.49 	285.839 	
13.097 	0.208174 	-0.574973 	0.0532907 	2.83326 	0.953934 	-0.583298 	90.178 	117.703 	-0.586328 	265.307 	99.7405 	235.49 	285.839 	
13.107 	0.208174 	-0.574973 	0.0532907 	2.83326 	0.953934 	-0.583298 	90.178 	117.703 	-0.586328 	265.307 	99.7405 	235.49 	285.839 	
13.117 	0.208174 	-0.574973 	0.0532907 	2.83326 	0.953934 	-0.583298 	90.178 	117.703 	-0.586328 	265.307 	99.7405 	235.49 	285.839 	
13.127 	0.208174 	-0.574973 	0.0532907 	2.83326 	0.953934 	-0.583298 	90.178 	117.703 	-0.586328 	265.307 	99.7405 	235.49 	285.839 	
13.1368 	0.208174 	-0.574973 	0.0532907 	2.83326 	0.953934 	-0.583298 	90.178 	117.703 	-0.586328 	265.307 	99.7405 	235.49 	285.839 	
13.1468 	0.208174 	-0.574973 	0.0532907 	2.83326 	0.953934 	-0.583298 	90.178 	117.703 	-0.586328 	265.307 	99.7405 	235.49 	285.839 	
13.157 	0.208174 	-0.574973 	0.0532907 	2.83326 	0.953934 	-0.583298 	90.178 	117.703 	-0.586328 	265.307 	99.7405 	235.49 	285.839 	
13.1668 	0.208174 	-0.574973 	0.0532907 	2.83326 	0.953934 	-0.583298 	90.178 	117.703 	-0.586328 	265.307 	99.7405 	235.49 	285.839 	
13.1768 	0.208174 	-0.574973 	0.0532907 	2.83326 	0.953934 	-0.583298 	90.178 	117.703 	-0.586328 	265.307 	99.7405 	235.49 	285.839 	
13.1868 	0.208174 	-0.574973 	0.0532907 	2.83326 	0.953934 	-0.583298 	90.178 	117.703 	-0.586328 	265.307 	99.7405 	235.49 	285.839 	
13.197 	0.208174 	-0.574973 	0.0532907 	2.83326 	0.953934 	-0.583298 	90.178 	117.703 	-0.586328 	265.307 	99.7405 	235.49 	285.839 	
13.2069 	0.208174 	-0.574973 	0.0532907 	2.83326 	0.953934 	-0.583298 	90.178 	117.703 	-0.586328 	265.307 	99.7405 	235.49 	285.839 	
13.2169 	0.208174 	-0.574973 	0.0532907 	2.83326 	0.953934 	-0.583298 	90.178 	117.703 	-0.586328 	265.307 	99.7405 	235.49 	285.839 	
13.2269 	0.208174 	-0.574973 	0.0532907 	2.83326 	0.953934 	-0.583298 	90.178 	117.703 	-0.586328 	265.307 	99.7405 	235.49 	285.839 	
13.2368 	0.208174 	-0.574973 	0.0532907 	2.83326 	0.953934 	-0.583298 	90.178 	117.703 	-0.586328 	265.307 	99.7405 	235.49 	285.839 	
13.2468 	0.208174 	-0.574973 	0.0532907 	2.83326 	0.953934 	-0.583298 	90.178 	117.703 	-0.586328 	265.307 	99.7405 	235.49 	285.839 	
13.2569 	0.208174 	-0.574973 	0.0532907 	2.83326 	0.953934 	-0.583298 	90.178 	117.703 	-0.586328 	265.307 	99.7405 	235.49 	285.839 	
13.2668 	0.208174 	-0.574973 	0.0532907 	2.83326 	0.953934 	-0.583298 	90.178 	117.703 	-0.586328 	265.307 	99.7405 	235.49 	285.839 	
13.2769 	0.208174 	-0.574973 	0.0532907 	2.83326 	0.953934 	-0.583298 	90.178 	117.703 	-0.586328 	265.307 	99.7405 	235.49 	285.839 	
13.2868 	0.208174 	-0.574973 	0.0532907 	2.83326 	0.953934 	-0.583298 	90.178 	117.703 	-0.586328 	265.307 	99.7405 	235.49 	285.839 	
13.297 	0.208174 	-0.574973 	0.0532907 	2.83326 	0.953934 	-0.583298 	90.178 	117.703 	-0.586328 	265.307 	99.7405 	235.49 	285.839 	
13.307 	0.208174 	-0.574973 	0.0532907 	2.83326 	0.953934 	-0.583298 	90.178 	117.703 	-0.586328 	265.307 	99.7405 	235.49 	285.839 	
13.317 	0.208174 	-0.574973 	0.0532907 	2.83326 	0.953934 	-0.583298 	90.178 	117.703 	-0.586328 	265.307 	99.7405 	235.49 	285.839 	
13.327 	0.208174 	-0.574973 	0.0532907 	2.83326 	0.953934 	-0.583298 	90.178 	117.703 	-0.586328 	265.307 	99.7405 	235.49 	285.839 	
13.3368 	0.208174 	-0.574973 	0.0532907 	2.83326 	0.953934 	-0.583298 	90.178 	117.703 	-0.586328 	265.307 	99.7405 	235.49 	285.839 	
13.3469 	0.208174 	-0.574973 	0.0532907 	2.83326 	0.953934 	-0.583298 	90.178 	117.703 	-0.586328 	265.307 	99.7405 	235.49 	285.839 	
13.357 	0.208174 	-0.574973 	0.0532907 	2.83326 	0.953934 	-0.583298 	90.178 	117.703 	-0.586328 	265.307 	99.7405 	235.49 	285.839 	
13.3669 	0.208174 	-0.574973 	0.0532907 	2.83326 	0.953934 	-0.583298 	90.178 	117.703 	-0.586328 	265.307 	99.7405 	235.49 	285.839 	
13.3769 	0.208174 	-0.574973 	0.0532907 	2.83326 	0.953934 	-0.583298 	90.178 	117.703 	-0.586328 	265.307 	99.7405 	235.49 	285.839 	
13.3868 	0.208174 	-0.574973 	0.0532907 	2.83326 	0.953934 	-0.583298 	90.178 	117.703 	-0.586328 	265.307 	99.7405 	235.49 	285.839 	
13.397 	0.208174 	-0.574973 	0.0532907 	2.83326 	0.953934 	-0.583298 	90.178 	117.703 	-0.586328 	265.307 	99.7405 	235.49 	285.839 	
13.4068 	0.208174 	-0.574973 	0.0532907 	2.83326 	0.953934 	-0.583298 	90.178 	117.703 	-0.586328 	265.307 	99.7405 	235.49 	285.839 	
13.4169 	0.208174 	-0.574973 	0.0532907 	2.83326 	0.953934 	-0.583298 	90.178 	117.703 	-0.586328 	265.307 	99.7405 	235.49 	285.839 	
13.4269 	0.208174 	-0.574973 	0.0532907 	2.83326 	0.953934 	-0.583298 	90.178 	117.703 	-0.586328 	265.307 	99.7405 	235.49 	285.839 	
13.4369 	0.208174 	-0.574973 	0.0532907 	2.83326 	0.953934 	-0.583298 	90.178 	117.703 	-0.586328 	265.307 	99.7405 	235.49 	285.839 	
13.4469 	0.208174 	-0.574973 	0.0532907 	2.83326 	0.953934 	-0.583298 	90.178 	117.703 	-0.586328 	265.307 	99.7405 	235.49 	285.839 	
13.457 	0.208174 	-0.574973 	0.0532907 	2.83326 	0.953934 	-0.583298 	90.178 	117.703 	-0.586328 	265.307 	99.7405 	235.49 	285.839 	
13.4669 	0.208174 	-0.574973 	0.0532907 	2.83326 	0.953934 	-0.583298 	90.178 	117.703 	-0.586328 	265.307 	99.7405 	235.49 	285.839 	
13.4769 	0.208174 	-0.574973 	0.0532907 	2.83326 	0.953934 	-0.583298 	90.178 	117.703 	-0.586328 	265.307 	99.7405 	235.49 	285.839 	
13.4868 	0.208174 	-0.574973 	0.0532907 	2.83326 	0.953934 	-0.583298 	90.178 	117.703 	-0.586328 	265.307 	99.7405 	235.49 	285.839 	
13.4969 	0.208174 	-0.574973 	0.0532907 	2.83326 	0.953934 	-0.583298 	90.178 	117.703 	-0.586328 	265.307 	99.7405 	235.49 	285.839 	
13.5069 	0.208174 	-0.574973 	0.0532907 	2.83326 	0.953934 	-0.583298 	90.178 	117.703 	-0.586328 	265.307 	99.7405 	235.49 	285.839 	
13.5169 	0.208174 	-0.574973 	0.0532907 	2.83326 	0.953934 	-0.583298 	90.178 	117.703 	-0.586328 	265.307 	99.7405 	235.49 	285.839 	
13.5269 	0.208174 	-0.574973 	0.0532907 	2.83326 	0.953934 	-0.583298 	90.178 	117.703 	-0.586328 	265.307 	99.7405 	235.49 	285.839 	
13.5368 	0.208174 	-0.574973 	0.0532907 	2.83326 	0.953934 	-0.583298 	90.178 	117.703 	-0.586328 	265.307 	99.7405 	235.49 	285.839 	
13.5468 	0.208174 	-0.574973 	0.0532907 	2.83326 	0.953934 	-0.583298 	90.178 	117.703 	-0.586328 	265.307 	99.7405 	235.49 	285.839 	
13.5568 	0.208174 	-0.574973 	0.0532907 	2.83326 	0.953934 	-0.583298 	90.178 	117.703 	-0.586328 	265.307 	99.7405 	235.49 	285.839 	
13.5669 	0.208174 	-0.574973 	0.0532907 	2.83326 	0.953934 	-0.583298 	90.178 	117.703 	-0.586328 	265.307 	99.7405 	235.49 	285.839 	
13.577 	0.208174 	-0.574973 	0.0532907 	2.83326 	0.953934 	-0.583298 	90.178 	117.703 	-0.586328 	265.307 	99.7405 	235.49 	285.839 	
13.5869 	0.208174 	-0.574973 	0.0532907 	2.83326 	0.953934 	-0.583298 	90.178 	117.703 	-0.586328 	265.307 	99.7405 	235.49 	285.839 	
13.5969 	0.208174 	-0.574973 	0.0532907 	2.83326 	0.953934 	-0.583298 	90.178 	117.703 	-0.586328 	265.307 	99.7405 	235.49 	285.839 	
13.6068 	0.208174 	-0.574973 	0.0532907 	2.83326 	0.953934 	-0.583298 	90.178 	117.703 	-0.586328 	265.307 	99.7405 	235.49 	285.839 	
13.6169 	0.208174 	-0.574973 	0.0532907 	2.83326 	0.953934 	-0.583298 	90.178 	117.703 	-0.586328 	265.307 	99.7405 	235.49 	285.839 	
13.6268 	0.208174 	-0.574973 	0.0532907 	2.83326 	0.953934 	-0.583298 	90.178 	117.703 	-0.586328 	265.307 	99.7405 	235.49 	285.839 	
13.6368 	0.208174 	-0.574973 	0.0532907 	2.83326 	0.953934 	-0.583298 	90.178 	117.703 	-0.586328 	265.307 	99.7405 	235.49 	285.839 	
13.6468 	0.208174 	-0.574973 	0.0532907 	2.83326 	0.953934 	-0.583298 	90.178 	117.703 	-0.586328 	265.307 	99.7405 	235.49 	285.839 	
13.657 	0.208174 	-0.574973 	0.0532907 	2.83326 	0.953934 	-0.583298 	90.178 	117.703 	-0.586328 	265.307 	99.7405 	235.49 	285.839 	
13.667 	0.208174 	-0.574973 	0.0532907 	2.83326 	0.953934 	-0.583298 	90.178 	117.703 	-0.586328 	265.307 	99.7405 	235.49 	285.839 	
13.6768 	0.208174 	-0.574973 	0.0532907 	2.83326 	0.953934 	-0.583298 	90.178 	117.703 	-0.586328 	265.307 	99.7405 	235.49 	285.839 	
13.6868 	0.208174 	-0.574973 	0.0532907 	2.83326 	0.953934 	-0.583298 	90.178 	117.703 	-0.586328 	265.307 	99.7405 	235.49 	285.839 	
13.697 	0.208174 	-0.574973 	0.0532907 	2.83326 	0.953934 	-0.583298 	90.178 	117.703 	-0.586328 	265.307 	99.7405 	235.49 	285.839 	
13.707 	0.208174 	-0.574973 	0.0532907 	2.83326 	0.953934 	-0.583298 	90.178 	117.703 	-0.586328 	265.307 	99.7405 	235.49 	285.839 	
13.717 	0.208174 	-0.574973 	0.0532907 	2.83326 	0.953934 	-0.583298 	90.178 	117.703 	-0.586328 	265.307 	99.7405 	235.49 	285.839 	
13.727 	0.208174 	-0.574973 	0.0532907 	2.83326 	0.953934 	-0.583298 	90.178 	117.703 	-0.586328 	265.307 	99.7405 	235.49 	285.839 	
13.7368 	0.208174 	-0.574973 	0.0532907 	2.83326 	0.953934 	-0.583298 	90.178 	117.703 	-0.586328 	265.307 	99.7405 	235.49 	285.839 	
13.7468 	0.208174 	-0.574973 	0.0532907 	2.83326 	0.953934 	-0.583298 	90.178 	117.703 	-0.586328 	265.307 	99.7405 	235.49 	285.839 	
13.757 	0.208174 	-0.574973 	0.0532907 	2.83326 	0.953934 	-0.583298 	90.178 	117.703 	-0.586328 	265.307 	99.7405 	235.49 	285.839 	
13.7669 	0.208174 	-0.574973 	0.0532907 	2.83326 	0.953934 	-0.583298 	90.178 	117.703 	-0.586328 	265.307 	99.7405 	235.49 	285.839 	
13.7768 	0.208174 	-0.574973 	0.0532907 	2.83326 	0.953934 	-0.583298 	90.178 	117.703 	-0.586328 	265.307 	99.7405 	235.49 	285.839 	
13.7868 	0.208174 	-0.574973 	0.0532907 	2.83326 	0.953934 	-0.583298 	90.178 	117.703 	-0.586328 	265.307 	99.7405 	235.49 	285.839 	
13.797 	0.208174 	-0.574973 	0.0532907 	2.83326 	0.953934 	-0.583298 	90.178 	117.703 	-0.586328 	265.307 	99.7405 	235.49 	285.839 	
13.807 	0.208174 	-0.574973 	0.0532907 	2.83326 	0.953934 	-0.583298 	90.178 	117.703 	-0.586328 	265.307 	99.7405 	235.49 	285.839 	
13.817 	0.208174 	-0.574973 	0.0532907 	2.83326 	0.953934 	-0.583298 	90.178 	117.703 	-0.586328 	265.307 	99.7405 	235.49 	285.839 	
13.8269 	0.208174 	-0.574973 	0.0532907 	2.83326 	0.953934 	-0.583298 	90.178 	117.703 	-0.586328 	265.307 	99.7405 	235.49 	285.839 	
13.8368 	0.208174 	-0.574973 	0.0532907 	2.83326 	0.953934 	-0.583298 	90.178 	117.703 	-0.586328 	265.307 	99.7405 	235.49 	285.839 	
13.8468 	0.208174 	-0.574973 	0.0532907 	2.83326 	0.953934 	-0.583298 	90.178 	117.703 	-0.586328 	265.307 	99.7405 	235.49 	285.839 	
13.857 	0.208174 	-0.574973 	0.0532907 	2.83326 	0.953934 	-0.583298 	90.178 	117.703 	-0.586328 	265.307 	99.7405 	235.49 	285.839 	
13.8669 	0.208174 	-0.574973 	0.0532907 	2.83326 	0.953934 	-0.583298 	90.178 	117.703 	-0.586328 	265.307 	99.7405 	235.49 	285.839 	
13.877 	0.208174 	-0.574973 	0.0532907 	2.83326 	0.953934 	-0.583298 	90.178 	117.703 	-0.586328 	265.307 	99.7405 	235.49 	285.839 	
13.8869 	0.208174 	-0.574973 	0.0532907 	2.83326 	0.953934 	-0.583298 	90.178 	117.703 	-0.586328 	265.307 	99.7405 	235.49 	285.839 	
13.897 	0.208174 	-0.574973 	0.0532907 	2.83326 	0.953934 	-0.583298 	90.178 	117.703 	-0.586328 	265.307 	99.7405 	235.49 	285.839 	
13.907 	0.208174 	-0.574973 	0.0532907 	2.83326 	0.953934 	-0.583298 	90.178 	117.703 	-0.586328 	265.307 	99.7405 	235.49 	285.839 	
13.917 	0.208174 	-0.574973 	0.0532907 	2.83326 	0.953934 	-0.583298 	90.178 	117.703 	-0.586328 	265.307 	99.7405 	235.49 	285.839 	
13.927 	0.208174 	-0.574973 	0.0532907 	2.83326 	0.953934 	-0.583298 	90.178 	117.703 	-0.586328 	265.307 	99.7405 	235.49 	285.839 	
13.9369 	0.208174 	-0.574973 	0.0532907 	2.83326 	0.953934 	-0.583298 	90.178 	117.703 	-0.586328 	265.307 	99.7405 	235.49 	285.839 	
13.9468 	0.208174 	-0.574973 	0.0532907 	2.83326 	0.953934 	-0.583298 	90.178 	117.703 	-0.586328 	265.307 	99.7405 	235.49 	285.839 	
13.957 	0.208174 	-0.574973 	0.0532907 	2.83326 	0.953934 	-0.583298 	90.178 	117.703 	-0.586328 	265.307 	99.7405 	235.49 	285.839 	
13.967 	0.208174 	-0.574973 	0.0532907 	2.83326 	0.953934 	-0.583298 	90.178 	117.703 	-0.586328 	265.307 	99.7405 	235.49 	285.839 	
13.977 	0.208174 	-0.574973 	0.0532907 	2.83326 	0.953934 	-0.583298 	90.178 	117.703 	-0.586328 	265.307 	99.7405 	235.49 	285.839 	
13.9869 	0.208174 	-0.574973 	0.0532907 	2.83326 	0.953934 	-0.583298 	90.178 	117.703 	-0.586328 	265.307 	99.7405 	235.49 	285.839 	
13.997 	0.208174 	-0.574973 	0.0532907 	2.83326 	0.953934 	-0.583298 	90.178 	117.703 	-0.586328 	265.307 	99.7405 	235.49 	285.839 	
14.0069 	0.208174 	-0.574973 	0.0532907 	2.83326 	0.953934 	-0.583298 	90.178 	117.703 	-0.586328 	265.307 	99.7405 	235.49 	285.839 	
14.017 	0.208174 	-0.574973 	0.0532907 	2.83326 	0.953934 	-0.583298 	90.178 	117.703 	-0.586328 	265.307 	99.7405 	235.49 	285.839 	
14.027 	0.208174 	-0.574973 	0.0532907 	2.83326 	0.953934 	-0.583298 	90.178 	117.703 	-0.586328 	265.307 	99.7405 	235.49 	285.839 	
14.0369 	0.208174 	-0.574973 	0.0532907 	2.83326 	0.953934 	-0.583298 	90.178 	117.703 	-0.586328 	265.307 	99.7405 	235.49 	285.839 	
14.0468 	0.208174 	-0.574973 	0.0532907 	2.83326 	0.953934 	-0.583298 	90.178 	117.703 	-0.586328 	265.307 	99.7405 	235.49 	285.839 	
14.057 	0.208174 	-0.574973 	0.0532907 	2.83326 	0.953934 	-0.583298 	90.178 	117.703 	-0.586328 	265.307 	99.7405 	235.49 	285.839 	
14.0669 	0.208174 	-0.574973 	0.0532907 	2.83326 	0.953934 	-0.583298 	90.178 	117.703 	-0.586328 	265.307 	99.7405 	235.49 	285.839 	
14.077 	0.208174 	-0.574973 	0.0532907 	2.83326 	0.953934 	-0.583298 	90.178 	117.703 	-0.586328 	265.307 	99.7405 	235.49 	285.839 	
14.0869 	0.208174 	-0.574973 	0.0532907 	2.83326 	0.953934 	-0.583298 	90.178 	117.703 	-0.586328 	265.307 	99.7405 	235.49 	285.839 	
14.097 	0.208174 	-0.574973 	0.0532907 	2.83326 	0.953934 	-0.583298 	90.178 	117.703 	-0.586328 	265.307 	99.7405 	235.49 	285.839 	
14.1069 	0.208174 	-0.574973 	0.0532907 	2.83326 	0.953934 	-0.583298 	90.178 	117.703 	-0.586328 	265.307 	99.7405 	235.49 	285.839 	
14.1168 	0.208174 	-0.574973 	0.0532907 	2.83326 	0.953934 	-0.583298 	90.178 	117.703 	-0.586328 	265.307 	99.7405 	235.49 	285.839 	
14.1268 	0.208174 	-0.574973 	0.0532907 	2.83326 	0.953934 	-0.583298 	90.178 	117.703 	-0.586328 	265.307 	99.7405 	235.49 	285.839 	
14.1368 	0.208174 	-0.574973 	0.0532907 	2.83326 	0.953934 	-0.583298 	90.178 	117.703 	-0.586328 	265.307 	99.7405 	235.49 	285.839 	
14.1468 	0.208174 	-0.574973 	0.0532907 	2.83326 	0.953934 	-0.583298 	90.178 	117.703 	-0.586328 	265.307 	99.7405 	235.49 	285.839 	
14.157 	0.208174 	-0.574973 	0.0532907 	2.83326 	0.953934 	-0.583298 	90.178 	117.703 	-0.586328 	265.307 	99.7405 	235.49 	285.839 	
14.1669 	0.208174 	-0.574973 	0.0532907 	2.83326 	0.953934 	-0.583298 	90.178 	117.703 	-0.586328 	265.307 	99.7405 	235.49 	285.839 	
14.177 	0.208174 	-0.574973 	0.0532907 	2.83326 	0.953934 	-0.583298 	90.178 	117.703 	-0.586328 	265.307 	99.7405 	235.49 	285.839 	
14.1869 	0.208174 	-0.574973 	0.0532907 	2.83326 	0.953934 	-0.583298 	90.178 	117.703 	-0.586328 	265.307 	99.7405 	235.49 	285.839 	
14.197 	0.208174 	-0.574973 	0.0532907 	2.83326 	0.953934 	-0.583298 	90.178 	117.703 	-0.586328 	265.307 	99.7405 	235.49 	285.839 	
14.207 	0.208174 	-0.574973 	0.0532907 	2.83326 	0.953934 	-0.583298 	90.178 	117.703 	-0.586328 	265.307 	99.7405 	235.49 	285.839 	
14.217 	0.208174 	-0.574973 	0.0532907 	2.83326 	0.953934 	-0.583298 	90.178 	117.703 	-0.586328 	265.307 	99.7405 	235.49 	285.839 	
14.227 	0.208174 	-0.574973 	0.0532907 	2.83326 	0.953934 	-0.583298 	90.178 	117.703 	-0.586328 	265.307 	99.7405 	235.49 	285.839 	
14.2368 	0.208174 	-0.574973 	0.0532907 	2.83326 	0.953934 	-0.583298 	90.178 	117.703 	-0.586328 	265.307 	99.7405 	235.49 	285.839 	
14.2469 	0.208174 	-0.574973 	0.0532907 	2.83326 	0.953934 	-0.583298 	90.178 	117.703 	-0.586328 	265.307 	99.7405 	235.49 	285.839 	
14.257 	0.208174 	-0.574973 	0.0532907 	2.83326 	0.953934 	-0.583298 	90.178 	117.703 	-0.586328 	265.307 	99.7405 	235.49 	285.839 	
14.2669 	0.208174 	-0.574973 	0.0532907 	2.83326 	0.953934 	-0.583298 	90.178 	117.703 	-0.586328 	265.307 	99.7405 	235.49 	285.839 	
14.2769 	0.208174 	-0.574973 	0.0532907 	2.83326 	0.953934 	-0.583298 	90.178 	117.703 	-0.586328 	265.307 	99.7405 	235.49 	285.839 	
14.287 	0.208174 	-0.574973 	0.0532907 	2.83326 	0.953934 	-0.583298 	90.178 	117.703 	-0.586328 	265.307 	99.7405 	235.49 	285.839 	
14.2969 	0.208174 	-0.574973 	0.0532907 	2.83326 	0.953934 	-0.583298 	90.178 	117.703 	-0.586328 	265.307 	99.7405 	235.49 	285.839 	
14.307 	0.208174 	-0.574973 	0.0532907 	2.83326 	0.953934 	-0.583298 	90.178 	117.703 	-0.586328 	265.307 	99.7405 	235.49 	285.839 	
14.317 	0.208174 	-0.574973 	0.0532907 	2.83326 	0.953934 	-0.583298 	90.178 	117.703 	-0.586328 	265.307 	99.7405 	235.49 	285.839 	
14.3269 	0.208174 	-0.574973 	0.0532907 	2.83326 	0.953934 	-0.583298 	90.178 	117.703 	-0.586328 	265.307 	99.7405 	235.49 	285.839 	
14.3369 	0.208174 	-0.574973 	0.0532907 	2.83326 	0.953934 	-0.583298 	90.178 	117.703 	-0.586328 	265.307 	99.7405 	235.49 	285.839 	
14.3469 	0.208174 	-0.574973 	0.0532907 	2.83326 	0.953934 	-0.583298 	90.178 	117.703 	-0.586328 	265.307 	99.7405 	235.49 	285.839 	
14.357 	0.208174 	-0.574973 	0.0532907 	2.83326 	0.953934 	-0.583298 	90.178 	117.703 	-0.586328 	265.307 	99.7405 	235.49 	285.839 	
14.367 	0.208174 	-0.574973 	0.0532907 	2.83326 	0.953934 	-0.583298 	90.178 	117.703 	-0.586328 	265.307 	99.7405 	235.49 	285.839 	
14.3769 	0.208174 	-0.574973 	0.0532907 	2.83326 	0.953934 	-0.583298 	90.178 	117.703 	-0.586328 	265.307 	99.7405 	235.49 	285.839 	
14.3869 	0.208174 	-0.574973 	0.0532907 	2.83326 	0.953934 	-0.583298 	90.178 	117.703 	-0.586328 	265.307 	99.7405 	235.49 	285.839 	
14.3969 	0.208174 	-0.574973 	0.0532907 	2.83326 	0.953934 	-0.583298 	90.178 	117.703 	-0.586328 	265.307 	99.7405 	235.49 	285.839 	
14.407 	0.208174 	-0.574973 	0.0532907 	2.83326 	0.953934 	-0.583298 	90.178 	117.703 	-0.586328 	265.307 	99.7405 	235.49 	285.839 	
14.417 	0.208174 	-0.574973 	0.0532907 	2.83326 	0.953934 	-0.583298 	90.178 	117.703 	-0.586328 	265.307 	99.7405 	235.49 	285.839 	
14.427 	0.208174 	-0.574973 	0.0532907 	2.83326 	0.953934 	-0.583298 	90.178 	117.703 	-0.586328 	265.307 	99.7405 	235.49 	285.839 	
14.4368 	0.208174 	-0.574973 	0.0532907 	2.83326 	0.953934 	-0.583298 	90.178 	117.703 	-0.586328 	265.307 	99.7405 	235.49 	285.839 	
14.4468 	0.208174 	-0.574973 	0.0532907 	2.83326 	0.953934 	-0.583298 	90.178 	117.703 	-0.586328 	265.307 	99.7405 	235.49 	285.839 	
14.4569 	0.208174 	-0.574973 	0.0532907 	2.83326 	0.953934 	-0.583298 	90.178 	117.703 	-0.586328 	265.307 	99.7405 	235.49 	285.839 	
14.467 	0.208174 	-0.574973 	0.0532907 	2.83326 	0.953934 	-0.583298 	90.178 	117.703 	-0.586328 	265.307 	99.7405 	235.49 	285.839 	
14.477 	0.208174 	-0.574973 	0.0532907 	2.83326 	0.953934 	-0.583298 	90.178 	117.703 	-0.586328 	265.307 	99.7405 	235.49 	285.839 	
14.487 	0.208174 	-0.574973 	0.0532907 	2.83326 	0.953934 	-0.583298 	90.178 	117.703 	-0.586328 	265.307 	99.7405 	235.49 	285.839 	
14.4968 	0.208174 	-0.574973 	0.0532907 	2.83326 	0.953934 	-0.583298 	90.178 	117.703 	-0.586328 	265.307 	99.7405 	235.49 	285.839 	
14.5069 	0.208174 	-0.574973 	0.0532907 	2.83326 	0.953934 	-0.583298 	90.178 	117.703 	-0.586328 	265.307 	99.7405 	235.49 	285.839 	
14.517 	0.208174 	-0.574973 	0.0532907 	2.83326 	0.953934 	-0.583298 	90.178 	117.703 	-0.586328 	265.307 	99.7405 	235.49 	285.839 	
14.5269 	0.208174 	-0.574973 	0.0532907 	2.83326 	0.953934 	-0.583298 	90.178 	117.703 	-0.586328 	265.307 	99.7405 	235.49 	285.839 	
14.5368 	0.208174 	-0.574973 	0.0532907 	2.83326 	0.953934 	-0.583298 	90.178 	117.703 	-0.586328 	265.307 	99.7405 	235.49 	285.839 	
14.5469 	0.208174 	-0.574973 	0.0532907 	2.83326 	0.953934 	-0.583298 	90.178 	117.703 	-0.586328 	265.307 	99.7405 	235.49 	285.839 	
14.5569 	0.208174 	-0.574973 	0.0532907 	2.83326 	0.953934 	-0.583298 	90.178 	117.703 	-0.586328 	265.307 	99.7405 	235.49 	285.839 	
14.5669 	0.208174 	-0.574973 	0.0532907 	2.83326 	0.953934 	-0.583298 	90.178 	117.703 	-0.586328 	265.307 	99.7405 	235.49 	285.839 	
14.577 	0.208174 	-0.574973 	0.0532907 	2.83326 	0.953934 	-0.583298 	90.178 	117.703 	-0.586328 	265.307 	99.7405 	235.49 	285.839 	
14.587 	0.208174 	-0.574973 	0.0532907 	2.83326 	0.953934 	-0.583298 	90.178 	117.703 	-0.586328 	265.307 	99.7405 	235.49 	285.839 	
14.597 	0.208174 	-0.574973 	0.0532907 	2.83326 	0.953934 	-0.583298 	90.178 	117.703 	-0.586328 	265.307 	99.7405 	235.49 	285.839 	
14.6068 	0.208174 	-0.574973 	0.0532907 	2.83326 	0.953934 	-0.583298 	90.178 	117.703 	-0.586328 	265.307 	99.7405 	235.49 	285.839 	
14.617 	0.208174 	-0.574973 	0.0532907 	2.83326 	0.953934 	-0.583298 	90.178 	117.703 	-0.586328 	265.307 	99.7405 	235.49 	285.839 	
14.627 	0.208174 	-0.574973 	0.0532907 	2.83326 	0.953934 	-0.583298 	90.178 	117.703 	-0.586328 	265.307 	99.7405 	235.49 	285.839 	
14.6368 	0.208174 	-0.574973 	0.0532907 	2.83326 	0.953934 	-0.583298 	90.178 	117.703 	-0.586328 	265.307 	99.7405 	235.49 	285.839 	
14.6468 	0.208174 	-0.574973 	0.0532907 	2.83326 	0.953934 	-0.583298 	90.178 	117.703 	-0.586328 	265.307 	99.7405 	235.49 	285.839 	
14.6568 	0.208174 	-0.574973 	0.0532907 	2.83326 	0.953934 	-0.583298 	90.178 	117.703 	-0.586328 	265.307 	99.7405 	235.49 	285.839 	
14.667 	0.208174 	-0.574973 	0.0532907 	2.83326 	0.953934 	-0.583298 	90.178 	117.703 	-0.586328 	265.307 	99.7405 	235.49 	285.839 	
14.6769 	0.208174 	-0.574973 	0.0532907 	2.83326 	0.953934 	-0.583298 	90.178 	117.703 	-0.586328 	265.307 	99.7405 	235.49 	285.839 	
14.687 	0.208174 	-0.574973 	0.0532907 	2.83326 	0.953934 	-0.583298 	90.178 	117.703 	-0.586328 	265.307 	99.7405 	235.49 	285.839 	
14.697 	0.208174 	-0.574973 	0.0532907 	2.83326 	0.953934 	-0.583298 	90.178 	117.703 	-0.586328 	265.307 	99.7405 	235.49 	285.839 	
14.707 	0.208174 	-0.574973 	0.0532907 	2.83326 	0.953934 	-0.583298 	90.178 	117.703 	-0.586328 	265.307 	99.7405 	235.49 	285.839 	
14.717 	0.208174 	-0.574973 	0.0532907 	2.83326 	0.953934 	-0.583298 	90.178 	117.703 	-0.586328 	265.307 	99.7405 	235.49 	285.839 	
14.7269 	0.208174 	-0.574973 	0.0532907 	2.83326 	0.953934 	-0.583298 	90.178 	117.703 	-0.586328 	265.307 	99.7405 	235.49 	285.839 	
14.7369 	0.208174 	-0.574973 	0.0532907 	2.83326 	0.953934 	-0.583298 	90.178 	117.703 	-0.586328 	265.307 	99.7405 	235.49 	285.839 	
14.7468 	0.208174 	-0.574973 	0.0532907 	2.83326 	0.953934 	-0.583298 	90.178 	117.703 	-0.586328 	265.307 	99.7405 	235.49 	285.839 	
14.757 	0.208174 	-0.574973 	0.0532907 	2.83326 	0.953934 	-0.583298 	90.178 	117.703 	-0.586328 	265.307 	99.7405 	235.49 	285.839 	
14.7669 	0.208174 	-0.574973 	0.0532907 	2.83326 	0.953934 	-0.583298 	90.178 	117.703 	-0.586328 	265.307 	99.7405 	235.49 	285.839 	
14.777 	0.208174 	-0.574973 	0.0532907 	2.83326 	0.953934 	-0.583298 	90.178 	117.703 	-0.586328 	265.307 	99.7405 	235.49 	285.839 	
14.7869 	0.208174 	-0.574973 	0.0532907 	2.83326 	0.953934 	-0.583298 	90.178 	117.703 	-0.586328 	265.307 	99.7405 	235.49 	285.839 	
14.797 	0.208174 	-0.574973 	0.0532907 	2.83326 	0.953934 	-0.583298 	90.178 	117.703 	-0.586328 	265.307 	99.7405 	235.49 	285.839 	
14.8069 	0.208174 	-0.574973 	0.0532907 	2.83326 	0.953934 	-0.583298 	90.178 	117.703 	-0.586328 	265.307 	99.7405 	235.49 	285.839 	
14.8169 	0.208174 	-0.574973 	0.0532907 	2.83326 	0.953934 	-0.583298 	90.178 	117.703 	-0.586328 	265.307 	99.7405 	235.49 	285.839 	
14.8268 	0.208174 	-0.574973 	0.0532907 	2.83326 	0.953934 	-0.583298 	90.178 	117.703 	-0.586328 	265.307 	99.7405 	235.49 	285.839 	
14.8368 	0.208174 	-0.574973 	0.0532907 	2.83326 	0.953934 	-0.583298 	90.178 	117.703 	-0.586328 	265.307 	99.7405 	235.49 	285.839 	
14.8468 	0.208174 	-0.574973 	0.0532907 	2.83326 	0.953934 	-0.583298 	90.178 	117.703 	-0.586328 	265.307 	99.7405 	235.49 	285.839 	
14.857 	0.208174 	-0.574973 	0.0532907 	2.83326 	0.953934 	-0.583298 	90.178 	117.703 	-0.586328 	265.307 	99.7405 	235.49 	285.839 	
14.8669 	0.208174 	-0.574973 	0.0532907 	2.83326 	0.953934 	-0.583298 	90.178 	117.703 	-0.586328 	265.307 	99.7405 	235.49 	285.839 	
14.8769 	0.208174 	-0.574973 	0.0532907 	2.83326 	0.953934 	-0.583298 	90.178 	117.703 	-0.586328 	265.307 	99.7405 	235.49 	285.839 	
14.8869 	0.208174 	-0.574973 	0.0532907 	2.83326 	0.953934 	-0.583298 	90.178 	117.703 	-0.586328 	265.307 	99.7405 	235.49 	285.839 	
14.897 	0.208174 	-0.574973 	0.0532907 	2.83326 	0.953934 	-0.583298 	90.178 	117.703 	-0.586328 	265.307 	99.7405 	235.49 	285.839 	
14.9068 	0.208174 	-0.574973 	0.0532907 	2.83326 	0.953934 	-0.583298 	90.178 	117.703 	-0.586328 	265.307 	99.7405 	235.49 	285.839 	
14.917 	0.208174 	-0.574973 	0.0532907 	2.83326 	0.953934 	-0.583298 	90.178 	117.703 	-0.586328 	265.307 	99.7405 	235.49 	285.839 	
14.9268 	0.208174 	-0.574973 	0.0532907 	2.83326 	0.953934 	-0.583298 	90.178 	117.703 	-0.586328 	265.307 	99.7405 	235.49 	285.839 	
14.9369 	0.208174 	-0.574973 	0.0532907 	2.83326 	0.953934 	-0.583298 	90.178 	117.703 	-0.586328 	265.307 	99.7405 	235.49 	285.839 	
14.9468 	0.208174 	-0.574973 	0.0532907 	2.83326 	0.953934 	-0.583298 	90.178 	117.703 	-0.586328 	265.307 	99.7405 	235.49 	285.839 	
14.957 	0.208174 	-0.574973 	0.0532907 	2.83326 	0.953934 	-0.583298 	90.178 	117.703 	-0.586328 	265.307 	99.7405 	235.49 	285.839 	
14.9669 	0.208174 	-0.574973 	0.0532907 	2.83326 	0.953934 	-0.583298 	90.178 	117.703 	-0.586328 	265.307 	99.7405 	235.49 	285.839 	
14.9768 	0.208174 	-0.574973 	0.0532907 	2.83326 	0.953934 	-0.583298 	90.178 	117.703 	-0.586328 	265.307 	99.7405 	235.49 	285.839 	
14.9868 	0.208174 	-0.574973 	0.0532907 	2.83326 	0.953934 	-0.583298 	90.178 	117.703 	-0.586328 	265.307 	99.7405 	235.49 	285.839 	
14.997 	0.208174 	-0.574973 	0.0532907 	2.83326 	0.953934 	-0.583298 	90.178 	117.703 	-0.586328 	265.307 	99.7405 	235.49 	285.839 	
15.0068 	0.208174 	-0.574973 	0.0532907 	2.83326 	0.953934 	-0.583298 	90.178 	117.703 	-0.586328 	265.307 	99.7405 	235.49 	285.839 	
15.017 	0.208174 	-0.574973 	0.0532907 	2.83326 	0.953934 	-0.583298 	90.178 	117.703 	-0.586328 	265.307 	99.7405 	235.49 	285.839 	
15.0269 	0.208174 	-0.574973 	0.0532907 	2.83326 	0.953934 	-0.583298 	90.178 	117.703 	-0.586328 	265.307 	99.7405 	235.49 	285.839 	
15.0369 	0.208174 	-0.574973 	0.0532907 	2.83326 	0.953934 	-0.583298 	90.178 	117.703 	-0.586328 	265.307 	99.7405 	235.49 	285.839 	
15.0468 	0.208174 	-0.574973 	0.0532907 	2.83326 	0.953934 	-0.583298 	90.178 	117.703 	-0.586328 	265.307 	99.7405 	235.49 	285.839 	
15.057 	0.208174 	-0.574973 	0.0532907 	2.83326 	0.953934 	-0.583298 	90.178 	117.703 	-0.586328 	265.307 	99.7405 	235.49 	285.839 	
15.0668 	0.208174 	-0.574973 	0.0532907 	2.83326 	0.953934 	-0.583298 	90.178 	117.703 	-0.586328 	265.307 	99.7405 	235.49 	285.839 	
15.0769 	0.208174 	-0.574973 	0.0532907 	2.83326 	0.953934 	-0.583298 	90.178 	117.703 	-0.586328 	265.307 	99.7405 	235.49 	285.839 	
15.087 	0.208174 	-0.574973 	0.0532907 	2.83326 	0.953934 	-0.583298 	90.178 	117.703 	-0.586328 	265.307 	99.7405 	235.49 	285.839 	
15.097 	0.208174 	-0.574973 	0.0532907 	2.83326 	0.953934 	-0.583298 	90.178 	117.703 	-0.586328 	265.307 	99.7405 	235.49 	285.839 	
15.1068 	0.208174 	-0.574973 	0.0532907 	2.83326 	0.953934 	-0.583298 	90.178 	117.703 	-0.586328 	265.307 	99.7405 	235.49 	285.839 	
15.117 	0.208174 	-0.574973 	0.0532907 	2.83326 	0.953934 	-0.583298 	90.178 	117.703 	-0.586328 	265.307 	99.7405 	235.49 	285.839 	
15.1268 	0.208174 	-0.574973 	0.0532907 	2.83326 	0.953934 	-0.583298 	90.178 	117.703 	-0.586328 	265.307 	99.7405 	235.49 	285.839 	
15.1368 	0.208174 	-0.574973 	0.0532907 	2.83326 	0.953934 	-0.583298 	90.178 	117.703 	-0.586328 	265.307 	99.7405 	235.49 	285.839 	
15.1468 	0.208174 	-0.574973 	0.0532907 	2.83326 	0.953934 	-0.583298 	90.178 	117.703 	-0.586328 	265.307 	99.7405 	235.49 	285.839 	
15.157 	0.208174 	-0.574973 	0.0532907 	2.83326 	0.953934 	-0.583298 	90.178 	117.703 	-0.586328 	265.307 	99.7405 	235.49 	285.839 	
15.167 	0.208174 	-0.574973 	0.0532907 	2.83326 	0.953934 	-0.583298 	90.178 	117.703 	-0.586328 	265.307 	99.7405 	235.49 	285.839 	
15.1768 	0.208174 	-0.574973 	0.0532907 	2.83326 	0.953934 	-0.583298 	90.178 	117.703 	-0.586328 	265.307 	99.7405 	235.49 	285.839 	
15.187 	0.208174 	-0.574973 	0.0532907 	2.83326 	0.953934 	-0.583298 	90.178 	117.703 	-0.586328 	265.307 	99.7405 	235.49 	285.839 	
15.197 	0.208174 	-0.574973 	0.0532907 	2.83326 	0.953934 	-0.583298 	90.178 	117.703 	-0.586328 	265.307 	99.7405 	235.49 	285.839 	
15.2069 	0.208174 	-0.574973 	0.0532907 	2.83326 	0.953934 	-0.583298 	90.178 	117.703 	-0.586328 	265.307 	99.7405 	235.49 	285.839 	
15.217 	0.208174 	-0.574973 	0.0532907 	2.83326 	0.953934 	-0.583298 	90.178 	117.703 	-0.586328 	265.307 	99.7405 	235.49 	285.839 	
15.227 	0.208174 	-0.574973 	0.0532907 	2.83326 	0.953934 	-0.583298 	90.178 	117.703 	-0.586328 	265.307 	99.7405 	235.49 	285.839 	
15.2368 	0.208174 	-0.574973 	0.0532907 	2.83326 	0.953934 	-0.583298 	90.178 	117.703 	-0.586328 	265.307 	99.7405 	235.49 	285.839 	
15.2468 	0.208174 	-0.574973 	0.0532907 	2.83326 	0.953934 	-0.583298 	90.178 	117.703 	-0.586328 	265.307 	99.7405 	235.49 	285.839 	
15.2569 	0.208174 	-0.574973 	0.0532907 	2.83326 	0.953934 	-0.583298 	90.178 	117.703 	-0.586328 	265.307 	99.7405 	235.49 	285.839 	
15.2668 	0.208174 	-0.574973 	0.0532907 	2.83326 	0.953934 	-0.583298 	90.178 	117.703 	-0.586328 	265.307 	99.7405 	235.49 	285.839 	
15.2768 	0.208174 	-0.574973 	0.0532907 	2.83326 	0.953934 	-0.583298 	90.178 	117.703 	-0.586328 	265.307 	99.7405 	235.49 	285.839 	
15.2869 	0.208174 	-0.574973 	0.0532907 	2.83326 	0.953934 	-0.583298 	90.178 	117.703 	-0.586328 	265.307 	99.7405 	235.49 	285.839 	
15.297 	0.208174 	-0.574973 	0.0532907 	2.83326 	0.953934 	-0.583298 	90.178 	117.703 	-0.586328 	265.307 	99.7405 	235.49 	285.839 	
15.3069 	0.208174 	-0.574973 	0.0532907 	2.83326 	0.953934 	-0.583298 	90.178 	117.703 	-0.586328 	265.307 	99.7405 	235.49 	285.839 	
15.317 	0.208174 	-0.574973 	0.0532907 	2.83326 	0.953934 	-0.583298 	90.178 	117.703 	-0.586328 	265.307 	99.7405 	235.49 	285.839 	
15.327 	0.208174 	-0.574973 	0.0532907 	2.83326 	0.953934 	-0.583298 	90.178 	117.703 	-0.586328 	265.307 	99.7405 	235.49 	285.839 	
15.3368 	0.208174 	-0.574973 	0.0532907 	2.83326 	0.953934 	-0.583298 	90.178 	117.703 	-0.586328 	265.307 	99.7405 	235.49 	285.839 	
15.3469 	0.208174 	-0.574973 	0.0532907 	2.83326 	0.953934 	-0.583298 	90.178 	117.703 	-0.586328 	265.307 	99.7405 	235.49 	285.839 	
15.357 	0.208174 	-0.574973 	0.0532907 	2.83326 	0.953934 	-0.583298 	90.178 	117.703 	-0.586328 	265.307 	99.7405 	235.49 	285.839 	
15.3668 	0.208174 	-0.574973 	0.0532907 	2.83326 	0.953934 	-0.583298 	90.178 	117.703 	-0.586328 	265.307 	99.7405 	235.49 	285.839 	
15.3769 	0.208174 	-0.574973 	0.0532907 	2.83326 	0.953934 	-0.583298 	90.178 	117.703 	-0.586328 	265.307 	99.7405 	235.49 	285.839 	
15.387 	0.208174 	-0.574973 	0.0532907 	2.83326 	0.953934 	-0.583298 	90.178 	117.703 	-0.586328 	265.307 	99.7405 	235.49 	285.839 	
15.397 	0.208174 	-0.574973 	0.0532907 	2.83326 	0.953934 	-0.583298 	90.178 	117.703 	-0.586328 	265.307 	99.7405 	235.49 	285.839 	
15.4069 	0.208174 	-0.574973 	0.0532907 	2.83326 	0.953934 	-0.583298 	90.178 	117.703 	-0.586328 	265.307 	99.7405 	235.49 	285.839 	
15.417 	0.208174 	-0.574973 	0.0532907 	2.83326 	0.953934 	-0.583298 	90.178 	117.703 	-0.586328 	265.307 	99.7405 	235.49 	285.839 	
15.4269 	0.208174 	-0.574973 	0.0532907 	2.83326 	0.953934 	-0.583298 	90.178 	117.703 	-0.586328 	265.307 	99.7405 	235.49 	285.839 	
15.4368 	0.208174 	-0.574973 	0.0532907 	2.83326 	0.953934 	-0.583298 	90.178 	117.703 	-0.586328 	265.307 	99.7405 	235.49 	285.839 	
15.4468 	0.208174 	-0.574973 	0.0532907 	2.83326 	0.953934 	-0.583298 	90.178 	117.703 	-0.586328 	265.307 	99.7405 	235.49 	285.839 	
15.457 	0.208174 	-0.574973 	0.0532907 	2.83326 	0.953934 	-0.583298 	90.178 	117.703 	-0.586328 	265.307 	99.7405 	235.49 	285.839 	
15.4669 	0.208174 	-0.574973 	0.0532907 	2.83326 	0.953934 	-0.583298 	90.178 	117.703 	-0.586328 	265.307 	99.7405 	235.49 	285.839 	
15.4769 	0.208174 	-0.574973 	0.0532907 	2.83326 	0.953934 	-0.583298 	90.178 	117.703 	-0.586328 	265.307 	99.7405 	235.49 	285.839 	
15.4869 	0.208174 	-0.574973 	0.0532907 	2.83326 	0.953934 	-0.583298 	90.178 	117.703 	-0.586328 	265.307 	99.7405 	235.49 	285.839 	
15.497 	0.208174 	-0.574973 	0.0532907 	2.83326 	0.953934 	-0.583298 	90.178 	117.703 	-0.586328 	265.307 	99.7405 	235.49 	285.839 	
15.507 	0.208174 	-0.574973 	0.0532907 	2.83326 	0.953934 	-0.583298 	90.178 	117.703 	-0.586328 	265.307 	99.7405 	235.49 	285.839 	
15.517 	0.208174 	-0.574973 	0.0532907 	2.83326 	0.953934 	-0.583298 	90.178 	117.703 	-0.586328 	265.307 	99.7405 	235.49 	285.839 	
15.5269 	0.208174 	-0.574973 	0.0532907 	2.83326 	0.953934 	-0.583298 	90.178 	117.703 	-0.586328 	265.307 	99.7405 	235.49 	285.839 	
15.5369 	0.208174 	-0.574973 	0.0532907 	2.83326 	0.953934 	-0.583298 	90.178 	117.703 	-0.586328 	265.307 	99.7405 	235.49 	285.839 	
15.5468 	0.208174 	-0.574973 	0.0532907 	2.83326 	0.953934 	-0.583298 	90.178 	117.703 	-0.586328 	265.307 	99.7405 	235.49 	285.839 	
15.557 	0.208174 	-0.574973 	0.0532907 	2.83326 	0.953934 	-0.583298 	90.178 	117.703 	-0.586328 	265.307 	99.7405 	235.49 	285.839 	
15.567 	0.208174 	-0.574973 	0.0532907 	2.83326 	0.953934 	-0.583298 	90.178 	117.703 	-0.586328 	265.307 	99.7405 	235.49 	285.839 	
15.5768 	0.208174 	-0.574973 	0.0532907 	2.83326 	0.953934 	-0.583298 	90.178 	117.703 	-0.586328 	265.307 	99.7405 	235.49 	285.839 	
15.5868 	0.208174 	-0.574973 	0.0532907 	2.83326 	0.953934 	-0.583298 	90.178 	117.703 	-0.586328 	265.307 	99.7405 	235.49 	285.839 	
15.5968 	0.208174 	-0.574973 	0.0532907 	2.83326 	0.953934 	-0.583298 	90.178 	117.703 	-0.586328 	265.307 	99.7405 	235.49 	285.839 	
15.6068 	0.208174 	-0.574973 	0.0532907 	2.83326 	0.953934 	-0.583298 	90.178 	117.703 	-0.586328 	265.307 	99.7405 	235.49 	285.839 	
15.617 	0.208174 	-0.574973 	0.0532907 	2.83326 	0.953934 	-0.583298 	90.178 	117.703 	-0.586328 	265.307 	99.7405 	235.49 	285.839 	
15.6268 	0.208174 	-0.574973 	0.0532907 	2.83326 	0.953934 	-0.583298 	90.178 	117.703 	-0.586328 	265.307 	99.7405 	235.49 	285.839 	
15.6369 	0.208174 	-0.574973 	0.0532907 	2.83326 	0.953934 	-0.583298 	90.178 	117.703 	-0.586328 	265.307 	99.7405 	235.49 	285.839 	
15.6468 	0.208174 	-0.574973 	0.0532907 	2.83326 	0.953934 	-0.583298 	90.178 	117.703 	-0.586328 	265.307 	99.7405 	235.49 	285.839 	
15.657 	0.208174 	-0.574973 	0.0532907 	2.83326 	0.953934 	-0.583298 	90.178 	117.703 	-0.586328 	265.307 	99.7405 	235.49 	285.839 	
15.6669 	0.208174 	-0.574973 	0.0532907 	2.83326 	0.953934 	-0.583298 	90.178 	117.703 	-0.586328 	265.307 	99.7405 	235.49 	285.839 	
15.677 	0.208174 	-0.574973 	0.0532907 	2.83326 	0.953934 	-0.583298 	90.178 	117.703 	-0.586328 	265.307 	99.7405 	235.49 	285.839 	
15.6868 	0.208174 	-0.574973 	0.0532907 	2.83326 	0.953934 	-0.583298 	90.178 	117.703 	-0.586328 	265.307 	99.7405 	235.49 	285.839 	
15.697 	0.208174 	-0.574973 	0.0532907 	2.83326 	0.953934 	-0.583298 	90.178 	117.703 	-0.586328 	265.307 	99.7405 	235.49 	285.839 	
15.707 	0.208174 	-0.574973 	0.0532907 	2.83326 	0.953934 	-0.583298 	90.178 	117.703 	-0.586328 	265.307 	99.7405 	235.49 	285.839 	
15.717 	0.208174 	-0.574973 	0.0532907 	2.83326 	0.953934 	-0.583298 	90.178 	117.703 	-0.586328 	265.307 	99.7405 	235.49 	285.839 	
15.7268 	0.208174 	-0.574973 	0.0532907 	2.83326 	0.953934 	-0.583298 	90.178 	117.703 	-0.586328 	265.307 	99.7405 	235.49 	285.839 	
15.737 	0.208174 	-0.574973 	0.0532907 	2.83326 	0.953934 	-0.583298 	90.178 	117.703 	-0.586328 	265.307 	99.7405 	235.49 	285.839 	
15.7469 	0.208174 	-0.574973 	0.0532907 	2.83326 	0.953934 	-0.583298 	90.178 	117.703 	-0.586328 	265.307 	99.7405 	235.49 	285.839 	
15.7569 	0.208174 	-0.574973 	0.0532907 	2.83326 	0.953934 	-0.583298 	90.178 	117.703 	-0.586328 	265.307 	99.7405 	235.49 	285.839 	
15.7669 	0.208174 	-0.574973 	0.0532907 	2.83326 	0.953934 	-0.583298 	90.178 	117.703 	-0.586328 	265.307 	99.7405 	235.49 	285.839 	
15.777 	0.208174 	-0.574973 	0.0532907 	2.83326 	0.953934 	-0.583298 	90.178 	117.703 	-0.586328 	265.307 	99.7405 	235.49 	285.839 	
15.7868 	0.208174 	-0.574973 	0.0532907 	2.83326 	0.953934 	-0.583298 	90.178 	117.703 	-0.586328 	265.307 	99.7405 	235.49 	285.839 	
15.7969 	0.208174 	-0.574973 	0.0532907 	2.83326 	0.953934 	-0.583298 	90.178 	117.703 	-0.586328 	265.307 	99.7405 	235.49 	285.839 	
15.8069 	0.208174 	-0.574973 	0.0532907 	2.83326 	0.953934 	-0.583298 	90.178 	117.703 	-0.586328 	265.307 	99.7405 	235.49 	285.839 	
15.8169 	0.208174 	-0.574973 	0.0532907 	2.83326 	0.953934 	-0.583298 	90.178 	117.703 	-0.586328 	265.307 	99.7405 	235.49 	285.839 	
15.8268 	0.208174 	-0.574973 	0.0532907 	2.83326 	0.953934 	-0.583298 	90.178 	117.703 	-0.586328 	265.307 	99.7405 	235.49 	285.839 	
15.8369 	0.208174 	-0.574973 	0.0532907 	2.83326 	0.953934 	-0.583298 	90.178 	117.703 	-0.586328 	265.307 	99.7405 	235.49 	285.839 	
15.8468 	0.208174 	-0.574973 	0.0532907 	2.83326 	0.953934 	-0.583298 	90.178 	117.703 	-0.586328 	265.307 	99.7405 	235.49 	285.839 	
15.857 	0.208174 	-0.574973 	0.0532907 	2.83326 	0.953934 	-0.583298 	90.178 	117.703 	-0.586328 	265.307 	99.7405 	235.49 	285.839 	
15.8669 	0.208174 	-0.574973 	0.0532907 	2.83326 	0.953934 	-0.583298 	90.178 	117.703 	-0.586328 	265.307 	99.7405 	235.49 	285.839 	
15.8769 	0.208174 	-0.574973 	0.0532907 	2.83326 	0.953934 	-0.583298 	90.178 	117.703 	-0.586328 	265.307 	99.7405 	235.49 	285.839 	
15.8868 	0.208174 	-0.574973 	0.0532907 	2.83326 	0.953934 	-0.583298 	90.178 	117.703 	-0.586328 	265.307 	99.7405 	235.49 	285.839 	
15.897 	0.208174 	-0.574973 	0.0532907 	2.83326 	0.953934 	-0.583298 	90.178 	117.703 	-0.586328 	265.307 	99.7405 	235.49 	285.839 	
15.9068 	0.208174 	-0.574973 	0.0532907 	2.83326 	0.953934 	-0.583298 	90.178 	117.703 	-0.586328 	265.307 	99.7405 	235.49 	285.839 	
15.917 	0.208174 	-0.574973 	0.0532907 	2.83326 	0.953934 	-0.583298 	90.178 	117.703 	-0.586328 	265.307 	99.7405 	235.49 	285.839 	
15.9269 	0.208174 	-0.574973 	0.0532907 	2.83326 	0.953934 	-0.583298 	90.178 	117.703 	-0.586328 	265.307 	99.7405 	235.49 	285.839 	
15.9368 	0.208174 	-0.574973 	0.0532907 	2.83326 	0.953934 	-0.583298 	90.178 	117.703 	-0.586328 	265.307 	99.7405 	235.49 	285.839 	
15.9468 	0.208174 	-0.574973 	0.0532907 	2.83326 	0.953934 	-0.583298 	90.178 	117.703 	-0.586328 	265.307 	99.7405 	235.49 	285.839 	
15.957 	0.208174 	-0.574973 	0.0532907 	2.83326 	0.953934 	-0.583298 	90.178 	117.703 	-0.586328 	265.307 	99.7405 	235.49 	285.839 	
15.967 	0.208174 	-0.574973 	0.0532907 	2.83326 	0.953934 	-0.583298 	90.178 	117.703 	-0.586328 	265.307 	99.7405 	235.49 	285.839 	
15.977 	0.208174 	-0.574973 	0.0532907 	2.83326 	0.953934 	-0.583298 	90.178 	117.703 	-0.586328 	265.307 	99.7405 	235.49 	285.839 	
15.9868 	0.208174 	-0.574973 	0.0532907 	2.83326 	0.953934 	-0.583298 	90.178 	117.703 	-0.586328 	265.307 	99.7405 	235.49 	285.839 	
15.997 	0.208174 	-0.574973 	0.0532907 	2.83326 	0.953934 	-0.583298 	90.178 	117.703 	-0.586328 	265.307 	99.7405 	235.49 	285.839 	
16.0069 	0.208174 	-0.574973 	0.0532907 	2.83326 	0.953934 	-0.583298 	90.178 	117.703 	-0.586328 	265.307 	99.7405 	235.49 	285.839 	
16.017 	0.208174 	-0.574973 	0.0532907 	2.83326 	0.953934 	-0.583298 	90.178 	117.703 	-0.586328 	265.307 	99.7405 	235.49 	285.839 	
16.0269 	0.208174 	-0.574973 	0.0532907 	2.83326 	0.953934 	-0.583298 	90.178 	117.703 	-0.586328 	265.307 	99.7405 	235.49 	285.839 	
16.0368 	0.208174 	-0.574973 	0.0532907 	2.83326 	0.953934 	-0.583298 	90.178 	117.703 	-0.586328 	265.307 	99.7405 	235.49 	285.839 	
16.0469 	0.208174 	-0.574973 	0.0532907 	2.83326 	0.953934 	-0.583298 	90.178 	117.703 	-0.586328 	265.307 	99.7405 	235.49 	285.839 	
16.0545 	0.208174 	-0.574973 	0.0532907 	2.83326 	0.953934 	-0.583298 	90.178 	117.703 	-0.586328 	265.307 	99.7405 	235.49 	285.839 	
16.0649 	0.208174 	-0.574973 	0.0532907 	2.83326 	0.953934 	-0.583298 	90.178 	117.703 	-0.586328 	265.307 	99.7405 	235.49 	285.839 	
16.0749 	0.208174 	-0.574973 	0.0532907 	2.83326 	0.953934 	-0.583298 	90.178 	117.703 	-0.586328 	265.307 	99.7405 	235.49 	285.839 	
16.0847 	0.208174 	-0.574973 	0.0532907 	2.83326 	0.953934 	-0.583298 	90.178 	117.703 	-0.586328 	265.307 	99.7405 	235.49 	285.839 	
16.0949 	0.208174 	-0.574973 	0.0532907 	2.83326 	0.953934 	-0.583298 	90.178 	117.703 	-0.586328 	265.307 	99.7405 	235.49 	285.839 	
16.1049 	0.208174 	-0.574973 	0.0532907 	2.83326 	0.953934 	-0.583298 	90.178 	117.703 	-0.586328 	265.307 	99.7405 	235.49 	285.839 	
16.1149 	0.208174 	-0.574973 	0.0532907 	2.83326 	0.953934 	-0.583298 	90.178 	117.703 	-0.586328 	265.307 	99.7405 	235.49 	285.839 	
16.1248 	0.208174 	-0.574973 	0.0532907 	2.83326 	0.953934 	-0.583298 	90.178 	117.703 	-0.586328 	265.307 	99.7405 	235.49 	285.839 	
16.1347 	0.208174 	-0.574973 	0.0532907 	2.83326 	0.953934 	-0.583298 	90.178 	117.703 	-0.586328 	265.307 	99.7405 	235.49 	285.839 	
16.1448 	0.208174 	-0.574973 	0.0532907 	2.83326 	0.953934 	-0.583298 	90.178 	117.703 	-0.586328 	265.307 	99.7405 	235.49 	285.839 	
16.1549 	0.208174 	-0.574973 	0.0532907 	2.83326 	0.953934 	-0.583298 	90.178 	117.703 	-0.586328 	265.307 	99.7405 	235.49 	285.839 	
16.1649 	0.208174 	-0.574973 	0.0532907 	2.83326 	0.953934 	-0.583298 	90.178 	117.703 	-0.586328 	265.307 	99.7405 	235.49 	285.839 	
16.1749 	0.208174 	-0.574973 	0.0532907 	2.83326 	0.953934 	-0.583298 	90.178 	117.703 	-0.586328 	265.307 	99.7405 	235.49 	285.839 	
16.1849 	0.208174 	-0.574973 	0.0532907 	2.83326 	0.953934 	-0.583298 	90.178 	117.703 	-0.586328 	265.307 	99.7405 	235.49 	285.839 	
16.1949 	0.208174 	-0.574973 	0.0532907 	2.83326 	0.953934 	-0.583298 	90.178 	117.703 	-0.586328 	265.307 	99.7405 	235.49 	285.839 	
16.2049 	0.208174 	-0.574973 	0.0532907 	2.83326 	0.953934 	-0.583298 	90.178 	117.703 	-0.586328 	265.307 	99.7405 	235.49 	285.839 	
16.2149 	0.208174 	-0.574973 	0.0532907 	2.83326 	0.953934 	-0.583298 	90.178 	117.703 	-0.586328 	265.307 	99.7405 	235.49 	285.839 	
16.2249 	0.208174 	-0.574973 	0.0532907 	2.83326 	0.953934 	-0.583298 	90.178 	117.703 	-0.586328 	265.307 	99.7405 	235.49 	285.839 	
16.2347 	0.208174 	-0.574973 	0.0532907 	2.83326 	0.953934 	-0.583298 	90.178 	117.703 	-0.586328 	265.307 	99.7405 	235.49 	285.839 	
16.2447 	0.208174 	-0.574973 	0.0532907 	2.83326 	0.953934 	-0.583298 	90.178 	117.703 	-0.586328 	265.307 	99.7405 	235.49 	285.839 	
16.2547 	0.208174 	-0.574973 	0.0532907 	2.83326 	0.953934 	-0.583298 	90.178 	117.703 	-0.586328 	265.307 	99.7405 	235.49 	285.839 	
16.2649 	0.208174 	-0.574973 	0.0532907 	2.83326 	0.953934 	-0.583298 	90.178 	117.703 	-0.586328 	265.307 	99.7405 	235.49 	285.839 	
16.2749 	0.208174 	-0.574973 	0.0532907 	2.83326 	0.953934 	-0.583298 	90.178 	117.703 	-0.586328 	265.307 	99.7405 	235.49 	285.839 	
16.2849 	0.208174 	-0.574973 	0.0532907 	2.83326 	0.953934 	-0.583298 	90.178 	117.703 	-0.586328 	265.307 	99.7405 	235.49 	285.839 	
16.2949 	0.208174 	-0.574973 	0.0532907 	2.83326 	0.953934 	-0.583298 	90.178 	117.703 	-0.586328 	265.307 	99.7405 	235.49 	285.839 	
16.3049 	0.208174 	-0.574973 	0.0532907 	2.83326 	0.953934 	-0.583298 	90.178 	117.703 	-0.586328 	265.307 	99.7405 	235.49 	285.839 	
16.3149 	0.208174 	-0.574973 	0.0532907 	2.83326 	0.953934 	-0.583298 	90.178 	117.703 	-0.586328 	265.307 	99.7405 	235.49 	285.839 	
16.3249 	0.208174 	-0.574973 	0.0532907 	2.83326 	0.953934 	-0.583298 	90.178 	117.703 	-0.586328 	265.307 	99.7405 	235.49 	285.839 	
16.3347 	0.208174 	-0.574973 	0.0532907 	2.83326 	0.953934 	-0.583298 	90.178 	117.703 	-0.586328 	265.307 	99.7405 	235.49 	285.839 	
16.3448 	0.208174 	-0.574973 	0.0532907 	2.83326 	0.953934 	-0.583298 	90.178 	117.703 	-0.586328 	265.307 	99.7405 	235.49 	285.839 	
16.3549 	0.208174 	-0.574973 	0.0532907 	2.83326 	0.953934 	-0.583298 	90.178 	117.703 	-0.586328 	265.307 	99.7405 	235.49 	285.839 	
16.3648 	0.208174 	-0.574973 	0.0532907 	2.83326 	0.953934 	-0.583298 	90.178 	117.703 	-0.586328 	265.307 	99.7405 	235.49 	285.839 	
16.3664 	0.208174 	-0.574973 	0.0532907 	2.83326 	0.953934 	-0.583298 	90.178 	117.703 	-0.586328 	265.307 	99.7405 	235.49 	285.839 	
16.3767 	0.208174 	-0.574973 	0.0532907 	2.83326 	0.953934 	-0.583298 	90.178 	117.703 	-0.586328 	265.307 	99.7405 	235.49 	285.839 	
16.3866 	0.208174 	-0.574973 	0.0532907 	2.83326 	0.953934 	-0.583298 	90.178 	117.703 	-0.586328 	265.307 	99.7405 	235.49 	285.839 	
16.3966 	0.208174 	-0.574973 	0.0532907 	2.83326 	0.953934 	-0.583298 	90.178 	117.703 	-0.586328 	265.307 	99.7405 	235.49 	285.839 	
16.4066 	0.208174 	-0.574973 	0.0532907 	2.83326 	0.953934 	-0.583298 	90.178 	117.703 	-0.586328 	265.307 	99.7405 	235.49 	285.839 	
16.4168 	0.208174 	-0.574973 	0.0532907 	2.83326 	0.953934 	-0.583298 	90.178 	117.703 	-0.586328 	265.307 	99.7405 	235.49 	285.839 	
16.4267 	0.208174 	-0.574973 	0.0532907 	2.83326 	0.953934 	-0.583298 	90.178 	117.703 	-0.586328 	265.307 	99.7405 	235.49 	285.839 	
16.4366 	0.208174 	-0.574973 	0.0532907 	2.83326 	0.953934 	-0.583298 	90.178 	117.703 	-0.586328 	265.307 	99.7405 	235.49 	285.839 	
16.4466 	0.208174 	-0.574973 	0.0532907 	2.83326 	0.953934 	-0.583298 	90.178 	117.703 	-0.586328 	265.307 	99.7405 	235.49 	285.839 	
16.4568 	0.208174 	-0.574973 	0.0532907 	2.83326 	0.953934 	-0.583298 	90.178 	117.703 	-0.586328 	265.307 	99.7405 	235.49 	285.839 	
16.4668 	0.208174 	-0.574973 	0.0532907 	2.83326 	0.953934 	-0.583298 	90.178 	117.703 	-0.586328 	265.307 	99.7405 	235.49 	285.839 	
16.4767 	0.208174 	-0.574973 	0.0532907 	2.83326 	0.953934 	-0.583298 	90.178 	117.703 	-0.586328 	265.307 	99.7405 	235.49 	285.839 	
16.4867 	0.208174 	-0.574973 	0.0532907 	2.83326 	0.953934 	-0.583298 	90.178 	117.703 	-0.586328 	265.307 	99.7405 	235.49 	285.839 	
16.4968 	0.208174 	-0.574973 	0.0532907 	2.83326 	0.953934 	-0.583298 	90.178 	117.703 	-0.586328 	265.307 	99.7405 	235.49 	285.839 	
16.5068 	0.208174 	-0.574973 	0.0532907 	2.83326 	0.953934 	-0.583298 	90.178 	117.703 	-0.586328 	265.307 	99.7405 	235.49 	285.839 	
16.5168 	0.208174 	-0.574973 	0.0532907 	2.83326 	0.953934 	-0.583298 	90.178 	117.703 	-0.586328 	265.307 	99.7405 	235.49 	285.839 	
16.5267 	0.208174 	-0.574973 	0.0532907 	2.83326 	0.953934 	-0.583298 	90.178 	117.703 	-0.586328 	265.307 	99.7405 	235.49 	285.839 	
16.5366 	0.208174 	-0.574973 	0.0532907 	2.83326 	0.953934 	-0.583298 	90.178 	117.703 	-0.586328 	265.307 	99.7405 	235.49 	285.839 	
16.5466 	0.208174 	-0.574973 	0.0532907 	2.83326 	0.953934 	-0.583298 	90.178 	117.703 	-0.586328 	265.307 	99.7405 	235.49 	285.839 	
16.5567 	0.208174 	-0.574973 	0.0532907 	2.83326 	0.953934 	-0.583298 	90.178 	117.703 	-0.586328 	265.307 	99.7405 	235.49 	285.839 	
16.5666 	0.208174 	-0.574973 	0.0532907 	2.83326 	0.953934 	-0.583298 	90.178 	117.703 	-0.586328 	265.307 	99.7405 	235.49 	285.839 	
16.5766 	0.208174 	-0.574973 	0.0532907 	2.83326 	0.953934 	-0.583298 	90.178 	117.703 	-0.586328 	265.307 	99.7405 	235.49 	285.839 	
16.5866 	0.208174 	-0.574973 	0.0532907 	2.83326 	0.953934 	-0.583298 	90.178 	117.703 	-0.586328 	265.307 	99.7405 	235.49 	285.839 	
16.5968 	0.208174 	-0.574973 	0.0532907 	2.83326 	0.953934 	-0.583298 	90.178 	117.703 	-0.586328 	265.307 	99.7405 	235.49 	285.839 	
16.6068 	0.208174 	-0.574973 	0.0532907 	2.83326 	0.953934 	-0.583298 	90.178 	117.703 	-0.586328 	265.307 	99.7405 	235.49 	285.839 	
16.6167 	0.208174 	-0.574973 	0.0532907 	2.83326 	0.953934 	-0.583298 	90.178 	117.703 	-0.586328 	265.307 	99.7405 	235.49 	285.839 	
16.6267 	0.208174 	-0.574973 	0.0532907 	2.83326 	0.953934 	-0.583298 	90.178 	117.703 	-0.586328 	265.307 	99.7405 	235.49 	285.839 	
16.6366 	0.208174 	-0.574973 	0.0532907 	2.83326 	0.953934 	-0.583298 	90.178 	117.703 	-0.586328 	265.307 	99.7405 	235.49 	285.839 	
16.6466 	0.208174 	-0.574973 	0.0532907 	2.83326 	0.953934 	-0.583298 	90.178 	117.703 	-0.586328 	265.307 	99.7405 	235.49 	285.839 	
16.6568 	0.208174 	-0.574973 	0.0532907 	2.83326 	0.953934 	-0.583298 	90.178 	117.703 	-0.586328 	265.307 	99.7405 	235.49 	285.839 	
16.6668 	0.208174 	-0.574973 	0.0532907 	2.83326 	0.953934 	-0.583298 	90.178 	117.703 	-0.586328 	265.307 	99.7405 	235.49 	285.839 	
16.6767 	0.208174 	-0.574973 	0.0532907 	2.83326 	0.953934 	-0.583298 	90.178 	117.703 	-0.586328 	265.307 	99.7405 	235.49 	285.839 	
16.6867 	0.208174 	-0.574973 	0.0532907 	2.83326 	0.953934 	-0.583298 	90.178 	117.703 	-0.586328 	265.307 	99.7405 	235.49 	285.839 	
16.6968 	0.208174 	-0.574973 	0.0532907 	2.83326 	0.953934 	-0.583298 	90.178 	117.703 	-0.586328 	265.307 	99.7405 	235.49 	285.839 	
16.7068 	0.208174 	-0.574973 	0.0532907 	2.83326 	0.953934 	-0.583298 	90.178 	117.703 	-0.586328 	265.307 	99.7405 	235.49 	285.839 	
16.7168 	0.208174 	-0.574973 	0.0532907 	2.83326 	0.953934 	-0.583298 	90.178 	117.703 	-0.586328 	265.307 	99.7405 	235.49 	285.839 	
16.7268 	0.208174 	-0.574973 	0.0532907 	2.83326 	0.953934 	-0.583298 	90.178 	117.703 	-0.586328 	265.307 	99.7405 	235.49 	285.839 	
16.7366 	0.208174 	-0.574973 	0.0532907 	2.83326 	0.953934 	-0.583298 	90.178 	117.703 	-0.586328 	265.307 	99.7405 	235.49 	285.839 	
16.7467 	0.208174 	-0.574973 	0.0532907 	2.83326 	0.953934 	-0.583298 	90.178 	117.703 	-0.586328 	265.307 	99.7405 	235.49 	285.839 	
16.7568 	0.208174 	-0.574973 	0.0532907 	2.83326 	0.953934 	-0.583298 	90.178 	117.703 	-0.586328 	265.307 	99.7405 	235.49 	285.839 	
16.7666 	0.208174 	-0.574973 	0.0532907 	2.83326 	0.953934 	-0.583298 	90.178 	117.703 	-0.586328 	265.307 	99.7405 	235.49 	285.839 	
16.7767 	0.208174 	-0.574973 	0.0532907 	2.83326 	0.953934 	-0.583298 	90.178 	117.703 	-0.586328 	265.307 	99.7405 	235.49 	285.839 	
16.7866 	0.208174 	-0.574973 	0.0532907 	2.83326 	0.953934 	-0.583298 	90.178 	117.703 	-0.586328 	265.307 	99.7405 	235.49 	285.839 	
16.7968 	0.208174 	-0.574973 	0.0532907 	2.83326 	0.953934 	-0.583298 	90.178 	117.703 	-0.586328 	265.307 	99.7405 	235.49 	285.839 	
16.8067 	0.208174 	-0.574973 	0.0532907 	2.83326 	0.953934 	-0.583298 	90.178 	117.703 	-0.586328 	265.307 	99.7405 	235.49 	285.839 	
16.8168 	0.208174 	-0.574973 	0.0532907 	2.83326 	0.953934 	-0.583298 	90.178 	117.703 	-0.586328 	265.307 	99.7405 	235.49 	285.839 	
16.8268 	0.208174 	-0.574973 	0.0532907 	2.83326 	0.953934 	-0.583298 	90.178 	117.703 	-0.586328 	265.307 	99.7405 	235.49 	285.839 	
16.8366 	0.208174 	-0.574973 	0.0532907 	2.83326 	0.953934 	-0.583298 	90.178 	117.703 	-0.586328 	265.307 	99.7405 	235.49 	285.839 	
16.8466 	0.208174 	-0.574973 	0.0532907 	2.83326 	0.953934 	-0.583298 	90.178 	117.703 	-0.586328 	265.307 	99.7405 	235.49 	285.839 	
16.8568 	0.208174 	-0.574973 	0.0532907 	2.83326 	0.953934 	-0.583298 	90.178 	117.703 	-0.586328 	265.307 	99.7405 	235.49 	285.839 	
16.8667 	0.208174 	-0.574973 	0.0532907 	2.83326 	0.953934 	-0.583298 	90.178 	117.703 	-0.586328 	265.307 	99.7405 	235.49 	285.839 	
16.8768 	0.208174 	-0.574973 	0.0532907 	2.83326 	0.953934 	-0.583298 	90.178 	117.703 	-0.586328 	265.307 	99.7405 	235.49 	285.839 	
16.8868 	0.208174 	-0.574973 	0.0532907 	2.83326 	0.953934 	-0.583298 	90.178 	117.703 	-0.586328 	265.307 	99.7405 	235.49 	285.839 	
16.8968 	0.208174 	-0.574973 	0.0532907 	2.83326 	0.953934 	-0.583298 	90.178 	117.703 	-0.586328 	265.307 	99.7405 	235.49 	285.839 	
16.9068 	0.208174 	-0.574973 	0.0532907 	2.83326 	0.953934 	-0.583298 	90.178 	117.703 	-0.586328 	265.307 	99.7405 	235.49 	285.839 	
16.9168 	0.208174 	-0.574973 	0.0532907 	2.83326 	0.953934 	-0.583298 	90.178 	117.703 	-0.586328 	265.307 	99.7405 	235.49 	285.839 	
16.9268 	0.208174 	-0.574973 	0.0532907 	2.83326 	0.953934 	-0.583298 	90.178 	117.703 	-0.586328 	265.307 	99.7405 	235.49 	285.839 	
16.9367 	0.208174 	-0.574973 	0.0532907 	2.83326 	0.953934 	-0.583298 	90.178 	117.703 	-0.586328 	265.307 	99.7405 	235.49 	285.839 	
16.9466 	0.208174 	-0.574973 	0.0532907 	2.83326 	0.953934 	-0.583298 	90.178 	117.703 	-0.586328 	265.307 	99.7405 	235.49 	285.839 	
16.9568 	0.208174 	-0.574973 	0.0532907 	2.83326 	0.953934 	-0.583298 	90.178 	117.703 	-0.586328 	265.307 	99.7405 	235.49 	285.839 	
16.9667 	0.208174 	-0.574973 	0.0532907 	2.83326 	0.953934 	-0.583298 	90.178 	117.703 	-0.586328 	265.307 	99.7405 	235.49 	285.839 	
16.9766 	0.208174 	-0.574973 	0.0532907 	2.83326 	0.953934 	-0.583298 	90.178 	117.703 	-0.586328 	265.307 	99.7405 	235.49 	285.839 	
16.9866 	0.208174 	-0.574973 	0.0532907 	2.83326 	0.953934 	-0.583298 	90.178 	117.703 	-0.586328 	265.307 	99.7405 	235.49 	285.839 	
16.9968 	0.208174 	-0.574973 	0.0532907 	2.83326 	0.953934 	-0.583298 	90.178 	117.703 	-0.586328 	265.307 	99.7405 	235.49 	285.839 	
17.0066 	0.208174 	-0.574973 	0.0532907 	2.83326 	0.953934 	-0.583298 	90.178 	117.703 	-0.586328 	265.307 	99.7405 	235.49 	285.839 	
17.0168 	0.208174 	-0.574973 	0.0532907 	2.83326 	0.953934 	-0.583298 	90.178 	117.703 	-0.586328 	265.307 	99.7405 	235.49 	285.839 	
17.0267 	0.208174 	-0.574973 	0.0532907 	2.83326 	0.953934 	-0.583298 	90.178 	117.703 	-0.586328 	265.307 	99.7405 	235.49 	285.839 	
17.0366 	0.208174 	-0.574973 	0.0532907 	2.83326 	0.953934 	-0.583298 	90.178 	117.703 	-0.586328 	265.307 	99.7405 	235.49 	285.839 	
17.0466 	0.208174 	-0.574973 	0.0532907 	2.83326 	0.953934 	-0.583298 	90.178 	117.703 	-0.586328 	265.307 	99.7405 	235.49 	285.839 	
17.0568 	0.208174 	-0.574973 	0.0532907 	2.83326 	0.953934 	-0.583298 	90.178 	117.703 	-0.586328 	265.307 	99.7405 	235.49 	285.839 	
17.0668 	0.208174 	-0.574973 	0.0532907 	2.83326 	0.953934 	-0.583298 	90.178 	117.703 	-0.586328 	265.307 	99.7405 	235.49 	285.839 	
17.0767 	0.208174 	-0.574973 	0.0532907 	2.83326 	0.953934 	-0.583298 	90.178 	117.703 	-0.586328 	265.307 	99.7405 	235.49 	285.839 	
17.0868 	0.208174 	-0.574973 	0.0532907 	2.83326 	0.953934 	-0.583298 	90.178 	117.703 	-0.586328 	265.307 	99.7405 	235.49 	285.839 	
17.0968 	0.208174 	-0.574973 	0.0532907 	2.83326 	0.953934 	-0.583298 	90.178 	117.703 	-0.586328 	265.307 	99.7405 	235.49 	285.839 	
17.1068 	0.208174 	-0.574973 	0.0532907 	2.83326 	0.953934 	-0.583298 	90.178 	117.703 	-0.586328 	265.307 	99.7405 	235.49 	285.839 	
17.1168 	0.208174 	-0.574973 	0.0532907 	2.83326 	0.953934 	-0.583298 	90.178 	117.703 	-0.586328 	265.307 	99.7405 	235.49 	285.839 	
17.1267 	0.208174 	-0.574973 	0.0532907 	2.83326 	0.953934 	-0.583298 	90.178 	117.703 	-0.586328 	265.307 	99.7405 	235.49 	285.839 	
17.1366 	0.208174 	-0.574973 	0.0532907 	2.83326 	0.953934 	-0.583298 	90.178 	117.703 	-0.586328 	265.307 	99.7405 	235.49 	285.839 	
17.1466 	0.208174 	-0.574973 	0.0532907 	2.83326 	0.953934 	-0.583298 	90.178 	117.703 	-0.586328 	265.307 	99.7405 	235.49 	285.839 	
17.1568 	0.208174 	-0.574973 	0.0532907 	2.83326 	0.953934 	-0.583298 	90.178 	117.703 	-0.586328 	265.307 	99.7405 	235.49 	285.839 	
17.1668 	0.208174 	-0.574973 	0.0532907 	2.83326 	0.953934 	-0.583298 	90.178 	117.703 	-0.586328 	265.307 	99.7405 	235.49 	285.839 	
17.1767 	0.208174 	-0.574973 	0.0532907 	2.83326 	0.953934 	-0.583298 	90.178 	117.703 	-0.586328 	265.307 	99.7405 	235.49 	285.839 	
17.1868 	0.208174 	-0.574973 	0.0532907 	2.83326 	0.953934 	-0.583298 	90.178 	117.703 	-0.586328 	265.307 	99.7405 	235.49 	285.839 	
17.1968 	0.208174 	-0.574973 	0.0532907 	2.83326 	0.953934 	-0.583298 	90.178 	117.703 	-0.586328 	265.307 	99.7405 	235.49 	285.839 	
17.2068 	0.208174 	-0.574973 	0.0532907 	2.83326 	0.953934 	-0.583298 	90.178 	117.703 	-0.586328 	265.307 	99.7405 	235.49 	285.839 	
17.2168 	0.208174 	-0.574973 	0.0532907 	2.83326 	0.953934 	-0.583298 	90.178 	117.703 	-0.586328 	265.307 	99.7405 	235.49 	285.839 	
17.2267 	0.208174 	-0.574973 	0.0532907 	2.83326 	0.953934 	-0.583298 	90.178 	117.703 	-0.586328 	265.307 	99.7405 	235.49 	285.839 	
17.2366 	0.208174 	-0.574973 	0.0532907 	2.83326 	0.953934 	-0.583298 	90.178 	117.703 	-0.586328 	265.307 	99.7405 	235.49 	285.839 	
17.2466 	0.208174 	-0.574973 	0.0532907 	2.83326 	0.953934 	-0.583298 	90.178 	117.703 	-0.586328 	265.307 	99.7405 	235.49 	285.839 	
17.2566 	0.208174 	-0.574973 	0.0532907 	2.83326 	0.953934 	-0.583298 	90.178 	117.703 	-0.586328 	265.307 	99.7405 	235.49 	285.839 	
17.2666 	0.208174 	-0.574973 	0.0532907 	2.83326 	0.953934 	-0.583298 	90.178 	117.703 	-0.586328 	265.307 	99.7405 	235.49 	285.839 	
17.2766 	0.208174 	-0.574973 	0.0532907 	2.83326 	0.953934 	-0.583298 	90.178 	117.703 	-0.586328 	265.307 	99.7405 	235.49 	285.839 	
17.2866 	0.208174 	-0.574973 	0.0532907 	2.83326 	0.953934 	-0.583298 	90.178 	117.703 	-0.586328 	265.307 	99.7405 	235.49 	285.839 	
17.2966 	0.208174 	-0.574973 	0.0532907 	2.83326 	0.953934 	-0.583298 	90.178 	117.703 	-0.586328 	265.307 	99.7405 	235.49 	285.839 	
17.3068 	0.208174 	-0.574973 	0.0532907 	2.83326 	0.953934 	-0.583298 	90.178 	117.703 	-0.586328 	265.307 	99.7405 	235.49 	285.839 	
17.3168 	0.208174 	-0.574973 	0.0532907 	2.83326 	0.953934 	-0.583298 	90.178 	117.703 	-0.586328 	265.307 	99.7405 	235.49 	285.839 	
17.3266 	0.208174 	-0.574973 	0.0532907 	2.83326 	0.953934 	-0.583298 	90.178 	117.703 	-0.586328 	265.307 	99.7405 	235.49 	285.839 	
17.3367 	0.208174 	-0.574973 	0.0532907 	2.83326 	0.953934 	-0.583298 	90.178 	117.703 	-0.586328 	265.307 	99.7405 	235.49 	285.839 	
17.3467 	0.208174 	-0.574973 	0.0532907 	2.83326 	0.953934 	-0.583298 	90.178 	117.703 	-0.586328 	265.307 	99.7405 	235.49 	285.839 	
17.3566 	0.208174 	-0.574973 	0.0532907 	2.83326 	0.953934 	-0.583298 	90.178 	117.703 	-0.586328 	265.307 	99.7405 	235.49 	285.839 	
17.3667 	0.208174 	-0.574973 	0.0532907 	2.83326 	0.953934 	-0.583298 	90.178 	117.703 	-0.586328 	265.307 	99.7405 	235.49 	285.839 	
17.3768 	0.208174 	-0.574973 	0.0532907 	2.83326 	0.953934 	-0.583298 	90.178 	117.703 	-0.586328 	265.307 	99.7405 	235.49 	285.839 	
17.3866 	0.208174 	-0.574973 	0.0532907 	2.83326 	0.953934 	-0.583298 	90.178 	117.703 	-0.586328 	265.307 	99.7405 	235.49 	285.839 	
17.3968 	0.208174 	-0.574973 	0.0532907 	2.83326 	0.953934 	-0.583298 	90.178 	117.703 	-0.586328 	265.307 	99.7405 	235.49 	285.839 	
17.4068 	0.208174 	-0.574973 	0.0532907 	2.83326 	0.953934 	-0.583298 	90.178 	117.703 	-0.586328 	265.307 	99.7405 	235.49 	285.839 	
17.4168 	0.208174 	-0.574973 	0.0532907 	2.83326 	0.953934 	-0.583298 	90.178 	117.703 	-0.586328 	265.307 	99.7405 	235.49 	285.839 	
17.4268 	0.208174 	-0.574973 	0.0532907 	2.83326 	0.953934 	-0.583298 	90.178 	117.703 	-0.586328 	265.307 	99.7405 	235.49 	285.839 	
17.4367 	0.208174 	-0.574973 	0.0532907 	2.83326 	0.953934 	-0.583298 	90.178 	117.703 	-0.586328 	265.307 	99.7405 	235.49 	285.839 	
17.4466 	0.208174 	-0.574973 	0.0532907 	2.83326 	0.953934 	-0.583298 	90.178 	117.703 	-0.586328 	265.307 	99.7405 	235.49 	285.839 	
17.4566 	0.208174 	-0.574973 	0.0532907 	2.83326 	0.953934 	-0.583298 	90.178 	117.703 	-0.586328 	265.307 	99.7405 	235.49 	285.839 	
17.4666 	0.208174 	-0.574973 	0.0532907 	2.83326 	0.953934 	-0.583298 	90.178 	117.703 	-0.586328 	265.307 	99.7405 	235.49 	285.839 	
17.4767 	0.208174 	-0.574973 	0.0532907 	2.83326 	0.953934 	-0.583298 	90.178 	117.703 	-0.586328 	265.307 	99.7405 	235.49 	285.839 	
17.4868 	0.208174 	-0.574973 	0.0532907 	2.83326 	0.953934 	-0.583298 	90.178 	117.703 	-0.586328 	265.307 	99.7405 	235.49 	285.839 	
17.4968 	0.208174 	-0.574973 	0.0532907 	2.83326 	0.953934 	-0.583298 	90.178 	117.703 	-0.586328 	265.307 	99.7405 	235.49 	285.839 	
17.5068 	0.208174 	-0.574973 	0.0532907 	2.83326 	0.953934 	-0.583298 	90.178 	117.703 	-0.586328 	265.307 	99.7405 	235.49 	285.839 	
17.5167 	0.208174 	-0.574973 	0.0532907 	2.83326 	0.953934 	-0.583298 	90.178 	117.703 	-0.586328 	265.307 	99.7405 	235.49 	285.839 	
17.5266 	0.208174 	-0.574973 	0.0532907 	2.83326 	0.953934 	-0.583298 	90.178 	117.703 	-0.586328 	265.307 	99.7405 	235.49 	285.839 	
17.5366 	0.208174 	-0.574973 	0.0532907 	2.83326 	0.953934 	-0.583298 	90.178 	117.703 	-0.586328 	265.307 	99.7405 	235.49 	285.839 	
17.5466 	0.208174 	-0.574973 	0.0532907 	2.83326 	0.953934 	-0.583298 	90.178 	117.703 	-0.586328 	265.307 	99.7405 	235.49 	285.839 	
17.5566 	0.208174 	-0.574973 	0.0532907 	2.83326 	0.953934 	-0.583298 	90.178 	117.703 	-0.586328 	265.307 	99.7405 	235.49 	285.839 	
17.5668 	0.208174 	-0.574973 	0.0532907 	2.83326 	0.953934 	-0.583298 	90.178 	117.703 	-0.586328 	265.307 	99.7405 	235.49 	285.839 	
17.5766 	0.208174 	-0.574973 	0.0532907 	2.83326 	0.953934 	-0.583298 	90.178 	117.703 	-0.586328 	265.307 	99.7405 	235.49 	285.839 	
17.5867 	0.208174 	-0.574973 	0.0532907 	2.83326 	0.953934 	-0.583298 	90.178 	117.703 	-0.586328 	265.307 	99.7405 	235.49 	285.839 	
17.5968 	0.208174 	-0.574973 	0.0532907 	2.83326 	0.953934 	-0.583298 	90.178 	117.703 	-0.586328 	265.307 	99.7405 	235.49 	285.839 	
17.6067 	0.208174 	-0.574973 	0.0532907 	2.83326 	0.953934 	-0.583298 	90.178 	117.703 	-0.586328 	265.307 	99.7405 	235.49 	285.839 	
17.6168 	0.208174 	-0.574973 	0.0532907 	2.83326 	0.953934 	-0.583298 	90.178 	117.703 	-0.586328 	265.307 	99.7405 	235.49 	285.839 	
17.6266 	0.208174 	-0.574973 	0.0532907 	2.83326 	0.953934 	-0.583298 	90.178 	117.703 	-0.586328 	265.307 	99.7405 	235.49 	285.839 	
17.6366 	0.208174 	-0.574973 	0.0532907 	2.83326 	0.953934 	-0.583298 	90.178 	117.703 	-0.586328 	265.307 	99.7405 	235.49 	285.839 	
17.6466 	0.208174 	-0.574973 	0.0532907 	2.83326 	0.953934 	-0.583298 	90.178 	117.703 	-0.586328 	265.307 	99.7405 	235.49 	285.839 	
17.6566 	0.208174 	-0.574973 	0.0532907 	2.83326 	0.953934 	-0.583298 	90.178 	117.703 	-0.586328 	265.307 	99.7405 	235.49 	285.839 	
17.6667 	0.208174 	-0.574973 	0.0532907 	2.83326 	0.953934 	-0.583298 	90.178 	117.703 	-0.586328 	265.307 	99.7405 	235.49 	285.839 	
17.6767 	0.208174 	-0.574973 	0.0532907 	2.83326 	0.953934 	-0.583298 	90.178 	117.703 	-0.586328 	265.307 	99.7405 	235.49 	285.839 	
17.6867 	0.208174 	-0.574973 	0.0532907 	2.83326 	0.953934 	-0.583298 	90.178 	117.703 	-0.586328 	265.307 	99.7405 	235.49 	285.839 	
17.6967 	0.208174 	-0.574973 	0.0532907 	2.83326 	0.953934 	-0.583298 	90.178 	117.703 	-0.586328 	265.307 	99.7405 	235.49 	285.839 	
17.7068 	0.208174 	-0.574973 	0.0532907 	2.83326 	0.953934 	-0.583298 	90.178 	117.703 	-0.586328 	265.307 	99.7405 	235.49 	285.839 	
17.7168 	0.208174 	-0.574973 	0.0532907 	2.83326 	0.953934 	-0.583298 	90.178 	117.703 	-0.586328 	265.307 	99.7405 	235.49 	285.839 	
17.7268 	0.208174 	-0.574973 	0.0532907 	2.83326 	0.953934 	-0.583298 	90.178 	117.703 	-0.586328 	265.307 	99.7405 	235.49 	285.839 	
17.7366 	0.208174 	-0.574973 	0.0532907 	2.83326 	0.953934 	-0.583298 	90.178 	117.703 	-0.586328 	265.307 	99.7405 	235.49 	285.839 	
17.7466 	0.208174 	-0.574973 	0.0532907 	2.83326 	0.953934 	-0.583298 	90.178 	117.703 	-0.586328 	265.307 	99.7405 	235.49 	285.839 	
17.7566 	0.208174 	-0.574973 	0.0532907 	2.83326 	0.953934 	-0.583298 	90.178 	117.703 	-0.586328 	265.307 	99.7405 	235.49 	285.839 	
17.7667 	0.208174 	-0.574973 	0.0532907 	2.83326 	0.953934 	-0.583298 	90.178 	117.703 	-0.586328 	265.307 	99.7405 	235.49 	285.839 	
17.7767 	0.208174 	-0.574973 	0.0532907 	2.83326 	0.953934 	-0.583298 	90.178 	117.703 	-0.586328 	265.307 	99.7405 	235.49 	285.839 	
17.7868 	0.208174 	-0.574973 	0.0532907 	2.83326 	0.953934 	-0.583298 	90.178 	117.703 	-0.586328 	265.307 	99.7405 	235.49 	285.839 	
17.7968 	0.208174 	-0.574973 	0.0532907 	2.83326 	0.953934 	-0.583298 	90.178 	117.703 	-0.586328 	265.307 	99.7405 	235.49 	285.839 	
17.8068 	0.208174 	-0.574973 	0.0532907 	2.83326 	0.953934 	-0.583298 	90.178 	117.703 	-0.586328 	265.307 	99.7405 	235.49 	285.839 	
17.8168 	0.208174 	-0.574973 	0.0532907 	2.83326 	0.953934 	-0.583298 	90.178 	117.703 	-0.586328 	265.307 	99.7405 	235.49 	285.839 	
17.8267 	0.208174 	-0.574973 	0.0532907 	2.83326 	0.953934 	-0.583298 	90.178 	117.703 	-0.586328 	265.307 	99.7405 	235.49 	285.839 	
17.8366 	0.208174 	-0.574973 	0.0532907 	2.83326 	0.953934 	-0.583298 	90.178 	117.703 	-0.586328 	265.307 	99.7405 	235.49 	285.839 	
17.8467 	0.208174 	-0.574973 	0.0532907 	2.83326 	0.953934 	-0.583298 	90.178 	117.703 	-0.586328 	265.307 	99.7405 	235.49 	285.839 	
17.8566 	0.208174 	-0.574973 	0.0532907 	2.83326 	0.953934 	-0.583298 	90.178 	117.703 	-0.586328 	265.307 	99.7405 	235.49 	285.839 	
17.8667 	0.208174 	-0.574973 	0.0532907 	2.83326 	0.953934 	-0.583298 	90.178 	117.703 	-0.586328 	265.307 	99.7405 	235.49 	285.839 	
17.8766 	0.208174 	-0.574973 	0.0532907 	2.83326 	0.953934 	-0.583298 	90.178 	117.703 	-0.586328 	265.307 	99.7405 	235.49 	285.839 	
17.8868 	0.208174 	-0.574973 	0.0532907 	2.83326 	0.953934 	-0.583298 	90.178 	117.703 	-0.586328 	265.307 	99.7405 	235.49 	285.839 	
17.8968 	0.208174 	-0.574973 	0.0532907 	2.83326 	0.953934 	-0.583298 	90.178 	117.703 	-0.586328 	265.307 	99.7405 	235.49 	285.839 	
17.9067 	0.208174 	-0.574973 	0.0532907 	2.83326 	0.953934 	-0.583298 	90.178 	117.703 	-0.586328 	265.307 	99.7405 	235.49 	285.839 	
17.9166 	0.208174 	-0.574973 	0.0532907 	2.83326 	0.953934 	-0.583298 	90.178 	117.703 	-0.586328 	265.307 	99.7405 	235.49 	285.839 	
17.9268 	0.208174 	-0.574973 	0.0532907 	2.83326 	0.953934 	-0.583298 	90.178 	117.703 	-0.586328 	265.307 	99.7405 	235.49 	285.839 	
17.9366 	0.208174 	-0.574973 	0.0532907 	2.83326 	0.953934 	-0.583298 	90.178 	117.703 	-0.586328 	265.307 	99.7405 	235.49 	285.839 	
17.9467 	0.208174 	-0.574973 	0.0532907 	2.83326 	0.953934 	-0.583298 	90.178 	117.703 	-0.586328 	265.307 	99.7405 	235.49 	285.839 	
17.9568 	0.208174 	-0.574973 	0.0532907 	2.83326 	0.953934 	-0.583298 	90.178 	117.703 	-0.586328 	265.307 	99.7405 	235.49 	285.839 	
17.9668 	0.208174 	-0.574973 	0.0532907 	2.83326 	0.953934 	-0.583298 	90.178 	117.703 	-0.586328 	265.307 	99.7405 	235.49 	285.839 	
17.9767 	0.208174 	-0.574973 	0.0532907 	2.83326 	0.953934 	-0.583298 	90.178 	117.703 	-0.586328 	265.307 	99.7405 	235.49 	285.839 	
17.9833 	0.208174 	-0.574973 	0.0532907 	2.83326 	0.953934 	-0.583298 	90.178 	117.703 	-0.586328 	265.307 	99.7405 	235.49 	285.839 	
17.9935 	0.208174 	-0.574973 	0.0532907 	2.83326 	0.953934 	-0.583298 	90.178 	117.703 	-0.586328 	265.307 	99.7405 	235.49 	285.839 	
18.0036 	0.208174 	-0.574973 	0.0532907 	2.83326 	0.953934 	-0.583298 	90.178 	117.703 	-0.586328 	265.307 	99.7405 	235.49 	285.839 	
18.0135 	0.208174 	-0.574973 	0.0532907 	2.83326 	0.953934 	-0.583298 	90.178 	117.703 	-0.586328 	265.307 	99.7405 	235.49 	285.839 	
18.0236 	0.208174 	-0.574973 	0.0532907 	2.83326 	0.953934 	-0.583298 	90.178 	117.703 	-0.586328 	265.307 	99.7405 	235.49 	285.839 	
18.0336 	0.208174 	-0.574973 	0.0532907 	2.83326 	0.953934 	-0.583298 	90.178 	117.703 	-0.586328 	265.307 	99.7405 	235.49 	285.839 	
18.0435 	0.208174 	-0.574973 	0.0532907 	2.83326 	0.953934 	-0.583298 	90.178 	117.703 	-0.586328 	265.307 	99.7405 	235.49 	285.839 	
18.0537 	0.208174 	-0.574973 	0.0532907 	2.83326 	0.953934 	-0.583298 	90.178 	117.703 	-0.586328 	265.307 	99.7405 	235.49 	285.839 	
18.0637 	0.208174 	-0.574973 	0.0532907 	2.83326 	0.953934 	-0.583298 	90.178 	117.703 	-0.586328 	265.307 	99.7405 	235.49 	285.839 	
18.0737 	0.208174 	-0.574973 	0.0532907 	2.83326 	0.953934 	-0.583298 	90.178 	117.703 	-0.586328 	265.307 	99.7405 	235.49 	285.839 	
18.0836 	0.208174 	-0.574973 	0.0532907 	2.83326 	0.953934 	-0.583298 	90.178 	117.703 	-0.586328 	265.307 	99.7405 	235.49 	285.839 	
18.0936 	0.208174 	-0.574973 	0.0532907 	2.83326 	0.953934 	-0.583298 	90.178 	117.703 	-0.586328 	265.307 	99.7405 	235.49 	285.839 	
18.1036 	0.208174 	-0.574973 	0.0532907 	2.83326 	0.953934 	-0.583298 	90.178 	117.703 	-0.586328 	265.307 	99.7405 	235.49 	285.839 	
18.1135 	0.208174 	-0.574973 	0.0532907 	2.83326 	0.953934 	-0.583298 	90.178 	117.703 	-0.586328 	265.307 	99.7405 	235.49 	285.839 	
18.1235 	0.208174 	-0.574973 	0.0532907 	2.83326 	0.953934 	-0.583298 	90.178 	117.703 	-0.586328 	265.307 	99.7405 	235.49 	285.839 	
18.1336 	0.208174 	-0.574973 	0.0532907 	2.83326 	0.953934 	-0.583298 	90.178 	117.703 	-0.586328 	265.307 	99.7405 	235.49 	285.839 	
18.1435 	0.208174 	-0.574973 	0.0532907 	2.83326 	0.953934 	-0.583298 	90.178 	117.703 	-0.586328 	265.307 	99.7405 	235.49 	285.839 	
18.1536 	0.208174 	-0.574973 	0.0532907 	2.83326 	0.953934 	-0.583298 	90.178 	117.703 	-0.586328 	265.307 	99.7405 	235.49 	285.839 	
18.1636 	0.208174 	-0.574973 	0.0532907 	2.83326 	0.953934 	-0.583298 	90.178 	117.703 	-0.586328 	265.307 	99.7405 	235.49 	285.839 	
18.1736 	0.208174 	-0.574973 	0.0532907 	2.83326 	0.953934 	-0.583298 	90.178 	117.703 	-0.586328 	265.307 	99.7405 	235.49 	285.839 	
18.1837 	0.208174 	-0.574973 	0.0532907 	2.83326 	0.953934 	-0.583298 	90.178 	117.703 	-0.586328 	265.307 	99.7405 	235.49 	285.839 	
18.1936 	0.208174 	-0.574973 	0.0532907 	2.83326 	0.953934 	-0.583298 	90.178 	117.703 	-0.586328 	265.307 	99.7405 	235.49 	285.839 	
18.2037 	0.208174 	-0.574973 	0.0532907 	2.83326 	0.953934 	-0.583298 	90.178 	117.703 	-0.586328 	265.307 	99.7405 	235.49 	285.839 	
18.2135 	0.208174 	-0.574973 	0.0532907 	2.83326 	0.953934 	-0.583298 	90.178 	117.703 	-0.586328 	265.307 	99.7405 	235.49 	285.839 	
18.2237 	0.208174 	-0.574973 	0.0532907 	2.83326 	0.953934 	-0.583298 	90.178 	117.703 	-0.586328 	265.307 	99.7405 	235.49 	285.839 	
18.2335 	0.208174 	-0.574973 	0.0532907 	2.83326 	0.953934 	-0.583298 	90.178 	117.703 	-0.586328 	265.307 	99.7405 	235.49 	285.839 	
18.2435 	0.208174 	-0.574973 	0.0532907 	2.83326 	0.953934 	-0.583298 	90.178 	117.703 	-0.586328 	265.307 	99.7405 	235.49 	285.839 	
18.2535 	0.208174 	-0.574973 	0.0532907 	2.83326 	0.953934 	-0.583298 	90.178 	117.703 	-0.586328 	265.307 	99.7405 	235.49 	285.839 	
18.2632 	0.208174 	-0.574973 	0.0532907 	2.83326 	0.953934 	-0.583298 	90.178 	117.703 	-0.586328 	265.307 	99.7405 	235.49 	285.839 	
18.2734 	0.208174 	-0.574973 	0.0532907 	2.83326 	0.953934 	-0.583298 	90.178 	117.703 	-0.586328 	265.307 	99.7405 	235.49 	285.839 	
18.2834 	0.208174 	-0.574973 	0.0532907 	2.83326 	0.953934 	-0.583298 	90.178 	117.703 	-0.586328 	265.307 	99.7405 	235.49 	285.839 	
18.2934 	0.208174 	-0.574973 	0.0532907 	2.83326 	0.953934 	-0.583298 	90.178 	117.703 	-0.586328 	265.307 	99.7405 	235.49 	285.839 	
18.3035 	0.208174 	-0.574973 	0.0532907 	2.83326 	0.953934 	-0.583298 	90.178 	117.703 	-0.586328 	265.307 	99.7405 	235.49 	285.839 	
18.3135 	0.208174 	-0.574973 	0.0532907 	2.83326 	0.953934 	-0.583298 	90.178 	117.703 	-0.586328 	265.307 	99.7405 	235.49 	285.839 	
18.3235 	0.208174 	-0.574973 	0.0532907 	2.83326 	0.953934 	-0.583298 	90.178 	117.703 	-0.586328 	265.307 	99.7405 	235.49 	285.839 	
18.3334 	0.208174 	-0.574973 	0.0532907 	2.83326 	0.953934 	-0.583298 	90.178 	117.703 	-0.586328 	265.307 	99.7405 	235.49 	285.839 	
18.3435 	0.208174 	-0.574973 	0.0532907 	2.83326 	0.953934 	-0.583298 	90.178 	117.703 	-0.586328 	265.307 	99.7405 	235.49 	285.839 	
18.3535 	0.208174 	-0.574973 	0.0532907 	2.83326 	0.953934 	-0.583298 	90.178 	117.703 	-0.586328 	265.307 	99.7405 	235.49 	285.839 	
18.3635 	0.208174 	-0.574973 	0.0532907 	2.83326 	0.953934 	-0.583298 	90.178 	117.703 	-0.586328 	265.307 	99.7405 	235.49 	285.839 	
18.3735 	0.208174 	-0.574973 	0.0532907 	2.83326 	0.953934 	-0.583298 	90.178 	117.703 	-0.586328 	265.307 	99.7405 	235.49 	285.839 	
18.3835 	0.208174 	-0.574973 	0.0532907 	2.83326 	0.953934 	-0.583298 	90.178 	117.703 	-0.586328 	265.307 	99.7405 	235.49 	285.839 	
18.3935 	0.208174 	-0.574973 	0.0532907 	2.83326 	0.953934 	-0.583298 	90.178 	117.703 	-0.586328 	265.307 	99.7405 	235.49 	285.839 	
18.4035 	0.208174 	-0.574973 	0.0532907 	2.83326 	0.953934 	-0.583298 	90.178 	117.703 	-0.586328 	265.307 	99.7405 	235.49 	285.839 	
18.4135 	0.208174 	-0.574973 	0.0532907 	2.83326 	0.953934 	-0.583298 	90.178 	117.703 	-0.586328 	265.307 	99.7405 	235.49 	285.839 	
18.4235 	0.208174 	-0.574973 	0.0532907 	2.83326 	0.953934 	-0.583298 	90.178 	117.703 	-0.586328 	265.307 	99.7405 	235.49 	285.839 	
18.4335 	0.208174 	-0.574973 	0.0532907 	2.83326 	0.953934 	-0.583298 	90.178 	117.703 	-0.586328 	265.307 	99.7405 	235.49 	285.839 	
18.4434 	0.208174 	-0.574973 	0.0532907 	2.83326 	0.953934 	-0.583298 	90.178 	117.703 	-0.586328 	265.307 	99.7405 	235.49 	285.839 	
18.4535 	0.208174 	-0.574973 	0.0532907 	2.83326 	0.953934 	-0.583298 	90.178 	117.703 	-0.586328 	265.307 	99.7405 	235.49 	285.839 	
18.4635 	0.208174 	-0.574973 	0.0532907 	2.83326 	0.953934 	-0.583298 	90.178 	117.703 	-0.586328 	265.307 	99.7405 	235.49 	285.839 	
18.4735 	0.208174 	-0.574973 	0.0532907 	2.83326 	0.953934 	-0.583298 	90.178 	117.703 	-0.586328 	265.307 	99.7405 	235.49 	285.839 	
18.4835 	0.208174 	-0.574973 	0.0532907 	2.83326 	0.953934 	-0.583298 	90.178 	117.703 	-0.586328 	265.307 	99.7405 	235.49 	285.839 	
18.4935 	0.208174 	-0.574973 	0.0532907 	2.83326 	0.953934 	-0.583298 	90.178 	117.703 	-0.586328 	265.307 	99.7405 	235.49 	285.839 	
18.5034 	0.208174 	-0.574973 	0.0532907 	2.83326 	0.953934 	-0.583298 	90.178 	117.703 	-0.586328 	265.307 	99.7405 	235.49 	285.839 	
18.5134 	0.208174 	-0.574973 	0.0532907 	2.83326 	0.953934 	-0.583298 	90.178 	117.703 	-0.586328 	265.307 	99.7405 	235.49 	285.839 	
18.5234 	0.208174 	-0.574973 	0.0532907 	2.83326 	0.953934 	-0.583298 	90.178 	117.703 	-0.586328 	265.307 	99.7405 	235.49 	285.839 	
18.5334 	0.208174 	-0.574973 	0.0532907 	2.83326 	0.953934 	-0.583298 	90.178 	117.703 	-0.586328 	265.307 	99.7405 	235.49 	285.839 	
18.5435 	0.208174 	-0.574973 	0.0532907 	2.83326 	0.953934 	-0.583298 	90.178 	117.703 	-0.586328 	265.307 	99.7405 	235.49 	285.839 	
18.5535 	0.208174 	-0.574973 	0.0532907 	2.83326 	0.953934 	-0.583298 	90.178 	117.703 	-0.586328 	265.307 	99.7405 	235.49 	285.839 	
18.5635 	0.208174 	-0.574973 	0.0532907 	2.83326 	0.953934 	-0.583298 	90.178 	117.703 	-0.586328 	265.307 	99.7405 	235.49 	285.839 	
18.5734 	0.208174 	-0.574973 	0.0532907 	2.83326 	0.953934 	-0.583298 	90.178 	117.703 	-0.586328 	265.307 	99.7405 	235.49 	285.839 	
18.5835 	0.208174 	-0.574973 	0.0532907 	2.83326 	0.953934 	-0.583298 	90.178 	117.703 	-0.586328 	265.307 	99.7405 	235.49 	285.839 	
18.5934 	0.208174 	-0.574973 	0.0532907 	2.83326 	0.953934 	-0.583298 	90.178 	117.703 	-0.586328 	265.307 	99.7405 	235.49 	285.839 	
18.6034 	0.208174 	-0.574973 	0.0532907 	2.83326 	0.953934 	-0.583298 	90.178 	117.703 	-0.586328 	265.307 	99.7405 	235.49 	285.839 	
18.6135 	0.208174 	-0.574973 	0.0532907 	2.83326 	0.953934 	-0.583298 	90.178 	117.703 	-0.586328 	265.307 	99.7405 	235.49 	285.839 	
18.6235 	0.208174 	-0.574973 	0.0532907 	2.83326 	0.953934 	-0.583298 	90.178 	117.703 	-0.586328 	265.307 	99.7405 	235.49 	285.839 	
18.6335 	0.208174 	-0.574973 	0.0532907 	2.83326 	0.953934 	-0.583298 	90.178 	117.703 	-0.586328 	265.307 	99.7405 	235.49 	285.839 	
18.6435 	0.208174 	-0.574973 	0.0532907 	2.83326 	0.953934 	-0.583298 	90.178 	117.703 	-0.586328 	265.307 	99.7405 	235.49 	285.839 	
18.6535 	0.208174 	-0.574973 	0.0532907 	2.83326 	0.953934 	-0.583298 	90.178 	117.703 	-0.586328 	265.307 	99.7405 	235.49 	285.839 	
18.6635 	0.208174 	-0.574973 	0.0532907 	2.83326 	0.953934 	-0.583298 	90.178 	117.703 	-0.586328 	265.307 	99.7405 	235.49 	285.839 	
18.6735 	0.208174 	-0.574973 	0.0532907 	2.83326 	0.953934 	-0.583298 	90.178 	117.703 	-0.586328 	265.307 	99.7405 	235.49 	285.839 	
18.6835 	0.208174 	-0.574973 	0.0532907 	2.83326 	0.953934 	-0.583298 	90.178 	117.703 	-0.586328 	265.307 	99.7405 	235.49 	285.839 	
18.6935 	0.208174 	-0.574973 	0.0532907 	2.83326 	0.953934 	-0.583298 	90.178 	117.703 	-0.586328 	265.307 	99.7405 	235.49 	285.839 	
18.7035 	0.208174 	-0.574973 	0.0532907 	2.83326 	0.953934 	-0.583298 	90.178 	117.703 	-0.586328 	265.307 	99.7405 	235.49 	285.839 	
18.7135 	0.208174 	-0.574973 	0.0532907 	2.83326 	0.953934 	-0.583298 	90.178 	117.703 	-0.586328 	265.307 	99.7405 	235.49 	285.839 	
18.7235 	0.208174 	-0.574973 	0.0532907 	2.83326 	0.953934 	-0.583298 	90.178 	117.703 	-0.586328 	265.307 	99.7405 	235.49 	285.839 	
18.7335 	0.208174 	-0.574973 	0.0532907 	2.83326 	0.953934 	-0.583298 	90.178 	117.703 	-0.586328 	265.307 	99.7405 	235.49 	285.839 	
18.7434 	0.208174 	-0.574973 	0.0532907 	2.83326 	0.953934 	-0.583298 	90.178 	117.703 	-0.586328 	265.307 	99.7405 	235.49 	285.839 	
18.7535 	0.208174 	-0.574973 	0.0532907 	2.83326 	0.953934 	-0.583298 	90.178 	117.703 	-0.586328 	265.307 	99.7405 	235.49 	285.839 	
18.7635 	0.208174 	-0.574973 	0.0532907 	2.83326 	0.953934 	-0.583298 	90.178 	117.703 	-0.586328 	265.307 	99.7405 	235.49 	285.839 	
18.7735 	0.208174 	-0.574973 	0.0532907 	2.83326 	0.953934 	-0.583298 	90.178 	117.703 	-0.586328 	265.307 	99.7405 	235.49 	285.839 	
18.7835 	0.208174 	-0.574973 	0.0532907 	2.83326 	0.953934 	-0.583298 	90.178 	117.703 	-0.586328 	265.307 	99.7405 	235.49 	285.839 	
18.7934 	0.208174 	-0.574973 	0.0532907 	2.83326 	0.953934 	-0.583298 	90.178 	117.703 	-0.586328 	265.307 	99.7405 	235.49 	285.839 	
18.8035 	0.208174 	-0.574973 	0.0532907 	2.83326 	0.953934 	-0.583298 	90.178 	117.703 	-0.586328 	265.307 	99.7405 	235.49 	285.839 	
18.8135 	0.208174 	-0.574973 	0.0532907 	2.83326 	0.953934 	-0.583298 	90.178 	117.703 	-0.586328 	265.307 	99.7405 	235.49 	285.839 	
18.8235 	0.208174 	-0.574973 	0.0532907 	2.83326 	0.953934 	-0.583298 	90.178 	117.703 	-0.586328 	265.307 	99.7405 	235.49 	285.839 	
18.8334 	0.208174 	-0.574973 	0.0532907 	2.83326 	0.953934 	-0.583298 	90.178 	117.703 	-0.586328 	265.307 	99.7405 	235.49 	285.839 	
18.8435 	0.208174 	-0.574973 	0.0532907 	2.83326 	0.953934 	-0.583298 	90.178 	117.703 	-0.586328 	265.307 	99.7405 	235.49 	285.839 	
18.8535 	0.208174 	-0.574973 	0.0532907 	2.83326 	0.953934 	-0.583298 	90.178 	117.703 	-0.586328 	265.307 	99.7405 	235.49 	285.839 	
18.8635 	0.208174 	-0.574973 	0.0532907 	2.83326 	0.953934 	-0.583298 	90.178 	117.703 	-0.586328 	265.307 	99.7405 	235.49 	285.839 	
18.8735 	0.208174 	-0.574973 	0.0532907 	2.83326 	0.953934 	-0.583298 	90.178 	117.703 	-0.586328 	265.307 	99.7405 	235.49 	285.839 	
18.8835 	0.208174 	-0.574973 	0.0532907 	2.83326 	0.953934 	-0.583298 	90.178 	117.703 	-0.586328 	265.307 	99.7405 	235.49 	285.839 	
18.8935 	0.208174 	-0.574973 	0.0532907 	2.83326 	0.953934 	-0.583298 	90.178 	117.703 	-0.586328 	265.307 	99.7405 	235.49 	285.839 	
18.9035 	0.208174 	-0.574973 	0.0532907 	2.83326 	0.953934 	-0.583298 	90.178 	117.703 	-0.586328 	265.307 	99.7405 	235.49 	285.839 	
18.9135 	0.208174 	-0.574973 	0.0532907 	2.83326 	0.953934 	-0.583298 	90.178 	117.703 	-0.586328 	265.307 	99.7405 	235.49 	285.839 	
18.9235 	0.208174 	-0.574973 	0.0532907 	2.83326 	0.953934 	-0.583298 	90.178 	117.703 	-0.586328 	265.307 	99.7405 	235.49 	285.839 	
18.9335 	0.208174 	-0.574973 	0.0532907 	2.83326 	0.953934 	-0.583298 	90.178 	117.703 	-0.586328 	265.307 	99.7405 	235.49 	285.839 	
18.9435 	0.208174 	-0.574973 	0.0532907 	2.83326 	0.953934 	-0.583298 	90.178 	117.703 	-0.586328 	265.307 	99.7405 	235.49 	285.839 	
18.9534 	0.208174 	-0.574973 	0.0532907 	2.83326 	0.953934 	-0.583298 	90.178 	117.703 	-0.586328 	265.307 	99.7405 	235.49 	285.839 	
18.9635 	0.208174 	-0.574973 	0.0532907 	2.83326 	0.953934 	-0.583298 	90.178 	117.703 	-0.586328 	265.307 	99.7405 	235.49 	285.839 	
18.9734 	0.208174 	-0.574973 	0.0532907 	2.83326 	0.953934 	-0.583298 	90.178 	117.703 	-0.586328 	265.307 	99.7405 	235.49 	285.839 	
18.9835 	0.208174 	-0.574973 	0.0532907 	2.83326 	0.953934 	-0.583298 	90.178 	117.703 	-0.586328 	265.307 	99.7405 	235.49 	285.839 	
18.9935 	0.208174 	-0.574973 	0.0532907 	2.83326 	0.953934 	-0.583298 	90.178 	117.703 	-0.586328 	265.307 	99.7405 	235.49 	285.839 	
19.0035 	0.208174 	-0.574973 	0.0532907 	2.83326 	0.953934 	-0.583298 	90.178 	117.703 	-0.586328 	265.307 	99.7405 	235.49 	285.839 	
19.0135 	0.208174 	-0.574973 	0.0532907 	2.83326 	0.953934 	-0.583298 	90.178 	117.703 	-0.586328 	265.307 	99.7405 	235.49 	285.839 	
19.0235 	0.208174 	-0.574973 	0.0532907 	2.83326 	0.953934 	-0.583298 	90.178 	117.703 	-0.586328 	265.307 	99.7405 	235.49 	285.839 	
19.0335 	0.208174 	-0.574973 	0.0532907 	2.83326 	0.953934 	-0.583298 	90.178 	117.703 	-0.586328 	265.307 	99.7405 	235.49 	285.839 	
19.0435 	0.208174 	-0.574973 	0.0532907 	2.83326 	0.953934 	-0.583298 	90.178 	117.703 	-0.586328 	265.307 	99.7405 	235.49 	285.839 	
19.0535 	0.208174 	-0.574973 	0.0532907 	2.83326 	0.953934 	-0.583298 	90.178 	117.703 	-0.586328 	265.307 	99.7405 	235.49 	285.839 	
19.0635 	0.208174 	-0.574973 	0.0532907 	2.83326 	0.953934 	-0.583298 	90.178 	117.703 	-0.586328 	265.307 	99.7405 	235.49 	285.839 	
19.0735 	0.208174 	-0.574973 	0.0532907 	2.83326 	0.953934 	-0.583298 	90.178 	117.703 	-0.586328 	265.307 	99.7405 	235.49 	285.839 	
19.0835 	0.208174 	-0.574973 	0.0532907 	2.83326 	0.953934 	-0.583298 	90.178 	117.703 	-0.586328 	265.307 	99.7405 	235.49 	285.839 	
19.0935 	0.208174 	-0.574973 	0.0532907 	2.83326 	0.953934 	-0.583298 	90.178 	117.703 	-0.586328 	265.307 	99.7405 	235.49 	285.839 	
19.1035 	0.208174 	-0.574973 	0.0532907 	2.83326 	0.953934 	-0.583298 	90.178 	117.703 	-0.586328 	265.307 	99.7405 	235.49 	285.839 	
19.1135 	0.208174 	-0.574973 	0.0532907 	2.83326 	0.953934 	-0.583298 	90.178 	117.703 	-0.586328 	265.307 	99.7405 	235.49 	285.839 	
19.1234 	0.208174 	-0.574973 	0.0532907 	2.83326 	0.953934 	-0.583298 	90.178 	117.703 	-0.586328 	265.307 	99.7405 	235.49 	285.839 	
19.1334 	0.208174 	-0.574973 	0.0532907 	2.83326 	0.953934 	-0.583298 	90.178 	117.703 	-0.586328 	265.307 	99.7405 	235.49 	285.839 	
19.1435 	0.208174 	-0.574973 	0.0532907 	2.83326 	0.953934 	-0.583298 	90.178 	117.703 	-0.586328 	265.307 	99.7405 	235.49 	285.839 	
19.1535 	0.208174 	-0.574973 	0.0532907 	2.83326 	0.953934 	-0.583298 	90.178 	117.703 	-0.586328 	265.307 	99.7405 	235.49 	285.839 	
19.1635 	0.208174 	-0.574973 	0.0532907 	2.83326 	0.953934 	-0.583298 	90.178 	117.703 	-0.586328 	265.307 	99.7405 	235.49 	285.839 	
19.1735 	0.208174 	-0.574973 	0.0532907 	2.83326 	0.953934 	-0.583298 	90.178 	117.703 	-0.586328 	265.307 	99.7405 	235.49 	285.839 	
19.1834 	0.208174 	-0.574973 	0.0532907 	2.83326 	0.953934 	-0.583298 	90.178 	117.703 	-0.586328 	265.307 	99.7405 	235.49 	285.839 	
19.1934 	0.208174 	-0.574973 	0.0532907 	2.83326 	0.953934 	-0.583298 	90.178 	117.703 	-0.586328 	265.307 	99.7405 	235.49 	285.839 	
19.2035 	0.208174 	-0.574973 	0.0532907 	2.83326 	0.953934 	-0.583298 	90.178 	117.703 	-0.586328 	265.307 	99.7405 	235.49 	285.839 	
19.2135 	0.208174 	-0.574973 	0.0532907 	2.83326 	0.953934 	-0.583298 	90.178 	117.703 	-0.586328 	265.307 	99.7405 	235.49 	285.839 	
19.2235 	0.208174 	-0.574973 	0.0532907 	2.83326 	0.953934 	-0.583298 	90.178 	117.703 	-0.586328 	265.307 	99.7405 	235.49 	285.839 	
19.2334 	0.208174 	-0.574973 	0.0532907 	2.83326 	0.953934 	-0.583298 	90.178 	117.703 	-0.586328 	265.307 	99.7405 	235.49 	285.839 	
19.2435 	0.208174 	-0.574973 	0.0532907 	2.83326 	0.953934 	-0.583298 	90.178 	117.703 	-0.586328 	265.307 	99.7405 	235.49 	285.839 	
19.2535 	0.208174 	-0.574973 	0.0532907 	2.83326 	0.953934 	-0.583298 	90.178 	117.703 	-0.586328 	265.307 	99.7405 	235.49 	285.839 	
19.2635 	0.208174 	-0.574973 	0.0532907 	2.83326 	0.953934 	-0.583298 	90.178 	117.703 	-0.586328 	265.307 	99.7405 	235.49 	285.839 	
19.2734 	0.208174 	-0.574973 	0.0532907 	2.83326 	0.953934 	-0.583298 	90.178 	117.703 	-0.586328 	265.307 	99.7405 	235.49 	285.839 	
19.2835 	0.208174 	-0.574973 	0.0532907 	2.83326 	0.953934 	-0.583298 	90.178 	117.703 	-0.586328 	265.307 	99.7405 	235.49 	285.839 	
19.2935 	0.208174 	-0.574973 	0.0532907 	2.83326 	0.953934 	-0.583298 	90.178 	117.703 	-0.586328 	265.307 	99.7405 	235.49 	285.839 	
19.3035 	0.208174 	-0.574973 	0.0532907 	2.83326 	0.953934 	-0.583298 	90.178 	117.703 	-0.586328 	265.307 	99.7405 	235.49 	285.839 	
19.3135 	0.208174 	-0.574973 	0.0532907 	2.83326 	0.953934 	-0.583298 	90.178 	117.703 	-0.586328 	265.307 	99.7405 	235.49 	285.839 	
19.3234 	0.208174 	-0.574973 	0.0532907 	2.83326 	0.953934 	-0.583298 	90.178 	117.703 	-0.586328 	265.307 	99.7405 	235.49 	285.839 	
19.3335 	0.208174 	-0.574973 	0.0532907 	2.83326 	0.953934 	-0.583298 	90.178 	117.703 	-0.586328 	265.307 	99.7405 	235.49 	285.839 	
19.3434 	0.208174 	-0.574973 	0.0532907 	2.83326 	0.953934 	-0.583298 	90.178 	117.703 	-0.586328 	265.307 	99.7405 	235.49 	285.839 	
19.3534 	0.208174 	-0.574973 	0.0532907 	2.83326 	0.953934 	-0.583298 	90.178 	117.703 	-0.586328 	265.307 	99.7405 	235.49 	285.839 	
19.3635 	0.208174 	-0.574973 	0.0532907 	2.83326 	0.953934 	-0.583298 	90.178 	117.703 	-0.586328 	265.307 	99.7405 	235.49 	285.839 	
19.3735 	0.208174 	-0.574973 	0.0532907 	2.83326 	0.953934 	-0.583298 	90.178 	117.703 	-0.586328 	265.307 	99.7405 	235.49 	285.839 	
19.3835 	0.208174 	-0.574973 	0.0532907 	2.83326 	0.953934 	-0.583298 	90.178 	117.703 	-0.586328 	265.307 	99.7405 	235.49 	285.839 	
19.3935 	0.208174 	-0.574973 	0.0532907 	2.83326 	0.953934 	-0.583298 	90.178 	117.703 	-0.586328 	265.307 	99.7405 	235.49 	285.839 	
19.4035 	0.208174 	-0.574973 	0.0532907 	2.83326 	0.953934 	-0.583298 	90.178 	117.703 	-0.586328 	265.307 	99.7405 	235.49 	285.839 	
19.4134 	0.208174 	-0.574973 	0.0532907 	2.83326 	0.953934 	-0.583298 	90.178 	117.703 	-0.586328 	265.307 	99.7405 	235.49 	285.839 	
19.4235 	0.208174 	-0.574973 	0.0532907 	2.83326 	0.953934 	-0.583298 	90.178 	117.703 	-0.586328 	265.307 	99.7405 	235.49 	285.839 	
19.4335 	0.208174 	-0.574973 	0.0532907 	2.83326 	0.953934 	-0.583298 	90.178 	117.703 	-0.586328 	265.307 	99.7405 	235.49 	285.839 	
19.4435 	0.208174 	-0.574973 	0.0532907 	2.83326 	0.953934 	-0.583298 	90.178 	117.703 	-0.586328 	265.307 	99.7405 	235.49 	285.839 	
19.4535 	0.208174 	-0.574973 	0.0532907 	2.83326 	0.953934 	-0.583298 	90.178 	117.703 	-0.586328 	265.307 	99.7405 	235.49 	285.839 	
19.4635 	0.208174 	-0.574973 	0.0532907 	2.83326 	0.953934 	-0.583298 	90.178 	117.703 	-0.586328 	265.307 	99.7405 	235.49 	285.839 	
19.4734 	0.208174 	-0.574973 	0.0532907 	2.83326 	0.953934 	-0.583298 	90.178 	117.703 	-0.586328 	265.307 	99.7405 	235.49 	285.839 	
19.4835 	0.208174 	-0.574973 	0.0532907 	2.83326 	0.953934 	-0.583298 	90.178 	117.703 	-0.586328 	265.307 	99.7405 	235.49 	285.839 	
19.4935 	0.208174 	-0.574973 	0.0532907 	2.83326 	0.953934 	-0.583298 	90.178 	117.703 	-0.586328 	265.307 	99.7405 	235.49 	285.839 	
19.5035 	0.208174 	-0.574973 	0.0532907 	2.83326 	0.953934 	-0.583298 	90.178 	117.703 	-0.586328 	265.307 	99.7405 	235.49 	285.839 	
19.5134 	0.208174 	-0.574973 	0.0532907 	2.83326 	0.953934 	-0.583298 	90.178 	117.703 	-0.586328 	265.307 	99.7405 	235.49 	285.839 	
19.5234 	0.208174 	-0.574973 	0.0532907 	2.83326 	0.953934 	-0.583298 	90.178 	117.703 	-0.586328 	265.307 	99.7405 	235.49 	285.839 	
19.5334 	0.208174 	-0.574973 	0.0532907 	2.83326 	0.953934 	-0.583298 	90.178 	117.703 	-0.586328 	265.307 	99.7405 	235.49 	285.839 	
19.5435 	0.208174 	-0.574973 	0.0532907 	2.83326 	0.953934 	-0.583298 	90.178 	117.703 	-0.586328 	265.307 	99.7405 	235.49 	285.839 	
19.5534 	0.208174 	-0.574973 	0.0532907 	2.83326 	0.953934 	-0.583298 	90.178 	117.703 	-0.586328 	265.307 	99.7405 	235.49 	285.839 	
19.5635 	0.208174 	-0.574973 	0.0532907 	2.83326 	0.953934 	-0.583298 	90.178 	117.703 	-0.586328 	265.307 	99.7405 	235.49 	285.839 	
19.5735 	0.208174 	-0.574973 	0.0532907 	2.83326 	0.953934 	-0.583298 	90.178 	117.703 	-0.586328 	265.307 	99.7405 	235.49 	285.839 	
19.5835 	0.208174 	-0.574973 	0.0532907 	2.83326 	0.953934 	-0.583298 	90.178 	117.703 	-0.586328 	265.307 	99.7405 	235.49 	285.839 	
19.5935 	0.208174 	-0.574973 	0.0532907 	2.83326 	0.953934 	-0.583298 	90.178 	117.703 	-0.586328 	265.307 	99.7405 	235.49 	285.839 	
19.6035 	0.208174 	-0.574973 	0.0532907 	2.83326 	0.953934 	-0.583298 	90.178 	117.703 	-0.586328 	265.307 	99.7405 	235.49 	285.839 	
19.6135 	0.208174 	-0.574973 	0.0532907 	2.83326 	0.953934 	-0.583298 	90.178 	117.703 	-0.586328 	265.307 	99.7405 	235.49 	285.839 	
19.6234 	0.208174 	-0.574973 	0.0532907 	2.83326 	0.953934 	-0.583298 	90.178 	117.703 	-0.586328 	265.307 	99.7405 	235.49 	285.839 	
19.6335 	0.208174 	-0.574973 	0.0532907 	2.83326 	0.953934 	-0.583298 	90.178 	117.703 	-0.586328 	265.307 	99.7405 	235.49 	285.839 	
19.6435 	0.208174 	-0.574973 	0.0532907 	2.83326 	0.953934 	-0.583298 	90.178 	117.703 	-0.586328 	265.307 	99.7405 	235.49 	285.839 	
19.6534 	0.208174 	-0.574973 	0.0532907 	2.83326 	0.953934 	-0.583298 	90.178 	117.703 	-0.586328 	265.307 	99.7405 	235.49 	285.839 	
19.6634 	0.208174 	-0.574973 	0.0532907 	2.83326 	0.953934 	-0.583298 	90.178 	117.703 	-0.586328 	265.307 	99.7405 	235.49 	285.839 	
19.6735 	0.208174 	-0.574973 	0.0532907 	2.83326 	0.953934 	-0.583298 	90.178 	117.703 	-0.586328 	265.307 	99.7405 	235.49 	285.839 	
19.6835 	0.208174 	-0.574973 	0.0532907 	2.83326 	0.953934 	-0.583298 	90.178 	117.703 	-0.586328 	265.307 	99.7405 	235.49 	285.839 	
19.6935 	0.208174 	-0.574973 	0.0532907 	2.83326 	0.953934 	-0.583298 	90.178 	117.703 	-0.586328 	265.307 	99.7405 	235.49 	285.839 	
19.7035 	0.208174 	-0.574973 	0.0532907 	2.83326 	0.953934 	-0.583298 	90.178 	117.703 	-0.586328 	265.307 	99.7405 	235.49 	285.839 	
19.7135 	0.208174 	-0.574973 	0.0532907 	2.83326 	0.953934 	-0.583298 	90.178 	117.703 	-0.586328 	265.307 	99.7405 	235.49 	285.839 	
19.7235 	0.208174 	-0.574973 	0.0532907 	2.83326 	0.953934 	-0.583298 	90.178 	117.703 	-0.586328 	265.307 	99.7405 	235.49 	285.839 	
19.7334 	0.208174 	-0.574973 	0.0532907 	2.83326 	0.953934 	-0.583298 	90.178 	117.703 	-0.586328 	265.307 	99.7405 	235.49 	285.839 	
19.7435 	0.208174 	-0.574973 	0.0532907 	2.83326 	0.953934 	-0.583298 	90.178 	117.703 	-0.586328 	265.307 	99.7405 	235.49 	285.839 	
19.7535 	0.208174 	-0.574973 	0.0532907 	2.83326 	0.953934 	-0.583298 	90.178 	117.703 	-0.586328 	265.307 	99.7405 	235.49 	285.839 	
19.7635 	0.208174 	-0.574973 	0.0532907 	2.83326 	0.953934 	-0.583298 	90.178 	117.703 	-0.586328 	265.307 	99.7405 	235.49 	285.839 	
19.7735 	0.208174 	-0.574973 	0.0532907 	2.83326 	0.953934 	-0.583298 	90.178 	117.703 	-0.586328 	265.307 	99.7405 	235.49 	285.839 	
19.7835 	0.208174 	-0.574973 	0.0532907 	2.83326 	0.953934 	-0.583298 	90.178 	117.703 	-0.586328 	265.307 	99.7405 	235.49 	285.839 	
19.7935 	0.208174 	-0.574973 	0.0532907 	2.83326 	0.953934 	-0.583298 	90.178 	117.703 	-0.586328 	265.307 	99.7405 	235.49 	285.839 	
19.8035 	0.208174 	-0.574973 	0.0532907 	2.83326 	0.953934 	-0.583298 	90.178 	117.703 	-0.586328 	265.307 	99.7405 	235.49 	285.839 	
19.8134 	0.208174 	-0.574973 	0.0532907 	2.83326 	0.953934 	-0.583298 	90.178 	117.703 	-0.586328 	265.307 	99.7405 	235.49 	285.839 	
19.8234 	0.208174 	-0.574973 	0.0532907 	2.83326 	0.953934 	-0.583298 	90.178 	117.703 	-0.586328 	265.307 	99.7405 	235.49 	285.839 	
19.8334 	0.208174 	-0.574973 	0.0532907 	2.83326 	0.953934 	-0.583298 	90.178 	117.703 	-0.586328 	265.307 	99.7405 	235.49 	285.839 	
19.8435 	0.208174 	-0.574973 	0.0532907 	2.83326 	0.953934 	-0.583298 	90.178 	117.703 	-0.586328 	265.307 	99.7405 	235.49 	285.839 	
19.8534 	0.208174 	-0.574973 	0.0532907 	2.83326 	0.953934 	-0.583298 	90.178 	117.703 	-0.586328 	265.307 	99.7405 	235.49 	285.839 	
19.8635 	0.208174 	-0.574973 	0.0532907 	2.83326 	0.953934 	-0.583298 	90.178 	117.703 	-0.586328 	265.307 	99.7405 	235.49 	285.839 	
19.8734 	0.208174 	-0.574973 	0.0532907 	2.83326 	0.953934 	-0.583298 	90.178 	117.703 	-0.586328 	265.307 	99.7405 	235.49 	285.839 	
19.8834 	0.208174 	-0.574973 	0.0532907 	2.83326 	0.953934 	-0.583298 	90.178 	117.703 	-0.586328 	265.307 	99.7405 	235.49 	285.839 	
19.8934 	0.208174 	-0.574973 	0.0532907 	2.83326 	0.953934 	-0.583298 	90.178 	117.703 	-0.586328 	265.307 	99.7405 	235.49 	285.839 	
19.9035 	0.208174 	-0.574973 	0.0532907 	2.83326 	0.953934 	-0.583298 	90.178 	117.703 	-0.586328 	265.307 	99.7405 	235.49 	285.839 	
19.9134 	0.208174 	-0.574973 	0.0532907 	2.83326 	0.953934 	-0.583298 	90.178 	117.703 	-0.586328 	265.307 	99.7405 	235.49 	285.839 	
19.9234 	0.208174 	-0.574973 	0.0532907 	2.83326 	0.953934 	-0.583298 	90.178 	117.703 	-0.586328 	265.307 	99.7405 	235.49 	285.839 	
19.9335 	0.208174 	-0.574973 	0.0532907 	2.83326 	0.953934 	-0.583298 	90.178 	117.703 	-0.586328 	265.307 	99.7405 	235.49 	285.839 	
19.9435 	0.208174 	-0.574973 	0.0532907 	2.83326 	0.953934 	-0.583298 	90.178 	117.703 	-0.586328 	265.307 	99.7405 	235.49 	285.839 	
19.9535 	0.208174 	-0.574973 	0.0532907 	2.83326 	0.953934 	-0.583298 	90.178 	117.703 	-0.586328 	265.307 	99.7405 	235.49 	285.839 	
19.9635 	0.208174 	-0.574973 	0.0532907 	2.83326 	0.953934 	-0.583298 	90.178 	117.703 	-0.586328 	265.307 	99.7405 	235.49 	285.839 	
19.9735 	0.208174 	-0.574973 	0.0532907 	2.83326 	0.953934 	-0.583298 	90.178 	117.703 	-0.586328 	265.307 	99.7405 	235.49 	285.839 	
19.9835 	0.208174 	-0.574973 	0.0532907 	2.83326 	0.953934 	-0.583298 	90.178 	117.703 	-0.586328 	265.307 	99.7405 	235.49 	285.839 	
19.9935 	0.208174 	-0.574973 	0.0532907 	2.83326 	0.953934 	-0.583298 	90.178 	117.703 	-0.586328 	265.307 	99.7405 	235.49 	285.839 	
20.0035 	0.208174 	-0.574973 	0.0532907 	2.83326 	0.953934 	-0.583298 	90.178 	117.703 	-0.586328 	265.307 	99.7405 	235.49 	285.839 	
20.0135 	0.208174 	-0.574973 	0.0532907 	2.83326 	0.953934 	-0.583298 	90.178 	117.703 	-0.586328 	265.307 	99.7405 	235.49 	285.839 	
20.0235 	0.208174 	-0.574973 	0.0532907 	2.83326 	0.953934 	-0.583298 	90.178 	117.703 	-0.586328 	265.307 	99.7405 	235.49 	285.839 	
20.0335 	0.208174 	-0.574973 	0.0532907 	2.83326 	0.953934 	-0.583298 	90.178 	117.703 	-0.586328 	265.307 	99.7405 	235.49 	285.839 	
20.0435 	0.208174 	-0.574973 	0.0532907 	2.83326 	0.953934 	-0.583298 	90.178 	117.703 	-0.586328 	265.307 	99.7405 	235.49 	285.839 	
20.0535 	0.208174 	-0.574973 	0.0532907 	2.83326 	0.953934 	-0.583298 	90.178 	117.703 	-0.586328 	265.307 	99.7405 	235.49 	285.839 	
20.0635 	0.208174 	-0.574973 	0.0532907 	2.83326 	0.953934 	-0.583298 	90.178 	117.703 	-0.586328 	265.307 	99.7405 	235.49 	285.839 	
20.0735 	0.208174 	-0.574973 	0.0532907 	2.83326 	0.953934 	-0.583298 	90.178 	117.703 	-0.586328 	265.307 	99.7405 	235.49 	285.839 	
20.0835 	0.208174 	-0.574973 	0.0532907 	2.83326 	0.953934 	-0.583298 	90.178 	117.703 	-0.586328 	265.307 	99.7405 	235.49 	285.839 	
20.0934 	0.208174 	-0.574973 	0.0532907 	2.83326 	0.953934 	-0.583298 	90.178 	117.703 	-0.586328 	265.307 	99.7405 	235.49 	285.839 	
20.1034 	0.208174 	-0.574973 	0.0532907 	2.83326 	0.953934 	-0.583298 	90.178 	117.703 	-0.586328 	265.307 	99.7405 	235.49 	285.839 	
20.1135 	0.208174 	-0.574973 	0.0532907 	2.83326 	0.953934 	-0.583298 	90.178 	117.703 	-0.586328 	265.307 	99.7405 	235.49 	285.839 	
20.1235 	0.208174 	-0.574973 	0.0532907 	2.83326 	0.953934 	-0.583298 	90.178 	117.703 	-0.586328 	265.307 	99.7405 	235.49 	285.839 	
20.1334 	0.208174 	-0.574973 	0.0532907 	2.83326 	0.953934 	-0.583298 	90.178 	117.703 	-0.586328 	265.307 	99.7405 	235.49 	285.839 	
20.1435 	0.208174 	-0.574973 	0.0532907 	2.83326 	0.953934 	-0.583298 	90.178 	117.703 	-0.586328 	265.307 	99.7405 	235.49 	285.839 	
20.1535 	0.208174 	-0.574973 	0.0532907 	2.83326 	0.953934 	-0.583298 	90.178 	117.703 	-0.586328 	265.307 	99.7405 	235.49 	285.839 	
20.1635 	0.208174 	-0.574973 	0.0532907 	2.83326 	0.953934 	-0.583298 	90.178 	117.703 	-0.586328 	265.307 	99.7405 	235.49 	285.839 	
20.1735 	0.208174 	-0.574973 	0.0532907 	2.83326 	0.953934 	-0.583298 	90.178 	117.703 	-0.586328 	265.307 	99.7405 	235.49 	285.839 	
20.1835 	0.208174 	-0.574973 	0.0532907 	2.83326 	0.953934 	-0.583298 	90.178 	117.703 	-0.586328 	265.307 	99.7405 	235.49 	285.839 	
20.1935 	0.208174 	-0.574973 	0.0532907 	2.83326 	0.953934 	-0.583298 	90.178 	117.703 	-0.586328 	265.307 	99.7405 	235.49 	285.839 	
20.2034 	0.208174 	-0.574973 	0.0532907 	2.83326 	0.953934 	-0.583298 	90.178 	117.703 	-0.586328 	265.307 	99.7405 	235.49 	285.839 	
20.2134 	0.208174 	-0.574973 	0.0532907 	2.83326 	0.953934 	-0.583298 	90.178 	117.703 	-0.586328 	265.307 	99.7405 	235.49 	285.839 	
