RISC-NYUAD/HeavyPayloadDrone/projects/kinova-ros/devel/lib/ne_kinova_demo/VulcanTrajectory/Vulcan1_Vicon_y19m11d13h17min54.csv
time (NSec) 	Kinova Tip Position (t_x) 	t_y 	t_z 	Kinova Tip Angle (theta_x) 	Kinova Tip Angle (theta_y) 	Kinova Tip Angle (theta_z) 	Kinova Joint Angle (j1) 	(j2) 	(j3) 	(j4) 	Kinova Joint Angle (j5) 	(j6) 	(j7)
64.0989 	-0.00385174 	-0.501283 	0.779248 	0.159421 	0.011401 	-3.12706 	90.0114 	154.139 	-0.597168 	268.954 	360.654 	284.868 	539.727 	
64.109 	-0.00385174 	-0.501283 	0.779248 	0.159421 	0.011401 	-3.12706 	90.0114 	154.139 	-0.597168 	268.954 	360.654 	284.868 	539.727 	
64.119 	-0.00385174 	-0.501283 	0.779248 	0.159421 	0.011401 	-3.12706 	90.0114 	154.139 	-0.597168 	268.954 	360.654 	284.868 	539.727 	
64.129 	-0.00385174 	-0.501283 	0.779248 	0.159421 	0.011401 	-3.12706 	90.0114 	154.139 	-0.597168 	268.954 	360.654 	284.868 	539.727 	
64.139 	-0.00385174 	-0.501283 	0.779248 	0.159421 	0.011401 	-3.12706 	90.0114 	154.139 	-0.597168 	268.954 	360.654 	284.868 	539.727 	
64.149 	-0.00385174 	-0.501283 	0.779248 	0.159421 	0.011401 	-3.12706 	90.0114 	154.139 	-0.597168 	268.954 	360.654 	284.868 	539.727 	
64.159 	-0.00385174 	-0.501283 	0.779248 	0.159421 	0.011401 	-3.12706 	90.0114 	154.139 	-0.597168 	268.954 	360.654 	284.868 	539.727 	
64.169 	-0.00385174 	-0.501283 	0.779248 	0.159421 	0.011401 	-3.12706 	90.0114 	154.139 	-0.597168 	268.954 	360.654 	284.868 	539.727 	
64.179 	-0.00385174 	-0.501283 	0.779248 	0.159421 	0.011401 	-3.12706 	90.0114 	154.139 	-0.597168 	268.954 	360.654 	284.868 	539.727 	
64.189 	-0.00385174 	-0.501283 	0.779248 	0.159421 	0.011401 	-3.12706 	90.0114 	154.139 	-0.597168 	268.954 	360.654 	284.868 	539.727 	
64.199 	-0.00385174 	-0.501283 	0.779248 	0.159421 	0.011401 	-3.12706 	90.0114 	154.139 	-0.597168 	268.954 	360.654 	284.868 	539.727 	
64.209 	-0.00385174 	-0.501283 	0.779248 	0.159421 	0.011401 	-3.12706 	90.0114 	154.139 	-0.597168 	268.954 	360.654 	284.868 	539.727 	
64.219 	-0.00385174 	-0.501283 	0.779248 	0.159421 	0.011401 	-3.12706 	90.0114 	154.139 	-0.597168 	268.954 	360.654 	284.868 	539.727 	
64.229 	-0.00385174 	-0.501283 	0.779248 	0.159421 	0.011401 	-3.12706 	90.0114 	154.139 	-0.597168 	268.954 	360.654 	284.868 	539.727 	
64.239 	-0.00385174 	-0.501283 	0.779248 	0.159421 	0.011401 	-3.12706 	90.0114 	154.139 	-0.597168 	268.954 	360.654 	284.868 	539.727 	
64.249 	-0.00385174 	-0.501283 	0.779248 	0.159421 	0.011401 	-3.12706 	90.0114 	154.139 	-0.597168 	268.954 	360.654 	284.868 	539.727 	
64.259 	-0.00385174 	-0.501283 	0.779248 	0.159421 	0.011401 	-3.12706 	90.0114 	154.139 	-0.597168 	268.954 	360.654 	284.868 	539.727 	
64.269 	-0.00385174 	-0.501283 	0.779248 	0.159421 	0.011401 	-3.12706 	90.0114 	154.139 	-0.597168 	268.954 	360.654 	284.868 	539.727 	
64.279 	-0.00385174 	-0.501283 	0.779248 	0.159421 	0.011401 	-3.12706 	90.0114 	154.139 	-0.597168 	268.954 	360.654 	284.868 	539.727 	
64.289 	-0.00385174 	-0.501283 	0.779248 	0.159421 	0.011401 	-3.12706 	90.0114 	154.139 	-0.597168 	268.954 	360.654 	284.868 	539.727 	
64.299 	-0.00385174 	-0.501283 	0.779248 	0.159421 	0.011401 	-3.12706 	90.0114 	154.139 	-0.597168 	268.954 	360.654 	284.868 	539.727 	
64.309 	-0.00385174 	-0.501283 	0.779248 	0.159421 	0.011401 	-3.12706 	90.0114 	154.139 	-0.597168 	268.954 	360.654 	284.868 	539.727 	
64.319 	-0.00385174 	-0.501283 	0.779248 	0.159421 	0.011401 	-3.12706 	90.0114 	154.139 	-0.597168 	268.954 	360.654 	284.868 	539.727 	
64.329 	-0.00385174 	-0.501283 	0.779248 	0.159421 	0.011401 	-3.12706 	90.0114 	154.139 	-0.597168 	268.954 	360.654 	284.868 	539.727 	
64.339 	-0.00385174 	-0.501283 	0.779248 	0.159421 	0.011401 	-3.12706 	90.0114 	154.139 	-0.597168 	268.954 	360.654 	284.868 	539.727 	
64.349 	-0.00385174 	-0.501283 	0.779248 	0.159421 	0.011401 	-3.12706 	90.0114 	154.139 	-0.597168 	268.954 	360.654 	284.868 	539.727 	
64.359 	-0.00385174 	-0.501283 	0.779248 	0.159421 	0.011401 	-3.12706 	90.0114 	154.139 	-0.597168 	268.954 	360.654 	284.868 	539.727 	
64.369 	-0.00385174 	-0.501283 	0.779248 	0.159421 	0.011401 	-3.12706 	90.0114 	154.139 	-0.597168 	268.954 	360.654 	284.868 	539.727 	
64.379 	-0.00385174 	-0.501283 	0.779248 	0.159421 	0.011401 	-3.12706 	90.0114 	154.139 	-0.597168 	268.954 	360.654 	284.868 	539.727 	
64.389 	-0.00385174 	-0.501283 	0.779248 	0.159421 	0.011401 	-3.12706 	90.0114 	154.139 	-0.597168 	268.954 	360.654 	284.868 	539.727 	
64.399 	-0.00385174 	-0.501283 	0.779248 	0.159421 	0.011401 	-3.12706 	90.0114 	154.139 	-0.597168 	268.954 	360.654 	284.868 	539.727 	
64.409 	-0.00385174 	-0.501283 	0.779248 	0.159421 	0.011401 	-3.12706 	90.0114 	154.139 	-0.597168 	268.954 	360.654 	284.868 	539.727 	
64.419 	-0.00385174 	-0.501283 	0.779248 	0.159421 	0.011401 	-3.12706 	90.0114 	154.139 	-0.597168 	268.954 	360.654 	284.868 	539.727 	
64.429 	-0.00385174 	-0.501283 	0.779248 	0.159421 	0.011401 	-3.12706 	90.0114 	154.139 	-0.597168 	268.954 	360.654 	284.868 	539.727 	
64.439 	-0.00385174 	-0.501283 	0.779248 	0.159421 	0.011401 	-3.12706 	90.0114 	154.139 	-0.597168 	268.954 	360.654 	284.868 	539.727 	
64.449 	-0.00385174 	-0.501283 	0.779248 	0.159421 	0.011401 	-3.12706 	90.0114 	154.139 	-0.597168 	268.954 	360.654 	284.868 	539.727 	
64.459 	-0.00385174 	-0.501283 	0.779248 	0.159421 	0.011401 	-3.12706 	90.0114 	154.139 	-0.597168 	268.954 	360.654 	284.868 	539.727 	
64.469 	-0.00385174 	-0.501283 	0.779248 	0.159421 	0.011401 	-3.12706 	90.0114 	154.139 	-0.597168 	268.954 	360.654 	284.868 	539.727 	
64.479 	-0.00385174 	-0.501283 	0.779248 	0.159421 	0.011401 	-3.12706 	90.0114 	154.139 	-0.597168 	268.954 	360.654 	284.868 	539.727 	
64.489 	-0.00385174 	-0.501283 	0.779248 	0.159421 	0.011401 	-3.12706 	90.0114 	154.139 	-0.597168 	268.954 	360.654 	284.868 	539.727 	
64.499 	-0.00385174 	-0.501283 	0.779248 	0.159421 	0.011401 	-3.12706 	90.0114 	154.139 	-0.597168 	268.954 	360.654 	284.868 	539.727 	
64.509 	-0.00385174 	-0.501283 	0.779248 	0.159421 	0.011401 	-3.12706 	90.0114 	154.139 	-0.597168 	268.954 	360.654 	284.868 	539.727 	
64.519 	-0.00385174 	-0.501283 	0.779248 	0.159421 	0.011401 	-3.12706 	90.0114 	154.139 	-0.597168 	268.954 	360.654 	284.868 	539.727 	
64.529 	-0.00385174 	-0.501283 	0.779248 	0.159421 	0.011401 	-3.12706 	90.0114 	154.139 	-0.597168 	268.954 	360.654 	284.868 	539.727 	
64.539 	-0.00385174 	-0.501283 	0.779248 	0.159421 	0.011401 	-3.12706 	90.0114 	154.139 	-0.597168 	268.954 	360.654 	284.868 	539.727 	
64.549 	-0.00385174 	-0.501283 	0.779248 	0.159421 	0.011401 	-3.12706 	90.0114 	154.139 	-0.597168 	268.954 	360.654 	284.868 	539.727 	
64.559 	-0.00385174 	-0.501283 	0.779248 	0.159421 	0.011401 	-3.12706 	90.0114 	154.139 	-0.597168 	268.954 	360.654 	284.868 	539.727 	
64.569 	-0.00385174 	-0.501283 	0.779248 	0.159421 	0.011401 	-3.12706 	90.0114 	154.139 	-0.597168 	268.954 	360.654 	284.868 	539.727 	
64.579 	-0.00385174 	-0.501283 	0.779248 	0.159421 	0.011401 	-3.12706 	90.0114 	154.139 	-0.597168 	268.954 	360.654 	284.868 	539.727 	
64.589 	-0.00385174 	-0.501283 	0.779248 	0.159421 	0.011401 	-3.12706 	90.0114 	154.139 	-0.597168 	268.954 	360.654 	284.868 	539.727 	
64.599 	-0.00385174 	-0.501283 	0.779248 	0.159421 	0.011401 	-3.12706 	90.0114 	154.139 	-0.597168 	268.954 	360.654 	284.868 	539.727 	
64.609 	-0.00385174 	-0.501283 	0.779248 	0.159421 	0.011401 	-3.12706 	90.0114 	154.139 	-0.597168 	268.954 	360.654 	284.868 	539.727 	
64.619 	-0.00385174 	-0.501283 	0.779248 	0.159421 	0.011401 	-3.12706 	90.0114 	154.139 	-0.597168 	268.954 	360.654 	284.868 	539.727 	
64.629 	-0.00385174 	-0.501283 	0.779248 	0.159421 	0.011401 	-3.12706 	90.0114 	154.139 	-0.597168 	268.954 	360.654 	284.868 	539.727 	
64.639 	-0.00385174 	-0.501283 	0.779248 	0.159421 	0.011401 	-3.12706 	90.0114 	154.139 	-0.597168 	268.954 	360.654 	284.868 	539.727 	
64.649 	-0.00385174 	-0.501283 	0.779248 	0.159421 	0.011401 	-3.12706 	90.0114 	154.139 	-0.597168 	268.954 	360.654 	284.868 	539.727 	
64.659 	-0.00385174 	-0.501283 	0.779248 	0.159421 	0.011401 	-3.12706 	90.0114 	154.139 	-0.597168 	268.954 	360.654 	284.868 	539.727 	
64.669 	-0.00385174 	-0.501283 	0.779248 	0.159421 	0.011401 	-3.12706 	90.0114 	154.139 	-0.597168 	268.954 	360.654 	284.868 	539.727 	
64.679 	-0.00385174 	-0.501283 	0.779248 	0.159421 	0.011401 	-3.12706 	90.0114 	154.139 	-0.597168 	268.954 	360.654 	284.868 	539.727 	
64.689 	-0.00385174 	-0.501283 	0.779248 	0.159421 	0.011401 	-3.12706 	90.0114 	154.139 	-0.597168 	268.954 	360.654 	284.868 	539.727 	
64.699 	-0.00385174 	-0.501283 	0.779248 	0.159421 	0.011401 	-3.12706 	90.0114 	154.139 	-0.597168 	268.954 	360.654 	284.868 	539.727 	
64.709 	-0.00385174 	-0.501283 	0.779248 	0.159421 	0.011401 	-3.12706 	90.0114 	154.139 	-0.597168 	268.954 	360.654 	284.868 	539.727 	
64.719 	-0.00385174 	-0.501283 	0.779248 	0.159421 	0.011401 	-3.12706 	90.0114 	154.139 	-0.597168 	268.954 	360.654 	284.868 	539.727 	
64.729 	-0.00385174 	-0.501283 	0.779248 	0.159421 	0.011401 	-3.12706 	90.0114 	154.139 	-0.597168 	268.954 	360.654 	284.868 	539.727 	
64.739 	-0.00385174 	-0.501283 	0.779248 	0.159421 	0.011401 	-3.12706 	90.0114 	154.139 	-0.597168 	268.954 	360.654 	284.868 	539.727 	
64.749 	-0.00385174 	-0.501283 	0.779248 	0.159421 	0.011401 	-3.12706 	90.0114 	154.139 	-0.597168 	268.954 	360.654 	284.868 	539.727 	
64.759 	-0.00385174 	-0.501283 	0.779248 	0.159421 	0.011401 	-3.12706 	90.0114 	154.139 	-0.597168 	268.954 	360.654 	284.868 	539.727 	
64.769 	-0.00385174 	-0.501283 	0.779248 	0.159421 	0.011401 	-3.12706 	90.0114 	154.139 	-0.597168 	268.954 	360.654 	284.868 	539.727 	
64.779 	-0.00385174 	-0.501283 	0.779248 	0.159421 	0.011401 	-3.12706 	90.0114 	154.139 	-0.597168 	268.954 	360.654 	284.868 	539.727 	
64.789 	-0.00385174 	-0.501283 	0.779248 	0.159421 	0.011401 	-3.12706 	90.0114 	154.139 	-0.597168 	268.954 	360.654 	284.868 	539.727 	
64.799 	-0.00385174 	-0.501283 	0.779248 	0.159421 	0.011401 	-3.12706 	90.0114 	154.139 	-0.597168 	268.954 	360.654 	284.868 	539.727 	
64.809 	-0.00385174 	-0.501283 	0.779248 	0.159421 	0.011401 	-3.12706 	90.0114 	154.139 	-0.597168 	268.954 	360.654 	284.868 	539.727 	
64.819 	-0.00385174 	-0.501283 	0.779248 	0.159421 	0.011401 	-3.12706 	90.0114 	154.139 	-0.597168 	268.954 	360.654 	284.868 	539.727 	
64.829 	-0.00385174 	-0.501283 	0.779248 	0.159421 	0.011401 	-3.12706 	90.0114 	154.139 	-0.597168 	268.954 	360.654 	284.868 	539.727 	
64.839 	-0.00385174 	-0.501283 	0.779248 	0.159421 	0.011401 	-3.12706 	90.0114 	154.139 	-0.597168 	268.954 	360.654 	284.868 	539.727 	
64.849 	-0.00385174 	-0.501283 	0.779248 	0.159421 	0.011401 	-3.12706 	90.0114 	154.139 	-0.597168 	268.954 	360.654 	284.868 	539.727 	
64.859 	-0.00385174 	-0.501283 	0.779248 	0.159421 	0.011401 	-3.12706 	90.0114 	154.139 	-0.597168 	268.954 	360.654 	284.868 	539.727 	
64.869 	-0.00385174 	-0.501283 	0.779248 	0.159421 	0.011401 	-3.12706 	90.0114 	154.139 	-0.597168 	268.954 	360.654 	284.868 	539.727 	
64.879 	-0.00385174 	-0.501283 	0.779248 	0.159421 	0.011401 	-3.12706 	90.0114 	154.139 	-0.597168 	268.954 	360.654 	284.868 	539.727 	
64.889 	-0.00385174 	-0.501283 	0.779248 	0.159421 	0.011401 	-3.12706 	90.0114 	154.139 	-0.597168 	268.954 	360.654 	284.868 	539.727 	
64.899 	-0.00385174 	-0.501283 	0.779248 	0.159421 	0.011401 	-3.12706 	90.0114 	154.139 	-0.597168 	268.954 	360.654 	284.868 	539.727 	
64.909 	-0.00385174 	-0.501283 	0.779248 	0.159421 	0.011401 	-3.12706 	90.0114 	154.139 	-0.597168 	268.954 	360.654 	284.868 	539.727 	
64.919 	-0.00385174 	-0.501283 	0.779248 	0.159421 	0.011401 	-3.12706 	90.0114 	154.139 	-0.597168 	268.954 	360.654 	284.868 	539.727 	
64.929 	-0.00385174 	-0.501283 	0.779248 	0.159421 	0.011401 	-3.12706 	90.0114 	154.139 	-0.597168 	268.954 	360.654 	284.868 	539.727 	
64.939 	-0.00385174 	-0.501283 	0.779248 	0.159421 	0.011401 	-3.12706 	90.0114 	154.139 	-0.597168 	268.954 	360.654 	284.868 	539.727 	
64.949 	-0.00385174 	-0.501283 	0.779248 	0.159421 	0.011401 	-3.12706 	90.0114 	154.139 	-0.597168 	268.954 	360.654 	284.868 	539.727 	
64.959 	-0.00385174 	-0.501283 	0.779248 	0.159421 	0.011401 	-3.12706 	90.0114 	154.139 	-0.597168 	268.954 	360.654 	284.868 	539.727 	
64.969 	-0.00385174 	-0.501283 	0.779248 	0.159421 	0.011401 	-3.12706 	90.0114 	154.139 	-0.597168 	268.954 	360.654 	284.868 	539.727 	
64.979 	-0.00385174 	-0.501283 	0.779248 	0.159421 	0.011401 	-3.12706 	90.0114 	154.139 	-0.597168 	268.954 	360.654 	284.868 	539.727 	
64.989 	-0.00385174 	-0.501283 	0.779248 	0.159421 	0.011401 	-3.12706 	90.0114 	154.139 	-0.597168 	268.954 	360.654 	284.868 	539.727 	
64.999 	-0.00385174 	-0.501283 	0.779248 	0.159421 	0.011401 	-3.12706 	90.0114 	154.139 	-0.597168 	268.954 	360.654 	284.868 	539.727 	
65.009 	-0.00385174 	-0.501283 	0.779248 	0.159421 	0.011401 	-3.12706 	90.0114 	154.139 	-0.597168 	268.954 	360.654 	284.868 	539.727 	
65.019 	-0.00385174 	-0.501283 	0.779248 	0.159421 	0.011401 	-3.12706 	90.0114 	154.139 	-0.597168 	268.954 	360.654 	284.868 	539.727 	
65.029 	-0.00385174 	-0.501283 	0.779248 	0.159421 	0.011401 	-3.12706 	90.0114 	154.139 	-0.597168 	268.954 	360.654 	284.868 	539.727 	
65.039 	-0.00385174 	-0.501283 	0.779248 	0.159421 	0.011401 	-3.12706 	90.0114 	154.139 	-0.597168 	268.954 	360.654 	284.868 	539.727 	
65.049 	-0.00385174 	-0.501283 	0.779248 	0.159421 	0.011401 	-3.12706 	90.0114 	154.139 	-0.597168 	268.954 	360.654 	284.868 	539.727 	
65.059 	-0.00385174 	-0.501283 	0.779248 	0.159421 	0.011401 	-3.12706 	90.0114 	154.139 	-0.597168 	268.954 	360.654 	284.868 	539.727 	
65.069 	-0.00385174 	-0.501283 	0.779248 	0.159421 	0.011401 	-3.12706 	90.0114 	154.139 	-0.597168 	268.954 	360.654 	284.868 	539.727 	
65.079 	-0.00385174 	-0.501283 	0.779248 	0.159421 	0.011401 	-3.12706 	90.0114 	154.139 	-0.597168 	268.954 	360.654 	284.868 	539.727 	
65.089 	-0.00385174 	-0.501283 	0.779248 	0.159421 	0.011401 	-3.12706 	90.0114 	154.139 	-0.597168 	268.954 	360.654 	284.868 	539.727 	
65.099 	-0.00385174 	-0.501283 	0.779248 	0.159421 	0.011401 	-3.12706 	90.0114 	154.139 	-0.597168 	268.954 	360.654 	284.868 	539.727 	
65.109 	-0.00385174 	-0.501283 	0.779248 	0.159421 	0.011401 	-3.12706 	90.0114 	154.139 	-0.597168 	268.954 	360.654 	284.868 	539.727 	
65.119 	-0.00385174 	-0.501283 	0.779248 	0.159421 	0.011401 	-3.12706 	90.0114 	154.139 	-0.597168 	268.954 	360.654 	284.868 	539.727 	
65.129 	-0.00385174 	-0.501283 	0.779248 	0.159421 	0.011401 	-3.12706 	90.0114 	154.139 	-0.597168 	268.954 	360.654 	284.868 	539.727 	
65.139 	-0.00385174 	-0.501283 	0.779248 	0.159421 	0.011401 	-3.12706 	90.0114 	154.139 	-0.597168 	268.954 	360.654 	284.868 	539.727 	
65.149 	-0.00385174 	-0.501283 	0.779248 	0.159421 	0.011401 	-3.12706 	90.0114 	154.139 	-0.597168 	268.954 	360.654 	284.868 	539.727 	
65.159 	-0.00385174 	-0.501283 	0.779248 	0.159421 	0.011401 	-3.12706 	90.0114 	154.139 	-0.597168 	268.954 	360.654 	284.868 	539.727 	
65.169 	-0.00385174 	-0.501283 	0.779248 	0.159421 	0.011401 	-3.12706 	90.0114 	154.139 	-0.597168 	268.954 	360.654 	284.868 	539.727 	
65.179 	-0.00385174 	-0.501283 	0.779248 	0.159421 	0.011401 	-3.12706 	90.0114 	154.139 	-0.597168 	268.954 	360.654 	284.868 	539.727 	
65.189 	-0.00385174 	-0.501283 	0.779248 	0.159421 	0.011401 	-3.12706 	90.0114 	154.139 	-0.597168 	268.954 	360.654 	284.868 	539.727 	
65.199 	-0.00385174 	-0.501283 	0.779248 	0.159421 	0.011401 	-3.12706 	90.0114 	154.139 	-0.597168 	268.954 	360.654 	284.868 	539.727 	
65.209 	-0.00385174 	-0.501283 	0.779248 	0.159421 	0.011401 	-3.12706 	90.0114 	154.139 	-0.597168 	268.954 	360.654 	284.868 	539.727 	
65.219 	-0.00385174 	-0.501283 	0.779248 	0.159421 	0.011401 	-3.12706 	90.0114 	154.139 	-0.597168 	268.954 	360.654 	284.868 	539.727 	
65.229 	-0.00385174 	-0.501283 	0.779248 	0.159421 	0.011401 	-3.12706 	90.0114 	154.139 	-0.597168 	268.954 	360.654 	284.868 	539.727 	
65.239 	-0.00385174 	-0.501283 	0.779248 	0.159421 	0.011401 	-3.12706 	90.0114 	154.139 	-0.597168 	268.954 	360.654 	284.868 	539.727 	
65.249 	-0.00385174 	-0.501283 	0.779248 	0.159421 	0.011401 	-3.12706 	90.0114 	154.139 	-0.597168 	268.954 	360.654 	284.868 	539.727 	
65.259 	-0.00385174 	-0.501283 	0.779248 	0.159421 	0.011401 	-3.12706 	90.0114 	154.139 	-0.597168 	268.954 	360.654 	284.868 	539.727 	
65.269 	-0.00385174 	-0.501283 	0.779248 	0.159421 	0.011401 	-3.12706 	90.0114 	154.139 	-0.597168 	268.954 	360.654 	284.868 	539.727 	
65.279 	-0.00385174 	-0.501283 	0.779248 	0.159421 	0.011401 	-3.12706 	90.0114 	154.139 	-0.597168 	268.954 	360.654 	284.868 	539.727 	
65.289 	-0.00385174 	-0.501283 	0.779248 	0.159421 	0.011401 	-3.12706 	90.0114 	154.139 	-0.597168 	268.954 	360.654 	284.868 	539.727 	
65.299 	-0.00385174 	-0.501283 	0.779248 	0.159421 	0.011401 	-3.12706 	90.0114 	154.139 	-0.597168 	268.954 	360.654 	284.868 	539.727 	
65.309 	-0.00385174 	-0.501283 	0.779248 	0.159421 	0.011401 	-3.12706 	90.0114 	154.139 	-0.597168 	268.954 	360.654 	284.868 	539.727 	
65.319 	-0.00385174 	-0.501283 	0.779248 	0.159421 	0.011401 	-3.12706 	90.0114 	154.139 	-0.597168 	268.954 	360.654 	284.868 	539.727 	
65.329 	-0.00385174 	-0.501283 	0.779248 	0.159421 	0.011401 	-3.12706 	90.0114 	154.139 	-0.597168 	268.954 	360.654 	284.868 	539.727 	
65.339 	-0.00385174 	-0.501283 	0.779248 	0.159421 	0.011401 	-3.12706 	90.0114 	154.139 	-0.597168 	268.954 	360.654 	284.868 	539.727 	
65.349 	-0.00385174 	-0.501283 	0.779248 	0.159421 	0.011401 	-3.12706 	90.0114 	154.139 	-0.597168 	268.954 	360.654 	284.868 	539.727 	
65.359 	-0.00385174 	-0.501283 	0.779248 	0.159421 	0.011401 	-3.12706 	90.0114 	154.139 	-0.597168 	268.954 	360.654 	284.868 	539.727 	
65.369 	-0.00385174 	-0.501283 	0.779248 	0.159421 	0.011401 	-3.12706 	90.0114 	154.139 	-0.597168 	268.954 	360.654 	284.868 	539.727 	
65.379 	-0.00385174 	-0.501283 	0.779248 	0.159421 	0.011401 	-3.12706 	90.0114 	154.139 	-0.597168 	268.954 	360.654 	284.868 	539.727 	
65.389 	-0.00385174 	-0.501283 	0.779248 	0.159421 	0.011401 	-3.12706 	90.0114 	154.139 	-0.597168 	268.954 	360.654 	284.868 	539.727 	
65.399 	-0.00385174 	-0.501283 	0.779248 	0.159421 	0.011401 	-3.12706 	90.0114 	154.139 	-0.597168 	268.954 	360.654 	284.868 	539.727 	
65.409 	-0.00385174 	-0.501283 	0.779248 	0.159421 	0.011401 	-3.12706 	90.0114 	154.139 	-0.597168 	268.954 	360.654 	284.868 	539.727 	
65.419 	-0.00385174 	-0.501283 	0.779248 	0.159421 	0.011401 	-3.12706 	90.0114 	154.139 	-0.597168 	268.954 	360.654 	284.868 	539.727 	
65.4289 	-0.00385174 	-0.501283 	0.779248 	0.159421 	0.011401 	-3.12706 	90.0114 	154.139 	-0.597168 	268.954 	360.654 	284.868 	539.727 	
65.439 	-0.00385174 	-0.501283 	0.779248 	0.159421 	0.011401 	-3.12706 	90.0114 	154.139 	-0.597168 	268.954 	360.654 	284.868 	539.727 	
65.449 	-0.00385174 	-0.501283 	0.779248 	0.159421 	0.011401 	-3.12706 	90.0114 	154.139 	-0.597168 	268.954 	360.654 	284.868 	539.727 	
65.459 	-0.00385174 	-0.501283 	0.779248 	0.159421 	0.011401 	-3.12706 	90.0114 	154.139 	-0.597168 	268.954 	360.654 	284.868 	539.727 	
65.469 	-0.00385174 	-0.501283 	0.779248 	0.159421 	0.011401 	-3.12706 	90.0114 	154.139 	-0.597168 	268.954 	360.654 	284.868 	539.727 	
65.479 	-0.00385174 	-0.501283 	0.779248 	0.159421 	0.011401 	-3.12706 	90.0114 	154.139 	-0.597168 	268.954 	360.654 	284.868 	539.727 	
65.489 	-0.00385174 	-0.501283 	0.779248 	0.159421 	0.011401 	-3.12706 	90.0114 	154.139 	-0.597168 	268.954 	360.654 	284.868 	539.727 	
65.499 	-0.00385174 	-0.501283 	0.779248 	0.159421 	0.011401 	-3.12706 	90.0114 	154.139 	-0.597168 	268.954 	360.654 	284.868 	539.727 	
65.509 	-0.00385174 	-0.501283 	0.779248 	0.159421 	0.011401 	-3.12706 	90.0114 	154.139 	-0.597168 	268.954 	360.654 	284.868 	539.727 	
65.519 	-0.00385174 	-0.501283 	0.779248 	0.159421 	0.011401 	-3.12706 	90.0114 	154.139 	-0.597168 	268.954 	360.654 	284.868 	539.727 	
65.529 	-0.00385174 	-0.501283 	0.779248 	0.159421 	0.011401 	-3.12706 	90.0114 	154.139 	-0.597168 	268.954 	360.654 	284.868 	539.727 	
65.539 	-0.00385174 	-0.501283 	0.779248 	0.159421 	0.011401 	-3.12706 	90.0114 	154.139 	-0.597168 	268.954 	360.654 	284.868 	539.727 	
65.549 	-0.00385174 	-0.501283 	0.779248 	0.159421 	0.011401 	-3.12706 	90.0114 	154.139 	-0.597168 	268.954 	360.654 	284.868 	539.727 	
65.559 	-0.00385174 	-0.501283 	0.779248 	0.159421 	0.011401 	-3.12706 	90.0114 	154.139 	-0.597168 	268.954 	360.654 	284.868 	539.727 	
65.569 	-0.00385174 	-0.501283 	0.779248 	0.159421 	0.011401 	-3.12706 	90.0114 	154.139 	-0.597168 	268.954 	360.654 	284.868 	539.727 	
65.579 	-0.00385174 	-0.501283 	0.779248 	0.159421 	0.011401 	-3.12706 	90.0114 	154.139 	-0.597168 	268.954 	360.654 	284.868 	539.727 	
65.589 	-0.00385174 	-0.501283 	0.779248 	0.159421 	0.011401 	-3.12706 	90.0114 	154.139 	-0.597168 	268.954 	360.654 	284.868 	539.727 	
65.599 	-0.00385174 	-0.501283 	0.779248 	0.159421 	0.011401 	-3.12706 	90.0114 	154.139 	-0.597168 	268.954 	360.654 	284.868 	539.727 	
65.609 	-0.00385174 	-0.501283 	0.779248 	0.159421 	0.011401 	-3.12706 	90.0114 	154.139 	-0.597168 	268.954 	360.654 	284.868 	539.727 	
65.619 	-0.00385174 	-0.501283 	0.779248 	0.159421 	0.011401 	-3.12706 	90.0114 	154.139 	-0.597168 	268.954 	360.654 	284.868 	539.727 	
65.629 	-0.00385174 	-0.501283 	0.779248 	0.159421 	0.011401 	-3.12706 	90.0114 	154.139 	-0.597168 	268.954 	360.654 	284.868 	539.727 	
65.639 	-0.00385174 	-0.501283 	0.779248 	0.159421 	0.011401 	-3.12706 	90.0114 	154.139 	-0.597168 	268.954 	360.654 	284.868 	539.727 	
65.649 	-0.00385174 	-0.501283 	0.779248 	0.159421 	0.011401 	-3.12706 	90.0114 	154.139 	-0.597168 	268.954 	360.654 	284.868 	539.727 	
65.659 	-0.00385174 	-0.501283 	0.779248 	0.159421 	0.011401 	-3.12706 	90.0114 	154.139 	-0.597168 	268.954 	360.654 	284.868 	539.727 	
65.669 	-0.00385174 	-0.501283 	0.779248 	0.159421 	0.011401 	-3.12706 	90.0114 	154.139 	-0.597168 	268.954 	360.654 	284.868 	539.727 	
65.679 	-0.00385174 	-0.501283 	0.779248 	0.159421 	0.011401 	-3.12706 	90.0114 	154.139 	-0.597168 	268.954 	360.654 	284.868 	539.727 	
65.689 	-0.00385174 	-0.501283 	0.779248 	0.159421 	0.011401 	-3.12706 	90.0114 	154.139 	-0.597168 	268.954 	360.654 	284.868 	539.727 	
65.699 	-0.00385174 	-0.501283 	0.779248 	0.159421 	0.011401 	-3.12706 	90.0114 	154.139 	-0.597168 	268.954 	360.654 	284.868 	539.727 	
65.709 	-0.00385174 	-0.501283 	0.779248 	0.159421 	0.011401 	-3.12706 	90.0114 	154.139 	-0.597168 	268.954 	360.654 	284.868 	539.727 	
65.719 	-0.00385174 	-0.501283 	0.779248 	0.159421 	0.011401 	-3.12706 	90.0114 	154.139 	-0.597168 	268.954 	360.654 	284.868 	539.727 	
65.729 	-0.00385174 	-0.501283 	0.779248 	0.159421 	0.011401 	-3.12706 	90.0114 	154.139 	-0.597168 	268.954 	360.654 	284.868 	539.727 	
65.739 	-0.00385174 	-0.501283 	0.779248 	0.159421 	0.011401 	-3.12706 	90.0114 	154.139 	-0.597168 	268.954 	360.654 	284.868 	539.727 	
65.749 	-0.00385174 	-0.501283 	0.779248 	0.159421 	0.011401 	-3.12706 	90.0114 	154.139 	-0.597168 	268.954 	360.654 	284.868 	539.727 	
65.759 	-0.00385174 	-0.501283 	0.779248 	0.159421 	0.011401 	-3.12706 	90.0114 	154.139 	-0.597168 	268.954 	360.654 	284.868 	539.727 	
65.769 	-0.00385174 	-0.501283 	0.779248 	0.159421 	0.011401 	-3.12706 	90.0114 	154.139 	-0.597168 	268.954 	360.654 	284.868 	539.727 	
65.779 	-0.00385174 	-0.501283 	0.779248 	0.159421 	0.011401 	-3.12706 	90.0114 	154.139 	-0.597168 	268.954 	360.654 	284.868 	539.727 	
65.789 	-0.00385174 	-0.501283 	0.779248 	0.159421 	0.011401 	-3.12706 	90.0114 	154.139 	-0.597168 	268.954 	360.654 	284.868 	539.727 	
65.799 	-0.00385174 	-0.501283 	0.779248 	0.159421 	0.011401 	-3.12706 	90.0114 	154.139 	-0.597168 	268.954 	360.654 	284.868 	539.727 	
65.809 	-0.00385174 	-0.501283 	0.779248 	0.159421 	0.011401 	-3.12706 	90.0114 	154.139 	-0.597168 	268.954 	360.654 	284.868 	539.727 	
65.819 	-0.00385174 	-0.501283 	0.779248 	0.159421 	0.011401 	-3.12706 	90.0114 	154.139 	-0.597168 	268.954 	360.654 	284.868 	539.727 	
65.8251 	-0.00385174 	-0.501283 	0.779248 	0.159421 	0.011401 	-3.12706 	90.0114 	154.139 	-0.597168 	268.954 	360.654 	284.868 	539.727 	
65.8352 	-0.00385174 	-0.501283 	0.779248 	0.159421 	0.011401 	-3.12706 	90.0114 	154.139 	-0.597168 	268.954 	360.654 	284.868 	539.727 	
65.8452 	-0.00385174 	-0.501283 	0.779248 	0.159421 	0.011401 	-3.12706 	90.0114 	154.139 	-0.597168 	268.954 	360.654 	284.868 	539.727 	
65.8552 	-0.00385174 	-0.501283 	0.779248 	0.159421 	0.011401 	-3.12706 	90.0114 	154.139 	-0.597168 	268.954 	360.654 	284.868 	539.727 	
65.8652 	-0.00385174 	-0.501283 	0.779248 	0.159421 	0.011401 	-3.12706 	90.0114 	154.139 	-0.597168 	268.954 	360.654 	284.868 	539.727 	
65.8752 	-0.00385174 	-0.501283 	0.779248 	0.159421 	0.011401 	-3.12706 	90.0114 	154.139 	-0.597168 	268.954 	360.654 	284.868 	539.727 	
65.8852 	-0.00385174 	-0.501283 	0.779248 	0.159421 	0.011401 	-3.12706 	90.0114 	154.139 	-0.597168 	268.954 	360.654 	284.868 	539.727 	
65.8952 	-0.00385174 	-0.501283 	0.779248 	0.159421 	0.011401 	-3.12706 	90.0114 	154.139 	-0.597168 	268.954 	360.654 	284.868 	539.727 	
65.9052 	-0.00385174 	-0.501283 	0.779248 	0.159421 	0.011401 	-3.12706 	90.0114 	154.139 	-0.597168 	268.954 	360.654 	284.868 	539.727 	
65.9152 	-0.00385174 	-0.501283 	0.779248 	0.159421 	0.011401 	-3.12706 	90.0114 	154.139 	-0.597168 	268.954 	360.654 	284.868 	539.727 	
65.9252 	-0.00385174 	-0.501283 	0.779248 	0.159421 	0.011401 	-3.12706 	90.0114 	154.139 	-0.597168 	268.954 	360.654 	284.868 	539.727 	
65.9352 	-0.00385174 	-0.501283 	0.779248 	0.159421 	0.011401 	-3.12706 	90.0114 	154.139 	-0.597168 	268.954 	360.654 	284.868 	539.727 	
65.9452 	-0.00385174 	-0.501283 	0.779248 	0.159421 	0.011401 	-3.12706 	90.0114 	154.139 	-0.597168 	268.954 	360.654 	284.868 	539.727 	
65.9552 	-0.00385174 	-0.501283 	0.779248 	0.159421 	0.011401 	-3.12706 	90.0114 	154.139 	-0.597168 	268.954 	360.654 	284.868 	539.727 	
65.9652 	-0.00385174 	-0.501283 	0.779248 	0.159421 	0.011401 	-3.12706 	90.0114 	154.139 	-0.597168 	268.954 	360.654 	284.868 	539.727 	
65.9752 	-0.00385174 	-0.501283 	0.779248 	0.159421 	0.011401 	-3.12706 	90.0114 	154.139 	-0.597168 	268.954 	360.654 	284.868 	539.727 	
65.9852 	-0.00385174 	-0.501283 	0.779248 	0.159421 	0.011401 	-3.12706 	90.0114 	154.139 	-0.597168 	268.954 	360.654 	284.868 	539.727 	
65.9952 	-0.00385174 	-0.501283 	0.779248 	0.159421 	0.011401 	-3.12706 	90.0114 	154.139 	-0.597168 	268.954 	360.654 	284.868 	539.727 	
66.0052 	-0.00385174 	-0.501283 	0.779248 	0.159421 	0.011401 	-3.12706 	90.0114 	154.139 	-0.597168 	268.954 	360.654 	284.868 	539.727 	
66.0152 	-0.00385174 	-0.501283 	0.779248 	0.159421 	0.011401 	-3.12706 	90.0114 	154.139 	-0.597168 	268.954 	360.654 	284.868 	539.727 	
66.0252 	-0.00385174 	-0.501283 	0.779248 	0.159421 	0.011401 	-3.12706 	90.0114 	154.139 	-0.597168 	268.954 	360.654 	284.868 	539.727 	
66.0352 	-0.00385174 	-0.501283 	0.779248 	0.159421 	0.011401 	-3.12706 	90.0114 	154.139 	-0.597168 	268.954 	360.654 	284.868 	539.727 	
66.0452 	-0.00385174 	-0.501283 	0.779248 	0.159421 	0.011401 	-3.12706 	90.0114 	154.139 	-0.597168 	268.954 	360.654 	284.868 	539.727 	
66.0552 	-0.00385174 	-0.501283 	0.779248 	0.159421 	0.011401 	-3.12706 	90.0114 	154.139 	-0.597168 	268.954 	360.654 	284.868 	539.727 	
66.0652 	-0.00385174 	-0.501283 	0.779248 	0.159421 	0.011401 	-3.12706 	90.0114 	154.139 	-0.597168 	268.954 	360.654 	284.868 	539.727 	
66.0752 	-0.00385174 	-0.501283 	0.779248 	0.159421 	0.011401 	-3.12706 	90.0114 	154.139 	-0.597168 	268.954 	360.654 	284.868 	539.727 	
66.0852 	-0.00385174 	-0.501283 	0.779248 	0.159421 	0.011401 	-3.12706 	90.0114 	154.139 	-0.597168 	268.954 	360.654 	284.868 	539.727 	
66.0952 	-0.00385174 	-0.501283 	0.779248 	0.159421 	0.011401 	-3.12706 	90.0114 	154.139 	-0.597168 	268.954 	360.654 	284.868 	539.727 	
66.1052 	-0.00385174 	-0.501283 	0.779248 	0.159421 	0.011401 	-3.12706 	90.0114 	154.139 	-0.597168 	268.954 	360.654 	284.868 	539.727 	
66.1152 	-0.00385174 	-0.501283 	0.779248 	0.159421 	0.011401 	-3.12706 	90.0114 	154.139 	-0.597168 	268.954 	360.654 	284.868 	539.727 	
66.1252 	-0.00385174 	-0.501283 	0.779248 	0.159421 	0.011401 	-3.12706 	90.0114 	154.139 	-0.597168 	268.954 	360.654 	284.868 	539.727 	
66.1352 	-0.00385174 	-0.501283 	0.779248 	0.159421 	0.011401 	-3.12706 	90.0114 	154.139 	-0.597168 	268.954 	360.654 	284.868 	539.727 	
66.1452 	-0.00385174 	-0.501283 	0.779248 	0.159421 	0.011401 	-3.12706 	90.0114 	154.139 	-0.597168 	268.954 	360.654 	284.868 	539.727 	
66.1552 	-0.00385174 	-0.501283 	0.779248 	0.159421 	0.011401 	-3.12706 	90.0114 	154.139 	-0.597168 	268.954 	360.654 	284.868 	539.727 	
66.1652 	-0.00385174 	-0.501283 	0.779248 	0.159421 	0.011401 	-3.12706 	90.0114 	154.139 	-0.597168 	268.954 	360.654 	284.868 	539.727 	
66.1752 	-0.00385174 	-0.501283 	0.779248 	0.159421 	0.011401 	-3.12706 	90.0114 	154.139 	-0.597168 	268.954 	360.654 	284.868 	539.727 	
66.1852 	-0.00385174 	-0.501283 	0.779248 	0.159421 	0.011401 	-3.12706 	90.0114 	154.139 	-0.597168 	268.954 	360.654 	284.868 	539.727 	
66.1952 	-0.00385174 	-0.501283 	0.779248 	0.159421 	0.011401 	-3.12706 	90.0114 	154.139 	-0.597168 	268.954 	360.654 	284.868 	539.727 	
66.2052 	-0.00385174 	-0.501283 	0.779248 	0.159421 	0.011401 	-3.12706 	90.0114 	154.139 	-0.597168 	268.954 	360.654 	284.868 	539.727 	
66.2152 	-0.00385174 	-0.501283 	0.779248 	0.159421 	0.011401 	-3.12706 	90.0114 	154.139 	-0.597168 	268.954 	360.654 	284.868 	539.727 	
66.2252 	-0.00385174 	-0.501283 	0.779248 	0.159421 	0.011401 	-3.12706 	90.0114 	154.139 	-0.597168 	268.954 	360.654 	284.868 	539.727 	
66.2352 	-0.00385174 	-0.501283 	0.779248 	0.159421 	0.011401 	-3.12706 	90.0114 	154.139 	-0.597168 	268.954 	360.654 	284.868 	539.727 	
66.2452 	-0.00385174 	-0.501283 	0.779248 	0.159421 	0.011401 	-3.12706 	90.0114 	154.139 	-0.597168 	268.954 	360.654 	284.868 	539.727 	
66.2552 	-0.00385174 	-0.501283 	0.779248 	0.159421 	0.011401 	-3.12706 	90.0114 	154.139 	-0.597168 	268.954 	360.654 	284.868 	539.727 	
66.2652 	-0.00385174 	-0.501283 	0.779248 	0.159421 	0.011401 	-3.12706 	90.0114 	154.139 	-0.597168 	268.954 	360.654 	284.868 	539.727 	
66.2752 	-0.00385174 	-0.501283 	0.779248 	0.159421 	0.011401 	-3.12706 	90.0114 	154.139 	-0.597168 	268.954 	360.654 	284.868 	539.727 	
66.2852 	-0.00385174 	-0.501283 	0.779248 	0.159421 	0.011401 	-3.12706 	90.0114 	154.139 	-0.597168 	268.954 	360.654 	284.868 	539.727 	
66.2952 	-0.00385174 	-0.501283 	0.779248 	0.159421 	0.011401 	-3.12706 	90.0114 	154.139 	-0.597168 	268.954 	360.654 	284.868 	539.727 	
66.3052 	-0.00385174 	-0.501283 	0.779248 	0.159421 	0.011401 	-3.12706 	90.0114 	154.139 	-0.597168 	268.954 	360.654 	284.868 	539.727 	
66.3152 	-0.00385174 	-0.501283 	0.779248 	0.159421 	0.011401 	-3.12706 	90.0114 	154.139 	-0.597168 	268.954 	360.654 	284.868 	539.727 	
66.3252 	-0.00385174 	-0.501283 	0.779248 	0.159421 	0.011401 	-3.12706 	90.0114 	154.139 	-0.597168 	268.954 	360.654 	284.868 	539.727 	
66.3352 	-0.00385174 	-0.501283 	0.779248 	0.159421 	0.011401 	-3.12706 	90.0114 	154.139 	-0.597168 	268.954 	360.654 	284.868 	539.727 	
66.3452 	-0.00385174 	-0.501283 	0.779248 	0.159421 	0.011401 	-3.12706 	90.0114 	154.139 	-0.597168 	268.954 	360.654 	284.868 	539.727 	
66.3552 	-0.00385174 	-0.501283 	0.779248 	0.159421 	0.011401 	-3.12706 	90.0114 	154.139 	-0.597168 	268.954 	360.654 	284.868 	539.727 	
66.3652 	-0.00385174 	-0.501283 	0.779248 	0.159421 	0.011401 	-3.12706 	90.0114 	154.139 	-0.597168 	268.954 	360.654 	284.868 	539.727 	
66.3752 	-0.00385174 	-0.501283 	0.779248 	0.159421 	0.011401 	-3.12706 	90.0114 	154.139 	-0.597168 	268.954 	360.654 	284.868 	539.727 	
66.3852 	-0.00385174 	-0.501283 	0.779248 	0.159421 	0.011401 	-3.12706 	90.0114 	154.139 	-0.597168 	268.954 	360.654 	284.868 	539.727 	
66.3952 	-0.00385174 	-0.501283 	0.779248 	0.159421 	0.011401 	-3.12706 	90.0114 	154.139 	-0.597168 	268.954 	360.654 	284.868 	539.727 	
66.4052 	-0.00385174 	-0.501283 	0.779248 	0.159421 	0.011401 	-3.12706 	90.0114 	154.139 	-0.597168 	268.954 	360.654 	284.868 	539.727 	
66.4152 	-0.00385174 	-0.501283 	0.779248 	0.159421 	0.011401 	-3.12706 	90.0114 	154.139 	-0.597168 	268.954 	360.654 	284.868 	539.727 	
66.4252 	-0.00385174 	-0.501283 	0.779248 	0.159421 	0.011401 	-3.12706 	90.0114 	154.139 	-0.597168 	268.954 	360.654 	284.868 	539.727 	
66.4352 	-0.00385174 	-0.501283 	0.779248 	0.159421 	0.011401 	-3.12706 	90.0114 	154.139 	-0.597168 	268.954 	360.654 	284.868 	539.727 	
66.4452 	-0.00385174 	-0.501283 	0.779248 	0.159421 	0.011401 	-3.12706 	90.0114 	154.139 	-0.597168 	268.954 	360.654 	284.868 	539.727 	
66.4552 	-0.00385174 	-0.501283 	0.779248 	0.159421 	0.011401 	-3.12706 	90.0114 	154.139 	-0.597168 	268.954 	360.654 	284.868 	539.727 	
66.4652 	-0.00385174 	-0.501283 	0.779248 	0.159421 	0.011401 	-3.12706 	90.0114 	154.139 	-0.597168 	268.954 	360.654 	284.868 	539.727 	
66.4752 	-0.00385174 	-0.501283 	0.779248 	0.159421 	0.011401 	-3.12706 	90.0114 	154.139 	-0.597168 	268.954 	360.654 	284.868 	539.727 	
66.4852 	-0.00385174 	-0.501283 	0.779248 	0.159421 	0.011401 	-3.12706 	90.0114 	154.139 	-0.597168 	268.954 	360.654 	284.868 	539.727 	
66.4952 	-0.00385174 	-0.501283 	0.779248 	0.159421 	0.011401 	-3.12706 	90.0114 	154.139 	-0.597168 	268.954 	360.654 	284.868 	539.727 	
66.5052 	-0.00385174 	-0.501283 	0.779248 	0.159421 	0.011401 	-3.12706 	90.0114 	154.139 	-0.597168 	268.954 	360.654 	284.868 	539.727 	
66.5152 	-0.00385174 	-0.501283 	0.779248 	0.159421 	0.011401 	-3.12706 	90.0114 	154.139 	-0.597168 	268.954 	360.654 	284.868 	539.727 	
66.5252 	-0.00385174 	-0.501283 	0.779248 	0.159421 	0.011401 	-3.12706 	90.0114 	154.139 	-0.597168 	268.954 	360.654 	284.868 	539.727 	
66.5352 	-0.00385174 	-0.501283 	0.779248 	0.159421 	0.011401 	-3.12706 	90.0114 	154.139 	-0.597168 	268.954 	360.654 	284.868 	539.727 	
66.5452 	-0.00385174 	-0.501283 	0.779248 	0.159421 	0.011401 	-3.12706 	90.0114 	154.139 	-0.597168 	268.954 	360.654 	284.868 	539.727 	
66.5552 	-0.00385174 	-0.501283 	0.779248 	0.159421 	0.011401 	-3.12706 	90.0114 	154.139 	-0.597168 	268.954 	360.654 	284.868 	539.727 	
66.5652 	-0.00385174 	-0.501283 	0.779248 	0.159421 	0.011401 	-3.12706 	90.0114 	154.139 	-0.597168 	268.954 	360.654 	284.868 	539.727 	
66.5752 	-0.00385174 	-0.501283 	0.779248 	0.159421 	0.011401 	-3.12706 	90.0114 	154.139 	-0.597168 	268.954 	360.654 	284.868 	539.727 	
66.5852 	-0.00385174 	-0.501283 	0.779248 	0.159421 	0.011401 	-3.12706 	90.0114 	154.139 	-0.597168 	268.954 	360.654 	284.868 	539.727 	
66.5952 	-0.00385174 	-0.501283 	0.779248 	0.159421 	0.011401 	-3.12706 	90.0114 	154.139 	-0.597168 	268.954 	360.654 	284.868 	539.727 	
66.6052 	-0.00385174 	-0.501283 	0.779248 	0.159421 	0.011401 	-3.12706 	90.0114 	154.139 	-0.597168 	268.954 	360.654 	284.868 	539.727 	
66.6152 	-0.00385174 	-0.501283 	0.779248 	0.159421 	0.011401 	-3.12706 	90.0114 	154.139 	-0.597168 	268.954 	360.654 	284.868 	539.727 	
66.6252 	-0.00385174 	-0.501283 	0.779248 	0.159421 	0.011401 	-3.12706 	90.0114 	154.139 	-0.597168 	268.954 	360.654 	284.868 	539.727 	
66.6352 	-0.00385174 	-0.501283 	0.779248 	0.159421 	0.011401 	-3.12706 	90.0114 	154.139 	-0.597168 	268.954 	360.654 	284.868 	539.727 	
66.6452 	-0.00385174 	-0.501283 	0.779248 	0.159421 	0.011401 	-3.12706 	90.0114 	154.139 	-0.597168 	268.954 	360.654 	284.868 	539.727 	
66.6552 	-0.00385174 	-0.501283 	0.779248 	0.159421 	0.011401 	-3.12706 	90.0114 	154.139 	-0.597168 	268.954 	360.654 	284.868 	539.727 	
66.6572 	-0.00385174 	-0.501283 	0.779248 	0.159421 	0.011401 	-3.12706 	90.0114 	154.139 	-0.597168 	268.954 	360.654 	284.868 	539.727 	
66.6673 	-0.00385174 	-0.501283 	0.779248 	0.159421 	0.011401 	-3.12706 	90.0114 	154.139 	-0.597168 	268.954 	360.654 	284.868 	539.727 	
66.6773 	-0.00385174 	-0.501283 	0.779248 	0.159421 	0.011401 	-3.12706 	90.0114 	154.139 	-0.597168 	268.954 	360.654 	284.868 	539.727 	
66.6873 	-0.00385174 	-0.501283 	0.779248 	0.159421 	0.011401 	-3.12706 	90.0114 	154.139 	-0.597168 	268.954 	360.654 	284.868 	539.727 	
66.6973 	-0.00385174 	-0.501283 	0.779248 	0.159421 	0.011401 	-3.12706 	90.0114 	154.139 	-0.597168 	268.954 	360.654 	284.868 	539.727 	
66.7073 	-0.00385174 	-0.501283 	0.779248 	0.159421 	0.011401 	-3.12706 	90.0114 	154.139 	-0.597168 	268.954 	360.654 	284.868 	539.727 	
66.7173 	-0.00385174 	-0.501283 	0.779248 	0.159421 	0.011401 	-3.12706 	90.0114 	154.139 	-0.597168 	268.954 	360.654 	284.868 	539.727 	
66.7273 	-0.00385174 	-0.501283 	0.779248 	0.159421 	0.011401 	-3.12706 	90.0114 	154.139 	-0.597168 	268.954 	360.654 	284.868 	539.727 	
66.7373 	-0.00385174 	-0.501283 	0.779248 	0.159421 	0.011401 	-3.12706 	90.0114 	154.139 	-0.597168 	268.954 	360.654 	284.868 	539.727 	
66.7473 	-0.00385174 	-0.501283 	0.779248 	0.159421 	0.011401 	-3.12706 	90.0114 	154.139 	-0.597168 	268.954 	360.654 	284.868 	539.727 	
66.7573 	-0.00385174 	-0.501283 	0.779248 	0.159421 	0.011401 	-3.12706 	90.0114 	154.139 	-0.597168 	268.954 	360.654 	284.868 	539.727 	
66.7673 	-0.00385174 	-0.501283 	0.779248 	0.159421 	0.011401 	-3.12706 	90.0114 	154.139 	-0.597168 	268.954 	360.654 	284.868 	539.727 	
66.7773 	-0.00385174 	-0.501283 	0.779248 	0.159421 	0.011401 	-3.12706 	90.0114 	154.139 	-0.597168 	268.954 	360.654 	284.868 	539.727 	
66.7873 	-0.00385174 	-0.501283 	0.779248 	0.159421 	0.011401 	-3.12706 	90.0114 	154.139 	-0.597168 	268.954 	360.654 	284.868 	539.727 	
66.7973 	-0.00385174 	-0.501283 	0.779248 	0.159421 	0.011401 	-3.12706 	90.0114 	154.139 	-0.597168 	268.954 	360.654 	284.868 	539.727 	
66.8073 	-0.00385174 	-0.501283 	0.779248 	0.159421 	0.011401 	-3.12706 	90.0114 	154.139 	-0.597168 	268.954 	360.654 	284.868 	539.727 	
66.8173 	-0.00385174 	-0.501283 	0.779248 	0.159421 	0.011401 	-3.12706 	90.0114 	154.139 	-0.597168 	268.954 	360.654 	284.868 	539.727 	
66.8273 	-0.00385174 	-0.501283 	0.779248 	0.159421 	0.011401 	-3.12706 	90.0114 	154.139 	-0.597168 	268.954 	360.654 	284.868 	539.727 	
66.8373 	-0.00385174 	-0.501283 	0.779248 	0.159421 	0.011401 	-3.12706 	90.0114 	154.139 	-0.597168 	268.954 	360.654 	284.868 	539.727 	
66.8473 	-0.00385174 	-0.501283 	0.779248 	0.159421 	0.011401 	-3.12706 	90.0114 	154.139 	-0.597168 	268.954 	360.654 	284.868 	539.727 	
66.8491 	-0.00385174 	-0.501283 	0.779248 	0.159421 	0.011401 	-3.12706 	90.0114 	154.139 	-0.597168 	268.954 	360.654 	284.868 	539.727 	
66.8592 	-0.00385174 	-0.501283 	0.779248 	0.159421 	0.011401 	-3.12706 	90.0114 	154.139 	-0.597168 	268.954 	360.654 	284.868 	539.727 	
66.8692 	-0.00385174 	-0.501283 	0.779248 	0.159421 	0.011401 	-3.12706 	90.0114 	154.139 	-0.597168 	268.954 	360.654 	284.868 	539.727 	
66.8792 	-0.00385174 	-0.501283 	0.779248 	0.159421 	0.011401 	-3.12706 	90.0114 	154.139 	-0.597168 	268.954 	360.654 	284.868 	539.727 	
66.8892 	-0.00385174 	-0.501283 	0.779248 	0.159421 	0.011401 	-3.12706 	90.0114 	154.139 	-0.597168 	268.954 	360.654 	284.868 	539.727 	
66.8992 	-0.00385174 	-0.501283 	0.779248 	0.159421 	0.011401 	-3.12706 	90.0114 	154.139 	-0.597168 	268.954 	360.654 	284.868 	539.727 	
66.9092 	-0.00385174 	-0.501283 	0.779248 	0.159421 	0.011401 	-3.12706 	90.0114 	154.139 	-0.597168 	268.954 	360.654 	284.868 	539.727 	
66.9192 	-0.00385174 	-0.501283 	0.779248 	0.159421 	0.011401 	-3.12706 	90.0114 	154.139 	-0.597168 	268.954 	360.654 	284.868 	539.727 	
66.9292 	-0.00385174 	-0.501283 	0.779248 	0.159421 	0.011401 	-3.12706 	90.0114 	154.139 	-0.597168 	268.954 	360.654 	284.868 	539.727 	
66.9392 	-0.00385174 	-0.501283 	0.779248 	0.159421 	0.011401 	-3.12706 	90.0114 	154.139 	-0.597168 	268.954 	360.654 	284.868 	539.727 	
66.9492 	-0.00385174 	-0.501283 	0.779248 	0.159421 	0.011401 	-3.12706 	90.0114 	154.139 	-0.597168 	268.954 	360.654 	284.868 	539.727 	
66.9592 	-0.00385174 	-0.501283 	0.779248 	0.159421 	0.011401 	-3.12706 	90.0114 	154.139 	-0.597168 	268.954 	360.654 	284.868 	539.727 	
66.9692 	-0.00385174 	-0.501283 	0.779248 	0.159421 	0.011401 	-3.12706 	90.0114 	154.139 	-0.597168 	268.954 	360.654 	284.868 	539.727 	
66.9792 	-0.00385174 	-0.501283 	0.779248 	0.159421 	0.011401 	-3.12706 	90.0114 	154.139 	-0.597168 	268.954 	360.654 	284.868 	539.727 	
66.9852 	-0.00385174 	-0.501283 	0.779248 	0.159421 	0.011401 	-3.12706 	90.0114 	154.139 	-0.597168 	268.954 	360.654 	284.868 	539.727 	
66.9952 	-0.00385174 	-0.501283 	0.779248 	0.159421 	0.011401 	-3.12706 	90.0114 	154.139 	-0.597168 	268.954 	360.654 	284.868 	539.727 	
67.0053 	-0.00385174 	-0.501283 	0.779248 	0.159421 	0.011401 	-3.12706 	90.0114 	154.139 	-0.597168 	268.954 	360.654 	284.868 	539.727 	
67.0152 	-0.00385174 	-0.501283 	0.779248 	0.159421 	0.011401 	-3.12706 	90.0114 	154.139 	-0.597168 	268.954 	360.654 	284.868 	539.727 	
67.0252 	-0.00385174 	-0.501283 	0.779248 	0.159421 	0.011401 	-3.12706 	90.0114 	154.139 	-0.597168 	268.954 	360.654 	284.868 	539.727 	
67.0352 	-0.00385174 	-0.501283 	0.779248 	0.159421 	0.011401 	-3.12706 	90.0114 	154.139 	-0.597168 	268.954 	360.654 	284.868 	539.727 	
67.0452 	-0.00385174 	-0.501283 	0.779248 	0.159421 	0.011401 	-3.12706 	90.0114 	154.139 	-0.597168 	268.954 	360.654 	284.868 	539.727 	
67.0552 	-0.00385174 	-0.501283 	0.779248 	0.159421 	0.011401 	-3.12706 	90.0114 	154.139 	-0.597168 	268.954 	360.654 	284.868 	539.727 	
67.0653 	-0.00385174 	-0.501283 	0.779248 	0.159421 	0.011401 	-3.12706 	90.0114 	154.139 	-0.597168 	268.954 	360.654 	284.868 	539.727 	
67.0752 	-0.00385174 	-0.501283 	0.779248 	0.159421 	0.011401 	-3.12706 	90.0114 	154.139 	-0.597168 	268.954 	360.654 	284.868 	539.727 	
67.0852 	-0.00385174 	-0.501283 	0.779248 	0.159421 	0.011401 	-3.12706 	90.0114 	154.139 	-0.597168 	268.954 	360.654 	284.868 	539.727 	
67.0952 	-0.00385174 	-0.501283 	0.779248 	0.159421 	0.011401 	-3.12706 	90.0114 	154.139 	-0.597168 	268.954 	360.654 	284.868 	539.727 	
67.1053 	-0.00385174 	-0.501283 	0.779248 	0.159421 	0.011401 	-3.12706 	90.0114 	154.139 	-0.597168 	268.954 	360.654 	284.868 	539.727 	
67.1152 	-0.00385174 	-0.501283 	0.779248 	0.159421 	0.011401 	-3.12706 	90.0114 	154.139 	-0.597168 	268.954 	360.654 	284.868 	539.727 	
67.1252 	-0.00385174 	-0.501283 	0.779248 	0.159421 	0.011401 	-3.12706 	90.0114 	154.139 	-0.597168 	268.954 	360.654 	284.868 	539.727 	
67.1352 	-0.00385174 	-0.501283 	0.779248 	0.159421 	0.011401 	-3.12706 	90.0114 	154.139 	-0.597168 	268.954 	360.654 	284.868 	539.727 	
67.1452 	-0.00385174 	-0.501283 	0.779248 	0.159421 	0.011401 	-3.12706 	90.0114 	154.139 	-0.597168 	268.954 	360.654 	284.868 	539.727 	
67.1552 	-0.00385174 	-0.501283 	0.779248 	0.159421 	0.011401 	-3.12706 	90.0114 	154.139 	-0.597168 	268.954 	360.654 	284.868 	539.727 	
67.1653 	-0.00385174 	-0.501283 	0.779248 	0.159421 	0.011401 	-3.12706 	90.0114 	154.139 	-0.597168 	268.954 	360.654 	284.868 	539.727 	
67.1752 	-0.00385174 	-0.501283 	0.779248 	0.159421 	0.011401 	-3.12706 	90.0114 	154.139 	-0.597168 	268.954 	360.654 	284.868 	539.727 	
67.1852 	-0.00385174 	-0.501283 	0.779248 	0.159421 	0.011401 	-3.12706 	90.0114 	154.139 	-0.597168 	268.954 	360.654 	284.868 	539.727 	
67.1952 	-0.00385174 	-0.501283 	0.779248 	0.159421 	0.011401 	-3.12706 	90.0114 	154.139 	-0.597168 	268.954 	360.654 	284.868 	539.727 	
67.2052 	-0.00385174 	-0.501283 	0.779248 	0.159421 	0.011401 	-3.12706 	90.0114 	154.139 	-0.597168 	268.954 	360.654 	284.868 	539.727 	
67.2153 	-0.00385174 	-0.501283 	0.779248 	0.159421 	0.011401 	-3.12706 	90.0114 	154.139 	-0.597168 	268.954 	360.654 	284.868 	539.727 	
67.2252 	-0.00385174 	-0.501283 	0.779248 	0.159421 	0.011401 	-3.12706 	90.0114 	154.139 	-0.597168 	268.954 	360.654 	284.868 	539.727 	
67.2352 	-0.00385174 	-0.501283 	0.779248 	0.159421 	0.011401 	-3.12706 	90.0114 	154.139 	-0.597168 	268.954 	360.654 	284.868 	539.727 	
67.2452 	-0.00385174 	-0.501283 	0.779248 	0.159421 	0.011401 	-3.12706 	90.0114 	154.139 	-0.597168 	268.954 	360.654 	284.868 	539.727 	
67.2553 	-0.00385174 	-0.501283 	0.779248 	0.159421 	0.011401 	-3.12706 	90.0114 	154.139 	-0.597168 	268.954 	360.654 	284.868 	539.727 	
67.2652 	-0.00385174 	-0.501283 	0.779248 	0.159421 	0.011401 	-3.12706 	90.0114 	154.139 	-0.597168 	268.954 	360.654 	284.868 	539.727 	
67.2752 	-0.00385174 	-0.501283 	0.779248 	0.159421 	0.011401 	-3.12706 	90.0114 	154.139 	-0.597168 	268.954 	360.654 	284.868 	539.727 	
67.2853 	-0.00385174 	-0.501283 	0.779248 	0.159421 	0.011401 	-3.12706 	90.0114 	154.139 	-0.597168 	268.954 	360.654 	284.868 	539.727 	
67.2952 	-0.00385174 	-0.501283 	0.779248 	0.159421 	0.011401 	-3.12706 	90.0114 	154.139 	-0.597168 	268.954 	360.654 	284.868 	539.727 	
67.3053 	-0.00385174 	-0.501283 	0.779248 	0.159421 	0.011401 	-3.12706 	90.0114 	154.139 	-0.597168 	268.954 	360.654 	284.868 	539.727 	
67.3153 	-0.00385174 	-0.501283 	0.779248 	0.159421 	0.011401 	-3.12706 	90.0114 	154.139 	-0.597168 	268.954 	360.654 	284.868 	539.727 	
67.3252 	-0.00385174 	-0.501283 	0.779248 	0.159421 	0.011401 	-3.12706 	90.0114 	154.139 	-0.597168 	268.954 	360.654 	284.868 	539.727 	
67.3352 	-0.00385174 	-0.501283 	0.779248 	0.159421 	0.011401 	-3.12706 	90.0114 	154.139 	-0.597168 	268.954 	360.654 	284.868 	539.727 	
67.3452 	-0.00385174 	-0.501283 	0.779248 	0.159421 	0.011401 	-3.12706 	90.0114 	154.139 	-0.597168 	268.954 	360.654 	284.868 	539.727 	
67.3552 	-0.00385174 	-0.501283 	0.779248 	0.159421 	0.011401 	-3.12706 	90.0114 	154.139 	-0.597168 	268.954 	360.654 	284.868 	539.727 	
67.3652 	-0.00385174 	-0.501283 	0.779248 	0.159421 	0.011401 	-3.12706 	90.0114 	154.139 	-0.597168 	268.954 	360.654 	284.868 	539.727 	
67.3752 	-0.00385174 	-0.501283 	0.779248 	0.159421 	0.011401 	-3.12706 	90.0114 	154.139 	-0.597168 	268.954 	360.654 	284.868 	539.727 	
67.3853 	-0.00385174 	-0.501283 	0.779248 	0.159421 	0.011401 	-3.12706 	90.0114 	154.139 	-0.597168 	268.954 	360.654 	284.868 	539.727 	
67.3952 	-0.00385174 	-0.501283 	0.779248 	0.159421 	0.011401 	-3.12706 	90.0114 	154.139 	-0.597168 	268.954 	360.654 	284.868 	539.727 	
67.4053 	-0.00385174 	-0.501283 	0.779248 	0.159421 	0.011401 	-3.12706 	90.0114 	154.139 	-0.597168 	268.954 	360.654 	284.868 	539.727 	
67.4152 	-0.00385174 	-0.501283 	0.779248 	0.159421 	0.011401 	-3.12706 	90.0114 	154.139 	-0.597168 	268.954 	360.654 	284.868 	539.727 	
67.4252 	-0.00385174 	-0.501283 	0.779248 	0.159421 	0.011401 	-3.12706 	90.0114 	154.139 	-0.597168 	268.954 	360.654 	284.868 	539.727 	
67.4352 	-0.00385174 	-0.501283 	0.779248 	0.159421 	0.011401 	-3.12706 	90.0114 	154.139 	-0.597168 	268.954 	360.654 	284.868 	539.727 	
67.4452 	-0.00385174 	-0.501283 	0.779248 	0.159421 	0.011401 	-3.12706 	90.0114 	154.139 	-0.597168 	268.954 	360.654 	284.868 	539.727 	
67.4552 	-0.00385174 	-0.501283 	0.779248 	0.159421 	0.011401 	-3.12706 	90.0114 	154.139 	-0.597168 	268.954 	360.654 	284.868 	539.727 	
67.4652 	-0.00385174 	-0.501283 	0.779248 	0.159421 	0.011401 	-3.12706 	90.0114 	154.139 	-0.597168 	268.954 	360.654 	284.868 	539.727 	
67.4752 	-0.00385174 	-0.501283 	0.779248 	0.159421 	0.011401 	-3.12706 	90.0114 	154.139 	-0.597168 	268.954 	360.654 	284.868 	539.727 	
67.4853 	-0.00385174 	-0.501283 	0.779248 	0.159421 	0.011401 	-3.12706 	90.0114 	154.139 	-0.597168 	268.954 	360.654 	284.868 	539.727 	
67.4952 	-0.00385174 	-0.501283 	0.779248 	0.159421 	0.011401 	-3.12706 	90.0114 	154.139 	-0.597168 	268.954 	360.654 	284.868 	539.727 	
67.5053 	-0.00385174 	-0.501283 	0.779248 	0.159421 	0.011401 	-3.12706 	90.0114 	154.139 	-0.597168 	268.954 	360.654 	284.868 	539.727 	
67.5153 	-0.00385174 	-0.501283 	0.779248 	0.159421 	0.011401 	-3.12706 	90.0114 	154.139 	-0.597168 	268.954 	360.654 	284.868 	539.727 	
67.5252 	-0.00385174 	-0.501283 	0.779248 	0.159421 	0.011401 	-3.12706 	90.0114 	154.139 	-0.597168 	268.954 	360.654 	284.868 	539.727 	
67.5352 	-0.00385174 	-0.501283 	0.779248 	0.159421 	0.011401 	-3.12706 	90.0114 	154.139 	-0.597168 	268.954 	360.654 	284.868 	539.727 	
67.5453 	-0.00385174 	-0.501283 	0.779248 	0.159421 	0.011401 	-3.12706 	90.0114 	154.139 	-0.597168 	268.954 	360.654 	284.868 	539.727 	
67.5552 	-0.00385174 	-0.501283 	0.779248 	0.159421 	0.011401 	-3.12706 	90.0114 	154.139 	-0.597168 	268.954 	360.654 	284.868 	539.727 	
67.5652 	-0.00385174 	-0.501283 	0.779248 	0.159421 	0.011401 	-3.12706 	90.0114 	154.139 	-0.597168 	268.954 	360.654 	284.868 	539.727 	
67.5752 	-0.00385174 	-0.501283 	0.779248 	0.159421 	0.011401 	-3.12706 	90.0114 	154.139 	-0.597168 	268.954 	360.654 	284.868 	539.727 	
67.5852 	-0.00385174 	-0.501283 	0.779248 	0.159421 	0.011401 	-3.12706 	90.0114 	154.139 	-0.597168 	268.954 	360.654 	284.868 	539.727 	
67.5952 	-0.00385174 	-0.501283 	0.779248 	0.159421 	0.011401 	-3.12706 	90.0114 	154.139 	-0.597168 	268.954 	360.654 	284.868 	539.727 	
67.6052 	-0.00385174 	-0.501283 	0.779248 	0.159421 	0.011401 	-3.12706 	90.0114 	154.139 	-0.597168 	268.954 	360.654 	284.868 	539.727 	
67.6152 	-0.00385174 	-0.501283 	0.779248 	0.159421 	0.011401 	-3.12706 	90.0114 	154.139 	-0.597168 	268.954 	360.654 	284.868 	539.727 	
67.6252 	-0.00385174 	-0.501283 	0.779248 	0.159421 	0.011401 	-3.12706 	90.0114 	154.139 	-0.597168 	268.954 	360.654 	284.868 	539.727 	
67.6352 	-0.00385174 	-0.501283 	0.779248 	0.159421 	0.011401 	-3.12706 	90.0114 	154.139 	-0.597168 	268.954 	360.654 	284.868 	539.727 	
67.6453 	-0.00385174 	-0.501283 	0.779248 	0.159421 	0.011401 	-3.12706 	90.0114 	154.139 	-0.597168 	268.954 	360.654 	284.868 	539.727 	
67.6552 	-0.00385174 	-0.501283 	0.779248 	0.159421 	0.011401 	-3.12706 	90.0114 	154.139 	-0.597168 	268.954 	360.654 	284.868 	539.727 	
67.6653 	-0.00385174 	-0.501283 	0.779248 	0.159421 	0.011401 	-3.12706 	90.0114 	154.139 	-0.597168 	268.954 	360.654 	284.868 	539.727 	
67.6752 	-0.00385174 	-0.501283 	0.779248 	0.159421 	0.011401 	-3.12706 	90.0114 	154.139 	-0.597168 	268.954 	360.654 	284.868 	539.727 	
67.6852 	-0.00385174 	-0.501283 	0.779248 	0.159421 	0.011401 	-3.12706 	90.0114 	154.139 	-0.597168 	268.954 	360.654 	284.868 	539.727 	
67.6952 	-0.00385174 	-0.501283 	0.779248 	0.159421 	0.011401 	-3.12706 	90.0114 	154.139 	-0.597168 	268.954 	360.654 	284.868 	539.727 	
67.7053 	-0.00385174 	-0.501283 	0.779248 	0.159421 	0.011401 	-3.12706 	90.0114 	154.139 	-0.597168 	268.954 	360.654 	284.868 	539.727 	
67.7152 	-0.00385174 	-0.501283 	0.779248 	0.159421 	0.011401 	-3.12706 	90.0114 	154.139 	-0.597168 	268.954 	360.654 	284.868 	539.727 	
67.7253 	-0.00385174 	-0.501283 	0.779248 	0.159421 	0.011401 	-3.12706 	90.0114 	154.139 	-0.597168 	268.954 	360.654 	284.868 	539.727 	
67.7353 	-0.00385174 	-0.501283 	0.779248 	0.159421 	0.011401 	-3.12706 	90.0114 	154.139 	-0.597168 	268.954 	360.654 	284.868 	539.727 	
67.7452 	-0.00385174 	-0.501283 	0.779248 	0.159421 	0.011401 	-3.12706 	90.0114 	154.139 	-0.597168 	268.954 	360.654 	284.868 	539.727 	
67.7552 	-0.00385174 	-0.501283 	0.779248 	0.159421 	0.011401 	-3.12706 	90.0114 	154.139 	-0.597168 	268.954 	360.654 	284.868 	539.727 	
67.7652 	-0.00385174 	-0.501283 	0.779248 	0.159421 	0.011401 	-3.12706 	90.0114 	154.139 	-0.597168 	268.954 	360.654 	284.868 	539.727 	
67.7752 	-0.00385174 	-0.501283 	0.779248 	0.159421 	0.011401 	-3.12706 	90.0114 	154.139 	-0.597168 	268.954 	360.654 	284.868 	539.727 	
67.7852 	-0.00385174 	-0.501283 	0.779248 	0.159421 	0.011401 	-3.12706 	90.0114 	154.139 	-0.597168 	268.954 	360.654 	284.868 	539.727 	
67.7953 	-0.00385174 	-0.501283 	0.779248 	0.159421 	0.011401 	-3.12706 	90.0114 	154.139 	-0.597168 	268.954 	360.654 	284.868 	539.727 	
67.8053 	-0.00385174 	-0.501283 	0.779248 	0.159421 	0.011401 	-3.12706 	90.0114 	154.139 	-0.597168 	268.954 	360.654 	284.868 	539.727 	
67.8152 	-0.00385174 	-0.501283 	0.779248 	0.159421 	0.011401 	-3.12706 	90.0114 	154.139 	-0.597168 	268.954 	360.654 	284.868 	539.727 	
67.8252 	-0.00385174 	-0.501283 	0.779248 	0.159421 	0.011401 	-3.12706 	90.0114 	154.139 	-0.597168 	268.954 	360.654 	284.868 	539.727 	
67.8352 	-0.00385174 	-0.501283 	0.779248 	0.159421 	0.011401 	-3.12706 	90.0114 	154.139 	-0.597168 	268.954 	360.654 	284.868 	539.727 	
67.8452 	-0.00385174 	-0.501283 	0.779248 	0.159421 	0.011401 	-3.12706 	90.0114 	154.139 	-0.597168 	268.954 	360.654 	284.868 	539.727 	
67.8553 	-0.00385174 	-0.501283 	0.779248 	0.159421 	0.011401 	-3.12706 	90.0114 	154.139 	-0.597168 	268.954 	360.654 	284.868 	539.727 	
67.8652 	-0.00385174 	-0.501283 	0.779248 	0.159421 	0.011401 	-3.12706 	90.0114 	154.139 	-0.597168 	268.954 	360.654 	284.868 	539.727 	
67.8752 	-0.00385174 	-0.501283 	0.779248 	0.159421 	0.011401 	-3.12706 	90.0114 	154.139 	-0.597168 	268.954 	360.654 	284.868 	539.727 	
67.8852 	-0.00385174 	-0.501283 	0.779248 	0.159421 	0.011401 	-3.12706 	90.0114 	154.139 	-0.597168 	268.954 	360.654 	284.868 	539.727 	
67.8952 	-0.00385174 	-0.501283 	0.779248 	0.159421 	0.011401 	-3.12706 	90.0114 	154.139 	-0.597168 	268.954 	360.654 	284.868 	539.727 	
67.9052 	-0.00385174 	-0.501283 	0.779248 	0.159421 	0.011401 	-3.12706 	90.0114 	154.139 	-0.597168 	268.954 	360.654 	284.868 	539.727 	
67.9152 	-0.00385174 	-0.501283 	0.779248 	0.159421 	0.011401 	-3.12706 	90.0114 	154.139 	-0.597168 	268.954 	360.654 	284.868 	539.727 	
67.9252 	-0.00385174 	-0.501283 	0.779248 	0.159421 	0.011401 	-3.12706 	90.0114 	154.139 	-0.597168 	268.954 	360.654 	284.868 	539.727 	
67.9352 	-0.00385174 	-0.501283 	0.779248 	0.159421 	0.011401 	-3.12706 	90.0114 	154.139 	-0.597168 	268.954 	360.654 	284.868 	539.727 	
67.9452 	-0.00385174 	-0.501283 	0.779248 	0.159421 	0.011401 	-3.12706 	90.0114 	154.139 	-0.597168 	268.954 	360.654 	284.868 	539.727 	
67.9552 	-0.00385174 	-0.501283 	0.779248 	0.159421 	0.011401 	-3.12706 	90.0114 	154.139 	-0.597168 	268.954 	360.654 	284.868 	539.727 	
67.9652 	-0.00385174 	-0.501283 	0.779248 	0.159421 	0.011401 	-3.12706 	90.0114 	154.139 	-0.597168 	268.954 	360.654 	284.868 	539.727 	
67.9752 	-0.00385174 	-0.501283 	0.779248 	0.159421 	0.011401 	-3.12706 	90.0114 	154.139 	-0.597168 	268.954 	360.654 	284.868 	539.727 	
67.9852 	-0.00385174 	-0.501283 	0.779248 	0.159421 	0.011401 	-3.12706 	90.0114 	154.139 	-0.597168 	268.954 	360.654 	284.868 	539.727 	
67.9953 	-0.00385174 	-0.501283 	0.779248 	0.159421 	0.011401 	-3.12706 	90.0114 	154.139 	-0.597168 	268.954 	360.654 	284.868 	539.727 	
68.0053 	-0.00385174 	-0.501283 	0.779248 	0.159421 	0.011401 	-3.12706 	90.0114 	154.139 	-0.597168 	268.954 	360.654 	284.868 	539.727 	
68.0152 	-0.00385174 	-0.501283 	0.779248 	0.159421 	0.011401 	-3.12706 	90.0114 	154.139 	-0.597168 	268.954 	360.654 	284.868 	539.727 	
68.0252 	-0.00385174 	-0.501283 	0.779248 	0.159421 	0.011401 	-3.12706 	90.0114 	154.139 	-0.597168 	268.954 	360.654 	284.868 	539.727 	
68.0353 	-0.00385174 	-0.501283 	0.779248 	0.159421 	0.011401 	-3.12706 	90.0114 	154.139 	-0.597168 	268.954 	360.654 	284.868 	539.727 	
68.0452 	-0.00385174 	-0.501283 	0.779248 	0.159421 	0.011401 	-3.12706 	90.0114 	154.139 	-0.597168 	268.954 	360.654 	284.868 	539.727 	
68.0552 	-0.00385174 	-0.501283 	0.779248 	0.159421 	0.011401 	-3.12706 	90.0114 	154.139 	-0.597168 	268.954 	360.654 	284.868 	539.727 	
68.0652 	-0.00385174 	-0.501283 	0.779248 	0.159421 	0.011401 	-3.12706 	90.0114 	154.139 	-0.597168 	268.954 	360.654 	284.868 	539.727 	
68.0752 	-0.00385174 	-0.501283 	0.779248 	0.159421 	0.011401 	-3.12706 	90.0114 	154.139 	-0.597168 	268.954 	360.654 	284.868 	539.727 	
68.0853 	-0.00385174 	-0.501283 	0.779248 	0.159421 	0.011401 	-3.12706 	90.0114 	154.139 	-0.597168 	268.954 	360.654 	284.868 	539.727 	
68.0953 	-0.00385174 	-0.501283 	0.779248 	0.159421 	0.011401 	-3.12706 	90.0114 	154.139 	-0.597168 	268.954 	360.654 	284.868 	539.727 	
68.1052 	-0.00385174 	-0.501283 	0.779248 	0.159421 	0.011401 	-3.12706 	90.0114 	154.139 	-0.597168 	268.954 	360.654 	284.868 	539.727 	
68.1152 	-0.00385174 	-0.501283 	0.779248 	0.159421 	0.011401 	-3.12706 	90.0114 	154.139 	-0.597168 	268.954 	360.654 	284.868 	539.727 	
68.1252 	-0.00385174 	-0.501283 	0.779248 	0.159421 	0.011401 	-3.12706 	90.0114 	154.139 	-0.597168 	268.954 	360.654 	284.868 	539.727 	
68.1352 	-0.00385174 	-0.501283 	0.779248 	0.159421 	0.011401 	-3.12706 	90.0114 	154.139 	-0.597168 	268.954 	360.654 	284.868 	539.727 	
68.1452 	-0.00385174 	-0.501283 	0.779248 	0.159421 	0.011401 	-3.12706 	90.0114 	154.139 	-0.597168 	268.954 	360.654 	284.868 	539.727 	
68.1553 	-0.00385174 	-0.501283 	0.779248 	0.159421 	0.011401 	-3.12706 	90.0114 	154.139 	-0.597168 	268.954 	360.654 	284.868 	539.727 	
68.1652 	-0.00385174 	-0.501283 	0.779248 	0.159421 	0.011401 	-3.12706 	90.0114 	154.139 	-0.597168 	268.954 	360.654 	284.868 	539.727 	
68.1752 	-0.00385174 	-0.501283 	0.779248 	0.159421 	0.011401 	-3.12706 	90.0114 	154.139 	-0.597168 	268.954 	360.654 	284.868 	539.727 	
68.1852 	-0.00385174 	-0.501283 	0.779248 	0.159421 	0.011401 	-3.12706 	90.0114 	154.139 	-0.597168 	268.954 	360.654 	284.868 	539.727 	
68.1952 	-0.00385174 	-0.501283 	0.779248 	0.159421 	0.011401 	-3.12706 	90.0114 	154.139 	-0.597168 	268.954 	360.654 	284.868 	539.727 	
68.2053 	-0.00385174 	-0.501283 	0.779248 	0.159421 	0.011401 	-3.12706 	90.0114 	154.139 	-0.597168 	268.954 	360.654 	284.868 	539.727 	
68.2152 	-0.00385174 	-0.501283 	0.779248 	0.159421 	0.011401 	-3.12706 	90.0114 	154.139 	-0.597168 	268.954 	360.654 	284.868 	539.727 	
68.2252 	-0.00385174 	-0.501283 	0.779248 	0.159421 	0.011401 	-3.12706 	90.0114 	154.139 	-0.597168 	268.954 	360.654 	284.868 	539.727 	
68.2352 	-0.00385174 	-0.501283 	0.779248 	0.159421 	0.011401 	-3.12706 	90.0114 	154.139 	-0.597168 	268.954 	360.654 	284.868 	539.727 	
68.2452 	-0.00385174 	-0.501283 	0.779248 	0.159421 	0.011401 	-3.12706 	90.0114 	154.139 	-0.597168 	268.954 	360.654 	284.868 	539.727 	
68.2552 	-0.00385174 	-0.501283 	0.779248 	0.159421 	0.011401 	-3.12706 	90.0114 	154.139 	-0.597168 	268.954 	360.654 	284.868 	539.727 	
68.2652 	-0.00385174 	-0.501283 	0.779248 	0.159421 	0.011401 	-3.12706 	90.0114 	154.139 	-0.597168 	268.954 	360.654 	284.868 	539.727 	
68.2752 	-0.00385174 	-0.501283 	0.779248 	0.159421 	0.011401 	-3.12706 	90.0114 	154.139 	-0.597168 	268.954 	360.654 	284.868 	539.727 	
68.2852 	-0.00385174 	-0.501283 	0.779248 	0.159421 	0.011401 	-3.12706 	90.0114 	154.139 	-0.597168 	268.954 	360.654 	284.868 	539.727 	
68.2953 	-0.00385174 	-0.501283 	0.779248 	0.159421 	0.011401 	-3.12706 	90.0114 	154.139 	-0.597168 	268.954 	360.654 	284.868 	539.727 	
68.3052 	-0.00385174 	-0.501283 	0.779248 	0.159421 	0.011401 	-3.12706 	90.0114 	154.139 	-0.597168 	268.954 	360.654 	284.868 	539.727 	
68.3152 	-0.00385174 	-0.501283 	0.779248 	0.159421 	0.011401 	-3.12706 	90.0114 	154.139 	-0.597168 	268.954 	360.654 	284.868 	539.727 	
68.3252 	-0.00385174 	-0.501283 	0.779248 	0.159421 	0.011401 	-3.12706 	90.0114 	154.139 	-0.597168 	268.954 	360.654 	284.868 	539.727 	
68.3352 	-0.00385174 	-0.501283 	0.779248 	0.159421 	0.011401 	-3.12706 	90.0114 	154.139 	-0.597168 	268.954 	360.654 	284.868 	539.727 	
68.3453 	-0.00385174 	-0.501283 	0.779248 	0.159421 	0.011401 	-3.12706 	90.0114 	154.139 	-0.597168 	268.954 	360.654 	284.868 	539.727 	
68.3552 	-0.00385174 	-0.501283 	0.779248 	0.159421 	0.011401 	-3.12706 	90.0114 	154.139 	-0.597168 	268.954 	360.654 	284.868 	539.727 	
68.3653 	-0.00385174 	-0.501283 	0.779248 	0.159421 	0.011401 	-3.12706 	90.0114 	154.139 	-0.597168 	268.954 	360.654 	284.868 	539.727 	
68.3752 	-0.00385174 	-0.501283 	0.779248 	0.159421 	0.011401 	-3.12706 	90.0114 	154.139 	-0.597168 	268.954 	360.654 	284.868 	539.727 	
68.3852 	-0.00385174 	-0.501283 	0.779248 	0.159421 	0.011401 	-3.12706 	90.0114 	154.139 	-0.597168 	268.954 	360.654 	284.868 	539.727 	
68.3953 	-0.00385174 	-0.501283 	0.779248 	0.159421 	0.011401 	-3.12706 	90.0114 	154.139 	-0.597168 	268.954 	360.654 	284.868 	539.727 	
68.4053 	-0.00385174 	-0.501283 	0.779248 	0.159421 	0.011401 	-3.12706 	90.0114 	154.139 	-0.597168 	268.954 	360.654 	284.868 	539.727 	
68.4153 	-0.00385174 	-0.501283 	0.779248 	0.159421 	0.011401 	-3.12706 	90.0114 	154.139 	-0.597168 	268.954 	360.654 	284.868 	539.727 	
68.4253 	-0.00385174 	-0.501283 	0.779248 	0.159421 	0.011401 	-3.12706 	90.0114 	154.139 	-0.597168 	268.954 	360.654 	284.868 	539.727 	
68.4353 	-0.00385174 	-0.501283 	0.779248 	0.159421 	0.011401 	-3.12706 	90.0114 	154.139 	-0.597168 	268.954 	360.654 	284.868 	539.727 	
68.4453 	-0.00385174 	-0.501283 	0.779248 	0.159421 	0.011401 	-3.12706 	90.0114 	154.139 	-0.597168 	268.954 	360.654 	284.868 	539.727 	
68.4553 	-0.00385174 	-0.501283 	0.779248 	0.159421 	0.011401 	-3.12706 	90.0114 	154.139 	-0.597168 	268.954 	360.654 	284.868 	539.727 	
68.4654 	-0.00385174 	-0.501283 	0.779248 	0.159421 	0.011401 	-3.12706 	90.0114 	154.139 	-0.597168 	268.954 	360.654 	284.868 	539.727 	
68.4753 	-0.00385174 	-0.501283 	0.779248 	0.159421 	0.011401 	-3.12706 	90.0114 	154.139 	-0.597168 	268.954 	360.654 	284.868 	539.727 	
68.4854 	-0.00385174 	-0.501283 	0.779248 	0.159421 	0.011401 	-3.12706 	90.0114 	154.139 	-0.597168 	268.954 	360.654 	284.868 	539.727 	
68.4953 	-0.00385174 	-0.501283 	0.779248 	0.159421 	0.011401 	-3.12706 	90.0114 	154.139 	-0.597168 	268.954 	360.654 	284.868 	539.727 	
68.5055 	-0.00385174 	-0.501283 	0.779248 	0.159421 	0.011401 	-3.12706 	90.0114 	154.139 	-0.597168 	268.954 	360.654 	284.868 	539.727 	
68.5154 	-0.00385174 	-0.501283 	0.779248 	0.159421 	0.011401 	-3.12706 	90.0114 	154.139 	-0.597168 	268.954 	360.654 	284.868 	539.727 	
68.5254 	-0.00385174 	-0.501283 	0.779248 	0.159421 	0.011401 	-3.12706 	90.0114 	154.139 	-0.597168 	268.954 	360.654 	284.868 	539.727 	
68.5353 	-0.00385174 	-0.501283 	0.779248 	0.159421 	0.011401 	-3.12706 	90.0114 	154.139 	-0.597168 	268.954 	360.654 	284.868 	539.727 	
68.5453 	-0.00385174 	-0.501283 	0.779248 	0.159421 	0.011401 	-3.12706 	90.0114 	154.139 	-0.597168 	268.954 	360.654 	284.868 	539.727 	
68.5553 	-0.00385174 	-0.501283 	0.779248 	0.159421 	0.011401 	-3.12706 	90.0114 	154.139 	-0.597168 	268.954 	360.654 	284.868 	539.727 	
68.5653 	-0.00385174 	-0.501283 	0.779248 	0.159421 	0.011401 	-3.12706 	90.0114 	154.139 	-0.597168 	268.954 	360.654 	284.868 	539.727 	
68.5753 	-0.00385174 	-0.501283 	0.779248 	0.159421 	0.011401 	-3.12706 	90.0114 	154.139 	-0.597168 	268.954 	360.654 	284.868 	539.727 	
68.5855 	-0.00385174 	-0.501283 	0.779248 	0.159421 	0.011401 	-3.12706 	90.0114 	154.139 	-0.597168 	268.954 	360.654 	284.868 	539.727 	
68.5953 	-0.00385174 	-0.501283 	0.779248 	0.159421 	0.011401 	-3.12706 	90.0114 	154.139 	-0.597168 	268.954 	360.654 	284.868 	539.727 	
68.6055 	-0.00385174 	-0.501283 	0.779248 	0.159421 	0.011401 	-3.12706 	90.0114 	154.139 	-0.597168 	268.954 	360.654 	284.868 	539.727 	
68.6153 	-0.00385174 	-0.501283 	0.779248 	0.159421 	0.011401 	-3.12706 	90.0114 	154.139 	-0.597168 	268.954 	360.654 	284.868 	539.727 	
68.6253 	-0.00385174 	-0.501283 	0.779248 	0.159421 	0.011401 	-3.12706 	90.0114 	154.139 	-0.597168 	268.954 	360.654 	284.868 	539.727 	
68.6353 	-0.00385174 	-0.501283 	0.779248 	0.159421 	0.011401 	-3.12706 	90.0114 	154.139 	-0.597168 	268.954 	360.654 	284.868 	539.727 	
68.6453 	-0.00385174 	-0.501283 	0.779248 	0.159421 	0.011401 	-3.12706 	90.0114 	154.139 	-0.597168 	268.954 	360.654 	284.868 	539.727 	
68.6553 	-0.00385174 	-0.501283 	0.779248 	0.159421 	0.011401 	-3.12706 	90.0114 	154.139 	-0.597168 	268.954 	360.654 	284.868 	539.727 	
68.6655 	-0.00385174 	-0.501283 	0.779248 	0.159421 	0.011401 	-3.12706 	90.0114 	154.139 	-0.597168 	268.954 	360.654 	284.868 	539.727 	
68.6753 	-0.00385174 	-0.501283 	0.779248 	0.159421 	0.011401 	-3.12706 	90.0114 	154.139 	-0.597168 	268.954 	360.654 	284.868 	539.727 	
68.6853 	-0.00385174 	-0.501283 	0.779248 	0.159421 	0.011401 	-3.12706 	90.0114 	154.139 	-0.597168 	268.954 	360.654 	284.868 	539.727 	
68.6953 	-0.00385174 	-0.501283 	0.779248 	0.159421 	0.011401 	-3.12706 	90.0114 	154.139 	-0.597168 	268.954 	360.654 	284.868 	539.727 	
68.7053 	-0.00385174 	-0.501283 	0.779248 	0.159421 	0.011401 	-3.12706 	90.0114 	154.139 	-0.597168 	268.954 	360.654 	284.868 	539.727 	
68.7153 	-0.00385174 	-0.501283 	0.779248 	0.159421 	0.011401 	-3.12706 	90.0114 	154.139 	-0.597168 	268.954 	360.654 	284.868 	539.727 	
68.7253 	-0.00385174 	-0.501283 	0.779248 	0.159421 	0.011401 	-3.12706 	90.0114 	154.139 	-0.597168 	268.954 	360.654 	284.868 	539.727 	
68.7353 	-0.00385174 	-0.501283 	0.779248 	0.159421 	0.011401 	-3.12706 	90.0114 	154.139 	-0.597168 	268.954 	360.654 	284.868 	539.727 	
68.7453 	-0.00385174 	-0.501283 	0.779248 	0.159421 	0.011401 	-3.12706 	90.0114 	154.139 	-0.597168 	268.954 	360.654 	284.868 	539.727 	
68.7553 	-0.00385174 	-0.501283 	0.779248 	0.159421 	0.011401 	-3.12706 	90.0114 	154.139 	-0.597168 	268.954 	360.654 	284.868 	539.727 	
68.7655 	-0.00385174 	-0.501283 	0.779248 	0.159421 	0.011401 	-3.12706 	90.0114 	154.139 	-0.597168 	268.954 	360.654 	284.868 	539.727 	
68.7753 	-0.00385174 	-0.501283 	0.779248 	0.159421 	0.011401 	-3.12706 	90.0114 	154.139 	-0.597168 	268.954 	360.654 	284.868 	539.727 	
68.7853 	-0.00385174 	-0.501283 	0.779248 	0.159421 	0.011401 	-3.12706 	90.0114 	154.139 	-0.597168 	268.954 	360.654 	284.868 	539.727 	
68.7953 	-0.00385174 	-0.501283 	0.779248 	0.159421 	0.011401 	-3.12706 	90.0114 	154.139 	-0.597168 	268.954 	360.654 	284.868 	539.727 	
68.8055 	-0.00385174 	-0.501283 	0.779248 	0.159421 	0.011401 	-3.12706 	90.0114 	154.139 	-0.597168 	268.954 	360.654 	284.868 	539.727 	
68.8153 	-0.00385174 	-0.501283 	0.779248 	0.159421 	0.011401 	-3.12706 	90.0114 	154.139 	-0.597168 	268.954 	360.654 	284.868 	539.727 	
68.8253 	-0.00385174 	-0.501283 	0.779248 	0.159421 	0.011401 	-3.12706 	90.0114 	154.139 	-0.597168 	268.954 	360.654 	284.868 	539.727 	
68.8353 	-0.00385174 	-0.501283 	0.779248 	0.159421 	0.011401 	-3.12706 	90.0114 	154.139 	-0.597168 	268.954 	360.654 	284.868 	539.727 	
68.8453 	-0.00385174 	-0.501283 	0.779248 	0.159421 	0.011401 	-3.12706 	90.0114 	154.139 	-0.597168 	268.954 	360.654 	284.868 	539.727 	
68.8553 	-0.00385174 	-0.501283 	0.779248 	0.159421 	0.011401 	-3.12706 	90.0114 	154.139 	-0.597168 	268.954 	360.654 	284.868 	539.727 	
68.8653 	-0.00385174 	-0.501283 	0.779248 	0.159421 	0.011401 	-3.12706 	90.0114 	154.139 	-0.597168 	268.954 	360.654 	284.868 	539.727 	
68.8753 	-0.00385174 	-0.501283 	0.779248 	0.159421 	0.011401 	-3.12706 	90.0114 	154.139 	-0.597168 	268.954 	360.654 	284.868 	539.727 	
68.8854 	-0.00385174 	-0.501283 	0.779248 	0.159421 	0.011401 	-3.12706 	90.0114 	154.139 	-0.597168 	268.954 	360.654 	284.868 	539.727 	
68.8953 	-0.00385174 	-0.501283 	0.779248 	0.159421 	0.011401 	-3.12706 	90.0114 	154.139 	-0.597168 	268.954 	360.654 	284.868 	539.727 	
68.9054 	-0.00385174 	-0.501283 	0.779248 	0.159421 	0.011401 	-3.12706 	90.0114 	154.139 	-0.597168 	268.954 	360.654 	284.868 	539.727 	
68.9153 	-0.00385174 	-0.501283 	0.779248 	0.159421 	0.011401 	-3.12706 	90.0114 	154.139 	-0.597168 	268.954 	360.654 	284.868 	539.727 	
68.9253 	-0.00385174 	-0.501283 	0.779248 	0.159421 	0.011401 	-3.12706 	90.0114 	154.139 	-0.597168 	268.954 	360.654 	284.868 	539.727 	
68.9353 	-0.00385174 	-0.501283 	0.779248 	0.159421 	0.011401 	-3.12706 	90.0114 	154.139 	-0.597168 	268.954 	360.654 	284.868 	539.727 	
68.9453 	-0.00385174 	-0.501283 	0.779248 	0.159421 	0.011401 	-3.12706 	90.0114 	154.139 	-0.597168 	268.954 	360.654 	284.868 	539.727 	
68.9553 	-0.00385174 	-0.501283 	0.779248 	0.159421 	0.011401 	-3.12706 	90.0114 	154.139 	-0.597168 	268.954 	360.654 	284.868 	539.727 	
68.9653 	-0.00385174 	-0.501283 	0.779248 	0.159421 	0.011401 	-3.12706 	90.0114 	154.139 	-0.597168 	268.954 	360.654 	284.868 	539.727 	
68.9753 	-0.00385174 	-0.501283 	0.779248 	0.159421 	0.011401 	-3.12706 	90.0114 	154.139 	-0.597168 	268.954 	360.654 	284.868 	539.727 	
68.9853 	-0.00385174 	-0.501283 	0.779248 	0.159421 	0.011401 	-3.12706 	90.0114 	154.139 	-0.597168 	268.954 	360.654 	284.868 	539.727 	
68.9953 	-0.00385174 	-0.501283 	0.779248 	0.159421 	0.011401 	-3.12706 	90.0114 	154.139 	-0.597168 	268.954 	360.654 	284.868 	539.727 	
69.0053 	-0.00385174 	-0.501283 	0.779248 	0.159421 	0.011401 	-3.12706 	90.0114 	154.139 	-0.597168 	268.954 	360.654 	284.868 	539.727 	
69.0153 	-0.00385174 	-0.501283 	0.779248 	0.159421 	0.011401 	-3.12706 	90.0114 	154.139 	-0.597168 	268.954 	360.654 	284.868 	539.727 	
69.0253 	-0.00385174 	-0.501283 	0.779248 	0.159421 	0.011401 	-3.12706 	90.0114 	154.139 	-0.597168 	268.954 	360.654 	284.868 	539.727 	
69.0353 	-0.00385174 	-0.501283 	0.779248 	0.159421 	0.011401 	-3.12706 	90.0114 	154.139 	-0.597168 	268.954 	360.654 	284.868 	539.727 	
69.0453 	-0.00385174 	-0.501283 	0.779248 	0.159421 	0.011401 	-3.12706 	90.0114 	154.139 	-0.597168 	268.954 	360.654 	284.868 	539.727 	
69.0553 	-0.00385174 	-0.501283 	0.779248 	0.159421 	0.011401 	-3.12706 	90.0114 	154.139 	-0.597168 	268.954 	360.654 	284.868 	539.727 	
69.0653 	-0.00385174 	-0.501283 	0.779248 	0.159421 	0.011401 	-3.12706 	90.0114 	154.139 	-0.597168 	268.954 	360.654 	284.868 	539.727 	
69.0753 	-0.00385174 	-0.501283 	0.779248 	0.159421 	0.011401 	-3.12706 	90.0114 	154.139 	-0.597168 	268.954 	360.654 	284.868 	539.727 	
69.0853 	-0.00385174 	-0.501283 	0.779248 	0.159421 	0.011401 	-3.12706 	90.0114 	154.139 	-0.597168 	268.954 	360.654 	284.868 	539.727 	
69.0953 	-0.00385174 	-0.501283 	0.779248 	0.159421 	0.011401 	-3.12706 	90.0114 	154.139 	-0.597168 	268.954 	360.654 	284.868 	539.727 	
69.1054 	-0.00385174 	-0.501283 	0.779248 	0.159421 	0.011401 	-3.12706 	90.0114 	154.139 	-0.597168 	268.954 	360.654 	284.868 	539.727 	
69.1153 	-0.00385174 	-0.501283 	0.779248 	0.159421 	0.011401 	-3.12706 	90.0114 	154.139 	-0.597168 	268.954 	360.654 	284.868 	539.727 	
69.1253 	-0.00385174 	-0.501283 	0.779248 	0.159421 	0.011401 	-3.12706 	90.0114 	154.139 	-0.597168 	268.954 	360.654 	284.868 	539.727 	
69.1353 	-0.00385174 	-0.501283 	0.779248 	0.159421 	0.011401 	-3.12706 	90.0114 	154.139 	-0.597168 	268.954 	360.654 	284.868 	539.727 	
69.1453 	-0.00385174 	-0.501283 	0.779248 	0.159421 	0.011401 	-3.12706 	90.0114 	154.139 	-0.597168 	268.954 	360.654 	284.868 	539.727 	
69.1553 	-0.00385174 	-0.501283 	0.779248 	0.159421 	0.011401 	-3.12706 	90.0114 	154.139 	-0.597168 	268.954 	360.654 	284.868 	539.727 	
69.1653 	-0.00385174 	-0.501283 	0.779248 	0.159421 	0.011401 	-3.12706 	90.0114 	154.139 	-0.597168 	268.954 	360.654 	284.868 	539.727 	
69.1753 	-0.00385174 	-0.501283 	0.779248 	0.159421 	0.011401 	-3.12706 	90.0114 	154.139 	-0.597168 	268.954 	360.654 	284.868 	539.727 	
69.1854 	-0.00385174 	-0.501283 	0.779248 	0.159421 	0.011401 	-3.12706 	90.0114 	154.139 	-0.597168 	268.954 	360.654 	284.868 	539.727 	
69.1953 	-0.00385174 	-0.501283 	0.779248 	0.159421 	0.011401 	-3.12706 	90.0114 	154.139 	-0.597168 	268.954 	360.654 	284.868 	539.727 	
69.2053 	-0.00385174 	-0.501283 	0.779248 	0.159421 	0.011401 	-3.12706 	90.0114 	154.139 	-0.597168 	268.954 	360.654 	284.868 	539.727 	
69.2153 	-0.00385174 	-0.501283 	0.779248 	0.159421 	0.011401 	-3.12706 	90.0114 	154.139 	-0.597168 	268.954 	360.654 	284.868 	539.727 	
69.2253 	-0.00385174 	-0.501283 	0.779248 	0.159421 	0.011401 	-3.12706 	90.0114 	154.139 	-0.597168 	268.954 	360.654 	284.868 	539.727 	
69.2353 	-0.00385174 	-0.501283 	0.779248 	0.159421 	0.011401 	-3.12706 	90.0114 	154.139 	-0.597168 	268.954 	360.654 	284.868 	539.727 	
69.2453 	-0.00385174 	-0.501283 	0.779248 	0.159421 	0.011401 	-3.12706 	90.0114 	154.139 	-0.597168 	268.954 	360.654 	284.868 	539.727 	
69.2553 	-0.00385174 	-0.501283 	0.779248 	0.159421 	0.011401 	-3.12706 	90.0114 	154.139 	-0.597168 	268.954 	360.654 	284.868 	539.727 	
69.2653 	-0.00385174 	-0.501283 	0.779248 	0.159421 	0.011401 	-3.12706 	90.0114 	154.139 	-0.597168 	268.954 	360.654 	284.868 	539.727 	
69.2753 	-0.00385174 	-0.501283 	0.779248 	0.159421 	0.011401 	-3.12706 	90.0114 	154.139 	-0.597168 	268.954 	360.654 	284.868 	539.727 	
69.2855 	-0.00385174 	-0.501283 	0.779248 	0.159421 	0.011401 	-3.12706 	90.0114 	154.139 	-0.597168 	268.954 	360.654 	284.868 	539.727 	
69.2955 	-0.00385174 	-0.501283 	0.779248 	0.159421 	0.011401 	-3.12706 	90.0114 	154.139 	-0.597168 	268.954 	360.654 	284.868 	539.727 	
69.3055 	-0.00385174 	-0.501283 	0.779248 	0.159421 	0.011401 	-3.12706 	90.0114 	154.139 	-0.597168 	268.954 	360.654 	284.868 	539.727 	
69.3153 	-0.00385174 	-0.501283 	0.779248 	0.159421 	0.011401 	-3.12706 	90.0114 	154.139 	-0.597168 	268.954 	360.654 	284.868 	539.727 	
69.3255 	-0.00385174 	-0.501283 	0.779248 	0.159421 	0.011401 	-3.12706 	90.0114 	154.139 	-0.597168 	268.954 	360.654 	284.868 	539.727 	
69.3353 	-0.00385174 	-0.501283 	0.779248 	0.159421 	0.011401 	-3.12706 	90.0114 	154.139 	-0.597168 	268.954 	360.654 	284.868 	539.727 	
69.3453 	-0.00385174 	-0.501283 	0.779248 	0.159421 	0.011401 	-3.12706 	90.0114 	154.139 	-0.597168 	268.954 	360.654 	284.868 	539.727 	
69.3553 	-0.00385174 	-0.501283 	0.779248 	0.159421 	0.011401 	-3.12706 	90.0114 	154.139 	-0.597168 	268.954 	360.654 	284.868 	539.727 	
69.3653 	-0.00385174 	-0.501283 	0.779248 	0.159421 	0.011401 	-3.12706 	90.0114 	154.139 	-0.597168 	268.954 	360.654 	284.868 	539.727 	
69.3754 	-0.00385174 	-0.501283 	0.779248 	0.159421 	0.011401 	-3.12706 	90.0114 	154.139 	-0.597168 	268.954 	360.654 	284.868 	539.727 	
69.3853 	-0.00385174 	-0.501283 	0.779248 	0.159421 	0.011401 	-3.12706 	90.0114 	154.139 	-0.597168 	268.954 	360.654 	284.868 	539.727 	
69.3953 	-0.00385174 	-0.501283 	0.779248 	0.159421 	0.011401 	-3.12706 	90.0114 	154.139 	-0.597168 	268.954 	360.654 	284.868 	539.727 	
69.4053 	-0.00385174 	-0.501283 	0.779248 	0.159421 	0.011401 	-3.12706 	90.0114 	154.139 	-0.597168 	268.954 	360.654 	284.868 	539.727 	
69.4153 	-0.00385174 	-0.501283 	0.779248 	0.159421 	0.011401 	-3.12706 	90.0114 	154.139 	-0.597168 	268.954 	360.654 	284.868 	539.727 	
69.4254 	-0.00385174 	-0.501283 	0.779248 	0.159421 	0.011401 	-3.12706 	90.0114 	154.139 	-0.597168 	268.954 	360.654 	284.868 	539.727 	
69.4353 	-0.00385174 	-0.501283 	0.779248 	0.159421 	0.011401 	-3.12706 	90.0114 	154.139 	-0.597168 	268.954 	360.654 	284.868 	539.727 	
69.4453 	-0.00385174 	-0.501283 	0.779248 	0.159421 	0.011401 	-3.12706 	90.0114 	154.139 	-0.597168 	268.954 	360.654 	284.868 	539.727 	
69.4553 	-0.00385174 	-0.501283 	0.779248 	0.159421 	0.011401 	-3.12706 	90.0114 	154.139 	-0.597168 	268.954 	360.654 	284.868 	539.727 	
69.4653 	-0.00385174 	-0.501283 	0.779248 	0.159421 	0.011401 	-3.12706 	90.0114 	154.139 	-0.597168 	268.954 	360.654 	284.868 	539.727 	
69.4755 	-0.00385174 	-0.501283 	0.779248 	0.159421 	0.011401 	-3.12706 	90.0114 	154.139 	-0.597168 	268.954 	360.654 	284.868 	539.727 	
69.4853 	-0.00385174 	-0.501283 	0.779248 	0.159421 	0.011401 	-3.12706 	90.0114 	154.139 	-0.597168 	268.954 	360.654 	284.868 	539.727 	
69.4953 	-0.00385174 	-0.501283 	0.779248 	0.159421 	0.011401 	-3.12706 	90.0114 	154.139 	-0.597168 	268.954 	360.654 	284.868 	539.727 	
69.5054 	-0.00385174 	-0.501283 	0.779248 	0.159421 	0.011401 	-3.12706 	90.0114 	154.139 	-0.597168 	268.954 	360.654 	284.868 	539.727 	
69.5153 	-0.00385174 	-0.501283 	0.779248 	0.159421 	0.011401 	-3.12706 	90.0114 	154.139 	-0.597168 	268.954 	360.654 	284.868 	539.727 	
69.5254 	-0.00385174 	-0.501283 	0.779248 	0.159421 	0.011401 	-3.12706 	90.0114 	154.139 	-0.597168 	268.954 	360.654 	284.868 	539.727 	
69.5353 	-0.00385174 	-0.501283 	0.779248 	0.159421 	0.011401 	-3.12706 	90.0114 	154.139 	-0.597168 	268.954 	360.654 	284.868 	539.727 	
69.5453 	-0.00385174 	-0.501283 	0.779248 	0.159421 	0.011401 	-3.12706 	90.0114 	154.139 	-0.597168 	268.954 	360.654 	284.868 	539.727 	
69.5553 	-0.00385174 	-0.501283 	0.779248 	0.159421 	0.011401 	-3.12706 	90.0114 	154.139 	-0.597168 	268.954 	360.654 	284.868 	539.727 	
69.5653 	-0.00385174 	-0.501283 	0.779248 	0.159421 	0.011401 	-3.12706 	90.0114 	154.139 	-0.597168 	268.954 	360.654 	284.868 	539.727 	
69.5753 	-0.00385174 	-0.501283 	0.779248 	0.159421 	0.011401 	-3.12706 	90.0114 	154.139 	-0.597168 	268.954 	360.654 	284.868 	539.727 	
69.5853 	-0.00385174 	-0.501283 	0.779248 	0.159421 	0.011401 	-3.12706 	90.0114 	154.139 	-0.597168 	268.954 	360.654 	284.868 	539.727 	
69.5953 	-0.00385174 	-0.501283 	0.779248 	0.159421 	0.011401 	-3.12706 	90.0114 	154.139 	-0.597168 	268.954 	360.654 	284.868 	539.727 	
69.6054 	-0.00385174 	-0.501283 	0.779248 	0.159421 	0.011401 	-3.12706 	90.0114 	154.139 	-0.597168 	268.954 	360.654 	284.868 	539.727 	
69.6153 	-0.00385174 	-0.501283 	0.779248 	0.159421 	0.011401 	-3.12706 	90.0114 	154.139 	-0.597168 	268.954 	360.654 	284.868 	539.727 	
69.6254 	-0.00385174 	-0.501283 	0.779248 	0.159421 	0.011401 	-3.12706 	90.0114 	154.139 	-0.597168 	268.954 	360.654 	284.868 	539.727 	
69.6353 	-0.00385174 	-0.501283 	0.779248 	0.159421 	0.011401 	-3.12706 	90.0114 	154.139 	-0.597168 	268.954 	360.654 	284.868 	539.727 	
69.6453 	-0.00385174 	-0.501283 	0.779248 	0.159421 	0.011401 	-3.12706 	90.0114 	154.139 	-0.597168 	268.954 	360.654 	284.868 	539.727 	
69.6553 	-0.00385174 	-0.501283 	0.779248 	0.159421 	0.011401 	-3.12706 	90.0114 	154.139 	-0.597168 	268.954 	360.654 	284.868 	539.727 	
69.6653 	-0.00385174 	-0.501283 	0.779248 	0.159421 	0.011401 	-3.12706 	90.0114 	154.139 	-0.597168 	268.954 	360.654 	284.868 	539.727 	
69.6753 	-0.00385174 	-0.501283 	0.779248 	0.159421 	0.011401 	-3.12706 	90.0114 	154.139 	-0.597168 	268.954 	360.654 	284.868 	539.727 	
69.6855 	-0.00385174 	-0.501283 	0.779248 	0.159421 	0.011401 	-3.12706 	90.0114 	154.139 	-0.597168 	268.954 	360.654 	284.868 	539.727 	
69.6955 	-0.00385174 	-0.501283 	0.779248 	0.159421 	0.011401 	-3.12706 	90.0114 	154.139 	-0.597168 	268.954 	360.654 	284.868 	539.727 	
69.7055 	-0.00385174 	-0.501283 	0.779248 	0.159421 	0.011401 	-3.12706 	90.0114 	154.139 	-0.597168 	268.954 	360.654 	284.868 	539.727 	
69.7153 	-0.00385174 	-0.501283 	0.779248 	0.159421 	0.011401 	-3.12706 	90.0114 	154.139 	-0.597168 	268.954 	360.654 	284.868 	539.727 	
69.7255 	-0.00385174 	-0.501283 	0.779248 	0.159421 	0.011401 	-3.12706 	90.0114 	154.139 	-0.597168 	268.954 	360.654 	284.868 	539.727 	
69.7353 	-0.00385174 	-0.501283 	0.779248 	0.159421 	0.011401 	-3.12706 	90.0114 	154.139 	-0.597168 	268.954 	360.654 	284.868 	539.727 	
69.7453 	-0.00385174 	-0.501283 	0.779248 	0.159421 	0.011401 	-3.12706 	90.0114 	154.139 	-0.597168 	268.954 	360.654 	284.868 	539.727 	
69.7553 	-0.00385174 	-0.501283 	0.779248 	0.159421 	0.011401 	-3.12706 	90.0114 	154.139 	-0.597168 	268.954 	360.654 	284.868 	539.727 	
69.7653 	-0.00385174 	-0.501283 	0.779248 	0.159421 	0.011401 	-3.12706 	90.0114 	154.139 	-0.597168 	268.954 	360.654 	284.868 	539.727 	
69.7753 	-0.00385174 	-0.501283 	0.779248 	0.159421 	0.011401 	-3.12706 	90.0114 	154.139 	-0.597168 	268.954 	360.654 	284.868 	539.727 	
69.7855 	-0.00385174 	-0.501283 	0.779248 	0.159421 	0.011401 	-3.12706 	90.0114 	154.139 	-0.597168 	268.954 	360.654 	284.868 	539.727 	
69.7953 	-0.00385174 	-0.501283 	0.779248 	0.159421 	0.011401 	-3.12706 	90.0114 	154.139 	-0.597168 	268.954 	360.654 	284.868 	539.727 	
69.8055 	-0.00385174 	-0.501283 	0.779248 	0.159421 	0.011401 	-3.12706 	90.0114 	154.139 	-0.597168 	268.954 	360.654 	284.868 	539.727 	
69.8154 	-0.00385174 	-0.501283 	0.779248 	0.159421 	0.011401 	-3.12706 	90.0114 	154.139 	-0.597168 	268.954 	360.654 	284.868 	539.727 	
69.8255 	-0.00385174 	-0.501283 	0.779248 	0.159421 	0.011401 	-3.12706 	90.0114 	154.139 	-0.597168 	268.954 	360.654 	284.868 	539.727 	
69.8353 	-0.00385174 	-0.501283 	0.779248 	0.159421 	0.011401 	-3.12706 	90.0114 	154.139 	-0.597168 	268.954 	360.654 	284.868 	539.727 	
69.8453 	-0.00385174 	-0.501283 	0.779248 	0.159421 	0.011401 	-3.12706 	90.0114 	154.139 	-0.597168 	268.954 	360.654 	284.868 	539.727 	
69.8554 	-0.00385174 	-0.501283 	0.779248 	0.159421 	0.011401 	-3.12706 	90.0114 	154.139 	-0.597168 	268.954 	360.654 	284.868 	539.727 	
