RISC-NYUAD/HeavyPayloadDrone/projects/kinova-ros/devel/lib/ne_kinova_demo/VulcanTrajectory/Vulcan1_Vicon_y19m11d14h14min34.csv
time (NSec) 	Kinova Tip Position (t_x) 	t_y 	t_z 	Kinova Tip Angle (theta_x) 	Kinova Tip Angle (theta_y) 	Kinova Tip Angle (theta_z) 	Kinova Joint Angle (j1) 	(j2) 	(j3) 	(j4) 	Kinova Joint Angle (j5) 	(j6) 	(j7)
0.0539019 	-0.0177646 	-0.554405 	0.932966 	0.920558 	-0.0159198 	-3.13871 	90.1429 	117.697 	-0.596191 	113.574 	360.829 	123.825 	539.701 	
0.157084 	-0.0177447 	-0.562667 	0.928464 	0.928236 	-0.0158545 	-3.13883 	90.1429 	117.468 	-0.596094 	113.81 	360.829 	124.228 	539.701 	
0.260211 	-0.0177087 	-0.576843 	0.922148 	0.929279 	-0.0157423 	-3.13929 	90.1429 	116.61 	-0.596191 	114.628 	360.829 	126.001 	539.701 	
0.363015 	-0.0176679 	-0.590747 	0.91562 	0.929275 	-0.0156163 	-3.13976 	90.1429 	115.642 	-0.596094 	115.596 	360.829 	127.987 	539.701 	
0.466067 	-0.017622 	-0.604529 	0.908661 	0.929271 	-0.0154748 	-3.14022 	90.1429 	114.552 	-0.596094 	116.694 	360.829 	130.192 	539.701 	
0.569088 	-0.0175708 	-0.618174 	0.901274 	0.929267 	-0.0153182 	-3.14067 	90.1429 	113.55 	-0.596094 	117.681 	360.829 	132.176 	539.701 	
0.672241 	-0.0175147 	-0.63167 	0.893461 	0.929263 	-0.0151469 	-3.14111 	90.1429 	112.562 	-0.596191 	118.675 	360.829 	134.174 	539.701 	
0.775115 	-0.0174535 	-0.645001 	0.885226 	0.92926 	-0.0149612 	-3.14154 	90.1429 	111.479 	-0.596094 	119.767 	360.829 	136.382 	539.701 	
0.878447 	-0.0173875 	-0.658154 	0.876573 	0.929256 	-0.0147615 	3.14122 	90.1429 	110.494 	-0.596094 	120.76 	360.829 	138.39 	539.701 	
0.981313 	-0.0173167 	-0.671116 	0.867506 	0.929253 	-0.0145483 	3.14081 	90.1429 	109.512 	-0.596094 	121.739 	360.829 	140.381 	539.701 	
1.08425 	-0.0172412 	-0.683873 	0.85803 	0.929249 	-0.014322 	3.14041 	90.1429 	108.435 	-0.596094 	122.834 	360.829 	142.373 	539.701 	
1.18722 	-0.0171611 	-0.69641 	0.848151 	0.929246 	-0.0140831 	3.14002 	90.1429 	107.448 	-0.596094 	123.828 	360.829 	144.584 	539.701 	
1.29007 	-0.0170763 	-0.708429 	0.838235 	0.928734 	-0.0138315 	3.13964 	90.1429 	106.496 	-0.596094 	124.837 	360.829 	146.587 	539.701 	
1.39327 	-0.0169853 	-0.718943 	0.829592 	0.925926 	-0.0135663 	3.13927 	90.1429 	105.711 	-0.596191 	125.822 	360.829 	148.581 	539.701 	
1.49608 	-0.0168867 	-0.72672 	0.824001 	0.918481 	-0.013286 	3.13891 	90.1429 	105.085 	-0.596094 	126.92 	360.829 	150.78 	539.701 	
1.59928 	-0.0167809 	-0.732036 	0.821298 	0.906778 	-0.0129912 	3.13856 	90.1429 	104.823 	-0.596094 	127.92 	360.829 	152.784 	539.701 	
1.70195 	-0.0166684 	-0.735048 	0.821386 	0.891041 	-0.0126825 	3.13821 	90.1429 	104.743 	-0.596094 	128.913 	360.829 	154.779 	539.701 	
1.80537 	-0.016551 	-0.73702 	0.822596 	0.873587 	-0.0123623 	3.13788 	90.1429 	104.741 	-0.596094 	130.004 	360.829 	156.971 	539.701 	
1.90788 	-0.0164302 	-0.738889 	0.823668 	0.856133 	-0.0120327 	3.13756 	90.1429 	104.74 	-0.596094 	131.001 	360.829 	158.965 	539.701 	
2.01627 	-0.0163062 	-0.740654 	0.824604 	0.838679 	-0.0116942 	3.13726 	90.143 	104.74 	-0.596094 	132.1 	360.829 	161.182 	539.701 	
2.11935 	-0.0161791 	-0.742315 	0.825403 	0.821226 	-0.0113473 	3.13697 	90.143 	104.74 	-0.596094 	133.093 	360.829 	163.19 	539.701 	
2.22181 	-0.0160491 	-0.743871 	0.826064 	0.803773 	-0.0109926 	3.1367 	90.1429 	104.74 	-0.596094 	134.082 	360.829 	165.175 	539.701 	
2.32578 	-0.0159164 	-0.745322 	0.826587 	0.78632 	-0.0106308 	3.13644 	90.143 	104.74 	-0.596094 	135.178 	360.829 	167.372 	539.701 	
2.43128 	-0.0156433 	-0.747905 	0.82722 	0.751415 	-0.00988776 	3.13597 	90.143 	104.74 	-0.596094 	136.187 	360.829 	169.365 	539.701 	
2.53585 	-0.0155033 	-0.749037 	0.827329 	0.733962 	-0.00950781 	3.13576 	90.143 	104.74 	-0.596094 	137.283 	360.829 	171.565 	539.701 	
2.63907 	-0.0153612 	-0.750062 	0.8273 	0.71651 	-0.00912301 	3.13557 	90.143 	104.74 	-0.596094 	138.286 	360.829 	173.548 	539.701 	
2.74195 	-0.0152172 	-0.75098 	0.827133 	0.699058 	-0.00873398 	3.13539 	90.1431 	104.74 	-0.596094 	139.282 	360.829 	175.531 	539.701 	
2.84557 	-0.0150714 	-0.75179 	0.826828 	0.681606 	-0.00834132 	3.13523 	90.143 	104.74 	-0.596094 	140.373 	360.829 	177.752 	539.701 	
2.95122 	-0.0149241 	-0.752492 	0.826385 	0.664154 	-0.00794565 	3.13508 	90.143 	104.74 	-0.596094 	141.368 	360.829 	179.761 	539.701 	
3.05414 	-0.0147755 	-0.753087 	0.825804 	0.646702 	-0.00754757 	3.13495 	90.1431 	104.74 	-0.596094 	142.465 	360.829 	181.726 	539.701 	
3.15721 	-0.0146256 	-0.753573 	0.825086 	0.62925 	-0.00714769 	3.13484 	90.143 	104.74 	-0.596094 	143.464 	360.829 	183.947 	539.701 	
3.25993 	-0.0144746 	-0.753951 	0.82423 	0.611799 	-0.00674662 	3.13474 	90.143 	104.74 	-0.596094 	144.462 	360.829 	185.936 	539.701 	
3.36282 	-0.0143228 	-0.75422 	0.823237 	0.594347 	-0.00634498 	3.13466 	90.1431 	104.74 	-0.596094 	145.46 	360.829 	187.93 	539.701 	
3.4661 	-0.0141703 	-0.754381 	0.822107 	0.576896 	-0.00594338 	3.13459 	90.1429 	104.74 	-0.596094 	146.559 	360.829 	190.12 	539.701 	
3.56914 	-0.0140173 	-0.754434 	0.82084 	0.559444 	-0.00554241 	3.13454 	90.143 	104.74 	-0.596094 	147.569 	360.829 	192.111 	539.701 	
3.6721 	-0.0138639 	-0.754377 	0.819437 	0.541993 	-0.00514268 	3.13451 	90.143 	104.74 	-0.596094 	148.556 	360.829 	194.107 	539.701 	
3.77522 	-0.0137104 	-0.754212 	0.817899 	0.524542 	-0.00474479 	3.13449 	90.1429 	104.74 	-0.596094 	149.658 	360.829 	196.321 	539.701 	
3.87831 	-0.0135569 	-0.753939 	0.816225 	0.50709 	-0.00434934 	3.13449 	90.143 	104.74 	-0.596094 	150.656 	360.829 	198.301 	539.701 	
3.98153 	-0.0134035 	-0.753557 	0.814416 	0.489639 	-0.00395691 	3.13451 	90.143 	104.74 	-0.596094 	151.649 	360.829 	200.309 	539.701 	
4.08421 	-0.0132505 	-0.753067 	0.812474 	0.472188 	-0.00356808 	3.13454 	90.143 	104.74 	-0.596094 	152.655 	360.829 	202.298 	539.701 	
4.18727 	-0.013098 	-0.752469 	0.810397 	0.454736 	-0.00318344 	3.13458 	90.143 	104.74 	-0.596094 	153.746 	360.829 	204.478 	539.701 	
4.29031 	-0.0129462 	-0.751762 	0.808188 	0.437285 	-0.00280355 	3.13464 	90.143 	104.74 	-0.596094 	154.743 	360.829 	206.498 	539.701 	
4.39335 	-0.0127952 	-0.750948 	0.805846 	0.419834 	-0.00242896 	3.13472 	90.143 	104.74 	-0.596094 	155.738 	360.829 	208.482 	539.701 	
4.49634 	-0.0126452 	-0.750026 	0.803373 	0.402382 	-0.00206024 	3.13481 	90.143 	104.74 	-0.596094 	156.833 	360.829 	210.711 	539.701 	
4.59953 	-0.0124963 	-0.748997 	0.800769 	0.38493 	-0.00169791 	3.13492 	90.143 	104.74 	-0.596094 	157.847 	360.829 	212.684 	539.701 	
4.70234 	-0.0123488 	-0.747861 	0.798035 	0.367479 	-0.00134252 	3.13504 	90.1431 	104.74 	-0.596094 	158.84 	360.829 	214.668 	539.701 	
4.80548 	-0.0122027 	-0.746619 	0.795172 	0.350027 	-0.000994573 	3.13517 	90.1431 	104.74 	-0.596094 	159.947 	360.829 	216.878 	539.701 	
4.90827 	-0.0120583 	-0.74527 	0.792181 	0.332575 	-0.000654581 	3.13532 	90.1431 	104.74 	-0.596094 	160.941 	360.829 	218.882 	539.701 	
5.01685 	-0.0119156 	-0.743815 	0.789062 	0.315124 	-0.000323038 	3.13548 	90.1431 	104.74 	-0.596094 	162.039 	360.829 	221.07 	539.701 	
5.11874 	-0.0117748 	-0.742255 	0.785816 	0.297672 	-4.28122e-07 	3.13565 	90.1431 	104.74 	-0.596094 	163.045 	360.829 	223.069 	539.701 	
5.22226 	-0.0116361 	-0.74059 	0.782445 	0.28022 	0.000312782 	3.13584 	90.143 	104.74 	-0.596094 	164.037 	360.829 	225.052 	539.701 	
5.32738 	-0.0114995 	-0.738821 	0.77895 	0.262768 	0.000616144 	3.13604 	90.143 	104.74 	-0.596094 	165.139 	360.829 	227.252 	539.701 	
5.42976 	-0.0113653 	-0.736947 	0.775331 	0.245315 	0.000909211 	3.13624 	90.1431 	104.74 	-0.596094 	166.132 	360.829 	229.245 	539.701 	
5.53394 	-0.0111042 	-0.732892 	0.767728 	0.21041 	0.0014628 	3.1367 	90.143 	104.74 	-0.596094 	167.127 	360.829 	231.227 	539.701 	
5.63698 	-0.0109777 	-0.730711 	0.763746 	0.192958 	0.00172252 	3.13694 	90.1431 	104.74 	-0.596094 	168.224 	360.829 	233.45 	539.701 	
5.74001 	-0.010854 	-0.728428 	0.759645 	0.175505 	0.00197035 	3.13719 	90.143 	104.74 	-0.596094 	169.23 	360.829 	235.44 	539.701 	
5.84304 	-0.0107332 	-0.726045 	0.755427 	0.158052 	0.00220595 	3.13745 	90.1431 	104.74 	-0.596094 	170.231 	360.829 	237.415 	539.701 	
5.95101 	-0.0106154 	-0.723561 	0.751092 	0.140599 	0.00242896 	3.13772 	90.143 	104.74 	-0.596094 	171.33 	360.829 	239.631 	539.701 	
6.05424 	-0.0105007 	-0.720979 	0.746643 	0.123147 	0.00263908 	3.138 	90.143 	104.74 	-0.596094 	172.324 	360.829 	241.629 	539.701 	
6.15711 	-0.0103893 	-0.718298 	0.74208 	0.105693 	0.00283599 	3.13829 	90.1431 	104.74 	-0.596094 	173.425 	360.829 	243.826 	539.701 	
6.26023 	-0.0102812 	-0.715519 	0.737405 	0.0882399 	0.00301942 	3.13858 	90.1438 	104.74 	-0.596094 	174.431 	360.829 	245.811 	539.701 	
6.36305 	-0.0101765 	-0.712644 	0.732619 	0.0707868 	0.00318911 	3.13888 	90.1423 	104.74 	-0.595996 	175.429 	360.829 	247.792 	539.701 	
6.46595 	-0.0100753 	-0.709673 	0.727724 	0.053333 	0.00334481 	3.13919 	90.1436 	104.74 	-0.596094 	176.536 	360.829 	250.004 	539.701 	
6.56922 	-0.0099776 	-0.706607 	0.722721 	0.0358798 	0.0034863 	3.1395 	90.1439 	104.74 	-0.596094 	177.536 	360.829 	252.003 	539.701 	
6.67199 	-0.00988358 	-0.703447 	0.717612 	0.0184264 	0.00361337 	3.13982 	90.1437 	104.74 	-0.596094 	178.54 	360.829 	253.994 	539.701 	
6.77494 	-0.00979326 	-0.700194 	0.712399 	0.000972369 	0.00372585 	3.14015 	90.1439 	104.74 	-0.596094 	179.638 	360.829 	256.203 	539.701 	
6.87832 	-0.00970671 	-0.696848 	0.707082 	-0.016484 	0.00382358 	3.14047 	90.1438 	104.74 	-0.596094 	180.623 	360.829 	258.195 	539.701 	
6.98132 	-0.00962397 	-0.693411 	0.701663 	-0.0339405 	0.00390641 	3.1408 	90.1438 	104.74 	-0.596094 	181.636 	360.829 	260.185 	539.701 	
7.0843 	-0.00954511 	-0.689883 	0.696145 	-0.0513972 	0.00397423 	3.14114 	90.1438 	104.74 	-0.596094 	182.621 	360.829 	262.171 	539.701 	
7.1873 	-0.00947015 	-0.686267 	0.690529 	-0.0688537 	0.00402693 	3.14147 	90.1439 	104.74 	-0.596094 	183.731 	360.829 	264.375 	539.701 	
7.29029 	-0.00939915 	-0.682564 	0.684816 	-0.0863099 	0.00406445 	-3.14137 	90.1437 	104.74 	-0.596094 	184.733 	360.829 	266.376 	539.701 	
7.39327 	-0.00933214 	-0.678773 	0.679009 	-0.103766 	0.00408673 	-3.14104 	90.1438 	104.74 	-0.596094 	185.739 	360.829 	268.376 	539.701 	
7.49633 	-0.00926913 	-0.674897 	0.673108 	-0.121223 	0.00409374 	-3.1407 	90.1438 	104.74 	-0.596094 	186.847 	360.829 	270.571 	539.701 	
7.59908 	-0.00921016 	-0.670937 	0.667117 	-0.13868 	0.00408546 	-3.14036 	90.1441 	104.74 	-0.596094 	187.835 	360.829 	272.556 	539.701 	
7.70234 	-0.00915523 	-0.666893 	0.661036 	-0.156136 	0.00406191 	-3.14002 	90.1443 	104.74 	-0.596094 	188.828 	360.829 	274.565 	539.701 	
7.80547 	-0.00910437 	-0.662768 	0.654867 	-0.173593 	0.00402312 	-3.13968 	90.1444 	104.74 	-0.596094 	189.943 	360.829 	276.754 	539.701 	
7.90866 	-0.00905756 	-0.658562 	0.648613 	-0.191049 	0.00396914 	-3.13934 	90.1473 	104.74 	-0.596094 	190.934 	360.829 	278.745 	539.701 	
8.01105 	-0.00901482 	-0.654276 	0.642276 	-0.208506 	0.00390006 	-3.13901 	90.1466 	104.74 	-0.596094 	191.933 	360.829 	280.752 	539.701 	
8.11747 	-0.00897613 	-0.649913 	0.635856 	-0.225962 	0.00381597 	-3.13868 	90.1465 	104.74 	-0.596094 	193.05 	360.829 	282.943 	539.701 	
8.21993 	-0.00894148 	-0.645472 	0.629357 	-0.243418 	0.00371699 	-3.13835 	90.1466 	104.74 	-0.596094 	194.039 	360.829 	284.518 	539.701 	
8.32328 	-0.00889791 	-0.64568 	0.623994 	-0.242382 	0.00365237 	-3.1381 	90.1467 	104.74 	-0.596094 	195.038 	360.829 	284.796 	539.701 	
8.42592 	-0.0088432 	-0.650006 	0.619634 	-0.224929 	0.00363049 	-3.1379 	90.1466 	104.74 	-0.596094 	196.135 	360.829 	284.81 	539.701 	
8.5298 	-0.00878777 	-0.654256 	0.615198 	-0.207477 	0.00361203 	-3.13771 	90.1458 	104.74 	-0.596094 	197.141 	360.829 	284.812 	539.701 	
8.63335 	-0.00867478 	-0.662518 	0.606107 	-0.172572 	0.00358536 	-3.13731 	90.1462 	104.74 	-0.596094 	198.141 	360.829 	284.816 	539.701 	
8.73571 	-0.00861726 	-0.66653 	0.601456 	-0.155119 	0.00357716 	-3.13712 	90.1461 	104.74 	-0.596094 	199.237 	360.829 	284.82 	539.701 	
8.83945 	-0.00855907 	-0.670459 	0.596734 	-0.137667 	0.0035724 	-3.13692 	90.1461 	104.74 	-0.596094 	200.243 	360.829 	284.824 	539.701 	
8.942 	-0.00850024 	-0.674305 	0.591945 	-0.120214 	0.00357106 	-3.13673 	90.1461 	104.74 	-0.596094 	201.238 	360.829 	284.829 	539.701 	
9.04527 	-0.00844078 	-0.678067 	0.587089 	-0.102762 	0.00357316 	-3.13653 	90.1461 	104.74 	-0.596094 	202.341 	360.829 	284.838 	539.701 	
9.15099 	-0.00838071 	-0.681744 	0.582169 	-0.085309 	0.00357869 	-3.13633 	90.1461 	104.74 	-0.596094 	203.336 	360.829 	284.846 	539.701 	
9.25411 	-0.00832005 	-0.685335 	0.577185 	-0.0678565 	0.00358764 	-3.13614 	90.1461 	104.74 	-0.596094 	204.332 	360.829 	284.85 	539.701 	
9.35711 	-0.00825882 	-0.688838 	0.572139 	-0.0504039 	0.00360003 	-3.13594 	90.1461 	104.74 	-0.596094 	205.432 	360.829 	284.853 	539.701 	
9.46014 	-0.00819704 	-0.692252 	0.567033 	-0.0329513 	0.00361583 	-3.13574 	90.1461 	104.74 	-0.596094 	206.433 	360.829 	284.855 	539.701 	
9.56343 	-0.00813472 	-0.695577 	0.561868 	-0.0154987 	0.00363506 	-3.13555 	90.1461 	104.74 	-0.596094 	207.428 	360.829 	284.856 	539.701 	
9.666 	-0.00807189 	-0.698811 	0.556646 	0.00195362 	0.00365769 	-3.13535 	90.1461 	104.74 	-0.595996 	208.528 	360.829 	284.858 	539.701 	
9.76908 	-0.00800856 	-0.701953 	0.551368 	0.0194062 	0.00368373 	-3.13516 	90.1461 	104.74 	-0.596094 	209.537 	360.829 	284.86 	539.701 	
9.87226 	-0.00794475 	-0.705003 	0.546036 	0.0368587 	0.00371317 	-3.13496 	90.1461 	104.74 	-0.595996 	210.53 	360.829 	284.861 	539.701 	
9.97507 	-0.00788048 	-0.707959 	0.540652 	0.0543113 	0.003746 	-3.13477 	90.1461 	104.74 	-0.596094 	211.641 	360.829 	284.863 	539.701 	
10.0782 	-0.00781578 	-0.71082 	0.535217 	0.0717638 	0.0037822 	-3.13458 	90.146 	104.74 	-0.596094 	212.64 	360.829 	284.865 	539.701 	
10.1813 	-0.00775066 	-0.713587 	0.529732 	0.0892163 	0.00382177 	-3.13438 	90.146 	104.74 	-0.595996 	213.635 	360.829 	284.869 	539.701 	
10.2841 	-0.00768514 	-0.716257 	0.524201 	0.106669 	0.0038647 	-3.13419 	90.146 	104.74 	-0.596094 	214.64 	360.829 	284.875 	539.701 	
10.3873 	-0.00761924 	-0.718831 	0.518623 	0.124121 	0.00391097 	-3.134 	90.146 	104.74 	-0.596094 	215.746 	360.829 	284.878 	539.701 	
10.4902 	-0.00755298 	-0.721306 	0.513002 	0.141574 	0.00396057 	-3.13381 	90.1457 	104.74 	-0.595996 	216.74 	360.829 	284.879 	539.701 	
10.5934 	-0.00748639 	-0.723683 	0.507338 	0.159026 	0.00401348 	-3.13362 	90.1457 	104.74 	-0.596094 	217.738 	360.829 	284.881 	539.701 	
10.6962 	-0.00741947 	-0.725961 	0.501634 	0.176479 	0.00406969 	-3.13343 	90.146 	104.74 	-0.595996 	218.84 	360.829 	284.885 	539.701 	
10.7993 	-0.00735226 	-0.728139 	0.49589 	0.193931 	0.00412917 	-3.13324 	90.1458 	104.74 	-0.595996 	219.838 	360.829 	284.896 	539.701 	
10.9023 	-0.00728477 	-0.730216 	0.49011 	0.211384 	0.00419192 	-3.13306 	90.1458 	104.74 	-0.595996 	220.831 	360.829 	284.924 	539.701 	
11.0054 	-0.00721703 	-0.732193 	0.484294 	0.228836 	0.00425791 	-3.13287 	90.1458 	104.74 	-0.595996 	221.94 	360.829 	284.932 	539.701 	
11.1082 	-0.00714905 	-0.734067 	0.478444 	0.246289 	0.00432712 	-3.13269 	90.1458 	104.74 	-0.595996 	222.938 	360.829 	284.934 	539.701 	
11.2161 	-0.00708085 	-0.735839 	0.472563 	0.263741 	0.00439954 	-3.13251 	90.1457 	104.74 	-0.595996 	224.037 	360.829 	284.936 	539.701 	
11.3194 	-0.00701246 	-0.737508 	0.466652 	0.281194 	0.00447513 	-3.13232 	90.1458 	104.74 	-0.595996 	225.035 	360.829 	284.938 	539.701 	
11.4219 	-0.0069439 	-0.739074 	0.460712 	0.298646 	0.00455388 	-3.13214 	90.146 	104.74 	-0.595996 	226.047 	360.829 	284.94 	539.701 	
11.5251 	-0.00687518 	-0.740535 	0.454746 	0.316098 	0.00463576 	-3.13197 	90.1459 	104.74 	-0.595996 	227.152 	360.829 	284.941 	539.701 	
11.629 	-0.00680633 	-0.741893 	0.448756 	0.333551 	0.00472075 	-3.13179 	90.1459 	104.74 	-0.595996 	228.148 	360.829 	284.943 	539.701 	
11.7337 	-0.00666832 	-0.744293 	0.436708 	0.368455 	0.00489994 	-3.13144 	90.1458 	104.74 	-0.595996 	229.156 	360.829 	284.944 	539.701 	
11.8369 	-0.0065992 	-0.745335 	0.430655 	0.385908 	0.00499409 	-3.13127 	90.1458 	104.74 	-0.595996 	230.251 	360.829 	284.947 	539.701 	
11.9398 	-0.00653003 	-0.746271 	0.424584 	0.40336 	0.00509124 	-3.1311 	90.1458 	104.74 	-0.595996 	231.256 	360.829 	284.952 	539.701 	
12.0432 	-0.00646084 	-0.747101 	0.418498 	0.420813 	0.00519136 	-3.13093 	90.1458 	104.74 	-0.595996 	232.248 	360.829 	284.957 	539.701 	
12.1511 	-0.00639164 	-0.747824 	0.412398 	0.438265 	0.00529442 	-3.13076 	90.1458 	104.74 	-0.595996 	233.352 	360.829 	284.962 	539.701 	
12.2543 	-0.00632246 	-0.748441 	0.406287 	0.455718 	0.00540038 	-3.13059 	90.1458 	104.74 	-0.595996 	234.353 	360.829 	284.966 	539.701 	
12.3573 	-0.00625331 	-0.748952 	0.400166 	0.47317 	0.00550921 	-3.13043 	90.1458 	104.74 	-0.595996 	235.467 	360.829 	284.967 	539.701 	
12.4601 	-0.00618422 	-0.749355 	0.394036 	0.490623 	0.00562089 	-3.13027 	90.1458 	104.74 	-0.595996 	236.468 	360.829 	284.967 	539.701 	
12.5632 	-0.00611521 	-0.749651 	0.387901 	0.508075 	0.00573538 	-3.13011 	90.1458 	104.74 	-0.595996 	237.466 	360.829 	284.969 	539.701 	
12.6661 	-0.0060463 	-0.749841 	0.381762 	0.525527 	0.00585263 	-3.12995 	90.1457 	104.74 	-0.595996 	238.561 	360.829 	284.972 	539.701 	
12.7692 	-0.00597751 	-0.749923 	0.37562 	0.542979 	0.00597263 	-3.12979 	90.1457 	104.74 	-0.595996 	239.56 	360.829 	284.992 	539.701 	
12.872 	-0.00590886 	-0.749897 	0.369478 	0.560432 	0.00609532 	-3.12964 	90.1457 	104.74 	-0.595996 	240.567 	360.829 	285.012 	539.701 	
12.9756 	-0.00584037 	-0.749765 	0.363336 	0.577884 	0.00622068 	-3.12949 	90.1457 	104.74 	-0.595996 	241.677 	360.829 	285.014 	539.701 	
13.0782 	-0.00577207 	-0.749525 	0.357199 	0.595336 	0.00634866 	-3.12934 	90.1457 	104.74 	-0.595996 	242.675 	360.829 	285.015 	539.701 	
13.1812 	-0.00570397 	-0.749179 	0.351066 	0.612789 	0.00647923 	-3.12919 	90.1456 	104.74 	-0.595996 	243.674 	360.829 	285.017 	539.701 	
13.2841 	-0.0056361 	-0.748725 	0.34494 	0.630241 	0.00661234 	-3.12905 	90.1459 	104.74 	-0.595898 	244.677 	360.829 	285.018 	539.701 	
13.3876 	-0.00556847 	-0.748164 	0.338824 	0.647693 	0.00674796 	-3.12891 	90.1457 	104.74 	-0.595996 	245.783 	360.829 	285.018 	539.701 	
13.4903 	-0.00550111 	-0.747497 	0.332718 	0.665145 	0.00688604 	-3.12877 	90.1457 	104.74 	-0.595898 	246.783 	360.829 	285.019 	539.701 	
13.5935 	-0.00543404 	-0.746724 	0.326624 	0.682598 	0.00702654 	-3.12863 	90.1458 	104.74 	-0.595898 	247.784 	360.829 	285.02 	539.701 	
13.6962 	-0.00536727 	-0.745844 	0.320545 	0.70005 	0.00716942 	-3.12849 	90.146 	104.74 	-0.595801 	248.885 	360.829 	285.021 	539.701 	
13.7993 	-0.00530083 	-0.744858 	0.314482 	0.717502 	0.00731464 	-3.12836 	90.1458 	104.74 	-0.595898 	249.886 	360.829 	285.021 	539.701 	
13.9022 	-0.00523473 	-0.743766 	0.308437 	0.734955 	0.00746215 	-3.12823 	90.1458 	104.74 	-0.595898 	250.898 	360.829 	285.024 	539.701 	
14.0054 	-0.00516901 	-0.742569 	0.302413 	0.752407 	0.0076119 	-3.1281 	90.1451 	104.74 	-0.595996 	251.991 	360.829 	285.048 	539.701 	
14.1087 	-0.00510367 	-0.741267 	0.29641 	0.769859 	0.00776386 	-3.12798 	90.1451 	104.74 	-0.595996 	253.003 	360.829 	285.059 	539.701 	
14.2164 	-0.00503874 	-0.739861 	0.290431 	0.787312 	0.00791797 	-3.12786 	90.1453 	104.74 	-0.595898 	254.101 	360.829 	285.061 	539.701 	
14.319 	-0.00497424 	-0.73835 	0.284477 	0.804764 	0.00807418 	-3.12774 	90.1453 	104.74 	-0.595898 	255.111 	360.829 	285.063 	539.701 	
14.4219 	-0.00491019 	-0.736736 	0.27855 	0.822216 	0.00823246 	-3.12762 	90.1453 	104.74 	-0.595898 	256.121 	360.829 	285.064 	539.701 	
14.5259 	-0.0048466 	-0.735019 	0.272653 	0.839668 	0.00839275 	-3.12751 	90.1451 	104.74 	-0.595996 	257.219 	360.829 	285.065 	539.701 	
14.629 	-0.0047835 	-0.733198 	0.266786 	0.85712 	0.008555 	-3.12739 	90.1451 	104.74 	-0.595996 	258.218 	360.829 	285.066 	539.701 	
14.7315 	-0.0047209 	-0.731276 	0.260952 	0.874573 	0.00871917 	-3.12729 	90.1452 	104.74 	-0.595898 	259.222 	360.829 	285.067 	539.701 	
14.8366 	-0.0045973 	-0.727127 	0.249389 	0.909478 	0.00905304 	-3.12708 	90.1452 	104.74 	-0.595898 	260.319 	360.829 	285.068 	539.701 	
14.9386 	-0.00453634 	-0.724902 	0.243664 	0.92693 	0.00922264 	-3.12698 	90.1452 	104.74 	-0.595898 	261.318 	360.829 	285.069 	539.701 	
15.0407 	-0.00447595 	-0.722578 	0.237978 	0.944382 	0.00939396 	-3.12688 	90.1452 	104.739 	-0.595898 	262.337 	360.829 	285.069 	539.701 	
15.1441 	-0.00441617 	-0.720154 	0.232334 	0.961835 	0.00956693 	-3.12679 	90.1452 	104.739 	-0.595898 	263.332 	360.829 	285.07 	539.701 	
15.2512 	-0.004357 	-0.717633 	0.226733 	0.979287 	0.00974151 	-3.1267 	90.1452 	104.739 	-0.595898 	264.435 	360.829 	285.072 	539.701 	
15.3541 	-0.00429846 	-0.715014 	0.221177 	0.996739 	0.00991764 	-3.12661 	90.1452 	104.739 	-0.595898 	265.439 	360.829 	285.073 	539.701 	
15.4571 	-0.00424058 	-0.712298 	0.215667 	1.01419 	0.0100953 	-3.12653 	90.1452 	104.739 	-0.595898 	266.551 	360.829 	285.075 	539.701 	
15.5599 	-0.00418337 	-0.709487 	0.210206 	1.03164 	0.0102743 	-3.12645 	90.1452 	104.738 	-0.595801 	267.553 	360.829 	285.078 	539.701 	
15.6632 	-0.00413889 	-0.70721 	0.205948 	1.04536 	0.0104161 	-3.12638 	90.1452 	104.734 	-0.595898 	268.368 	360.829 	285.081 	539.701 	
15.7661 	-0.00413889 	-0.70721 	0.205948 	1.04536 	0.0104161 	-3.12638 	90.1451 	104.73 	-0.595898 	268.544 	360.829 	285.084 	539.701 	
15.8692 	-0.00413889 	-0.70721 	0.205948 	1.04536 	0.0104161 	-3.12638 	90.1452 	104.719 	-0.595898 	268.572 	360.829 	285.085 	539.701 	
15.9721 	-0.00413889 	-0.70721 	0.205948 	1.04536 	0.0104161 	-3.12638 	90.1452 	104.717 	-0.595801 	268.586 	360.829 	285.087 	539.701 	
16.075 	-0.00413889 	-0.70721 	0.205948 	1.04536 	0.0104161 	-3.12638 	90.1452 	104.716 	-0.595801 	268.587 	360.829 	285.088 	539.701 	
16.1771 	-0.00413889 	-0.70721 	0.205948 	1.04536 	0.0104161 	-3.12638 	90.1452 	104.716 	-0.595801 	268.588 	360.829 	285.088 	539.701 	
16.2794 	-0.00413889 	-0.70721 	0.205948 	1.04536 	0.0104161 	-3.12638 	90.1452 	104.715 	-0.595898 	268.588 	360.829 	285.088 	539.701 	
16.3835 	-0.00413889 	-0.70721 	0.205948 	1.04536 	0.0104161 	-3.12638 	90.1452 	104.715 	-0.595898 	268.588 	360.829 	285.089 	539.701 	
16.489 	-0.00413889 	-0.70721 	0.205948 	1.04536 	0.0104161 	-3.12638 	90.1452 	104.715 	-0.595898 	268.589 	360.829 	285.089 	539.701 	
16.5923 	-0.00413942 	-0.707101 	0.204537 	1.04723 	0.0104122 	-3.12638 	90.1452 	104.558 	-0.595898 	268.589 	360.829 	285.089 	539.701 	
16.6953 	-0.00413898 	-0.70679 	0.201503 	1.05152 	0.0104093 	-3.12638 	90.1452 	104.256 	-0.595898 	268.589 	360.829 	285.09 	539.701 	
16.7982 	-0.00413835 	-0.706334 	0.197264 	1.05752 	0.0104051 	-3.12637 	90.1452 	103.938 	-0.595898 	268.589 	360.829 	285.09 	539.701 	
16.9013 	-0.00413766 	-0.705839 	0.192921 	1.06367 	0.0104009 	-3.12636 	90.1452 	103.642 	-0.595898 	268.589 	360.829 	285.09 	539.701 	
17.0043 	-0.00413699 	-0.705362 	0.188943 	1.06931 	0.0103971 	-3.12636 	90.1452 	103.237 	-0.595898 	268.589 	360.829 	285.09 	539.701 	
17.1071 	-0.00413605 	-0.704691 	0.183639 	1.07683 	0.0103921 	-3.12635 	90.1452 	102.77 	-0.595898 	268.59 	360.829 	285.091 	539.701 	
17.2102 	-0.00413488 	-0.703852 	0.177417 	1.08567 	0.0103863 	-3.12634 	90.1452 	102.224 	-0.595898 	268.59 	360.829 	285.091 	539.701 	
17.3173 	-0.00413347 	-0.702841 	0.170414 	1.09562 	0.0103799 	-3.12632 	90.1452 	101.55 	-0.595898 	268.59 	360.829 	285.091 	539.701 	
17.4198 	-0.00413176 	-0.701617 	0.162533 	1.10685 	0.0103728 	-3.12631 	90.1452 	100.885 	-0.595898 	268.59 	360.829 	285.091 	539.701 	
17.523 	-0.00412965 	-0.700103 	0.153499 	1.11973 	0.0103648 	-3.12629 	90.1452 	100.166 	-0.595898 	268.591 	360.829 	285.091 	539.701 	
17.6292 	-0.00412723 	-0.698375 	0.143969 	1.13336 	0.0103567 	-3.12628 	90.1452 	99.2723 	-0.595898 	268.591 	360.829 	285.091 	539.701 	
17.7337 	-0.0041244 	-0.696347 	0.133624 	1.1482 	0.010348 	-3.12626 	90.1452 	98.2789 	-0.595898 	268.592 	360.829 	285.092 	539.701 	
17.8367 	-0.00411722 	-0.691207 	0.11039 	1.18168 	0.0103296 	-3.12621 	90.1452 	97.297 	-0.595898 	268.592 	360.829 	285.092 	539.701 	
17.9398 	-0.00411305 	-0.68822 	0.0983522 	1.19913 	0.0103205 	-3.12619 	90.1452 	96.3046 	-0.595898 	268.593 	360.829 	285.092 	539.701 	
18.043 	-0.00410859 	-0.685024 	0.0863682 	1.21659 	0.0103119 	-3.12617 	90.1452 	95.2959 	-0.595898 	268.594 	360.829 	285.092 	539.701 	
18.1511 	-0.00410384 	-0.681619 	0.0744417 	1.23404 	0.0103036 	-3.12615 	90.1452 	94.1914 	-0.595898 	268.596 	360.829 	285.092 	539.701 	
18.2542 	-0.00409879 	-0.678006 	0.0625765 	1.25149 	0.0102958 	-3.12612 	90.1452 	93.0833 	-0.595898 	268.598 	360.829 	285.092 	539.701 	
18.3569 	-0.00409346 	-0.674187 	0.0507763 	1.26895 	0.0102883 	-3.1261 	90.1452 	92.0741 	-0.595898 	268.6 	360.829 	285.092 	539.701 	
18.4601 	-0.00408784 	-0.670162 	0.0390444 	1.2864 	0.0102813 	-3.12608 	90.1452 	91.071 	-0.595898 	268.603 	360.829 	285.092 	539.701 	
18.5631 	-0.00408194 	-0.665933 	0.0273846 	1.30385 	0.0102747 	-3.12605 	90.1452 	90.0767 	-0.595898 	268.604 	360.829 	285.092 	539.701 	
18.6663 	-0.00407575 	-0.661502 	0.0158002 	1.3213 	0.0102684 	-3.12603 	90.1452 	88.9663 	-0.595898 	268.608 	360.829 	285.092 	539.701 	
18.7692 	-0.00406928 	-0.656869 	0.00429509 	1.33876 	0.0102626 	-3.12601 	90.1452 	87.9676 	-0.595898 	268.615 	360.829 	285.092 	539.701 	
18.8715 	-0.00406253 	-0.652036 	-0.00712741 	1.35621 	0.0102572 	-3.12598 	90.1452 	86.9635 	-0.595898 	268.628 	360.829 	285.093 	539.701 	
18.975 	-0.0040555 	-0.647004 	-0.0184639 	1.37366 	0.0102522 	-3.12596 	90.1452 	85.8438 	-0.595898 	268.635 	360.829 	285.093 	539.701 	
19.0782 	-0.0040482 	-0.641775 	-0.0297108 	1.39111 	0.0102477 	-3.12593 	90.1452 	84.8415 	-0.595898 	268.637 	360.829 	285.093 	539.701 	
19.181 	-0.00404063 	-0.636351 	-0.0408647 	1.40857 	0.0102435 	-3.12591 	90.1451 	83.841 	-0.595898 	268.638 	360.829 	285.093 	539.701 	
19.2839 	-0.00403278 	-0.630733 	-0.0519224 	1.42602 	0.0102398 	-3.12589 	90.1451 	82.7271 	-0.595898 	268.639 	360.829 	285.093 	539.701 	
19.3872 	-0.00402467 	-0.624922 	-0.0628802 	1.44347 	0.0102365 	-3.12586 	90.1452 	81.7155 	-0.595898 	268.641 	360.829 	285.093 	539.701 	
19.4901 	-0.00401629 	-0.618922 	-0.073735 	1.46093 	0.0102336 	-3.12584 	90.1452 	80.7065 	-0.595898 	268.643 	360.829 	285.093 	539.701 	
19.5941 	-0.00400765 	-0.612733 	-0.0844834 	1.47838 	0.0102312 	-3.12581 	90.1452 	79.6999 	-0.595898 	268.644 	360.829 	285.093 	539.701 	
19.6962 	-0.00399875 	-0.606357 	-0.0951222 	1.49583 	0.0102291 	-3.12579 	90.1452 	78.5949 	-0.595898 	268.647 	360.829 	285.093 	539.701 	
19.7992 	-0.00398959 	-0.599796 	-0.105648 	1.51328 	0.0102275 	-3.12576 	90.1452 	77.5826 	-0.595898 	268.648 	360.829 	285.093 	539.701 	
19.9022 	-0.00398017 	-0.593053 	-0.116058 	1.53074 	0.0102263 	-3.12574 	90.1452 	76.5725 	-0.595898 	268.651 	360.829 	285.093 	539.701 	
20.0053 	-0.00397051 	-0.586129 	-0.126348 	1.54819 	0.0102256 	-3.12572 	90.1451 	75.4702 	-0.595898 	268.655 	360.829 	285.093 	539.701 	
20.1085 	-0.00396059 	-0.579027 	-0.136516 	1.56564 	0.0102252 	-3.12569 	90.1451 	74.4525 	-0.595898 	268.662 	360.829 	285.093 	539.701 	
20.2162 	-0.00395042 	-0.571748 	-0.146559 	1.5831 	0.0102253 	-3.12567 	90.1451 	73.3509 	-0.595898 	268.682 	360.829 	285.094 	539.701 	
20.3203 	-0.00394002 	-0.564295 	-0.156473 	1.60055 	0.0102258 	-3.12564 	90.1451 	72.3519 	-0.595898 	268.685 	360.829 	285.094 	539.701 	
20.4229 	-0.00392937 	-0.55667 	-0.166255 	1.618 	0.0102268 	-3.12562 	90.1451 	71.3375 	-0.595898 	268.687 	360.829 	285.094 	539.701 	
20.5258 	-0.00391849 	-0.548876 	-0.175903 	1.63545 	0.0102281 	-3.12559 	90.1451 	70.2161 	-0.595898 	268.689 	360.829 	285.094 	539.701 	
20.63 	-0.00390737 	-0.540915 	-0.185414 	1.65291 	0.0102299 	-3.12557 	90.1451 	69.2221 	-0.595898 	268.69 	360.829 	285.094 	539.701 	
20.7336 	-0.00388445 	-0.5245 	-0.204011 	1.68781 	0.0102347 	-3.12552 	90.1451 	68.1967 	-0.595898 	268.691 	360.829 	285.094 	539.701 	
20.837 	-0.00387265 	-0.516051 	-0.213091 	1.70526 	0.0102378 	-3.1255 	90.1451 	67.0878 	-0.595898 	268.693 	360.829 	285.094 	539.701 	
20.9399 	-0.00386064 	-0.507446 	-0.222023 	1.72272 	0.0102413 	-3.12547 	90.1451 	66.0785 	-0.595898 	268.696 	360.829 	285.094 	539.701 	
21.0433 	-0.00384841 	-0.498686 	-0.230803 	1.74017 	0.0102452 	-3.12545 	90.1451 	65.0695 	-0.595898 	268.7 	360.829 	285.094 	539.701 	
21.1513 	-0.00383646 	-0.490133 	-0.239088 	1.75692 	0.0102493 	-3.12543 	90.1451 	63.9896 	-0.595898 	268.709 	360.829 	285.094 	539.701 	
21.1759 	-0.00383646 	-0.490133 	-0.239088 	1.75692 	0.0102493 	-3.12543 	90.1451 	63.7428 	-0.595898 	268.717 	360.829 	285.094 	539.701 	
21.279 	-0.00382126 	-0.487706 	-0.240803 	1.76321 	0.0102948 	-3.12541 	90.1451 	63.6147 	-0.595898 	269.048 	360.829 	285.093 	539.701 	
21.3822 	-0.00377407 	-0.490901 	-0.234401 	1.76321 	0.0104886 	-3.12536 	90.145 	64.371 	-0.595898 	269.928 	360.829 	285.093 	539.701 	
21.4853 	-0.00372757 	-0.493984 	-0.227943 	1.76321 	0.0106832 	-3.12531 	90.145 	65.4199 	-0.595898 	270.998 	360.829 	285.093 	539.701 	
21.5882 	-0.00368178 	-0.496953 	-0.221433 	1.76321 	0.0108788 	-3.12526 	90.145 	66.4209 	-0.595898 	271.994 	360.829 	285.093 	539.701 	
21.6912 	-0.00363672 	-0.499809 	-0.214872 	1.76321 	0.011075 	-3.12522 	90.145 	67.4177 	-0.595898 	272.999 	360.829 	285.093 	539.701 	
21.7942 	-0.00359239 	-0.502549 	-0.208262 	1.76321 	0.0112721 	-3.12518 	90.145 	68.4201 	-0.595898 	273.992 	360.829 	285.093 	539.701 	
21.8972 	-0.00354882 	-0.505174 	-0.201605 	1.7632 	0.0114698 	-3.12514 	90.145 	69.5321 	-0.595898 	275.095 	360.829 	285.093 	539.701 	
22.0003 	-0.003506 	-0.507682 	-0.194903 	1.7632 	0.0116681 	-3.12511 	90.145 	70.5312 	-0.595898 	276.091 	360.829 	285.093 	539.701 	
22.1032 	-0.00346397 	-0.510073 	-0.188159 	1.7632 	0.0118669 	-3.12508 	90.145 	71.5419 	-0.595898 	277.087 	360.829 	285.093 	539.701 	
22.2062 	-0.00342273 	-0.512346 	-0.181374 	1.7632 	0.0120662 	-3.12505 	90.145 	72.6407 	-0.595898 	278.19 	360.829 	285.093 	539.701 	
22.3095 	-0.00338228 	-0.5145 	-0.17455 	1.7632 	0.012266 	-3.12503 	90.145 	73.6539 	-0.595996 	279.187 	360.829 	285.093 	539.701 	
22.4173 	-0.00334266 	-0.516535 	-0.16769 	1.7632 	0.0124661 	-3.12501 	90.145 	74.751 	-0.595996 	280.297 	360.829 	285.093 	539.701 	
22.5201 	-0.00330386 	-0.518449 	-0.160795 	1.7632 	0.0126666 	-3.12499 	90.145 	75.7653 	-0.595898 	281.29 	360.829 	285.093 	539.701 	
22.623 	-0.00326589 	-0.520243 	-0.153868 	1.7632 	0.0128673 	-3.12498 	90.145 	76.7593 	-0.595898 	282.296 	360.829 	285.093 	539.701 	
22.7259 	-0.00322878 	-0.521916 	-0.14691 	1.7632 	0.0130681 	-3.12497 	90.145 	77.7712 	-0.595801 	283.291 	360.829 	285.093 	539.701 	
22.8303 	-0.00319253 	-0.523467 	-0.139925 	1.7632 	0.0132691 	-3.12497 	90.145 	78.8713 	-0.595898 	284.388 	360.829 	285.093 	539.701 	
22.9336 	-0.00312266 	-0.526202 	-0.125878 	1.7632 	0.0136712 	-3.12497 	90.145 	79.8837 	-0.595898 	285.395 	360.829 	285.093 	539.701 	
23.0359 	-0.00312266 	-0.526202 	-0.125878 	1.7632 	0.0136712 	-3.12497 	90.145 	80.9766 	-0.595898 	286.486 	360.829 	285.093 	539.701 	
23.1391 	-0.00305637 	-0.528445 	-0.111744 	1.7632 	0.014073 	-3.12498 	90.145 	81.9804 	-0.595898 	287.493 	360.829 	285.093 	539.701 	
23.2419 	-0.00302459 	-0.529382 	-0.10465 	1.7632 	0.0142737 	-3.12499 	90.145 	82.9845 	-0.595898 	288.482 	360.829 	285.093 	539.701 	
23.3456 	-0.00299374 	-0.530194 	-0.0975409 	1.7632 	0.0144741 	-3.12501 	90.145 	84.0814 	-0.595898 	289.583 	360.829 	285.093 	539.701 	
23.4512 	-0.00296381 	-0.530882 	-0.0904184 	1.76321 	0.0146743 	-3.12503 	90.145 	85.0826 	-0.595898 	290.586 	360.829 	285.093 	539.701 	
23.5543 	-0.00293483 	-0.531446 	-0.083285 	1.76321 	0.014874 	-3.12505 	90.145 	86.0835 	-0.595898 	291.591 	360.829 	285.093 	539.701 	
23.6572 	-0.0029068 	-0.531885 	-0.0761429 	1.76321 	0.0150734 	-3.12508 	90.145 	87.1829 	-0.595996 	292.692 	360.829 	285.093 	539.701 	
23.7602 	-0.00287973 	-0.532199 	-0.0689941 	1.76321 	0.0152722 	-3.12511 	90.145 	88.1865 	-0.595996 	293.699 	360.829 	285.093 	539.701 	
23.8632 	-0.00285363 	-0.532389 	-0.061841 	1.76321 	0.0154705 	-3.12514 	90.145 	89.1933 	-0.595996 	294.691 	360.829 	285.093 	539.701 	
23.966 	-0.00282851 	-0.532454 	-0.0546857 	1.76321 	0.0156682 	-3.12518 	90.145 	90.2809 	-0.595996 	295.788 	360.829 	285.093 	539.701 	
24.0694 	-0.00280436 	-0.532394 	-0.0475303 	1.76321 	0.0158652 	-3.12522 	90.145 	91.2852 	-0.595898 	296.796 	360.829 	285.093 	539.701 	
24.1723 	-0.00278121 	-0.532209 	-0.040377 	1.76321 	0.0160615 	-3.12526 	90.145 	92.2861 	-0.595898 	297.799 	360.829 	285.093 	539.701 	
24.2752 	-0.00275906 	-0.531898 	-0.0332282 	1.76321 	0.0162569 	-3.12531 	90.145 	93.3936 	-0.595898 	298.895 	360.829 	285.094 	539.701 	
24.3781 	-0.00273791 	-0.531464 	-0.0260857 	1.76321 	0.0164516 	-3.12536 	90.145 	94.3866 	-0.595898 	299.888 	360.829 	285.094 	539.701 	
24.4819 	-0.00271778 	-0.530905 	-0.018952 	1.76321 	0.0166453 	-3.12541 	90.145 	95.3886 	-0.595898 	300.898 	360.829 	285.094 	539.701 	
24.5854 	-0.00269866 	-0.530221 	-0.0118291 	1.76321 	0.0168381 	-3.12547 	90.145 	96.4858 	-0.595898 	301.988 	360.829 	285.094 	539.701 	
24.6881 	-0.00268056 	-0.529413 	-0.00471916 	1.76322 	0.0170298 	-3.12553 	90.145 	97.4799 	-0.595898 	302.988 	360.829 	285.094 	539.701 	
24.7912 	-0.00266349 	-0.528482 	0.0023755 	1.76322 	0.0172205 	-3.12559 	90.145 	98.482 	-0.595801 	303.98 	360.829 	285.094 	539.701 	
24.8942 	-0.00264746 	-0.527426 	0.00945292 	1.76322 	0.01741 	-3.12566 	90.145 	99.4721 	-0.595898 	304.988 	360.829 	285.094 	539.701 	
24.9973 	-0.00263247 	-0.526247 	0.0165107 	1.76322 	0.0175983 	-3.12573 	90.1449 	100.581 	-0.595898 	306.084 	360.829 	285.094 	539.701 	
25.1003 	-0.00261851 	-0.524946 	0.023547 	1.76322 	0.0177853 	-3.1258 	90.1449 	101.579 	-0.595898 	307.095 	360.829 	285.094 	539.701 	
25.2032 	-0.00260561 	-0.523521 	0.0305594 	1.76322 	0.0179711 	-3.12588 	90.1449 	102.582 	-0.595898 	308.095 	360.829 	285.094 	539.701 	
25.3061 	-0.00259376 	-0.521975 	0.0375459 	1.76322 	0.0181554 	-3.12596 	90.1449 	103.674 	-0.595898 	309.197 	360.829 	285.094 	539.701 	
25.4097 	-0.00258296 	-0.520306 	0.0445044 	1.76323 	0.0183384 	-3.12604 	90.1449 	104.686 	-0.595898 	310.195 	360.829 	285.094 	539.701 	
25.5171 	-0.00257322 	-0.518517 	0.0514326 	1.76323 	0.0185198 	-3.12613 	90.1449 	105.775 	-0.595898 	311.297 	360.829 	285.094 	539.701 	
25.6201 	-0.00256455 	-0.516607 	0.0583287 	1.76323 	0.0186997 	-3.12622 	90.1449 	106.77 	-0.595898 	312.294 	360.829 	285.094 	539.701 	
25.7232 	-0.00255693 	-0.514576 	0.0651902 	1.76323 	0.0188781 	-3.12631 	90.1449 	107.777 	-0.595898 	313.293 	360.829 	285.094 	539.701 	
25.8267 	-0.00255039 	-0.512427 	0.0720153 	1.76323 	0.0190547 	-3.12641 	90.1449 	108.867 	-0.595898 	314.388 	360.829 	285.094 	539.701 	
25.9298 	-0.00254491 	-0.510158 	0.0788019 	1.76324 	0.0192297 	-3.12651 	90.1449 	109.865 	-0.595898 	315.385 	360.829 	285.094 	539.701 	
26.0338 	-0.00253716 	-0.505268 	0.0922512 	1.76324 	0.0195743 	-3.12672 	90.1449 	110.845 	-0.595898 	316.382 	360.829 	285.094 	539.701 	
26.1366 	-0.00253828 	-0.505712 	0.100063 	1.75394 	0.0196513 	-3.12678 	90.1449 	111.952 	-0.595898 	317.223 	360.829 	285.094 	539.701 	
26.2402 	-0.00254245 	-0.508697 	0.108916 	1.73649 	0.0196471 	-3.1268 	90.1449 	112.937 	-0.595898 	317.346 	360.829 	285.094 	539.701 	
26.343 	-0.0025464 	-0.511527 	0.117819 	1.71903 	0.0196433 	-3.12683 	90.1449 	113.949 	-0.595898 	317.377 	360.829 	285.094 	539.701 	
26.4511 	-0.00255013 	-0.514201 	0.12677 	1.70158 	0.0196399 	-3.12685 	90.1449 	115.045 	-0.595898 	317.389 	360.829 	285.094 	539.701 	
26.5542 	-0.00255365 	-0.516718 	0.135767 	1.68413 	0.0196369 	-3.12688 	90.1449 	116.043 	-0.595898 	317.39 	360.829 	285.094 	539.701 	
26.5799 	-0.00255365 	-0.516718 	0.135767 	1.68413 	0.0196369 	-3.12688 	90.1449 	116.35 	-0.595898 	317.39 	360.829 	285.094 	539.701 	
26.6832 	-0.00255754 	-0.519679 	0.143348 	1.66703 	0.0196005 	-3.12688 	90.1449 	117.164 	-0.595898 	317.182 	360.829 	285.094 	539.701 	
26.7863 	-0.00256615 	-0.526196 	0.150255 	1.64162 	0.0194266 	-3.12681 	90.1449 	117.551 	-0.595898 	316.27 	360.829 	285.094 	539.701 	
26.8893 	-0.00257448 	-0.53163 	0.153123 	1.62417 	0.0192523 	-3.12673 	90.1449 	117.599 	-0.595898 	315.29 	360.829 	285.094 	539.701 	
26.9922 	-0.00258398 	-0.537013 	0.156085 	1.60671 	0.0190768 	-3.12665 	90.1449 	117.609 	-0.595898 	314.294 	360.829 	285.094 	539.701 	
27.0951 	-0.00259464 	-0.542343 	0.159141 	1.58926 	0.0188999 	-3.12658 	90.1449 	117.625 	-0.595996 	313.188 	360.829 	285.094 	539.701 	
27.1982 	-0.00260645 	-0.54762 	0.162289 	1.5718 	0.0187217 	-3.12651 	90.1449 	117.644 	-0.595898 	312.192 	360.829 	285.094 	539.701 	
27.3013 	-0.00261942 	-0.55284 	0.165529 	1.55435 	0.0185424 	-3.12645 	90.1449 	117.647 	-0.595898 	311.188 	360.829 	285.094 	539.701 	
27.4043 	-0.00263354 	-0.558003 	0.16886 	1.5369 	0.018362 	-3.12638 	90.1449 	117.647 	-0.595898 	310.179 	360.829 	285.094 	539.701 	
27.5073 	-0.00264881 	-0.563107 	0.17228 	1.51944 	0.0181805 	-3.12632 	90.1449 	117.648 	-0.595898 	309.076 	360.829 	285.094 	539.701 	
27.6103 	-0.00266522 	-0.568151 	0.175789 	1.50199 	0.017998 	-3.12627 	90.1449 	117.649 	-0.595898 	308.071 	360.829 	285.094 	539.701 	
27.7173 	-0.00268276 	-0.573133 	0.179385 	1.48453 	0.0178145 	-3.12621 	90.1449 	117.65 	-0.595898 	306.972 	360.829 	285.094 	539.701 	
27.8201 	-0.00270144 	-0.578051 	0.183067 	1.46708 	0.0176301 	-3.12616 	90.1449 	117.65 	-0.595996 	305.971 	360.829 	285.094 	539.701 	
27.923 	-0.00272124 	-0.582905 	0.186835 	1.44962 	0.0174449 	-3.12611 	90.1449 	117.651 	-0.595898 	304.963 	360.829 	285.094 	539.701 	
28.0288 	-0.00274216 	-0.587691 	0.190687 	1.43217 	0.0172588 	-3.12607 	90.1449 	117.653 	-0.595996 	303.856 	360.829 	285.094 	539.701 	
28.1338 	-0.00278733 	-0.59706 	0.198639 	1.39726 	0.0168846 	-3.12599 	90.1449 	117.654 	-0.595996 	302.847 	360.829 	285.094 	539.701 	
28.2368 	-0.00281157 	-0.601638 	0.202736 	1.37981 	0.0166965 	-3.12596 	90.1449 	117.66 	-0.595996 	301.744 	360.829 	285.094 	539.701 	
28.34 	-0.0028369 	-0.606145 	0.206912 	1.36235 	0.0165079 	-3.12593 	90.1449 	117.682 	-0.595996 	300.743 	360.829 	285.094 	539.701 	
28.4431 	-0.00286332 	-0.610577 	0.211167 	1.3449 	0.0163187 	-3.1259 	90.1449 	117.686 	-0.595996 	299.738 	360.829 	285.094 	539.701 	
28.551 	-0.00289081 	-0.614935 	0.215498 	1.32745 	0.0161291 	-3.12588 	90.1449 	117.688 	-0.595898 	298.646 	360.829 	285.094 	539.701 	
28.6542 	-0.00291937 	-0.619217 	0.219904 	1.30999 	0.0159391 	-3.12586 	90.1449 	117.688 	-0.595898 	297.632 	360.829 	285.094 	539.701 	
28.7571 	-0.00294898 	-0.623421 	0.224385 	1.29254 	0.0157488 	-3.12584 	90.1449 	117.689 	-0.595898 	296.543 	360.829 	285.094 	539.701 	
28.8602 	-0.00297965 	-0.627546 	0.228938 	1.27509 	0.0155582 	-3.12582 	90.1449 	117.69 	-0.595898 	295.532 	360.829 	285.094 	539.701 	
28.963 	-0.00301136 	-0.631591 	0.233563 	1.25763 	0.0153673 	-3.12581 	90.1449 	117.691 	-0.595996 	294.53 	360.829 	285.094 	539.701 	
29.0663 	-0.0030441 	-0.635555 	0.238258 	1.24018 	0.0151764 	-3.12581 	90.1449 	117.691 	-0.595898 	293.421 	360.829 	285.094 	539.701 	
29.1695 	-0.00307786 	-0.639436 	0.243021 	1.22273 	0.0149853 	-3.1258 	90.1449 	117.692 	-0.595996 	292.423 	360.829 	285.094 	539.701 	
29.2725 	-0.00311263 	-0.643234 	0.247851 	1.20527 	0.0147941 	-3.1258 	90.1449 	117.692 	-0.595996 	291.413 	360.829 	285.094 	539.701 	
29.3754 	-0.0031484 	-0.646946 	0.252746 	1.18782 	0.014603 	-3.1258 	90.1449 	117.693 	-0.595996 	290.303 	360.829 	285.094 	539.701 	
29.4781 	-0.00318516 	-0.650573 	0.257706 	1.17037 	0.014412 	-3.12581 	90.1449 	117.693 	-0.595898 	289.299 	360.829 	285.094 	539.701 	
29.5813 	-0.0032229 	-0.654112 	0.262728 	1.15291 	0.014221 	-3.12582 	90.1449 	117.693 	-0.595996 	288.292 	360.829 	285.094 	539.701 	
29.6842 	-0.0032616 	-0.657564 	0.267811 	1.13546 	0.0140303 	-3.12583 	90.1449 	117.694 	-0.595996 	287.298 	360.829 	285.094 	539.701 	
29.7874 	-0.00330126 	-0.660926 	0.272953 	1.11801 	0.0138398 	-3.12585 	90.1449 	117.694 	-0.595996 	286.187 	360.829 	285.094 	539.701 	
29.8901 	-0.00334186 	-0.664198 	0.278154 	1.10055 	0.0136496 	-3.12586 	90.1449 	117.695 	-0.595996 	285.188 	360.829 	285.094 	539.701 	
29.9934 	-0.00338339 	-0.667378 	0.283411 	1.0831 	0.0134598 	-3.12589 	90.1449 	117.695 	-0.595898 	284.181 	360.829 	285.094 	539.701 	
30.0961 	-0.00342584 	-0.670466 	0.288722 	1.06565 	0.0132704 	-3.12591 	90.145 	117.696 	-0.595898 	283.081 	360.829 	285.094 	539.701 	
30.1993 	-0.0034692 	-0.673462 	0.294087 	1.04819 	0.0130815 	-3.12594 	90.1449 	117.696 	-0.595996 	282.077 	360.829 	285.094 	539.701 	
30.3022 	-0.00351344 	-0.676363 	0.299502 	1.03074 	0.0128931 	-3.12597 	90.1449 	117.698 	-0.595996 	281.075 	360.829 	285.094 	539.701 	
30.4052 	-0.00355857 	-0.679169 	0.304968 	1.01329 	0.0127053 	-3.12601 	90.145 	117.714 	-0.595898 	279.96 	360.829 	285.094 	539.701 	
30.5087 	-0.00360455 	-0.681879 	0.310482 	0.995836 	0.0125182 	-3.12605 	90.145 	117.728 	-0.595898 	278.957 	360.829 	285.094 	539.701 	
30.6161 	-0.00365139 	-0.684492 	0.316043 	0.978383 	0.0123317 	-3.12609 	90.145 	117.736 	-0.595898 	277.851 	360.829 	285.094 	539.701 	
30.7211 	-0.00369907 	-0.687009 	0.321648 	0.96093 	0.0121461 	-3.12614 	90.145 	117.738 	-0.595898 	276.857 	360.829 	285.094 	539.701 	
30.8243 	-0.00374756 	-0.689427 	0.327296 	0.943478 	0.0119612 	-3.12618 	90.145 	117.738 	-0.595898 	275.851 	360.829 	285.094 	539.701 	
30.9299 	-0.00379686 	-0.691745 	0.332986 	0.926025 	0.0117772 	-3.12624 	90.145 	117.738 	-0.595898 	274.742 	360.829 	285.094 	539.701 	
31.0337 	-0.00384696 	-0.693965 	0.338715 	0.908573 	0.0115942 	-3.12629 	90.145 	117.739 	-0.595898 	273.747 	360.829 	285.094 	539.701 	
31.1371 	-0.00394946 	-0.698102 	0.350285 	0.873667 	0.0112311 	-3.12641 	90.145 	117.739 	-0.595898 	272.643 	360.829 	285.094 	539.701 	
31.24 	-0.00400183 	-0.700018 	0.356122 	0.856214 	0.0110512 	-3.12648 	90.1452 	117.741 	-0.595801 	271.629 	360.829 	285.094 	539.701 	
31.3429 	-0.00405494 	-0.701832 	0.361992 	0.838762 	0.0108724 	-3.12654 	90.1452 	117.742 	-0.595898 	270.625 	360.829 	285.094 	539.701 	
31.4513 	-0.00410876 	-0.703544 	0.367893 	0.821309 	0.0106949 	-3.12661 	90.145 	117.743 	-0.595996 	269.537 	360.829 	285.093 	539.701 	
31.554 	-0.00416327 	-0.705152 	0.373823 	0.803857 	0.0105186 	-3.12669 	90.1451 	117.744 	-0.595898 	268.528 	360.829 	285.093 	539.701 	
31.6574 	-0.00421847 	-0.706656 	0.37978 	0.786405 	0.0103436 	-3.12677 	90.145 	117.744 	-0.595898 	267.427 	360.829 	285.093 	539.701 	
31.7602 	-0.00427433 	-0.708057 	0.385762 	0.768952 	0.01017 	-3.12684 	90.1451 	117.745 	-0.595898 	266.418 	360.829 	285.093 	539.701 	
31.8633 	-0.00433083 	-0.709352 	0.391768 	0.7515 	0.00999783 	-3.12693 	90.1451 	117.745 	-0.595898 	265.42 	360.829 	285.093 	539.701 	
31.966 	-0.00438796 	-0.710543 	0.397795 	0.734047 	0.00982712 	-3.12701 	90.1452 	117.746 	-0.595898 	264.306 	360.829 	285.093 	539.701 	
32.0691 	-0.00444571 	-0.711628 	0.403842 	0.716595 	0.00965794 	-3.1271 	90.1452 	117.746 	-0.595801 	263.307 	360.829 	285.093 	539.701 	
32.1721 	-0.00450405 	-0.712608 	0.409908 	0.699142 	0.00949033 	-3.12719 	90.1452 	117.746 	-0.595801 	262.302 	360.829 	285.093 	539.701 	
32.2754 	-0.00456296 	-0.713481 	0.415989 	0.68169 	0.00932436 	-3.12729 	90.1452 	117.747 	-0.595898 	261.2 	360.829 	285.093 	539.701 	
32.3782 	-0.00462244 	-0.714249 	0.422085 	0.664237 	0.00916006 	-3.12739 	90.1453 	117.747 	-0.595801 	260.202 	360.829 	285.093 	539.701 	
32.4814 	-0.00468245 	-0.714909 	0.428193 	0.646785 	0.00899749 	-3.12749 	90.1453 	117.747 	-0.595801 	259.194 	360.829 	285.093 	539.701 	
32.5843 	-0.00474298 	-0.715463 	0.434312 	0.629333 	0.00883671 	-3.12759 	90.1453 	117.748 	-0.595898 	258.195 	360.829 	285.093 	539.701 	
32.6877 	-0.00480402 	-0.71591 	0.44044 	0.61188 	0.00867775 	-3.1277 	90.1453 	117.748 	-0.595898 	257.091 	360.829 	285.093 	539.701 	
32.7905 	-0.00486555 	-0.716251 	0.446574 	0.594428 	0.00852067 	-3.12781 	90.1453 	117.748 	-0.595898 	256.087 	360.829 	285.093 	539.701 	
32.8934 	-0.00492754 	-0.716484 	0.452714 	0.576975 	0.00836551 	-3.12792 	90.1453 	117.749 	-0.595898 	255.076 	360.829 	285.093 	539.701 	
32.9963 	-0.00498997 	-0.716609 	0.458856 	0.559523 	0.00821232 	-3.12803 	90.1453 	117.749 	-0.595898 	253.978 	360.829 	285.093 	539.701 	
33.0992 	-0.00505284 	-0.716628 	0.465 	0.54207 	0.00806115 	-3.12815 	90.1453 	117.75 	-0.595898 	252.975 	360.829 	285.093 	539.701 	
33.2023 	-0.00511611 	-0.716539 	0.471143 	0.524618 	0.00791205 	-3.12827 	90.1453 	117.75 	-0.595898 	251.982 	360.829 	285.093 	539.701 	
33.3054 	-0.00517977 	-0.716343 	0.477284 	0.507166 	0.00776505 	-3.12839 	90.1453 	117.75 	-0.595898 	250.875 	360.829 	285.092 	539.701 	
33.4085 	-0.00524381 	-0.71604 	0.48342 	0.489713 	0.00762021 	-3.12852 	90.1453 	117.751 	-0.595898 	249.868 	360.829 	285.092 	539.701 	
33.5178 	-0.00530819 	-0.71563 	0.48955 	0.472261 	0.00747757 	-3.12864 	90.1453 	117.779 	-0.595898 	248.768 	360.829 	285.092 	539.701 	
33.6209 	-0.00537291 	-0.715113 	0.495672 	0.454809 	0.00733717 	-3.12877 	90.1453 	117.787 	-0.595898 	247.763 	360.829 	285.092 	539.701 	
33.726 	-0.00543794 	-0.714489 	0.501784 	0.437357 	0.00719906 	-3.1289 	90.1453 	117.789 	-0.595898 	246.661 	360.829 	285.092 	539.701 	
33.8299 	-0.00550326 	-0.713759 	0.507885 	0.419904 	0.00706327 	-3.12904 	90.1453 	117.789 	-0.595898 	245.669 	360.829 	285.092 	539.701 	
33.9338 	-0.00563469 	-0.711979 	0.520042 	0.384999 	0.00679884 	-3.12932 	90.1453 	117.789 	-0.595898 	244.671 	360.829 	285.092 	539.701 	
34.0372 	-0.00570076 	-0.710931 	0.526096 	0.367547 	0.00667028 	-3.12946 	90.1453 	117.789 	-0.595898 	243.562 	360.829 	285.092 	539.701 	
34.14 	-0.00576705 	-0.709776 	0.532131 	0.350094 	0.0065442 	-3.1296 	90.1453 	117.79 	-0.595898 	242.566 	360.829 	285.092 	539.701 	
34.2431 	-0.00583353 	-0.708517 	0.538144 	0.332642 	0.00642066 	-3.12975 	90.1453 	117.79 	-0.595898 	241.557 	360.829 	285.091 	539.701 	
34.3512 	-0.00590018 	-0.707153 	0.544134 	0.31519 	0.00629968 	-3.12989 	90.1453 	117.79 	-0.595898 	240.459 	360.829 	285.091 	539.701 	
34.4543 	-0.00596698 	-0.705684 	0.5501 	0.297738 	0.00618129 	-3.13004 	90.1453 	117.79 	-0.595898 	239.454 	360.829 	285.091 	539.701 	
34.5571 	-0.00603391 	-0.704112 	0.556039 	0.280285 	0.00606555 	-3.1302 	90.1453 	117.791 	-0.595898 	238.355 	360.829 	285.091 	539.701 	
34.6602 	-0.00610095 	-0.702436 	0.56195 	0.262833 	0.00595247 	-3.13035 	90.1453 	117.791 	-0.595898 	237.353 	360.829 	285.091 	539.701 	
34.7632 	-0.00616808 	-0.700657 	0.567831 	0.24538 	0.00584211 	-3.13051 	90.1453 	117.791 	-0.595898 	236.359 	360.829 	285.091 	539.701 	
34.8663 	-0.00623528 	-0.698776 	0.57368 	0.227928 	0.00573448 	-3.13066 	90.1454 	117.791 	-0.595898 	235.258 	360.829 	285.091 	539.701 	
34.9694 	-0.00630252 	-0.696793 	0.579495 	0.210476 	0.00562963 	-3.13082 	90.1454 	117.791 	-0.595898 	234.259 	360.829 	285.091 	539.701 	
35.0723 	-0.0063698 	-0.694709 	0.585274 	0.193023 	0.00552758 	-3.13099 	90.1454 	117.791 	-0.595898 	233.252 	360.829 	285.091 	539.701 	
35.1751 	-0.00643708 	-0.692525 	0.591016 	0.175571 	0.00542837 	-3.13115 	90.1454 	117.791 	-0.595898 	232.156 	360.829 	285.091 	539.701 	
35.2783 	-0.00650436 	-0.69024 	0.59672 	0.158119 	0.00533202 	-3.13131 	90.1454 	117.792 	-0.595898 	231.158 	360.829 	285.091 	539.701 	
35.3814 	-0.00657159 	-0.687856 	0.602382 	0.140666 	0.00523857 	-3.13148 	90.1454 	117.792 	-0.595898 	230.148 	360.829 	285.091 	539.701 	
35.4843 	-0.00663878 	-0.685374 	0.608002 	0.123214 	0.00514804 	-3.13165 	90.1454 	117.792 	-0.595898 	229.148 	360.829 	285.09 	539.701 	
35.5872 	-0.00670589 	-0.682794 	0.613578 	0.105761 	0.00506047 	-3.13182 	90.1454 	117.792 	-0.595898 	228.047 	360.829 	285.09 	539.701 	
35.6904 	-0.0067729 	-0.680117 	0.619108 	0.0883086 	0.00497587 	-3.13199 	90.1454 	117.792 	-0.595898 	227.046 	360.829 	285.09 	539.701 	
35.7933 	-0.00683981 	-0.677344 	0.624591 	0.0708561 	0.00489428 	-3.13216 	90.1453 	117.792 	-0.595898 	226.048 	360.829 	285.09 	539.701 	
35.8962 	-0.00690657 	-0.674476 	0.630024 	0.0534036 	0.00481571 	-3.13234 	90.1454 	117.792 	-0.595898 	224.948 	360.829 	285.09 	539.701 	
35.9992 	-0.00697318 	-0.671514 	0.635406 	0.0359511 	0.0047402 	-3.13251 	90.1454 	117.792 	-0.595898 	223.947 	360.829 	285.09 	539.701 	
36.1021 	-0.00703961 	-0.668457 	0.640736 	0.0184986 	0.00466777 	-3.13269 	90.1454 	117.792 	-0.595898 	222.953 	360.829 	285.09 	539.701 	
36.2054 	-0.00710585 	-0.665309 	0.646011 	0.00104602 	0.00459843 	-3.13287 	90.1454 	117.792 	-0.595898 	221.948 	360.829 	285.09 	539.701 	
36.3082 	-0.00717187 	-0.662068 	0.651231 	-0.0164064 	0.00453221 	-3.13305 	90.1454 	117.792 	-0.595898 	220.853 	360.829 	285.09 	539.701 	
36.4356 	-0.00730318 	-0.655317 	0.661497 	-0.0513112 	0.00440921 	-3.13341 	90.1454 	117.792 	-0.595898 	219.548 	360.829 	285.09 	539.701 	
36.5391 	-0.00736844 	-0.651808 	0.666541 	-0.0687638 	0.00435247 	-3.13359 	90.1454 	117.792 	-0.595898 	218.551 	360.829 	285.089 	539.701 	
36.642 	-0.00743339 	-0.648211 	0.671522 	-0.0862164 	0.00429892 	-3.13378 	90.1454 	117.792 	-0.595898 	217.56 	360.829 	285.089 	539.701 	
36.7453 	-0.00749803 	-0.644528 	0.676439 	-0.103669 	0.00424858 	-3.13396 	90.1454 	117.792 	-0.595898 	216.558 	360.829 	285.089 	539.701 	
36.8513 	-0.00756233 	-0.64076 	0.681292 	-0.121121 	0.00420146 	-3.13415 	90.1454 	117.792 	-0.595898 	215.46 	360.829 	285.089 	539.701 	
36.9539 	-0.00762628 	-0.636907 	0.686078 	-0.138574 	0.00415759 	-3.13433 	90.1454 	117.792 	-0.595898 	214.454 	360.829 	285.089 	539.701 	
37.0571 	-0.00768985 	-0.632972 	0.690796 	-0.156027 	0.00411697 	-3.13452 	90.1454 	117.792 	-0.595898 	213.359 	360.829 	285.089 	539.701 	
37.1602 	-0.00775303 	-0.628955 	0.695444 	-0.173479 	0.00407961 	-3.13471 	90.1454 	117.792 	-0.595898 	212.352 	360.829 	285.088 	539.701 	
37.2632 	-0.00781579 	-0.624857 	0.700022 	-0.190931 	0.00404553 	-3.13489 	90.1454 	117.792 	-0.595898 	211.353 	360.829 	285.088 	539.701 	
37.3661 	-0.00787813 	-0.620681 	0.704528 	-0.208384 	0.00401474 	-3.13508 	90.1454 	117.792 	-0.595898 	210.254 	360.829 	285.088 	539.701 	
37.4693 	-0.00794001 	-0.616426 	0.70896 	-0.225837 	0.00398725 	-3.13527 	90.1454 	117.792 	-0.595898 	209.258 	360.829 	285.088 	539.701 	
37.5722 	-0.00800142 	-0.612094 	0.713317 	-0.243289 	0.00396306 	-3.13546 	90.1454 	117.792 	-0.595898 	208.255 	360.829 	285.087 	539.701 	
37.6751 	-0.00806234 	-0.607687 	0.717598 	-0.260742 	0.00394218 	-3.13565 	90.1454 	117.792 	-0.595898 	207.253 	360.829 	285.049 	539.701 	
37.7786 	-0.00812275 	-0.603206 	0.721801 	-0.278194 	0.00392462 	-3.13584 	90.1454 	117.792 	-0.595898 	206.154 	360.829 	285.042 	539.701 	
37.8814 	-0.00818263 	-0.598652 	0.725925 	-0.295647 	0.00391039 	-3.13603 	90.1454 	117.792 	-0.595898 	205.164 	360.829 	285.037 	539.701 	
37.9843 	-0.00824198 	-0.594027 	0.72997 	-0.3131 	0.00389948 	-3.13622 	90.1454 	117.792 	-0.595898 	204.161 	360.829 	285.034 	539.701 	
38.0873 	-0.00830075 	-0.589332 	0.733933 	-0.330552 	0.00389191 	-3.13641 	90.1454 	117.792 	-0.595996 	203.063 	360.829 	285.028 	539.701 	
38.1903 	-0.00835895 	-0.584569 	0.737813 	-0.348005 	0.00388767 	-3.13661 	90.1454 	117.792 	-0.595996 	202.069 	360.829 	285.007 	539.701 	
38.2935 	-0.00841655 	-0.579738 	0.74161 	-0.365457 	0.00388677 	-3.1368 	90.1454 	117.792 	-0.595996 	201.066 	360.829 	285.001 	539.701 	
38.3964 	-0.00847354 	-0.574842 	0.745322 	-0.38291 	0.0038892 	-3.13699 	90.1454 	117.792 	-0.595996 	199.976 	360.829 	284.998 	539.701 	
38.4995 	-0.00852989 	-0.569882 	0.748947 	-0.400362 	0.00389497 	-3.13718 	90.1454 	117.792 	-0.595996 	198.976 	360.829 	284.997 	539.701 	
38.6025 	-0.00858559 	-0.56486 	0.752486 	-0.417815 	0.00390407 	-3.13737 	90.1454 	117.792 	-0.595996 	197.971 	360.829 	284.996 	539.701 	
38.7051 	-0.00864062 	-0.559776 	0.755937 	-0.435268 	0.0039165 	-3.13756 	90.1454 	117.792 	-0.595996 	196.964 	360.829 	284.995 	539.701 	
38.8082 	-0.00869497 	-0.554633 	0.759298 	-0.45272 	0.00393226 	-3.13775 	90.1454 	117.792 	-0.595996 	195.873 	360.829 	284.995 	539.701 	
38.9174 	-0.00874862 	-0.549433 	0.762569 	-0.470172 	0.00395134 	-3.13794 	90.1454 	117.792 	-0.595996 	194.776 	360.829 	284.994 	539.701 	
39.0201 	-0.00880156 	-0.544175 	0.765748 	-0.487625 	0.00397374 	-3.13813 	90.1454 	117.792 	-0.595996 	193.764 	360.829 	284.993 	539.701 	
39.1229 	-0.00885376 	-0.538864 	0.768836 	-0.505078 	0.00399944 	-3.13832 	90.1454 	117.792 	-0.595996 	192.775 	360.829 	284.992 	539.701 	
39.2258 	-0.00890521 	-0.533499 	0.77183 	-0.52253 	0.00402845 	-3.13851 	90.1451 	117.792 	-0.595996 	191.681 	360.829 	284.991 	539.701 	
39.3304 	-0.00895589 	-0.528082 	0.77473 	-0.539983 	0.00406075 	-3.1387 	90.1452 	117.792 	-0.595996 	190.694 	360.829 	284.99 	539.701 	
39.4341 	-0.0090058 	-0.522616 	0.777535 	-0.557435 	0.00409633 	-3.13889 	90.1451 	117.792 	-0.595996 	189.694 	360.829 	284.989 	539.701 	
39.537 	-0.00910321 	-0.511541 	0.782857 	-0.59234 	0.0041773 	-3.13926 	90.145 	117.792 	-0.595996 	188.59 	360.829 	284.988 	539.701 	
39.6401 	-0.00915069 	-0.505935 	0.785373 	-0.609793 	0.00422266 	-3.13944 	90.1449 	117.792 	-0.595996 	187.587 	360.829 	284.986 	539.701 	
39.7432 	-0.00919732 	-0.500287 	0.78779 	-0.627245 	0.00427125 	-3.13963 	90.1447 	117.792 	-0.595996 	186.593 	360.829 	284.983 	539.701 	
39.8512 	-0.0092431 	-0.494597 	0.790108 	-0.644698 	0.00432307 	-3.13981 	90.1447 	117.792 	-0.595996 	185.498 	360.829 	284.951 	539.701 	
39.9544 	-0.00928802 	-0.488867 	0.792326 	-0.662151 	0.00437809 	-3.14 	90.1448 	117.792 	-0.595996 	184.497 	360.829 	284.941 	539.701 	
40.057 	-0.00933205 	-0.4831 	0.794444 	-0.679603 	0.00443629 	-3.14018 	90.1447 	117.792 	-0.595996 	183.404 	360.829 	284.938 	539.701 	
40.1602 	-0.00937519 	-0.477296 	0.796461 	-0.697056 	0.00449766 	-3.14036 	90.1447 	117.792 	-0.595996 	182.398 	360.829 	284.936 	539.701 	
40.2634 	-0.00941742 	-0.471458 	0.798377 	-0.714508 	0.00456218 	-3.14054 	90.1447 	117.792 	-0.595996 	181.406 	360.829 	284.935 	539.701 	
40.3664 	-0.00945873 	-0.465588 	0.80019 	-0.731961 	0.00462983 	-3.14072 	90.1405 	117.792 	-0.595996 	180.304 	360.829 	284.933 	539.701 	
40.4692 	-0.00949911 	-0.459687 	0.801901 	-0.749413 	0.00470059 	-3.1409 	90.1405 	117.792 	-0.595996 	179.32 	360.829 	284.933 	539.701 	
40.5724 	-0.00953854 	-0.453757 	0.803508 	-0.766865 	0.00477444 	-3.14107 	90.1405 	117.792 	-0.595996 	178.32 	360.829 	284.932 	539.701 	
40.6757 	-0.00957702 	-0.4478 	0.805012 	-0.784318 	0.00485135 	-3.14125 	90.1404 	117.792 	-0.595996 	177.321 	360.829 	284.931 	539.701 	
40.7781 	-0.00961452 	-0.441817 	0.806411 	-0.80177 	0.00493131 	-3.14142 	90.1404 	117.792 	-0.595996 	176.223 	360.829 	284.931 	539.701 	
40.8814 	-0.00965105 	-0.435811 	0.807706 	-0.819223 	0.00501428 	-3.14159 	90.1404 	117.792 	-0.595996 	175.231 	360.829 	284.931 	539.701 	
40.9843 	-0.00968658 	-0.429783 	0.808896 	-0.836675 	0.00510025 	3.14142 	90.1404 	117.792 	-0.595996 	174.236 	360.829 	284.93 	539.701 	
41.0872 	-0.00972111 	-0.423736 	0.80998 	-0.854128 	0.00518918 	3.14125 	90.1403 	117.792 	-0.595996 	173.145 	360.829 	284.929 	539.701 	
41.1904 	-0.00975463 	-0.41767 	0.810959 	-0.87158 	0.00528105 	3.14109 	90.1403 	117.792 	-0.595996 	172.133 	360.829 	284.929 	539.701 	
41.2933 	-0.00978712 	-0.411588 	0.811832 	-0.889033 	0.00537583 	3.14092 	90.1403 	117.792 	-0.595996 	171.14 	360.829 	284.928 	539.701 	
41.3964 	-0.00981858 	-0.405492 	0.812598 	-0.906485 	0.0054735 	3.14076 	90.1403 	117.792 	-0.595996 	170.044 	360.829 	284.928 	539.701 	
41.4991 	-0.009849 	-0.399384 	0.813258 	-0.923937 	0.00557402 	3.14059 	90.1403 	117.792 	-0.595996 	169.05 	360.829 	284.927 	539.701 	
41.602 	-0.00987836 	-0.393264 	0.813811 	-0.94139 	0.00567735 	3.14043 	90.1402 	117.792 	-0.595996 	168.062 	360.829 	284.927 	539.701 	
41.7058 	-0.00990667 	-0.387136 	0.814257 	-0.958842 	0.00578348 	3.14027 	90.1402 	117.792 	-0.595996 	167.057 	360.829 	284.926 	539.701 	
41.8083 	-0.0099339 	-0.381002 	0.814596 	-0.976295 	0.00589237 	3.14012 	90.1403 	117.792 	-0.595996 	165.964 	360.829 	284.925 	539.701 	
41.9176 	-0.00996006 	-0.374862 	0.814829 	-0.993747 	0.00600398 	3.13996 	90.1402 	117.791 	-0.595996 	164.873 	360.829 	284.925 	539.701 	
42.0201 	-0.00998513 	-0.368719 	0.814954 	-1.0112 	0.00611829 	3.13981 	90.1402 	117.791 	-0.595996 	163.88 	360.829 	284.924 	539.701 	
42.1236 	-0.0100091 	-0.362575 	0.814971 	-1.02865 	0.00623524 	3.13966 	90.1402 	117.791 	-0.595996 	162.877 	360.829 	284.923 	539.701 	
42.2259 	-0.010032 	-0.356432 	0.814882 	-1.0461 	0.00635482 	3.13951 	90.1402 	117.791 	-0.595996 	161.789 	360.829 	284.921 	539.701 	
42.33 	-0.0100744 	-0.344154 	0.814381 	-1.08101 	0.00660169 	3.13922 	90.1402 	117.791 	-0.595898 	160.783 	360.829 	284.915 	539.701 	
42.4339 	-0.0100939 	-0.338024 	0.81397 	-1.09846 	0.00672891 	3.13907 	90.1402 	117.791 	-0.595898 	159.786 	360.829 	284.907 	539.701 	
42.5368 	-0.0101123 	-0.331901 	0.813452 	-1.11591 	0.0068586 	3.13893 	90.1402 	117.791 	-0.595996 	158.695 	360.829 	284.903 	539.701 	
42.6392 	-0.0101296 	-0.325789 	0.812828 	-1.13337 	0.00699072 	3.13879 	90.1402 	117.791 	-0.595898 	157.697 	360.829 	284.9 	539.701 	
42.7421 	-0.0101458 	-0.319688 	0.812097 	-1.15082 	0.00712523 	3.13866 	90.1401 	117.791 	-0.595898 	156.699 	360.829 	284.897 	539.701 	
42.8454 	-0.0101607 	-0.313602 	0.811259 	-1.16827 	0.00726209 	3.13852 	90.1402 	117.791 	-0.595996 	155.699 	360.829 	284.89 	539.701 	
42.9512 	-0.0101746 	-0.30753 	0.810315 	-1.18572 	0.00740126 	3.13839 	90.1402 	117.791 	-0.595898 	154.61 	360.829 	284.871 	539.701 	
43.0545 	-0.0101873 	-0.301476 	0.809266 	-1.20318 	0.00754269 	3.13827 	90.1402 	117.791 	-0.595996 	153.609 	360.829 	284.864 	539.701 	
43.1571 	-0.0101988 	-0.295442 	0.808111 	-1.22063 	0.00768635 	3.13814 	90.1401 	117.791 	-0.595898 	152.518 	360.829 	284.859 	539.701 	
43.2601 	-0.0102092 	-0.289428 	0.806851 	-1.23808 	0.00783218 	3.13802 	90.1401 	117.791 	-0.595898 	151.521 	360.829 	284.857 	539.701 	
43.3631 	-0.0102184 	-0.283438 	0.805486 	-1.25553 	0.00798015 	3.13789 	90.1401 	117.791 	-0.595898 	150.532 	360.829 	284.856 	539.701 	
43.4665 	-0.0102265 	-0.277472 	0.804017 	-1.27298 	0.0081302 	3.13778 	90.1401 	117.79 	-0.595898 	149.434 	360.829 	284.854 	539.701 	
43.5693 	-0.0102334 	-0.271532 	0.802444 	-1.29044 	0.0082823 	3.13766 	90.1401 	117.79 	-0.595898 	148.44 	360.829 	284.854 	539.701 	
43.6721 	-0.0102391 	-0.265621 	0.800767 	-1.30789 	0.0084364 	3.13755 	90.1401 	117.79 	-0.595898 	147.442 	360.829 	284.853 	539.701 	
43.7753 	-0.0102436 	-0.25974 	0.798988 	-1.32534 	0.00859245 	3.13744 	90.1401 	117.79 	-0.595898 	146.438 	360.829 	284.852 	539.701 	
43.8785 	-0.010247 	-0.253891 	0.797106 	-1.34279 	0.0087504 	3.13733 	90.1401 	117.79 	-0.595898 	145.347 	360.829 	284.852 	539.701 	
43.9817 	-0.0102492 	-0.248076 	0.795122 	-1.36025 	0.0089102 	3.13722 	90.14 	117.79 	-0.595898 	144.348 	360.829 	284.852 	539.701 	
44.0843 	-0.0102502 	-0.242297 	0.793037 	-1.3777 	0.00907181 	3.13712 	90.14 	117.79 	-0.595898 	143.359 	360.829 	284.851 	539.701 	
44.1873 	-0.0102501 	-0.236554 	0.790852 	-1.39515 	0.00923517 	3.13702 	90.1401 	117.789 	-0.595898 	142.26 	360.829 	284.851 	539.701 	
44.2902 	-0.0102488 	-0.230851 	0.788567 	-1.4126 	0.00940025 	3.13693 	90.1401 	117.789 	-0.595898 	141.258 	360.829 	284.851 	539.701 	
44.3934 	-0.0102463 	-0.225188 	0.786182 	-1.43006 	0.00956697 	3.13683 	90.14 	117.789 	-0.595898 	140.263 	360.829 	284.851 	539.701 	
44.4964 	-0.0102426 	-0.219568 	0.7837 	-1.44751 	0.00973531 	3.13674 	90.14 	117.789 	-0.595898 	139.174 	360.829 	284.851 	539.701 	
44.6009 	-0.0102378 	-0.213992 	0.781119 	-1.46496 	0.0099052 	3.13666 	90.14 	117.789 	-0.595898 	138.172 	360.829 	284.851 	539.701 	
44.7044 	-0.0102318 	-0.208462 	0.778441 	-1.48241 	0.0100766 	3.13657 	90.14 	117.788 	-0.595898 	137.178 	360.829 	284.851 	539.701 	
44.8074 	-0.0102246 	-0.202979 	0.775668 	-1.49987 	0.0102494 	3.13649 	90.14 	117.788 	-0.595898 	136.082 	360.829 	284.85 	539.701 	
44.9107 	-0.0102162 	-0.197546 	0.772799 	-1.51732 	0.0104237 	3.13641 	90.14 	117.788 	-0.595898 	135.084 	360.829 	284.85 	539.701 	
45.0167 	-0.0102067 	-0.192164 	0.769836 	-1.53477 	0.0105993 	3.13633 	90.14 	117.787 	-0.595898 	133.987 	360.829 	284.85 	539.701 	
45.1193 	-0.0101961 	-0.186834 	0.766779 	-1.55222 	0.0107761 	3.13626 	90.14 	117.776 	-0.595898 	132.996 	360.829 	284.85 	539.701 	
45.2221 	-0.0101842 	-0.181558 	0.76363 	-1.56968 	0.0109542 	3.13619 	90.14 	117.774 	-0.595898 	131.995 	360.829 	284.85 	539.701 	
45.3261 	-0.0101712 	-0.176338 	0.760389 	-1.58713 	0.0111335 	3.13613 	90.14 	117.774 	-0.595898 	130.907 	360.829 	284.85 	539.701 	
45.4302 	-0.0101571 	-0.171176 	0.757057 	-1.60458 	0.011314 	3.13606 	90.14 	117.773 	-0.595898 	129.907 	360.829 	284.85 	539.701 	
45.5339 	-0.0101254 	-0.161029 	0.750127 	-1.63949 	0.011678 	3.13595 	90.14 	117.773 	-0.595898 	128.909 	360.829 	284.85 	539.701 	
45.6371 	-0.0101079 	-0.156048 	0.74653 	-1.65694 	0.0118615 	3.13589 	90.14 	117.772 	-0.595801 	127.817 	360.829 	284.85 	539.701 	
45.7401 	-0.0100892 	-0.151131 	0.742847 	-1.67439 	0.0120458 	3.13584 	90.14 	117.772 	-0.595801 	126.81 	360.829 	284.85 	539.701 	
45.8435 	-0.0100694 	-0.146279 	0.739078 	-1.69184 	0.012231 	3.1358 	90.14 	117.771 	-0.595898 	125.824 	360.829 	284.85 	539.701 	
45.9477 	-0.0100484 	-0.141493 	0.735226 	-1.70929 	0.0124171 	3.13575 	90.14 	117.76 	-0.595898 	124.726 	360.829 	284.85 	539.701 	
46.0514 	-0.0100264 	-0.136775 	0.73129 	-1.72674 	0.0126038 	3.13571 	90.14 	117.735 	-0.595801 	123.726 	360.829 	284.85 	539.701 	
46.1543 	-0.0100032 	-0.132127 	0.727273 	-1.7442 	0.0127913 	3.13567 	90.14 	117.734 	-0.595898 	122.737 	360.829 	284.85 	539.701 	
46.2574 	-0.00997898 	-0.12755 	0.723175 	-1.76165 	0.0129793 	3.13564 	90.14 	117.732 	-0.595898 	121.638 	360.829 	284.85 	539.701 	
46.3602 	-0.00995364 	-0.123044 	0.718998 	-1.7791 	0.0131679 	3.13561 	90.14 	117.731 	-0.595801 	120.648 	360.829 	284.85 	539.701 	
46.4636 	-0.00992722 	-0.118613 	0.714743 	-1.79655 	0.0133571 	3.13558 	90.14 	117.731 	-0.595801 	119.639 	360.829 	284.85 	539.701 	
46.5663 	-0.00989972 	-0.114256 	0.710412 	-1.814 	0.0135467 	3.13556 	90.14 	117.731 	-0.595898 	118.562 	360.829 	284.85 	539.701 	
46.6693 	-0.00987115 	-0.109975 	0.706005 	-1.83145 	0.0137366 	3.13554 	90.14 	117.729 	-0.595801 	117.556 	360.829 	284.849 	539.701 	
46.772 	-0.00984152 	-0.105773 	0.701524 	-1.84891 	0.0139269 	3.13552 	90.14 	117.728 	-0.595801 	116.552 	360.829 	284.849 	539.701 	
46.8751 	-0.00981085 	-0.101648 	0.69697 	-1.86636 	0.0141175 	3.1355 	90.14 	117.722 	-0.595898 	115.554 	360.829 	284.849 	539.701 	
46.9787 	-0.00977913 	-0.0976045 	0.692345 	-1.88381 	0.0143084 	3.13549 	90.14 	117.719 	-0.595801 	114.473 	360.829 	284.849 	539.701 	
47.0003 	-0.00977913 	-0.0976045 	0.692345 	-1.88381 	0.0143084 	3.13549 	90.14 	117.719 	-0.595801 	114.298 	360.829 	284.849 	539.701 	
47.1034 	-0.00975956 	-0.0948919 	0.689516 	-1.89428 	0.0144271 	3.13547 	90.14 	117.718 	-0.595898 	113.814 	360.829 	284.474 	539.701 	
47.2064 	-0.00980448 	-0.0925385 	0.695447 	-1.87054 	0.0142621 	3.13511 	90.14 	117.717 	-0.595898 	113.71 	360.829 	282.516 	539.701 	
47.3099 	-0.00987445 	-0.0899731 	0.704289 	-1.83563 	0.0139967 	3.13462 	90.14 	117.716 	-0.595801 	113.688 	360.829 	280.502 	539.701 	
47.4175 	-0.00994893 	-0.0877178 	0.713214 	-1.80072 	0.0137143 	3.13414 	90.1399 	117.715 	-0.595898 	113.672 	360.829 	278.309 	539.701 	
47.5211 	-0.0100278 	-0.0857753 	0.722214 	-1.76581 	0.0134152 	3.13366 	90.1399 	117.712 	-0.595801 	113.67 	360.829 	276.33 	539.701 	
47.624 	-0.010111 	-0.0841482 	0.731275 	-1.7309 	0.0130998 	3.1332 	90.1399 	117.705 	-0.595801 	113.669 	360.829 	274.309 	539.701 	
47.7304 	-0.0101984 	-0.0828383 	0.740388 	-1.69599 	0.0127684 	3.13275 	90.1399 	117.696 	-0.595703 	113.669 	360.829 	272.121 	539.701 	
47.8346 	-0.0102899 	-0.0818472 	0.74954 	-1.66108 	0.0124214 	3.13231 	90.1395 	117.691 	-0.595605 	113.669 	360.829 	270.109 	539.701 	
47.9369 	-0.0104848 	-0.080826 	0.767922 	-1.59126 	0.0116825 	3.13147 	90.1395 	117.689 	-0.595801 	113.668 	360.829 	267.905 	539.701 	
48.0402 	-0.0105879 	-0.0807971 	0.777128 	-1.55635 	0.0112915 	3.13106 	90.1395 	117.689 	-0.595605 	113.668 	360.829 	265.917 	539.701 	
48.1434 	-0.0106947 	-0.0810896 	0.786329 	-1.52144 	0.0108867 	3.13068 	90.1395 	117.689 	-0.595703 	113.668 	360.829 	263.887 	539.701 	
48.2514 	-0.0108049 	-0.081703 	0.795515 	-1.48653 	0.0104686 	3.1303 	90.1395 	117.689 	-0.595703 	113.668 	360.829 	261.691 	539.701 	
48.3541 	-0.0109185 	-0.0826366 	0.804673 	-1.45163 	0.0100378 	3.12995 	90.1395 	117.689 	-0.595605 	113.667 	360.829 	259.711 	539.701 	
48.4575 	-0.0110354 	-0.0838893 	0.813794 	-1.41672 	0.00959478 	3.1296 	90.1395 	117.689 	-0.595801 	113.667 	360.829 	257.494 	539.701 	
48.5602 	-0.0111553 	-0.0854595 	0.822864 	-1.38181 	0.00914007 	3.12928 	90.1395 	117.689 	-0.595703 	113.667 	360.829 	255.496 	539.701 	
48.6633 	-0.0112782 	-0.0873453 	0.831874 	-1.34691 	0.00867425 	3.12897 	90.1395 	117.688 	-0.595703 	113.667 	360.829 	253.522 	539.701 	
48.7664 	-0.0114038 	-0.0895443 	0.840813 	-1.312 	0.00819785 	3.12867 	90.1395 	117.688 	-0.595703 	113.667 	360.829 	251.319 	539.701 	
48.8697 	-0.0115321 	-0.092054 	0.849669 	-1.2771 	0.00771148 	3.12839 	90.1395 	117.688 	-0.595605 	113.666 	360.829 	249.297 	539.701 	
48.9723 	-0.0116628 	-0.0948712 	0.858433 	-1.2422 	0.00721571 	3.12813 	90.1395 	117.689 	-0.595703 	113.666 	360.829 	247.315 	539.701 	
49.0758 	-0.0117959 	-0.0979926 	0.867092 	-1.20729 	0.00671115 	3.12789 	90.1395 	117.689 	-0.595703 	113.666 	360.829 	245.314 	539.701 	
49.1783 	-0.0119311 	-0.101414 	0.875638 	-1.17239 	0.00619842 	3.12766 	90.1395 	117.689 	-0.595898 	113.666 	360.829 	243.126 	539.701 	
49.2813 	-0.0120684 	-0.105132 	0.884059 	-1.13749 	0.00567813 	3.12746 	90.1395 	117.688 	-0.595703 	113.666 	360.829 	241.111 	539.701 	
49.3844 	-0.0122074 	-0.109142 	0.892344 	-1.10258 	0.00515094 	3.12727 	90.1395 	117.688 	-0.595801 	113.665 	360.829 	239.125 	539.701 	
49.4873 	-0.0123481 	-0.113438 	0.900485 	-1.06768 	0.00461746 	3.1271 	90.1395 	117.689 	-0.595508 	113.665 	360.829 	236.933 	539.701 	
49.5903 	-0.0124903 	-0.118015 	0.908471 	-1.03278 	0.00407836 	3.12695 	90.1395 	117.688 	-0.595312 	113.664 	360.829 	234.919 	539.701 	
49.6935 	-0.0126338 	-0.122869 	0.916292 	-0.997878 	0.0035343 	3.12681 	90.1395 	117.689 	-0.595801 	113.663 	360.829 	232.923 	539.701 	
49.7961 	-0.0127784 	-0.127993 	0.92394 	-0.962976 	0.00298592 	3.1267 	90.1394 	117.689 	-0.595312 	113.663 	360.829 	230.753 	539.701 	
49.8993 	-0.012924 	-0.13338 	0.931403 	-0.928074 	0.00243391 	3.12661 	90.1395 	117.689 	-0.595703 	113.662 	360.829 	228.748 	539.701 	
50.0022 	-0.0130704 	-0.139025 	0.938674 	-0.893172 	0.00187894 	3.12653 	90.1395 	117.689 	-0.595898 	113.661 	360.829 	226.749 	539.701 	
50.1057 	-0.0132174 	-0.14492 	0.945744 	-0.858271 	0.00132168 	3.12647 	90.1394 	117.689 	-0.595312 	113.661 	360.829 	224.743 	539.701 	
50.2087 	-0.0133648 	-0.151058 	0.952603 	-0.823369 	0.000762812 	3.12644 	90.1394 	117.689 	-0.595508 	113.66 	360.829 	222.564 	539.701 	
50.3193 	-0.0135124 	-0.157432 	0.959244 	-0.788468 	0.000203015 	3.12642 	90.1395 	117.689 	-0.595703 	113.659 	360.829 	220.558 	539.701 	
50.4223 	-0.0136601 	-0.164034 	0.965659 	-0.753566 	-0.000357033 	3.12642 	90.1395 	117.689 	-0.595703 	113.658 	360.829 	218.371 	539.701 	
50.5261 	-0.0138077 	-0.170855 	0.971839 	-0.718664 	-0.000916646 	3.12645 	90.1395 	117.689 	-0.595605 	113.658 	360.829 	216.576 	539.701 	
50.6299 	-0.013955 	-0.177888 	0.977777 	-0.683763 	-0.00147514 	3.12649 	90.1394 	117.689 	-0.595605 	113.657 	360.829 	214.179 	539.701 	
50.7338 	-0.014248 	-0.192555 	0.988899 	-0.613959 	-0.00258606 	3.12663 	90.1395 	117.689 	-0.595801 	113.656 	360.829 	212.173 	539.701 	
50.8362 	-0.0143934 	-0.20017 	0.99407 	-0.579058 	-0.00313714 	3.12673 	90.1394 	117.689 	-0.595508 	113.655 	360.829 	210.194 	539.701 	
50.9392 	-0.0145377 	-0.207961 	0.998972 	-0.544156 	-0.00368439 	3.12685 	90.1394 	117.689 	-0.595508 	113.655 	360.829 	207.984 	539.701 	
51.0424 	-0.0146809 	-0.215919 	1.0036 	-0.509254 	-0.00422715 	3.12699 	90.1394 	117.689 	-0.595605 	113.654 	360.829 	206.007 	539.701 	
51.1517 	-0.0148227 	-0.224033 	1.00794 	-0.474351 	-0.00476477 	3.12714 	90.1394 	117.689 	-0.595508 	113.653 	360.829 	203.818 	539.701 	
51.2543 	-0.0149629 	-0.232294 	1.012 	-0.439449 	-0.00529658 	3.12732 	90.1394 	117.689 	-0.595508 	113.65 	360.829 	201.809 	539.701 	
51.3572 	-0.0151015 	-0.240692 	1.01577 	-0.404546 	-0.00582195 	3.12751 	90.1394 	117.689 	-0.595508 	113.647 	360.829 	199.622 	539.701 	
51.4604 	-0.0152382 	-0.249216 	1.01925 	-0.369643 	-0.00634021 	3.12773 	90.1394 	117.689 	-0.595508 	113.64 	360.829 	197.616 	539.701 	
51.5633 	-0.0153728 	-0.257857 	1.02242 	-0.33474 	-0.00685076 	3.12796 	90.1394 	117.689 	-0.595605 	113.635 	360.829 	195.62 	539.701 	
51.6664 	-0.0155053 	-0.266603 	1.02529 	-0.299837 	-0.00735296 	3.1282 	90.1394 	117.689 	-0.595508 	113.633 	360.829 	193.627 	539.701 	
51.7696 	-0.0156354 	-0.275443 	1.02786 	-0.264933 	-0.00784621 	3.12847 	90.1394 	117.689 	-0.595508 	113.631 	360.829 	191.43 	539.701 	
51.8723 	-0.0157629 	-0.284368 	1.03011 	-0.230029 	-0.0083299 	3.12875 	90.1394 	117.689 	-0.595508 	113.63 	360.829 	189.458 	539.701 	
51.9755 	-0.0158878 	-0.293366 	1.03205 	-0.195126 	-0.00880344 	3.12905 	90.1394 	117.689 	-0.595508 	113.629 	360.829 	187.459 	539.701 	
52.0783 	-0.0160099 	-0.302427 	1.03368 	-0.160221 	-0.00926626 	3.12937 	90.1394 	117.689 	-0.595508 	113.627 	360.829 	185.257 	539.701 	
52.1813 	-0.016129 	-0.311539 	1.03499 	-0.125316 	-0.00971779 	3.1297 	90.1394 	117.689 	-0.595508 	113.627 	360.829 	183.266 	539.701 	
52.2842 	-0.016245 	-0.320691 	1.03598 	-0.0904113 	-0.0101575 	3.13004 	90.1394 	117.689 	-0.595508 	113.626 	360.829 	181.284 	539.701 	
52.3873 	-0.0163577 	-0.329871 	1.03665 	-0.0555059 	-0.0105848 	3.13041 	90.1394 	117.689 	-0.595508 	113.626 	360.829 	179.079 	539.701 	
52.4904 	-0.016467 	-0.33907 	1.037 	-0.0206004 	-0.0109992 	3.13078 	90.1394 	117.69 	-0.595605 	113.625 	360.829 	177.098 	539.701 	
52.5941 	-0.0165727 	-0.348276 	1.03702 	0.0143056 	-0.0114003 	3.13117 	90.1394 	117.69 	-0.595508 	113.624 	360.829 	175.107 	539.701 	
52.6966 	-0.0166748 	-0.357476 	1.03673 	0.049212 	-0.0117874 	3.13158 	90.1394 	117.69 	-0.595605 	113.623 	360.829 	173.111 	539.701 	
52.7992 	-0.0167731 	-0.366661 	1.03612 	0.0841184 	-0.0121602 	3.132 	90.1394 	117.69 	-0.595508 	113.623 	360.829 	170.9 	539.701 	
52.9023 	-0.0168675 	-0.375819 	1.03518 	0.119025 	-0.0125181 	3.13243 	90.1394 	117.69 	-0.59541 	113.622 	360.829 	168.905 	539.701 	
53.0055 	-0.0169579 	-0.384939 	1.03393 	0.153932 	-0.0128608 	3.13287 	90.1394 	117.69 	-0.59541 	113.621 	360.829 	166.921 	539.701 	
53.1088 	-0.0170442 	-0.39401 	1.03236 	0.18884 	-0.0131879 	3.13332 	90.1394 	117.69 	-0.595605 	113.62 	360.829 	164.736 	539.701 	
53.2176 	-0.0171262 	-0.40302 	1.03047 	0.223748 	-0.0134989 	3.13379 	90.1395 	117.69 	-0.595703 	113.618 	360.829 	162.535 	539.701 	
53.3209 	-0.0172039 	-0.411959 	1.02827 	0.258656 	-0.0137934 	3.13427 	90.138 	117.69 	-0.594824 	113.618 	360.829 	160.551 	539.701 	
53.4252 	-0.0172771 	-0.420815 	1.02576 	0.293564 	-0.0140711 	3.13475 	90.1382 	117.69 	-0.595508 	113.618 	360.829 	158.555 	539.701 	
53.529 	-0.0174099 	-0.438239 	1.01982 	0.363382 	-0.0145749 	3.13575 	90.1392 	117.692 	-0.596191 	113.615 	360.829 	156.37 	539.701 	
53.6336 	-0.0174694 	-0.446785 	1.0164 	0.398291 	-0.0148002 	3.13627 	90.1356 	117.691 	-0.594141 	113.615 	360.829 	154.369 	539.701 	
53.737 	-0.0175241 	-0.455207 	1.01268 	0.4332 	-0.0150076 	3.13679 	90.1263 	117.691 	-0.592383 	113.613 	360.829 	152.174 	539.701 	
53.8401 	-0.0175739 	-0.463493 	1.00867 	0.46811 	-0.0151966 	3.13731 	90.1263 	117.692 	-0.59209 	113.61 	360.829 	150.2 	539.701 	
53.9431 	-0.0176189 	-0.471635 	1.00437 	0.503019 	-0.0153671 	3.13785 	90.1338 	117.697 	-0.597754 	113.607 	360.829 	148.229 	539.701 	
54.0511 	-0.0176589 	-0.479621 	0.999792 	0.537929 	-0.015519 	3.13839 	90.1159 	117.694 	-0.591602 	113.606 	360.829 	145.988 	539.701 	
54.1543 	-0.017694 	-0.487443 	0.994937 	0.572839 	-0.0156519 	3.13893 	90.1159 	117.696 	-0.59248 	113.603 	360.829 	144.024 	539.701 	
54.2575 	-0.017724 	-0.495091 	0.989813 	0.607749 	-0.0157657 	3.13948 	90.1277 	117.698 	-0.598828 	113.594 	360.829 	141.842 	539.701 	
54.3607 	-0.017749 	-0.502555 	0.984424 	0.64266 	-0.0158603 	3.14003 	90.1108 	117.697 	-0.594141 	113.588 	360.829 	139.832 	539.701 	
54.4635 	-0.0177688 	-0.509827 	0.978779 	0.67757 	-0.0159356 	3.14059 	90.1095 	117.698 	-0.596191 	113.583 	360.829 	137.824 	539.701 	
54.5663 	-0.0177835 	-0.516898 	0.972883 	0.71248 	-0.0159915 	3.14114 	90.1097 	117.698 	-0.596777 	113.58 	360.829 	135.852 	539.701 	
54.6694 	-0.0177931 	-0.523758 	0.966744 	0.747391 	-0.0160279 	-3.14148 	90.1096 	117.699 	-0.596387 	113.578 	360.829 	133.656 	539.701 	
54.7725 	-0.0177976 	-0.5304 	0.96037 	0.782302 	-0.0160448 	-3.14092 	90.1096 	117.698 	-0.596484 	113.577 	360.829 	131.652 	539.701 	
54.8753 	-0.0177969 	-0.536815 	0.953767 	0.817212 	-0.0160421 	-3.14036 	90.1099 	117.699 	-0.59707 	113.576 	360.829 	129.69 	539.701 	
54.9783 	-0.017791 	-0.542997 	0.946945 	0.852123 	-0.0160199 	-3.1398 	90.1089 	117.699 	-0.596289 	113.576 	360.829 	127.48 	539.701 	
55.0817 	-0.0177807 	-0.548645 	0.940268 	0.885288 	-0.0159807 	-3.13927 	90.1093 	117.699 	-0.596973 	113.575 	360.829 	125.684 	539.701 	
55.1848 	-0.017771 	-0.552381 	0.935593 	0.90798 	-0.0159438 	-3.13891 	90.109 	117.699 	-0.596484 	113.575 	360.829 	124.493 	539.701 	
68.7909 	-0.0177646 	-0.554405 	0.932966 	0.920558 	-0.0159198 	-3.13871 	90.1096 	117.7 	-0.597363 	113.573 	360.829 	123.823 	539.701 	
68.8941 	-0.017767 	-0.553906 	0.933471 	0.918114 	-0.0159276 	-3.13874 	90.1096 	117.7 	-0.597168 	113.572 	360.829 	124.099 	539.701 	
68.9972 	-0.0177798 	-0.54941 	0.939188 	0.890534 	-0.015976 	-3.13918 	90.1096 	117.7 	-0.597266 	113.571 	360.829 	125.989 	539.701 	
69.1002 	-0.0177914 	-0.543495 	0.946242 	0.855624 	-0.0160198 	-3.13974 	90.1096 	117.7 	-0.597266 	113.57 	360.829 	127.972 	539.701 	
69.2033 	-0.0177978 	-0.537338 	0.953086 	0.820713 	-0.0160442 	-3.1403 	90.1096 	117.7 	-0.597168 	113.565 	360.829 	129.966 	539.701 	
69.3063 	-0.017799 	-0.530945 	0.959711 	0.785803 	-0.0160489 	-3.14086 	90.1096 	117.7 	-0.597266 	113.564 	360.829 	131.985 	539.701 	
69.4094 	-0.0177951 	-0.524326 	0.966108 	0.750892 	-0.0160342 	-3.14142 	90.1096 	117.7 	-0.597363 	113.562 	360.829 	134.166 	539.701 	
69.5174 	-0.0177861 	-0.517487 	0.972271 	0.715982 	-0.0159999 	3.1412 	90.1095 	117.7 	-0.59707 	113.561 	360.829 	136.371 	539.701 	
69.62 	-0.0177719 	-0.510437 	0.978192 	0.681071 	-0.0159461 	3.14065 	90.1096 	117.7 	-0.597266 	113.56 	360.829 	138.375 	539.701 	
69.724 	-0.0177526 	-0.503185 	0.983863 	0.646161 	-0.0158728 	3.14009 	90.1096 	117.7 	-0.597363 	113.56 	360.829 	140.345 	539.701 	
69.827 	-0.0177282 	-0.49574 	0.989277 	0.611251 	-0.0157802 	3.13954 	90.1096 	117.7 	-0.597168 	113.559 	360.829 	142.549 	539.701 	
69.9332 	-0.0176642 	-0.480305 	0.99931 	0.54143 	-0.0155376 	3.13844 	90.1096 	117.7 	-0.597363 	113.559 	360.829 	144.541 	539.701 	
70.036 	-0.0176247 	-0.472334 	1.00392 	0.506521 	-0.0153877 	3.1379 	90.1096 	117.7 	-0.597266 	113.559 	360.829 	146.554 	539.701 	
70.1393 	-0.0175802 	-0.464208 	1.00824 	0.471611 	-0.0152192 	3.13737 	90.1096 	117.7 	-0.597168 	113.559 	360.829 	148.732 	539.701 	
70.2423 	-0.0175309 	-0.455936 	1.01228 	0.436701 	-0.015032 	3.13684 	90.1096 	117.7 	-0.597461 	113.559 	360.829 	150.72 	539.701 	
70.3513 	-0.0174767 	-0.447527 	1.01603 	0.401792 	-0.0148266 	3.13632 	90.1096 	117.7 	-0.597168 	113.559 	360.829 	152.913 	539.701 	
70.4543 	-0.0174177 	-0.438993 	1.01948 	0.366883 	-0.0146031 	3.13581 	90.1096 	117.7 	-0.597461 	113.559 	360.829 	154.917 	539.701 	
70.5573 	-0.0173541 	-0.430344 	1.02263 	0.331974 	-0.0143618 	3.1353 	90.1096 	117.7 	-0.597266 	113.559 	360.829 	157.091 	539.701 	
70.6603 	-0.0172859 	-0.42159 	1.02548 	0.297065 	-0.0141031 	3.1348 	90.1096 	117.7 	-0.597168 	113.559 	360.829 	159.103 	539.701 	
70.7631 	-0.0172131 	-0.412743 	1.02802 	0.262157 	-0.0138271 	3.13432 	90.1096 	117.7 	-0.597363 	113.559 	360.829 	161.085 	539.701 	
70.8663 	-0.0171359 	-0.403811 	1.03026 	0.227249 	-0.0135343 	3.13384 	90.1096 	117.7 	-0.597168 	113.559 	360.829 	163.092 	539.701 	
70.9693 	-0.0170543 	-0.394808 	1.03217 	0.192341 	-0.013225 	3.13337 	90.1096 	117.7 	-0.597363 	113.559 	360.829 	165.275 	539.701 	
71.0724 	-0.0169685 	-0.385743 	1.03378 	0.157433 	-0.0128996 	3.13292 	90.1096 	117.7 	-0.597266 	113.559 	360.829 	167.265 	539.701 	
71.1755 	-0.0168785 	-0.376627 	1.03506 	0.122526 	-0.0125585 	3.13247 	90.1096 	117.7 	-0.597168 	113.559 	360.829 	169.269 	539.701 	
71.2786 	-0.0167845 	-0.367473 	1.03603 	0.0876194 	-0.012202 	3.13204 	90.1096 	117.7 	-0.597266 	113.559 	360.829 	171.463 	539.701 	
71.3815 	-0.0166866 	-0.35829 	1.03668 	0.0527127 	-0.0118308 	3.13162 	90.1096 	117.7 	-0.597266 	113.559 	360.829 	173.444 	539.701 	
71.4844 	-0.0165849 	-0.34909 	1.037 	0.0178065 	-0.0114451 	3.13121 	90.1096 	117.7 	-0.597266 	113.56 	360.829 	175.437 	539.701 	
71.5875 	-0.0164795 	-0.339885 	1.03701 	-0.0170995 	-0.0110454 	3.13082 	90.1096 	117.7 	-0.597266 	113.56 	360.829 	177.651 	539.701 	
71.6905 	-0.0163705 	-0.330685 	1.03669 	-0.0520053 	-0.0106323 	3.13044 	90.1096 	117.7 	-0.597266 	113.56 	360.829 	179.644 	539.701 	
71.7936 	-0.0162582 	-0.321502 	1.03605 	-0.0869105 	-0.0102063 	3.13008 	90.1096 	117.7 	-0.597266 	113.56 	360.829 	181.617 	539.701 	
71.8964 	-0.0161425 	-0.312347 	1.03509 	-0.121816 	-0.00976778 	3.12973 	90.1096 	117.7 	-0.597266 	113.56 	360.829 	183.609 	539.701 	
71.9995 	-0.0160237 	-0.30323 	1.03382 	-0.15672 	-0.0093174 	3.1294 	90.1096 	117.7 	-0.597363 	113.56 	360.829 	185.79 	539.701 	
72.1027 	-0.015902 	-0.294164 	1.03222 	-0.191625 	-0.00885567 	3.12908 	90.1096 	117.7 	-0.597168 	113.56 	360.829 	187.792 	539.701 	
72.2057 	-0.0157773 	-0.285159 	1.03031 	-0.226529 	-0.00838315 	3.12878 	90.1096 	117.7 	-0.597266 	113.56 	360.829 	189.763 	539.701 	
72.3088 	-0.01565 	-0.276226 	1.02809 	-0.261433 	-0.00790042 	3.12849 	90.1096 	117.7 	-0.597266 	113.56 	360.829 	191.971 	539.701 	
72.4168 	-0.0155202 	-0.267377 	1.02556 	-0.296336 	-0.00740806 	3.12823 	90.1096 	117.699 	-0.597266 	113.561 	360.829 	193.964 	539.701 	
72.5191 	-0.0153879 	-0.258621 	1.02272 	-0.33124 	-0.00690669 	3.12798 	90.1096 	117.699 	-0.597168 	113.561 	360.829 	196.149 	539.701 	
72.6223 	-0.0152535 	-0.24997 	1.01957 	-0.366143 	-0.0063969 	3.12775 	90.1096 	117.699 	-0.597266 	113.561 	360.829 	198.157 	539.701 	
72.7253 	-0.015117 	-0.241433 	1.01613 	-0.401046 	-0.00587931 	3.12753 	90.1096 	117.699 	-0.597266 	113.561 	360.829 	200.132 	539.701 	
72.8282 	-0.0149786 	-0.233022 	1.01239 	-0.435948 	-0.00535457 	3.12734 	90.1096 	117.699 	-0.597266 	113.561 	360.829 	202.333 	539.701 	
72.9325 	-0.0148385 	-0.224747 	1.00836 	-0.470851 	-0.0048233 	3.12716 	90.1096 	117.699 	-0.597168 	113.561 	360.829 	204.328 	539.701 	
73.0352 	-0.0146968 	-0.216618 	1.00404 	-0.505753 	-0.00428616 	3.127 	90.1096 	117.699 	-0.597168 	113.561 	360.829 	206.329 	539.701 	
73.1381 	-0.0144095 	-0.200835 	0.994567 	-0.575557 	-0.00319688 	3.12674 	90.1096 	117.699 	-0.597363 	113.562 	360.829 	208.508 	539.701 	
73.2404 	-0.0142642 	-0.193202 	0.989423 	-0.610459 	-0.00264607 	3.12664 	90.1096 	117.699 	-0.597168 	113.562 	360.829 	210.476 	539.701 	
73.3435 	-0.0141181 	-0.185753 	0.984016 	-0.645361 	-0.00209203 	3.12655 	90.1096 	117.699 	-0.597168 	113.562 	360.829 	212.484 	539.701 	
73.4514 	-0.0139713 	-0.178497 	0.978352 	-0.680262 	-0.00153544 	3.12649 	90.1096 	117.698 	-0.597559 	113.563 	360.829 	214.679 	539.701 	
73.5545 	-0.013824 	-0.171443 	0.972438 	-0.715164 	-0.000976985 	3.12645 	90.1095 	117.698 	-0.596973 	113.563 	360.829 	216.655 	539.701 	
73.6574 	-0.0136764 	-0.1646 	0.966282 	-0.750066 	-0.000417336 	3.12642 	90.1096 	117.698 	-0.597559 	113.563 	360.829 	218.88 	539.701 	
73.7604 	-0.0135286 	-0.157975 	0.959891 	-0.784967 	0.000142816 	3.12642 	90.1096 	117.698 	-0.597168 	113.564 	360.829 	220.852 	539.701 	
73.8634 	-0.0133809 	-0.151578 	0.953272 	-0.819869 	0.000702798 	3.12643 	90.1096 	117.698 	-0.597266 	113.564 	360.829 	222.85 	539.701 	
73.9664 	-0.0132335 	-0.145416 	0.946434 	-0.85477 	0.00126192 	3.12647 	90.1096 	117.698 	-0.597363 	113.565 	360.829 	224.842 	539.701 	
74.0694 	-0.0130864 	-0.139497 	0.939385 	-0.889672 	0.00181951 	3.12652 	90.1096 	117.698 	-0.597168 	113.565 	360.829 	227.022 	539.701 	
74.1724 	-0.0129399 	-0.133827 	0.932134 	-0.924574 	0.00237488 	3.12659 	90.1096 	117.698 	-0.597266 	113.566 	360.829 	229.035 	539.701 	
74.2755 	-0.0127942 	-0.128413 	0.924689 	-0.959476 	0.00292736 	3.12669 	90.1096 	117.698 	-0.597559 	113.566 	360.829 	231.024 	539.701 	
74.3788 	-0.0126494 	-0.123263 	0.91706 	-0.994378 	0.00347627 	3.1268 	90.1095 	117.697 	-0.59707 	113.567 	360.829 	233.219 	539.701 	
74.4816 	-0.0125058 	-0.118382 	0.909256 	-1.02928 	0.00402095 	3.12693 	90.1096 	117.691 	-0.597363 	113.567 	360.829 	235.214 	539.701 	
74.5843 	-0.0123634 	-0.113776 	0.901286 	-1.06418 	0.00456073 	3.12708 	90.1096 	117.691 	-0.597168 	113.567 	360.829 	237.195 	539.701 	
74.6876 	-0.0122225 	-0.109451 	0.89316 	-1.09908 	0.00509496 	3.12725 	90.1096 	117.691 	-0.597168 	113.568 	360.829 	239.394 	539.701 	
74.7907 	-0.0120833 	-0.105413 	0.884889 	-1.13399 	0.00562298 	3.12743 	90.1096 	117.691 	-0.597266 	113.568 	360.829 	241.391 	539.701 	
74.8935 	-0.0119458 	-0.101666 	0.876481 	-1.16889 	0.00614415 	3.12764 	90.1096 	117.691 	-0.597266 	113.568 	360.829 	243.381 	539.701 	
74.9967 	-0.0118103 	-0.0982139 	0.867948 	-1.20379 	0.00665784 	3.12786 	90.1096 	117.691 	-0.597266 	113.569 	360.829 	245.369 	539.701 	
75.0997 	-0.011677 	-0.0950623 	0.859299 	-1.2387 	0.00716342 	3.1281 	90.1096 	117.691 	-0.597266 	113.57 	360.829 	247.595 	539.701 	
75.2027 	-0.0115459 	-0.0922144 	0.850546 	-1.2736 	0.00766027 	3.12836 	90.1096 	117.691 	-0.597266 	113.57 	360.829 	249.572 	539.701 	
75.3055 	-0.0114174 	-0.0896737 	0.841698 	-1.3085 	0.00814779 	3.12864 	90.1096 	117.691 	-0.597266 	113.571 	360.829 	251.571 	539.701 	
75.4087 	-0.0112914 	-0.0874434 	0.832767 	-1.34341 	0.00862539 	3.12893 	90.1096 	117.691 	-0.597266 	113.572 	360.829 	253.765 	539.701 	
75.5167 	-0.0111682 	-0.0855261 	0.823764 	-1.37831 	0.00909248 	3.12924 	90.1096 	117.69 	-0.597168 	113.573 	360.829 	255.777 	539.701 	
75.6195 	-0.0110479 	-0.0839242 	0.814699 	-1.41322 	0.00954852 	3.12957 	90.1096 	117.69 	-0.597266 	113.574 	360.829 	257.945 	539.701 	
75.723 	-0.0109307 	-0.0826395 	0.805583 	-1.44813 	0.00999293 	3.12991 	90.1096 	117.69 	-0.597266 	113.574 	360.829 	259.948 	539.701 	
75.8282 	-0.0108167 	-0.0816738 	0.796427 	-1.48303 	0.0104252 	3.13026 	90.1096 	117.69 	-0.597266 	113.574 	360.829 	261.759 	539.701 	
75.9328 	-0.0107061 	-0.0810283 	0.787244 	-1.51794 	0.0108447 	3.13063 	90.1096 	117.69 	-0.597266 	113.574 	360.829 	264.168 	539.701 	
76.0353 	-0.0105989 	-0.0807036 	0.778044 	-1.55285 	0.011251 	3.13102 	90.1096 	117.69 	-0.597266 	113.574 	360.829 	266.15 	539.701 	
76.1381 	-0.0103956 	-0.0810182 	0.759637 	-1.62267 	0.0120221 	3.13183 	90.1096 	117.69 	-0.597266 	113.574 	360.829 	268.357 	539.701 	
76.2415 	-0.0102996 	-0.0816571 	0.750453 	-1.65758 	0.0123859 	3.13226 	90.1096 	117.69 	-0.597266 	113.574 	360.829 	270.367 	539.701 	
76.3447 	-0.0102077 	-0.0826162 	0.741297 	-1.69249 	0.0127346 	3.1327 	90.1096 	117.69 	-0.597168 	113.574 	360.829 	272.361 	539.701 	
76.4516 	-0.0101198 	-0.0838942 	0.73218 	-1.7274 	0.0130677 	3.13315 	90.1096 	117.69 	-0.597363 	113.574 	360.829 	274.55 	539.701 	
76.5547 	-0.0100361 	-0.0854896 	0.723113 	-1.76231 	0.013385 	3.13361 	90.1096 	117.69 	-0.597168 	113.574 	360.829 	276.571 	539.701 	
76.6575 	-0.00995676 	-0.0874005 	0.714107 	-1.79722 	0.0136859 	3.13408 	90.1096 	117.69 	-0.597266 	113.574 	360.829 	278.772 	539.701 	
76.7606 	-0.00988179 	-0.0896245 	0.705173 	-1.83213 	0.0139702 	3.13456 	90.1096 	117.69 	-0.597266 	113.574 	360.829 	280.759 	539.701 	
76.8634 	-0.00981131 	-0.092159 	0.696322 	-1.86704 	0.0142375 	3.13506 	90.1096 	117.69 	-0.597266 	113.574 	360.829 	282.746 	539.701 	
76.9667 	-0.00975886 	-0.0943786 	0.689396 	-1.89462 	0.0144363 	3.13545 	90.1096 	117.69 	-0.597266 	113.574 	360.829 	284.321 	539.701 	
76.9834 	-0.00975886 	-0.0943786 	0.689396 	-1.89462 	0.0144363 	3.13545 	90.1096 	117.69 	-0.597266 	113.574 	360.829 	284.458 	539.701 	
77.0866 	-0.00976088 	-0.095377 	0.689719 	-1.8936 	0.0144154 	3.13549 	90.1096 	117.69 	-0.597266 	113.81 	360.829 	284.616 	539.701 	
77.1896 	-0.00979318 	-0.0993755 	0.694384 	-1.87615 	0.0142245 	3.1355 	90.1096 	117.69 	-0.597266 	114.743 	360.829 	284.647 	539.701 	
77.2929 	-0.00982444 	-0.103455 	0.698977 	-1.8587 	0.0140338 	3.13551 	90.1096 	117.69 	-0.597266 	115.725 	360.829 	284.652 	539.701 	
77.3957 	-0.00985465 	-0.107614 	0.703499 	-1.84125 	0.0138433 	3.13553 	90.1096 	117.69 	-0.597266 	116.715 	360.829 	284.655 	539.701 	
77.4986 	-0.00988381 	-0.111851 	0.707948 	-1.82379 	0.0136531 	3.13555 	90.1096 	117.69 	-0.597266 	117.814 	360.829 	284.657 	539.701 	
77.6014 	-0.00991191 	-0.116165 	0.712322 	-1.80634 	0.0134633 	3.13557 	90.1096 	117.69 	-0.597168 	118.801 	360.829 	284.658 	539.701 	
77.7052 	-0.00993894 	-0.120555 	0.71662 	-1.78889 	0.0132739 	3.13559 	90.1096 	117.69 	-0.597266 	119.801 	360.829 	284.658 	539.701 	
77.8078 	-0.00996489 	-0.125019 	0.720841 	-1.77144 	0.013085 	3.13562 	90.1096 	117.69 	-0.597363 	120.893 	360.829 	284.658 	539.701 	
77.9173 	-0.00998975 	-0.129556 	0.724983 	-1.75399 	0.0128966 	3.13565 	90.1096 	117.69 	-0.597266 	121.893 	360.829 	284.659 	539.701 	
78.0195 	-0.0100135 	-0.134165 	0.729045 	-1.73654 	0.0127088 	3.13569 	90.1096 	117.69 	-0.597266 	122.886 	360.829 	284.659 	539.701 	
78.1226 	-0.0100362 	-0.138844 	0.733027 	-1.71909 	0.0125217 	3.13573 	90.1096 	117.69 	-0.597266 	123.977 	360.829 	284.659 	539.701 	
78.2283 	-0.0100782 	-0.148406 	0.740741 	-1.68418 	0.0121496 	3.13582 	90.1096 	117.69 	-0.597461 	125.084 	360.829 	284.659 	539.701 	
78.3315 	-0.0100975 	-0.153287 	0.744473 	-1.66673 	0.0119647 	3.13586 	90.1096 	117.69 	-0.597363 	126.079 	360.829 	284.659 	539.701 	
78.4347 	-0.0101157 	-0.158232 	0.748118 	-1.64928 	0.0117807 	3.13592 	90.1096 	117.69 	-0.597266 	127.074 	360.829 	284.66 	539.701 	
78.5374 	-0.0101327 	-0.163241 	0.751676 	-1.63183 	0.0115977 	3.13597 	90.1096 	117.691 	-0.597461 	128.17 	360.829 	284.66 	539.701 	
78.6405 	-0.0101487 	-0.168311 	0.755147 	-1.61437 	0.0114156 	3.13603 	90.1096 	117.691 	-0.597363 	129.165 	360.829 	284.66 	539.701 	
78.7436 	-0.0101634 	-0.17344 	0.758529 	-1.59692 	0.0112346 	3.13609 	90.1096 	117.691 	-0.597363 	130.167 	360.829 	284.66 	539.701 	
78.8506 	-0.0101771 	-0.178628 	0.761821 	-1.57947 	0.0110546 	3.13616 	90.1096 	117.691 	-0.597266 	131.265 	360.829 	284.66 	539.701 	
78.9536 	-0.0101895 	-0.183873 	0.765022 	-1.56202 	0.0108758 	3.13622 	90.1096 	117.691 	-0.597461 	132.263 	360.829 	284.66 	539.701 	
79.0564 	-0.0102009 	-0.189172 	0.76813 	-1.54456 	0.0106983 	3.13629 	90.1096 	117.691 	-0.597461 	133.252 	360.829 	284.66 	539.701 	
79.1597 	-0.010211 	-0.194525 	0.771146 	-1.52711 	0.010522 	3.13637 	90.1096 	117.691 	-0.597559 	134.356 	360.829 	284.66 	539.701 	
79.2627 	-0.01022 	-0.19993 	0.774068 	-1.50966 	0.010347 	3.13644 	90.1096 	117.691 	-0.597461 	135.339 	360.829 	284.66 	539.701 	
79.3657 	-0.0102279 	-0.205385 	0.776895 	-1.49221 	0.0101733 	3.13652 	90.1096 	117.691 	-0.597559 	136.342 	360.829 	284.66 	539.701 	
79.4688 	-0.0102345 	-0.210889 	0.779626 	-1.47475 	0.0100011 	3.13661 	90.1097 	117.691 	-0.597656 	137.434 	360.829 	284.66 	539.701 	
79.5719 	-0.01024 	-0.216439 	0.782261 	-1.4573 	0.00983037 	3.13669 	90.1097 	117.691 	-0.597656 	138.434 	360.829 	284.66 	539.701 	
79.6747 	-0.0102443 	-0.222035 	0.784799 	-1.43985 	0.00966116 	3.13678 	90.1097 	117.691 	-0.597656 	139.435 	360.829 	284.66 	539.701 	
79.7775 	-0.0102475 	-0.227674 	0.787239 	-1.4224 	0.00949352 	3.13687 	90.1097 	117.691 	-0.597656 	140.526 	360.829 	284.66 	539.701 	
79.8808 	-0.0102495 	-0.233355 	0.789579 	-1.40494 	0.00932752 	3.13697 	90.1098 	117.692 	-0.597656 	141.521 	360.829 	284.66 	539.701 	
79.9838 	-0.0102503 	-0.239075 	0.791821 	-1.38749 	0.00916319 	3.13707 	90.1098 	117.692 	-0.597754 	142.516 	360.829 	284.66 	539.701 	
80.0869 	-0.0102499 	-0.244834 	0.793962 	-1.37004 	0.00900058 	3.13717 	90.1098 	117.691 	-0.597656 	143.525 	360.829 	284.66 	539.701 	
80.1897 	-0.0102484 	-0.25063 	0.796002 	-1.35259 	0.00883976 	3.13727 	90.11 	117.692 	-0.597754 	144.62 	360.829 	284.66 	539.701 	
80.2928 	-0.0102456 	-0.25646 	0.797941 	-1.33514 	0.00868077 	3.13738 	90.1109 	117.692 	-0.598047 	145.618 	360.829 	284.66 	539.701 	
80.3957 	-0.0102418 	-0.262323 	0.799778 	-1.31768 	0.00852365 	3.13749 	90.1124 	117.692 	-0.597949 	146.594 	360.829 	284.661 	539.701 	
80.4987 	-0.0102367 	-0.268217 	0.801512 	-1.30023 	0.00836845 	3.1376 	90.113 	117.692 	-0.597949 	147.7 	360.829 	284.661 	539.701 	
80.6019 	-0.0102305 	-0.274141 	0.803143 	-1.28278 	0.00821523 	3.13771 	90.1152 	117.692 	-0.598145 	148.691 	360.829 	284.661 	539.701 	
80.7049 	-0.0102231 	-0.280092 	0.804671 	-1.26533 	0.00806402 	3.13783 	90.117 	117.692 	-0.598145 	149.691 	360.829 	284.661 	539.701 	
80.8077 	-0.0102145 	-0.286069 	0.806094 	-1.24787 	0.00791487 	3.13795 	90.1242 	117.692 	-0.598145 	150.783 	360.829 	284.661 	539.701 	
80.9172 	-0.0102048 	-0.29207 	0.807413 	-1.23042 	0.00776784 	3.13807 	90.1339 	117.692 	-0.598438 	151.781 	360.829 	284.662 	539.701 	
81.0197 	-0.0101939 	-0.298093 	0.808627 	-1.21297 	0.00762295 	3.13819 	90.1425 	117.693 	-0.598926 	152.869 	360.829 	284.662 	539.701 	
81.1227 	-0.0101818 	-0.304136 	0.809736 	-1.19552 	0.00748027 	3.13832 	90.1435 	117.692 	-0.599121 	153.88 	360.829 	284.663 	539.701 	
81.2256 	-0.0101686 	-0.310198 	0.810739 	-1.17806 	0.00733983 	3.13845 	90.143 	117.693 	-0.598828 	154.87 	360.829 	284.663 	539.701 	
81.3287 	-0.0101543 	-0.316276 	0.811636 	-1.16061 	0.00720167 	3.13858 	90.1474 	117.693 	-0.599023 	155.966 	360.829 	284.663 	539.701 	
81.4319 	-0.0101388 	-0.322369 	0.812427 	-1.14316 	0.00706583 	3.13872 	90.147 	117.693 	-0.598926 	156.963 	360.829 	284.663 	539.701 	
81.5343 	-0.0101044 	-0.334592 	0.813689 	-1.10825 	0.00680131 	3.13899 	90.1471 	117.693 	-0.599023 	157.962 	360.829 	284.664 	539.701 	
81.6375 	-0.0100855 	-0.340718 	0.81416 	-1.0908 	0.0066727 	3.13914 	90.1478 	117.693 	-0.599121 	159.064 	360.829 	284.664 	539.701 	
81.7405 	-0.0100654 	-0.346851 	0.814523 	-1.07335 	0.00654658 	3.13928 	90.148 	117.693 	-0.599121 	160.056 	360.829 	284.664 	539.701 	
81.8433 	-0.0100443 	-0.35299 	0.81478 	-1.0559 	0.00642298 	3.13942 	90.148 	117.692 	-0.599023 	161.066 	360.829 	284.665 	539.701 	
81.9505 	-0.010022 	-0.359132 	0.81493 	-1.03844 	0.00630194 	3.13957 	90.1484 	117.693 	-0.599121 	162.158 	360.829 	284.665 	539.701 	
82.0537 	-0.00999868 	-0.365276 	0.814972 	-1.02099 	0.00618351 	3.13972 	90.1481 	117.693 	-0.598926 	163.069 	360.829 	284.665 	539.701 	
82.1568 	-0.00997422 	-0.371419 	0.814907 	-1.00354 	0.00606771 	3.13987 	90.1482 	117.693 	-0.598926 	164.048 	360.829 	284.665 	539.701 	
82.2597 	-0.00994867 	-0.377561 	0.814735 	-0.986088 	0.00595459 	3.14003 	90.1497 	117.711 	-0.598926 	165.233 	360.829 	284.665 	539.701 	
82.3628 	-0.00992204 	-0.383699 	0.814456 	-0.968636 	0.00584417 	3.14018 	90.1491 	117.735 	-0.598828 	166.228 	360.829 	284.666 	539.701 	
82.4656 	-0.00989433 	-0.389831 	0.81407 	-0.951183 	0.00573649 	3.14034 	90.1493 	117.737 	-0.598828 	167.237 	360.829 	284.669 	539.701 	
82.5689 	-0.00986556 	-0.395955 	0.813576 	-0.933731 	0.00563158 	3.1405 	90.1621 	117.748 	-0.599023 	168.312 	360.829 	284.679 	539.701 	
82.6718 	-0.00983573 	-0.40207 	0.812976 	-0.916278 	0.00552947 	3.14066 	90.162 	117.748 	-0.598828 	169.337 	360.829 	284.682 	539.701 	
82.7749 	-0.00980486 	-0.408173 	0.81227 	-0.898826 	0.0054302 	3.14083 	90.1615 	117.748 	-0.59873 	170.336 	360.829 	284.683 	539.701 	
82.8776 	-0.00977294 	-0.414263 	0.811457 	-0.881373 	0.0053338 	3.14099 	90.1643 	117.748 	-0.598926 	171.429 	360.829 	284.685 	539.701 	
82.9812 	-0.00974 	-0.420338 	0.810537 	-0.863921 	0.00524029 	3.14116 	90.164 	117.748 	-0.59873 	172.432 	360.829 	284.687 	539.701 	
83.0838 	-0.00970604 	-0.426395 	0.809512 	-0.846469 	0.00514971 	3.14133 	90.1646 	117.749 	-0.598828 	173.41 	360.829 	284.692 	539.701 	
83.1869 	-0.00967106 	-0.432434 	0.808381 	-0.829016 	0.00506208 	3.1415 	90.1685 	117.749 	-0.598926 	174.413 	360.829 	284.708 	539.701 	
83.2899 	-0.00963509 	-0.438453 	0.807145 	-0.811564 	0.00497742 	-3.14152 	90.1736 	117.748 	-0.59873 	175.521 	360.829 	284.718 	539.701 	
83.3931 	-0.00959814 	-0.444449 	0.805805 	-0.794111 	0.00489577 	-3.14134 	90.1743 	117.748 	-0.598828 	176.527 	360.829 	284.721 	539.701 	
83.4958 	-0.00956021 	-0.45042 	0.804359 	-0.776659 	0.00481715 	-3.14117 	90.1745 	117.748 	-0.59873 	177.519 	360.829 	284.723 	539.701 	
83.5992 	-0.00952131 	-0.456366 	0.80281 	-0.759206 	0.00474157 	-3.14099 	90.1773 	117.749 	-0.59873 	178.607 	360.829 	284.724 	539.701 	
83.702 	-0.00948146 	-0.462283 	0.801157 	-0.741754 	0.00466908 	-3.14082 	90.177 	117.749 	-0.59873 	179.6 	360.829 	284.726 	539.701 	
83.8052 	-0.00944067 	-0.468171 	0.799401 	-0.724301 	0.00459968 	-3.14064 	90.1768 	117.75 	-0.59873 	180.598 	360.829 	284.727 	539.701 	
83.9081 	-0.00939896 	-0.474027 	0.797543 	-0.706849 	0.0045334 	-3.14046 	90.1768 	117.75 	-0.59873 	181.692 	360.829 	284.727 	539.701 	
84.0111 	-0.00935632 	-0.47985 	0.795583 	-0.689396 	0.00447026 	-3.14028 	90.1771 	117.75 	-0.59873 	182.683 	360.829 	284.728 	539.701 	
84.1172 	-0.00931279 	-0.485638 	0.793521 	-0.671944 	0.00441028 	-3.1401 	90.1768 	117.75 	-0.598633 	183.688 	360.829 	284.729 	539.701 	
84.2195 	-0.00926837 	-0.491389 	0.791359 	-0.654491 	0.00435347 	-3.13992 	90.1767 	117.75 	-0.598633 	184.785 	360.829 	284.729 	539.701 	
84.3232 	-0.00922307 	-0.497101 	0.789097 	-0.637039 	0.00429986 	-3.13973 	90.1767 	117.75 	-0.598633 	185.789 	360.829 	284.73 	539.701 	
84.4257 	-0.00917691 	-0.502773 	0.786735 	-0.619586 	0.00424945 	-3.13955 	90.1768 	117.75 	-0.598633 	186.795 	360.829 	284.731 	539.701 	
84.5295 	-0.00908207 	-0.513989 	0.781717 	-0.584681 	0.00415834 	-3.13918 	90.1761 	117.75 	-0.598633 	187.872 	360.829 	284.732 	539.701 	
84.6334 	-0.00903341 	-0.519529 	0.779062 	-0.567229 	0.00411765 	-3.13899 	90.1769 	117.751 	-0.598633 	188.862 	360.829 	284.733 	539.701 	
84.7367 	-0.00898395 	-0.525023 	0.77631 	-0.549776 	0.00408023 	-3.1388 	90.1768 	117.751 	-0.598633 	189.867 	360.829 	284.733 	539.701 	
84.8397 	-0.0089337 	-0.530467 	0.773463 	-0.532324 	0.00404609 	-3.13861 	90.1768 	117.751 	-0.598633 	190.964 	360.829 	284.734 	539.701 	
84.9429 	-0.00888267 	-0.535861 	0.770521 	-0.514871 	0.00401523 	-3.13843 	90.1723 	117.752 	-0.598535 	191.967 	360.829 	284.735 	539.701 	
85.0508 	-0.00883089 	-0.541203 	0.767486 	-0.497419 	0.00398767 	-3.13824 	90.1712 	117.752 	-0.598535 	193.063 	360.829 	284.738 	539.701 	
85.1536 	-0.00877837 	-0.546491 	0.764358 	-0.479966 	0.00396342 	-3.13805 	90.179 	117.773 	-0.598535 	194.052 	360.829 	284.742 	539.701 	
85.2568 	-0.00872512 	-0.551723 	0.761138 	-0.462513 	0.00394248 	-3.13786 	90.1786 	117.782 	-0.598535 	195.047 	360.829 	284.748 	539.701 	
85.3598 	-0.00867116 	-0.556899 	0.757827 	-0.445061 	0.00392485 	-3.13767 	90.1775 	117.782 	-0.598535 	196.155 	360.829 	284.752 	539.701 	
85.4628 	-0.00861651 	-0.562016 	0.754427 	-0.427608 	0.00391056 	-3.13748 	90.1781 	117.782 	-0.598535 	197.155 	360.829 	284.756 	539.701 	
85.5658 	-0.00856118 	-0.567073 	0.750938 	-0.410156 	0.00389959 	-3.13728 	90.178 	117.783 	-0.598535 	198.152 	360.829 	284.76 	539.701 	
85.6688 	-0.00850519 	-0.572068 	0.747361 	-0.392703 	0.00389195 	-3.13709 	90.1779 	117.783 	-0.598535 	199.258 	360.829 	284.765 	539.701 	
85.7719 	-0.00844856 	-0.577 	0.743697 	-0.375251 	0.00388764 	-3.1369 	90.1781 	117.783 	-0.598535 	200.255 	360.829 	284.775 	539.701 	
85.875 	-0.0083913 	-0.581867 	0.739948 	-0.357798 	0.00388668 	-3.13671 	90.1783 	117.783 	-0.598535 	201.245 	360.829 	284.782 	539.701 	
85.9777 	-0.00833344 	-0.586668 	0.736114 	-0.340345 	0.00388904 	-3.13652 	90.1778 	117.783 	-0.598438 	202.343 	360.829 	284.786 	539.701 	
86.0809 	-0.00827499 	-0.591401 	0.732197 	-0.322893 	0.00389474 	-3.13633 	90.1773 	117.784 	-0.598438 	203.332 	360.829 	284.789 	539.701 	
86.1838 	-0.00821596 	-0.596066 	0.728199 	-0.30544 	0.00390378 	-3.13614 	90.1785 	117.784 	-0.598438 	204.343 	360.829 	284.79 	539.701 	
86.2871 	-0.00815638 	-0.60066 	0.724119 	-0.287988 	0.00391615 	-3.13595 	90.1779 	117.784 	-0.598438 	205.343 	360.829 	284.791 	539.701 	
86.3899 	-0.00809626 	-0.605182 	0.71996 	-0.270535 	0.00393184 	-3.13576 	90.177 	117.784 	-0.598438 	206.432 	360.829 	284.793 	539.701 	
86.4932 	-0.00803562 	-0.60963 	0.715722 	-0.253083 	0.00395085 	-3.13557 	90.1777 	117.784 	-0.598438 	207.426 	360.829 	284.794 	539.701 	
86.5963 	-0.00797448 	-0.614004 	0.711408 	-0.23563 	0.00397318 	-3.13538 	90.1774 	117.784 	-0.598438 	208.442 	360.829 	284.796 	539.701 	
86.6988 	-0.00791286 	-0.618302 	0.707018 	-0.218178 	0.00399882 	-3.13519 	90.1779 	117.784 	-0.59834 	209.529 	360.829 	284.797 	539.701 	
86.802 	-0.00785078 	-0.622523 	0.702553 	-0.200725 	0.00402777 	-3.135 	90.1778 	117.784 	-0.59834 	210.523 	360.829 	284.799 	539.701 	
86.9051 	-0.00778826 	-0.626665 	0.698016 	-0.183272 	0.00406 	-3.13481 	90.1775 	117.785 	-0.59834 	211.523 	360.829 	284.801 	539.701 	
87.0079 	-0.00772531 	-0.630727 	0.693407 	-0.16582 	0.00409552 	-3.13462 	90.1772 	117.785 	-0.59834 	212.63 	360.829 	284.806 	539.701 	
87.1113 	-0.00766196 	-0.634709 	0.688727 	-0.148367 	0.00413431 	-3.13444 	90.1781 	117.785 	-0.59834 	213.625 	360.829 	284.81 	539.701 	
87.2166 	-0.00759822 	-0.638608 	0.683979 	-0.130915 	0.00417636 	-3.13425 	90.1779 	117.785 	-0.59834 	214.625 	360.829 	284.812 	539.701 	
87.3199 	-0.00753412 	-0.642423 	0.679164 	-0.113462 	0.00422166 	-3.13406 	90.178 	117.785 	-0.59834 	215.739 	360.829 	284.814 	539.701 	
87.4226 	-0.00746967 	-0.646154 	0.674283 	-0.0960098 	0.00427019 	-3.13388 	90.1766 	117.785 	-0.59834 	216.728 	360.829 	284.816 	539.701 	
87.529 	-0.00740489 	-0.649799 	0.669337 	-0.0785572 	0.00432194 	-3.13369 	90.1776 	117.785 	-0.59834 	217.829 	360.829 	284.818 	539.701 	
87.633 	-0.0073398 	-0.653357 	0.664329 	-0.0611047 	0.0043769 	-3.13351 	90.178 	117.785 	-0.598242 	218.821 	360.829 	284.825 	539.701 	
