RISC-NYUAD/HeavyPayloadDrone/projects/kinova-ros/devel/lib/ne_kinova_demo/VulcanTrajectory/Vulcan1_Vicon_y19m11d14h14min50.csv
time (NSec) 	Kinova Tip Position (t_x) 	t_y 	t_z 	Kinova Tip Angle (theta_x) 	Kinova Tip Angle (theta_y) 	Kinova Tip Angle (theta_z) 	Kinova Joint Angle (j1) 	(j2) 	(j3) 	(j4) 	Kinova Joint Angle (j5) 	(j6) 	(j7)
0.0249259 	-0.00382993 	-0.485722 	-0.24323 	1.76551 	0.010253 	-3.10831 	90.0527 	63.1221 	-0.618262 	268.778 	360.844 	285.275 	539.112 	
0.0466802 	-0.00382993 	-0.485722 	-0.24323 	1.76551 	0.010253 	-3.10831 	90.0527 	63.1227 	-0.618164 	268.778 	360.844 	285.275 	539.112 	
0.0661869 	-0.00382993 	-0.485722 	-0.24323 	1.76551 	0.010253 	-3.10831 	90.0527 	63.1225 	-0.618066 	268.779 	360.844 	285.275 	539.112 	
0.170051 	-0.00382825 	-0.485985 	-0.243015 	1.7654 	0.0102607 	-3.10936 	90.0527 	63.3865 	-0.618359 	269.046 	360.844 	285.274 	539.304 	
0.275184 	-0.00374454 	-0.491655 	-0.23161 	1.76539 	0.0106059 	-3.12532 	90.0526 	64.3617 	-0.618262 	269.985 	360.844 	285.274 	539.678 	
0.378143 	-0.00369848 	-0.494685 	-0.225127 	1.76539 	0.010801 	-3.12527 	90.0527 	65.3486 	-0.618066 	270.97 	360.844 	285.274 	539.693 	
0.482151 	-0.00365315 	-0.4976 	-0.218592 	1.76539 	0.010997 	-3.12523 	90.0528 	66.3597 	-0.617969 	271.973 	360.844 	285.274 	539.696 	
0.585091 	-0.00360854 	-0.500401 	-0.212008 	1.76539 	0.0111938 	-3.12519 	90.0527 	67.4482 	-0.618262 	273.076 	360.844 	285.274 	539.697 	
0.687076 	-0.00356469 	-0.503087 	-0.205375 	1.76539 	0.0113912 	-3.12515 	90.0526 	68.4495 	-0.618164 	274.075 	360.844 	285.274 	539.698 	
0.789052 	-0.00352159 	-0.505657 	-0.198697 	1.76539 	0.0115893 	-3.12512 	90.0527 	69.4491 	-0.618262 	275.071 	360.844 	285.274 	539.699 	
0.891162 	-0.00347926 	-0.508109 	-0.191975 	1.76539 	0.0117879 	-3.12509 	90.0527 	70.4413 	-0.618262 	276.069 	360.844 	285.274 	539.699 	
0.997867 	-0.00343772 	-0.510444 	-0.185211 	1.76539 	0.011987 	-3.12506 	90.0527 	71.5559 	-0.618066 	277.179 	360.844 	285.274 	539.7 	
1.09989 	-0.00339698 	-0.512661 	-0.178407 	1.76539 	0.0121866 	-3.12503 	90.0527 	72.5653 	-0.618164 	278.171 	360.844 	285.274 	539.7 	
1.20199 	-0.00335704 	-0.514758 	-0.171566 	1.76539 	0.0123866 	-3.12501 	90.0526 	73.5648 	-0.618359 	279.168 	360.844 	285.274 	539.7 	
1.30393 	-0.00331793 	-0.516736 	-0.164689 	1.76539 	0.012587 	-3.125 	90.0527 	74.6723 	-0.618164 	280.168 	360.844 	285.274 	539.701 	
1.40585 	-0.00327965 	-0.518593 	-0.157779 	1.76539 	0.0127875 	-3.12498 	90.0527 	75.6561 	-0.618164 	281.279 	360.844 	285.274 	539.701 	
1.50782 	-0.00324222 	-0.520329 	-0.150837 	1.76539 	0.0129883 	-3.12497 	90.0528 	76.682 	-0.617773 	282.282 	360.844 	285.274 	539.701 	
1.60983 	-0.00320565 	-0.521945 	-0.143866 	1.76539 	0.0131893 	-3.12497 	90.0526 	77.6799 	-0.618359 	283.272 	360.844 	285.274 	539.701 	
1.71171 	-0.00316995 	-0.523438 	-0.136868 	1.76539 	0.0133903 	-3.12496 	90.0525 	78.6618 	-0.618457 	284.279 	360.844 	285.274 	539.702 	
1.81388 	-0.00313512 	-0.524809 	-0.129845 	1.76539 	0.0135914 	-3.12496 	90.0527 	79.7769 	-0.618262 	285.27 	360.844 	285.274 	539.702 	
1.91574 	-0.00310118 	-0.526056 	-0.122799 	1.76539 	0.0137924 	-3.12497 	90.0527 	80.7818 	-0.618066 	286.375 	360.844 	285.274 	539.702 	
2.01774 	-0.00306815 	-0.527181 	-0.115732 	1.76539 	0.0139933 	-3.12497 	90.0527 	81.7636 	-0.618164 	287.379 	360.844 	285.274 	539.702 	
2.12021 	-0.00303602 	-0.528183 	-0.108647 	1.76539 	0.0141941 	-3.12498 	90.0526 	82.7914 	-0.618262 	288.379 	360.844 	285.274 	539.702 	
2.22304 	-0.00300482 	-0.52906 	-0.101545 	1.76539 	0.0143946 	-3.125 	90.0524 	83.7886 	-0.618457 	289.379 	360.844 	285.274 	539.702 	
2.326 	-0.00297454 	-0.529814 	-0.0944292 	1.76539 	0.0145948 	-3.12502 	90.0525 	84.8847 	-0.61875 	290.479 	360.844 	285.274 	539.702 	
2.429 	-0.0029452 	-0.530442 	-0.0873013 	1.76539 	0.0147948 	-3.12504 	90.0528 	85.8868 	-0.618652 	291.479 	360.844 	285.274 	539.702 	
2.532 	-0.00291681 	-0.530947 	-0.0801635 	1.76539 	0.0149943 	-3.12506 	90.0527 	86.8668 	-0.618359 	292.476 	360.844 	285.274 	539.702 	
2.63492 	-0.00288938 	-0.531327 	-0.073018 	1.7654 	0.0151933 	-3.12509 	90.0527 	87.9512 	-0.618262 	293.586 	360.844 	285.274 	539.702 	
2.73807 	-0.00286292 	-0.531582 	-0.0658669 	1.7654 	0.0153918 	-3.12512 	90.0527 	89.0009 	-0.617969 	294.577 	360.844 	285.274 	539.702 	
2.84082 	-0.00283742 	-0.531713 	-0.0587124 	1.7654 	0.0155898 	-3.12516 	90.0527 	89.9908 	-0.618066 	295.582 	360.844 	285.274 	539.703 	
2.94389 	-0.00281291 	-0.531718 	-0.0515568 	1.7654 	0.015787 	-3.1252 	90.0528 	91.1012 	-0.618164 	296.581 	360.844 	285.274 	539.703 	
3.04735 	-0.00278938 	-0.531599 	-0.0444022 	1.7654 	0.0159836 	-3.12524 	90.0527 	92.0801 	-0.618262 	297.683 	360.844 	285.274 	539.703 	
3.15006 	-0.00276685 	-0.531354 	-0.0372507 	1.7654 	0.0161794 	-3.12529 	90.0526 	93.0671 	-0.618457 	298.676 	360.844 	285.274 	539.703 	
3.25322 	-0.00274532 	-0.530985 	-0.0301046 	1.7654 	0.0163744 	-3.12533 	90.0527 	94.0696 	-0.618262 	299.675 	360.844 	285.274 	539.703 	
3.35577 	-0.0027248 	-0.530491 	-0.022966 	1.7654 	0.0165685 	-3.12539 	90.0527 	95.1749 	-0.618262 	300.782 	360.844 	285.274 	539.703 	
3.46187 	-0.00270529 	-0.529873 	-0.0158372 	1.7654 	0.0167617 	-3.12544 	90.0528 	96.1662 	-0.618359 	301.773 	360.844 	285.274 	539.703 	
3.56519 	-0.00268681 	-0.529131 	-0.00872016 	1.7654 	0.0169538 	-3.1255 	90.0527 	97.2623 	-0.618359 	302.873 	360.844 	285.273 	539.703 	
3.6676 	-0.00266935 	-0.528264 	-0.00161723 	1.7654 	0.0171449 	-3.12556 	90.0525 	98.2864 	-0.618457 	303.879 	360.844 	285.273 	539.703 	
3.77064 	-0.00265293 	-0.527273 	0.00546958 	1.76541 	0.0173349 	-3.12563 	90.0525 	99.2872 	-0.618359 	304.886 	360.844 	285.273 	539.703 	
3.87475 	-0.00263754 	-0.526159 	0.0125379 	1.76541 	0.0175237 	-3.1257 	90.0523 	100.372 	-0.618457 	305.983 	360.844 	285.273 	539.703 	
3.97853 	-0.00260989 	-0.523562 	0.026611 	1.76541 	0.0178975 	-3.12585 	90.0526 	101.373 	-0.618262 	306.983 	360.844 	285.273 	539.703 	
4.08066 	-0.00259764 	-0.52208 	0.0336113 	1.76541 	0.0180824 	-3.12593 	90.0528 	102.367 	-0.618262 	307.985 	360.844 	285.273 	539.703 	
4.18351 	-0.00258644 	-0.520475 	0.0405848 	1.76541 	0.018266 	-3.12601 	90.0527 	103.474 	-0.618262 	308.978 	360.844 	285.273 	539.703 	
4.28551 	-0.0025763 	-0.518749 	0.0475292 	1.76542 	0.018448 	-3.12609 	90.0526 	104.466 	-0.618066 	310.079 	360.844 	285.273 	539.703 	
4.38752 	-0.00256722 	-0.516903 	0.0544424 	1.76542 	0.0186286 	-3.12618 	90.0527 	105.472 	-0.618164 	311.082 	360.844 	285.273 	539.703 	
4.49064 	-0.0025592 	-0.514935 	0.0613223 	1.76542 	0.0188075 	-3.12627 	90.0528 	106.479 	-0.617871 	312.082 	360.844 	285.273 	539.703 	
4.59844 	-0.00255225 	-0.512848 	0.068167 	1.76542 	0.0189848 	-3.12637 	90.0526 	107.567 	-0.618262 	313.178 	360.844 	285.273 	539.703 	
4.70051 	-0.00254636 	-0.510642 	0.074974 	1.76542 	0.0191605 	-3.12647 	90.0527 	108.558 	-0.618164 	314.184 	360.844 	285.273 	539.703 	
4.80242 	-0.00254155 	-0.508318 	0.0817416 	1.76543 	0.0193344 	-3.12657 	90.0527 	109.567 	-0.618262 	315.18 	360.844 	285.273 	539.703 	
4.90459 	-0.0025378 	-0.505875 	0.0884675 	1.76543 	0.0195066 	-3.12667 	90.0526 	110.655 	-0.618262 	316.283 	360.844 	285.273 	539.703 	
5.00772 	-0.00253601 	-0.504082 	0.0954332 	1.76311 	0.0196537 	-3.12677 	90.0526 	111.654 	-0.618164 	317.139 	360.844 	285.273 	539.703 	
5.11044 	-0.00254029 	-0.507148 	0.104258 	1.74566 	0.0196492 	-3.12679 	90.0525 	112.642 	-0.618359 	317.316 	360.844 	285.273 	539.703 	
5.21233 	-0.00254435 	-0.51006 	0.113135 	1.7282 	0.0196452 	-3.12681 	90.0527 	113.652 	-0.618164 	317.351 	360.844 	285.273 	539.703 	
5.31458 	-0.0025482 	-0.512815 	0.122061 	1.71075 	0.0196416 	-3.12684 	90.0527 	114.756 	-0.618262 	317.368 	360.844 	285.273 	539.703 	
5.41794 	-0.00255183 	-0.515415 	0.131034 	1.6933 	0.0196384 	-3.12686 	90.0526 	115.76 	-0.618262 	317.385 	360.844 	285.273 	539.703 	
5.44257 	-0.00255183 	-0.515415 	0.131034 	1.6933 	0.0196384 	-3.12686 	90.0526 	115.945 	-0.618359 	317.386 	360.844 	285.273 	539.703 	
5.54593 	-0.00255524 	-0.517858 	0.140052 	1.67585 	0.0196357 	-3.12689 	90.0527 	117.029 	-0.618359 	317.388 	360.844 	285.273 	539.703 	
5.64864 	-0.00255769 	-0.519613 	0.146947 	1.66255 	0.0196338 	-3.12691 	90.0526 	117.542 	-0.618262 	317.389 	360.844 	285.273 	539.703 	
5.75168 	-0.00255769 	-0.519613 	0.146947 	1.66255 	0.0196338 	-3.12691 	90.0526 	117.615 	-0.618262 	317.389 	360.844 	285.273 	539.703 	
5.85473 	-0.00255769 	-0.519613 	0.146947 	1.66255 	0.0196338 	-3.12691 	90.0526 	117.637 	-0.618262 	317.389 	360.844 	285.273 	539.703 	
5.95756 	-0.00255769 	-0.519613 	0.146947 	1.66255 	0.0196338 	-3.12691 	90.0526 	117.642 	-0.618262 	317.389 	360.844 	285.273 	539.703 	
6.06441 	-0.00255769 	-0.519613 	0.146947 	1.66255 	0.0196338 	-3.12691 	90.0526 	117.648 	-0.618457 	317.39 	360.844 	285.273 	539.703 	
6.15717 	-0.00255769 	-0.519613 	0.146947 	1.66255 	0.0196338 	-3.12691 	90.0526 	117.656 	-0.618164 	317.39 	360.844 	285.273 	539.703 	
6.26458 	-0.00255648 	-0.519669 	0.146728 	1.6629 	0.0196353 	-3.12691 	90.0526 	117.673 	-0.618262 	317.184 	360.844 	284.945 	539.703 	
6.36755 	-0.00248205 	-0.523988 	0.143277 	1.66989 	0.0197887 	-3.12728 	90.0527 	117.675 	-0.618262 	316.27 	360.844 	283.003 	539.703 	
6.46935 	-0.00236821 	-0.528629 	0.136946 	1.68734 	0.0200769 	-3.12789 	90.0526 	117.675 	-0.618164 	315.277 	360.844 	280.991 	539.703 	
6.57421 	-0.00226041 	-0.533219 	0.130714 	1.7048 	0.0203451 	-3.1285 	90.0526 	117.677 	-0.618359 	314.187 	360.844 	278.811 	539.703 	
6.67867 	-0.00206317 	-0.542246 	0.118555 	1.73972 	0.0208215 	-3.12975 	90.0526 	117.678 	-0.618164 	313.186 	360.844 	276.809 	539.703 	
6.78116 	-0.00197382 	-0.546679 	0.112632 	1.75718 	0.0210292 	-3.13039 	90.0527 	117.677 	-0.618262 	312.19 	360.844 	274.803 	539.703 	
6.88419 	-0.0018907 	-0.551056 	0.106816 	1.77464 	0.0212166 	-3.13102 	90.0527 	117.677 	-0.618164 	311.089 	360.844 	272.582 	539.703 	
6.98612 	-0.00181385 	-0.555377 	0.101108 	1.7921 	0.0213834 	-3.13166 	90.0526 	117.678 	-0.618555 	310.068 	360.844 	270.602 	539.703 	
7.08807 	-0.00174328 	-0.559639 	0.0955097 	1.80956 	0.0215297 	-3.1323 	90.0526 	117.68 	-0.617871 	309.068 	360.844 	268.6 	539.703 	
7.19012 	-0.00167903 	-0.563843 	0.0900238 	1.82702 	0.0216554 	-3.13295 	90.0527 	117.689 	-0.618457 	308.064 	360.844 	266.64 	539.703 	
7.29819 	-0.00162109 	-0.567985 	0.0846512 	1.84448 	0.0217605 	-3.13359 	90.0526 	117.69 	-0.618164 	306.966 	360.844 	264.421 	539.703 	
7.40006 	-0.00156948 	-0.572066 	0.0793938 	1.86194 	0.0218451 	-3.13424 	90.0526 	117.691 	-0.618457 	305.954 	360.844 	262.402 	539.703 	
7.50233 	-0.00152419 	-0.576084 	0.0742532 	1.8794 	0.021909 	-3.13489 	90.0526 	117.692 	-0.618066 	304.957 	360.844 	260.406 	539.703 	
7.60529 	-0.00148522 	-0.580037 	0.0692309 	1.89686 	0.0219525 	-3.13553 	90.0526 	117.691 	-0.618652 	303.85 	360.844 	258.173 	539.703 	
7.708 	-0.00145256 	-0.583925 	0.0643286 	1.91432 	0.0219756 	-3.13618 	90.0526 	117.691 	-0.618066 	302.847 	360.844 	256.183 	539.704 	
7.81026 	-0.00142618 	-0.587746 	0.0595483 	1.93178 	0.0219784 	-3.13682 	90.0527 	117.691 	-0.618262 	301.843 	360.844 	254.173 	539.704 	
7.91287 	-0.00140606 	-0.5915 	0.0548908 	1.94923 	0.0219611 	-3.13746 	90.0526 	117.692 	-0.617773 	300.847 	360.844 	252.185 	539.704 	
8.01535 	-0.00139217 	-0.595184 	0.0503574 	1.96669 	0.0219237 	-3.1381 	90.0527 	117.692 	-0.618457 	299.741 	360.844 	249.989 	539.704 	
8.1182 	-0.00138446 	-0.598799 	0.0459497 	1.98415 	0.0218664 	-3.13873 	90.0526 	117.693 	-0.618359 	298.729 	360.844 	247.979 	539.704 	
8.22147 	-0.00138289 	-0.602342 	0.041669 	2.00161 	0.0217896 	-3.13935 	90.0525 	117.693 	-0.618359 	297.723 	360.844 	245.971 	539.704 	
8.32429 	-0.00138742 	-0.605812 	0.0375164 	2.01907 	0.0216933 	-3.13998 	90.0526 	117.695 	-0.618164 	296.623 	360.844 	243.765 	539.704 	
8.42703 	-0.00139797 	-0.60921 	0.0334936 	2.03653 	0.0215778 	-3.14059 	90.0526 	117.698 	-0.618457 	295.62 	360.844 	241.771 	539.704 	
8.52996 	-0.0014145 	-0.612532 	0.0296014 	2.05398 	0.0214434 	-3.1412 	90.0526 	117.701 	-0.618262 	294.618 	360.844 	239.777 	539.704 	
8.63316 	-0.00143694 	-0.61578 	0.0258413 	2.07144 	0.0212903 	3.14138 	90.0526 	117.704 	-0.618164 	293.613 	360.844 	237.776 	539.704 	
8.73639 	-0.0014652 	-0.618951 	0.0222141 	2.0889 	0.0211189 	3.14079 	90.0527 	117.707 	-0.618262 	292.505 	360.844 	235.58 	539.704 	
8.83913 	-0.00149922 	-0.622045 	0.0187213 	2.10636 	0.0209295 	3.1402 	90.0526 	117.708 	-0.618457 	291.505 	360.844 	233.545 	539.704 	
8.9421 	-0.0015389 	-0.62506 	0.0153636 	2.12381 	0.0207224 	3.13963 	90.0526 	117.708 	-0.618262 	290.504 	360.844 	231.538 	539.704 	
9.04519 	-0.00158415 	-0.627996 	0.0121422 	2.14127 	0.020498 	3.13906 	90.0526 	117.71 	-0.618262 	289.403 	360.844 	229.357 	539.704 	
9.14795 	-0.00163488 	-0.630852 	0.00905827 	2.15873 	0.0202566 	3.1385 	90.0526 	117.716 	-0.618359 	288.388 	360.844 	227.355 	539.704 	
9.25124 	-0.00169099 	-0.633626 	0.00611244 	2.17618 	0.0199987 	3.13795 	90.0526 	117.727 	-0.618262 	287.385 	360.844 	225.359 	539.704 	
9.35408 	-0.00175238 	-0.63632 	0.00330578 	2.19364 	0.0197246 	3.13742 	90.0526 	117.727 	-0.618359 	286.285 	360.844 	223.133 	539.704 	
9.45706 	-0.00181892 	-0.63893 	0.000639006 	2.21109 	0.0194349 	3.1369 	90.0526 	117.728 	-0.618262 	285.285 	360.844 	221.132 	539.704 	
9.56398 	-0.00189051 	-0.641457 	-0.00188684 	2.22855 	0.0191299 	3.13638 	90.0526 	117.738 	-0.618262 	284.266 	360.844 	219.162 	539.704 	
9.66692 	-0.00196703 	-0.643899 	-0.00427124 	2.246 	0.0188101 	3.13589 	90.0526 	117.739 	-0.618359 	283.166 	360.844 	216.915 	539.704 	
9.77212 	-0.00204836 	-0.646257 	-0.00651324 	2.26346 	0.018476 	3.1354 	90.0527 	117.741 	-0.618164 	282.164 	360.844 	214.928 	539.704 	
9.8749 	-0.00213435 	-0.648528 	-0.00861235 	2.28091 	0.0181281 	3.13493 	90.0527 	117.742 	-0.618164 	281.066 	360.844 	212.712 	539.704 	
9.97885 	-0.00231984 	-0.652812 	-0.0123791 	2.31582 	0.0173929 	3.13403 	90.0526 	117.742 	-0.618262 	280.061 	360.844 	210.725 	539.704 	
10.081 	-0.00241905 	-0.654822 	-0.0140456 	2.33328 	0.0170067 	3.1336 	90.0526 	117.741 	-0.618262 	279.074 	360.844 	208.678 	539.704 	
10.1837 	-0.00252238 	-0.656744 	-0.0155667 	2.35073 	0.0166088 	3.13318 	90.0526 	117.745 	-0.618652 	277.953 	360.844 	206.511 	539.704 	
10.2857 	-0.00262969 	-0.658578 	-0.0169422 	2.36818 	0.0161997 	3.13279 	90.0527 	117.746 	-0.618262 	276.944 	360.844 	204.529 	539.704 	
10.3877 	-0.00274082 	-0.660321 	-0.0181715 	2.38564 	0.0157801 	3.1324 	90.0526 	117.753 	-0.618262 	275.945 	360.844 	202.525 	539.704 	
10.4896 	-0.00285563 	-0.661975 	-0.0192543 	2.40309 	0.0153505 	3.13204 	90.0526 	117.765 	-0.618555 	274.94 	360.844 	200.495 	539.704 	
10.5979 	-0.00297395 	-0.663538 	-0.0201901 	2.42054 	0.0149114 	3.13169 	90.0526 	117.762 	-0.618066 	273.862 	360.844 	198.258 	539.704 	
10.7009 	-0.00309563 	-0.66501 	-0.0209789 	2.43799 	0.0144636 	3.13136 	90.0526 	117.786 	-0.618164 	272.837 	360.844 	196.279 	539.704 	
10.8036 	-0.00322051 	-0.66639 	-0.0216204 	2.45544 	0.0140076 	3.13104 	90.0525 	117.806 	-0.618457 	271.712 	360.844 	194.121 	539.704 	
10.9055 	-0.00334842 	-0.667679 	-0.022114 	2.47289 	0.013544 	3.13074 	90.0526 	117.836 	-0.618262 	270.701 	360.844 	192.13 	539.704 	
11.0079 	-0.0034792 	-0.668876 	-0.0224601 	2.49035 	0.0130735 	3.13046 	90.0526 	117.832 	-0.618262 	269.725 	360.844 	190.08 	539.704 	
11.1106 	-0.00361268 	-0.669979 	-0.0226582 	2.5078 	0.0125966 	3.13019 	90.0526 	117.798 	-0.618359 	268.744 	360.844 	188.057 	539.704 	
11.2126 	-0.00374869 	-0.67099 	-0.0227085 	2.52525 	0.012114 	3.12995 	90.0524 	117.795 	-0.618359 	267.734 	360.844 	186.042 	539.704 	
11.3145 	-0.00388708 	-0.671908 	-0.0226108 	2.5427 	0.0116263 	3.12972 	90.0525 	117.828 	-0.618359 	266.611 	360.844 	183.882 	539.704 	
11.4168 	-0.00402765 	-0.672731 	-0.0223653 	2.56015 	0.0111342 	3.12951 	90.0526 	117.825 	-0.618359 	265.609 	360.844 	181.87 	539.704 	
11.5196 	-0.00417024 	-0.673461 	-0.021972 	2.5776 	0.0106383 	3.12931 	90.0525 	117.818 	-0.618457 	264.616 	360.844 	179.857 	539.704 	
11.6228 	-0.00431469 	-0.674097 	-0.0214308 	2.59505 	0.0101393 	3.12914 	90.0527 	117.867 	-0.617871 	263.575 	360.844 	177.867 	539.704 	
11.726 	-0.00446081 	-0.674639 	-0.0207423 	2.6125 	0.00963769 	3.12898 	90.0525 	117.856 	-0.618555 	262.51 	360.844 	175.62 	539.704 	
11.8287 	-0.00460843 	-0.675086 	-0.0199062 	2.62994 	0.00913423 	3.12884 	90.0525 	117.855 	-0.618359 	261.487 	360.844 	173.629 	539.704 	
11.9316 	-0.00475738 	-0.675439 	-0.0189233 	2.64739 	0.00862954 	3.12872 	90.0526 	117.848 	-0.617969 	260.504 	360.844 	171.626 	539.704 	
12.0348 	-0.00490748 	-0.675697 	-0.0177934 	2.66484 	0.00812426 	3.12862 	90.0526 	117.849 	-0.618359 	259.387 	360.844 	169.425 	539.704 	
12.1377 	-0.00505857 	-0.67586 	-0.0165173 	2.68229 	0.00761901 	3.12853 	90.0525 	117.849 	-0.618359 	258.392 	360.844 	167.4 	539.704 	
12.2406 	-0.00521047 	-0.675928 	-0.015095 	2.69974 	0.00711445 	3.12847 	90.0526 	117.848 	-0.618262 	257.384 	360.844 	165.408 	539.704 	
12.3438 	-0.005363 	-0.675902 	-0.0135272 	2.71719 	0.00661119 	3.12842 	90.0526 	117.849 	-0.618164 	256.287 	360.844 	163.192 	539.704 	
12.4466 	-0.005516 	-0.67578 	-0.0118143 	2.73464 	0.00610987 	3.12839 	90.0526 	117.849 	-0.618262 	255.284 	360.844 	161.18 	539.704 	
12.5497 	-0.0056693 	-0.675564 	-0.00995666 	2.75209 	0.0056111 	3.12837 	90.0525 	117.851 	-0.618457 	254.271 	360.844 	159.207 	539.704 	
12.6527 	-0.00582272 	-0.675253 	-0.00795512 	2.76954 	0.00511549 	3.12838 	90.0525 	117.79 	-0.618457 	253.309 	360.844 	157.174 	539.704 	
12.7555 	-0.00597611 	-0.674848 	-0.00580998 	2.78698 	0.00462366 	3.1284 	90.0526 	117.92 	-0.618359 	252.152 	360.844 	155.021 	539.704 	
12.8585 	-0.00612928 	-0.674348 	-0.0035222 	2.80443 	0.00413621 	3.12844 	90.0526 	117.895 	-0.618262 	251.161 	360.844 	153.007 	539.704 	
12.9638 	-0.0062821 	-0.673754 	-0.00109226 	2.82188 	0.00365372 	3.12849 	90.052 	117.84 	-0.618457 	250.187 	360.844 	150.972 	539.704 	
13.0664 	-0.00643438 	-0.673065 	0.00147894 	2.83933 	0.00317677 	3.12856 	90.0523 	117.844 	-0.618262 	249.065 	360.844 	148.763 	539.704 	
13.1715 	-0.00658597 	-0.672282 	0.00419071 	2.85678 	0.00270594 	3.12865 	90.0522 	117.845 	-0.618164 	248.053 	360.844 	146.752 	539.704 	
13.2755 	-0.00673672 	-0.671406 	0.0070422 	2.87423 	0.0022418 	3.12876 	90.0523 	117.848 	-0.618262 	246.962 	360.844 	144.556 	539.704 	
13.3814 	-0.00688647 	-0.670436 	0.0100324 	2.89168 	0.00178488 	3.12888 	90.0524 	117.877 	-0.618164 	245.946 	360.844 	142.57 	539.704 	
13.4843 	-0.00718236 	-0.668217 	0.016426 	2.92658 	0.000894887 	3.12916 	90.0523 	117.882 	-0.618457 	244.854 	360.844 	140.363 	539.704 	
13.5862 	-0.00732822 	-0.666969 	0.0198273 	2.94403 	0.000462845 	3.12933 	90.0524 	117.923 	-0.618066 	243.827 	360.844 	138.393 	539.704 	
13.6883 	-0.0074725 	-0.665629 	0.0233635 	2.96148 	4.01155e-05 	3.12951 	90.0525 	117.804 	-0.618457 	242.892 	360.844 	136.34 	539.704 	
13.7902 	-0.00761505 	-0.664197 	0.0270336 	2.97893 	-0.000372823 	3.1297 	90.0526 	117.801 	-0.618457 	241.89 	360.844 	134.342 	539.704 	
13.8982 	-0.00775574 	-0.662673 	0.0308364 	2.99638 	-0.000775496 	3.12991 	90.0525 	117.82 	-0.618066 	240.776 	360.844 	132.141 	539.704 	
14.0002 	-0.00789445 	-0.661059 	0.0347709 	3.01383 	-0.00116745 	3.13013 	90.0525 	117.835 	-0.618848 	239.759 	360.844 	130.151 	539.704 	
14.1022 	-0.00803104 	-0.659354 	0.0388356 	3.03128 	-0.00154825 	3.13036 	90.0525 	117.844 	-0.617969 	238.751 	360.844 	128.125 	539.704 	
14.2054 	-0.00816103 	-0.657926 	0.0430639 	3.04733 	-0.00190091 	3.1306 	90.0527 	117.853 	-0.617969 	237.65 	360.844 	126.006 	539.704 	
14.3086 	-0.00825998 	-0.658887 	0.0476138 	3.05396 	-0.00213281 	3.13084 	90.0524 	117.854 	-0.618457 	236.654 	360.844 	124.615 	539.704 	
14.4115 	-0.0083222 	-0.662883 	0.0524931 	3.04873 	-0.00222245 	3.13105 	90.0523 	117.855 	-0.618359 	235.652 	360.844 	123.872 	539.704 	
14.5141 	-0.00835433 	-0.669494 	0.0577046 	3.0332 	-0.00219501 	3.13124 	90.0525 	117.855 	-0.618262 	234.544 	360.844 	123.69 	539.704 	
14.6166 	-0.00838228 	-0.676518 	0.0630858 	3.01575 	-0.00214884 	3.13142 	90.0524 	117.855 	-0.618262 	233.549 	360.844 	123.67 	539.704 	
14.7193 	-0.00841185 	-0.683448 	0.068589 	2.99829 	-0.00210591 	3.13161 	90.0525 	117.855 	-0.618359 	232.545 	360.844 	123.662 	539.704 	
14.8222 	-0.00844303 	-0.690279 	0.0742121 	2.98084 	-0.00206623 	3.13179 	90.0524 	117.856 	-0.618262 	231.543 	360.844 	123.654 	539.704 	
14.9253 	-0.00847581 	-0.697012 	0.0799536 	2.96339 	-0.00202983 	3.13198 	90.0524 	117.857 	-0.618555 	230.439 	360.844 	123.653 	539.704 	
15.0285 	-0.00851017 	-0.703644 	0.0858118 	2.94593 	-0.00199671 	3.13217 	90.0526 	117.856 	-0.617773 	229.434 	360.844 	123.651 	539.704 	
15.1315 	-0.0085461 	-0.710172 	0.0917848 	2.92848 	-0.00196687 	3.13236 	90.0525 	117.857 	-0.618359 	228.433 	360.844 	123.649 	539.704 	
15.2342 	-0.0085836 	-0.716595 	0.0978709 	2.91103 	-0.00194034 	3.13255 	90.0525 	117.858 	-0.618066 	227.333 	360.844 	123.65 	539.704 	
15.3375 	-0.00862266 	-0.722911 	0.104068 	2.89357 	-0.00191711 	3.13274 	90.0525 	117.857 	-0.618262 	226.336 	360.844 	123.649 	539.704 	
15.4406 	-0.00866326 	-0.729118 	0.110374 	2.87612 	-0.0018972 	3.13293 	90.0525 	117.862 	-0.618457 	225.331 	360.844 	123.649 	539.704 	
15.5431 	-0.00870538 	-0.735213 	0.116788 	2.85867 	-0.00188061 	3.13312 	90.0523 	117.866 	-0.618262 	224.229 	360.844 	123.65 	539.704 	
15.6464 	-0.00874903 	-0.741196 	0.123308 	2.84122 	-0.00186734 	3.13331 	90.0321 	117.869 	-0.62002 	223.22 	360.844 	123.65 	539.704 	
15.7492 	-0.00879417 	-0.747065 	0.12993 	2.82376 	-0.00185741 	3.1335 	90.064 	117.879 	-0.616309 	222.22 	360.844 	123.65 	539.704 	
15.8523 	-0.00884081 	-0.752816 	0.136654 	2.80631 	-0.0018508 	3.13369 	90.0937 	117.88 	-0.616016 	221.215 	360.844 	123.652 	539.704 	
15.955 	-0.00888892 	-0.75845 	0.143478 	2.78886 	-0.00184753 	3.13388 	90.1039 	117.881 	-0.616797 	220.116 	360.844 	123.652 	539.704 	
16.057 	-0.0089385 	-0.763963 	0.150398 	2.7714 	-0.0018476 	3.13407 	90.0944 	117.881 	-0.617676 	219.116 	360.844 	123.652 	539.704 	
16.1641 	-0.00898951 	-0.769355 	0.157414 	2.75395 	-0.00185101 	3.13426 	90.0595 	117.88 	-0.619141 	218.018 	360.844 	123.653 	539.704 	
16.266 	-0.00904196 	-0.774624 	0.164523 	2.7365 	-0.00185775 	3.13446 	90.0562 	117.879 	-0.619238 	217.021 	360.844 	123.653 	539.704 	
16.3699 	-0.00909583 	-0.779767 	0.171723 	2.71905 	-0.00186782 	3.13465 	90.0566 	117.887 	-0.618359 	215.998 	360.844 	123.654 	539.704 	
16.476 	-0.00915109 	-0.784784 	0.179011 	2.70159 	-0.00188122 	3.13484 	90.0566 	117.886 	-0.618359 	214.906 	360.844 	123.655 	539.704 	
16.58 	-0.00926573 	-0.794434 	0.193845 	2.66669 	-0.00191799 	3.13522 	90.0566 	117.887 	-0.61875 	214.114 	360.844 	123.656 	539.704 	
16.6829 	-0.00932509 	-0.799063 	0.201386 	2.64923 	-0.00194135 	3.13541 	90.0568 	117.887 	-0.618652 	212.809 	360.844 	123.657 	539.704 	
16.7848 	-0.00938576 	-0.803559 	0.209007 	2.63178 	-0.00196802 	3.1356 	90.0568 	117.887 	-0.618262 	211.797 	360.844 	123.66 	539.704 	
16.8869 	-0.00944775 	-0.807922 	0.216705 	2.61433 	-0.00199799 	3.13579 	90.0567 	117.887 	-0.618262 	210.812 	360.844 	123.662 	539.704 	
16.9887 	-0.00951103 	-0.81215 	0.224478 	2.59687 	-0.00203125 	3.13597 	90.0568 	117.887 	-0.618164 	209.806 	360.844 	123.663 	539.704 	
17.0908 	-0.00957558 	-0.816241 	0.232323 	2.57942 	-0.00206779 	3.13616 	90.0568 	117.887 	-0.618555 	208.808 	360.844 	123.666 	539.704 	
17.1978 	-0.00964138 	-0.820195 	0.240239 	2.56197 	-0.0021076 	3.13635 	90.0567 	117.887 	-0.618652 	207.699 	360.844 	123.671 	539.704 	
17.2998 	-0.00970842 	-0.824011 	0.248223 	2.54452 	-0.00215066 	3.13653 	90.0568 	117.887 	-0.618164 	206.714 	360.844 	123.671 	539.704 	
17.4033 	-0.00977666 	-0.827686 	0.256271 	2.52706 	-0.00219697 	3.13672 	90.0567 	117.887 	-0.618359 	205.604 	360.844 	123.672 	539.704 	
17.506 	-0.0098461 	-0.83122 	0.264383 	2.50961 	-0.0022465 	3.1369 	90.0567 	117.888 	-0.618262 	204.587 	360.844 	123.674 	539.704 	
17.6087 	-0.0099167 	-0.834612 	0.272556 	2.49216 	-0.00229926 	3.13709 	90.0567 	117.888 	-0.618359 	203.597 	360.844 	123.677 	539.704 	
17.7107 	-0.00998845 	-0.837861 	0.280786 	2.4747 	-0.0023552 	3.13727 	90.0567 	117.888 	-0.618262 	202.604 	360.844 	123.68 	539.704 	
17.8129 	-0.0100613 	-0.840966 	0.289071 	2.45725 	-0.00241434 	3.13745 	90.0566 	117.888 	-0.618457 	201.497 	360.844 	123.681 	539.704 	
17.9157 	-0.0101353 	-0.843926 	0.29741 	2.4398 	-0.00247663 	3.13763 	90.0568 	117.889 	-0.618164 	200.489 	360.844 	123.681 	539.704 	
18.0177 	-0.0102104 	-0.84674 	0.305799 	2.42235 	-0.00254207 	3.13781 	90.0568 	117.888 	-0.618164 	199.509 	360.844 	123.682 	539.704 	
18.12 	-0.0102865 	-0.849407 	0.314236 	2.40489 	-0.00261063 	3.13799 	90.0567 	117.89 	-0.618262 	198.489 	360.844 	123.683 	539.704 	
18.2229 	-0.0103637 	-0.851926 	0.322718 	2.38744 	-0.0026823 	3.13817 	90.0567 	117.89 	-0.618164 	197.408 	360.844 	123.684 	539.704 	
18.3259 	-0.0104418 	-0.854297 	0.331242 	2.36999 	-0.00275704 	3.13835 	90.0568 	117.89 	-0.618164 	196.395 	360.844 	123.685 	539.704 	
18.4292 	-0.010521 	-0.856518 	0.339807 	2.35253 	-0.00283485 	3.13852 	90.0567 	117.892 	-0.618262 	195.395 	360.844 	123.687 	539.704 	
18.5316 	-0.0106011 	-0.85859 	0.348409 	2.33508 	-0.00291569 	3.13869 	90.0567 	117.892 	-0.618262 	194.404 	360.844 	123.689 	539.704 	
18.6349 	-0.0106821 	-0.860511 	0.357046 	2.31763 	-0.00299955 	3.13886 	90.0567 	117.893 	-0.618262 	193.304 	360.844 	123.689 	539.704 	
18.7382 	-0.0107641 	-0.862282 	0.365715 	2.30018 	-0.00308638 	3.13903 	90.0568 	117.897 	-0.618164 	192.286 	360.844 	123.691 	539.704 	
18.8408 	-0.010847 	-0.863901 	0.374414 	2.28272 	-0.00317618 	3.1392 	90.0564 	117.899 	-0.618262 	191.293 	360.844 	123.691 	539.704 	
18.9439 	-0.0109307 	-0.865367 	0.38314 	2.26527 	-0.0032689 	3.13937 	90.0565 	117.899 	-0.618262 	190.196 	360.844 	123.692 	539.704 	
19.047 	-0.0110153 	-0.866681 	0.39189 	2.24782 	-0.00336453 	3.13954 	90.0567 	117.899 	-0.618262 	189.193 	360.844 	123.693 	539.704 	
19.1495 	-0.0111007 	-0.867843 	0.400662 	2.23036 	-0.00346304 	3.1397 	90.0567 	117.899 	-0.618164 	188.194 	360.844 	123.695 	539.704 	
19.2519 	-0.0111868 	-0.868851 	0.409452 	2.21291 	-0.00356439 	3.13986 	90.0566 	117.899 	-0.618262 	187.195 	360.844 	123.696 	539.704 	
19.3546 	-0.0112737 	-0.869705 	0.418259 	2.19546 	-0.00366855 	3.14002 	90.0567 	117.899 	-0.618164 	186.104 	360.844 	123.697 	539.704 	
19.4576 	-0.0113614 	-0.870405 	0.42708 	2.17801 	-0.00377549 	3.14018 	90.0566 	117.899 	-0.618262 	185.091 	360.844 	123.697 	539.704 	
19.5648 	-0.0114498 	-0.870952 	0.435911 	2.16055 	-0.00388518 	3.14034 	90.0566 	117.899 	-0.618066 	184.009 	360.844 	123.697 	539.704 	
19.6678 	-0.0115388 	-0.871344 	0.44475 	2.1431 	-0.00399758 	3.14049 	90.0566 	117.899 	-0.618164 	182.998 	360.844 	123.701 	539.704 	
19.7705 	-0.0116285 	-0.871582 	0.453595 	2.12565 	-0.00411267 	3.14064 	90.0566 	117.899 	-0.618066 	181.999 	360.844 	123.705 	539.704 	
19.8757 	-0.0117188 	-0.871665 	0.462443 	2.1082 	-0.0042304 	3.1408 	90.0566 	117.899 	-0.618066 	180.906 	360.844 	123.705 	539.704 	
19.9784 	-0.0118098 	-0.871594 	0.471291 	2.09074 	-0.00435075 	3.14094 	90.0567 	117.899 	-0.618066 	179.909 	360.844 	123.706 	539.704 	
20.0824 	-0.0119933 	-0.870989 	0.488976 	2.05584 	-0.00459911 	3.14123 	90.0567 	117.899 	-0.618066 	178.794 	360.844 	123.707 	539.704 	
20.1845 	-0.0120859 	-0.870455 	0.497808 	2.03838 	-0.00472706 	3.14138 	90.0566 	117.9 	-0.618164 	177.795 	360.844 	123.708 	539.704 	
20.2863 	-0.0121789 	-0.869767 	0.506629 	2.02093 	-0.00485747 	3.14152 	90.0567 	117.9 	-0.618164 	176.81 	360.844 	123.71 	539.704 	
20.3883 	-0.0122724 	-0.868925 	0.515437 	2.00348 	-0.0049903 	-3.14153 	90.0566 	117.9 	-0.618066 	175.801 	360.844 	123.71 	539.704 	
20.4977 	-0.0123663 	-0.86793 	0.524229 	1.98603 	-0.0051255 	-3.1414 	90.0566 	117.9 	-0.618066 	174.806 	360.844 	123.711 	539.704 	
20.5991 	-0.0124607 	-0.866781 	0.533002 	1.96857 	-0.00526305 	-3.14126 	90.0566 	117.9 	-0.618066 	173.716 	360.844 	123.711 	539.704 	
20.7015 	-0.0125554 	-0.865479 	0.541754 	1.95112 	-0.00540288 	-3.14113 	90.0567 	117.9 	-0.618164 	172.708 	360.844 	123.712 	539.704 	
20.8049 	-0.0126504 	-0.864025 	0.550481 	1.93367 	-0.00554498 	-3.14101 	90.0566 	117.9 	-0.618164 	171.606 	360.844 	123.713 	539.704 	
20.9078 	-0.0127458 	-0.862418 	0.559182 	1.91622 	-0.00568928 	-3.14088 	90.0565 	117.9 	-0.618066 	170.616 	360.844 	123.717 	539.704 	
21.0103 	-0.0128414 	-0.86066 	0.567854 	1.89876 	-0.00583575 	-3.14076 	90.0565 	117.9 	-0.618066 	169.606 	360.844 	123.72 	539.704 	
21.1123 	-0.0129373 	-0.858751 	0.576494 	1.88131 	-0.00598433 	-3.14064 	90.0565 	117.901 	-0.617969 	168.502 	360.844 	123.721 	539.704 	
21.2144 	-0.0130335 	-0.856691 	0.585099 	1.86386 	-0.006135 	-3.14052 	90.0564 	117.9 	-0.617969 	167.523 	360.844 	123.723 	539.704 	
21.3168 	-0.0131298 	-0.854482 	0.593666 	1.84641 	-0.00628769 	-3.1404 	90.0565 	117.899 	-0.618066 	166.529 	360.844 	123.723 	539.704 	
21.4195 	-0.0132263 	-0.852123 	0.602194 	1.82895 	-0.00644237 	-3.14029 	90.0566 	117.9 	-0.618066 	165.508 	360.844 	123.727 	539.704 	
21.5225 	-0.0133229 	-0.849616 	0.610679 	1.8115 	-0.00659898 	-3.14018 	90.0564 	117.901 	-0.617969 	164.414 	360.844 	123.728 	539.704 	
21.6254 	-0.0134197 	-0.846961 	0.61912 	1.79405 	-0.00675748 	-3.14008 	90.0565 	117.896 	-0.617969 	163.437 	360.844 	123.729 	539.704 	
21.7285 	-0.0135165 	-0.844159 	0.627512 	1.7766 	-0.00691783 	-3.13997 	90.0568 	117.899 	-0.617969 	162.419 	360.844 	123.733 	539.704 	
21.8314 	-0.0136134 	-0.841211 	0.635855 	1.75914 	-0.00707996 	-3.13987 	90.0566 	117.899 	-0.618066 	161.429 	360.844 	123.733 	539.704 	
21.9344 	-0.0137103 	-0.838118 	0.644145 	1.74169 	-0.00724384 	-3.13977 	90.0567 	117.899 	-0.617871 	160.322 	360.844 	123.734 	539.704 	
22.0377 	-0.0138072 	-0.83488 	0.652379 	1.72424 	-0.0074094 	-3.13968 	90.0566 	117.899 	-0.617969 	159.336 	360.844 	123.736 	539.704 	
22.1409 	-0.0139041 	-0.8315 	0.660556 	1.70679 	-0.00757661 	-3.13958 	90.0567 	117.899 	-0.617969 	158.331 	360.844 	123.739 	539.704 	
22.2434 	-0.0140009 	-0.827977 	0.668672 	1.68933 	-0.00774541 	-3.13949 	90.0567 	117.9 	-0.617871 	157.238 	360.844 	123.742 	539.704 	
22.3472 	-0.0140975 	-0.824313 	0.676726 	1.67188 	-0.00791576 	-3.13941 	90.0566 	117.894 	-0.617871 	156.242 	360.844 	123.743 	539.704 	
22.4495 	-0.0141941 	-0.820509 	0.684715 	1.65443 	-0.00808758 	-3.13932 	90.0567 	117.89 	-0.618066 	155.249 	360.844 	123.746 	539.704 	
22.5525 	-0.0142905 	-0.816566 	0.692636 	1.63697 	-0.00826085 	-3.13924 	90.0567 	117.891 	-0.617871 	154.136 	360.844 	123.747 	539.704 	
22.6553 	-0.0143868 	-0.812486 	0.700487 	1.61952 	-0.00843549 	-3.13917 	90.0567 	117.887 	-0.617871 	153.151 	360.844 	123.749 	539.704 	
22.7644 	-0.0144828 	-0.808269 	0.708265 	1.60207 	-0.00861147 	-3.13909 	90.0566 	117.888 	-0.617969 	152.047 	360.844 	123.75 	539.704 	
22.8678 	-0.0145785 	-0.803917 	0.715969 	1.58462 	-0.00878872 	-3.13902 	90.0567 	117.889 	-0.617871 	151.043 	360.844 	123.75 	539.704 	
22.9713 	-0.014674 	-0.799431 	0.723596 	1.56716 	-0.00896719 	-3.13895 	90.0568 	117.889 	-0.617871 	150.05 	360.844 	123.751 	539.704 	
23.0762 	-0.0147692 	-0.794813 	0.731143 	1.54971 	-0.00914683 	-3.13889 	90.0565 	117.888 	-0.617773 	148.961 	360.844 	123.751 	539.704 	
23.18 	-0.0149586 	-0.785185 	0.74599 	1.51481 	-0.00950939 	-3.13876 	90.0566 	117.888 	-0.617871 	147.963 	360.844 	123.751 	539.704 	
23.282 	-0.0150527 	-0.780178 	0.753285 	1.49735 	-0.0096922 	-3.13871 	90.0568 	117.889 	-0.617773 	146.857 	360.844 	123.752 	539.704 	
23.3839 	-0.0151464 	-0.775044 	0.760491 	1.4799 	-0.00987596 	-3.13866 	90.0566 	117.887 	-0.617773 	145.874 	360.844 	123.752 	539.704 	
23.486 	-0.0152397 	-0.769786 	0.767607 	1.46245 	-0.0100606 	-3.13861 	90.0567 	117.887 	-0.617773 	144.886 	360.844 	123.752 	539.704 	
23.588 	-0.0153325 	-0.764404 	0.77463 	1.44499 	-0.0102461 	-3.13856 	90.0567 	117.885 	-0.617676 	143.884 	360.844 	123.752 	539.704 	
23.6899 	-0.0154247 	-0.7589 	0.781558 	1.42754 	-0.0104324 	-3.13852 	90.0567 	117.886 	-0.617773 	142.867 	360.844 	123.753 	539.704 	
23.7978 	-0.0155165 	-0.753276 	0.788389 	1.41009 	-0.0106193 	-3.13848 	90.0566 	117.87 	-0.617676 	141.789 	360.844 	123.753 	539.704 	
23.8999 	-0.0156077 	-0.747534 	0.795121 	1.39264 	-0.010807 	-3.13844 	90.0567 	117.869 	-0.617871 	140.8 	360.844 	123.753 	539.704 	
24.0018 	-0.0156983 	-0.741675 	0.801751 	1.37518 	-0.0109952 	-3.13841 	90.0566 	117.857 	-0.617676 	139.698 	360.844 	123.753 	539.704 	
24.1042 	-0.0157883 	-0.735702 	0.808279 	1.35773 	-0.011184 	-3.13838 	90.0568 	117.86 	-0.617676 	138.692 	360.844 	123.754 	539.704 	
24.2059 	-0.0158776 	-0.729615 	0.814701 	1.34028 	-0.0113733 	-3.13835 	90.0566 	117.851 	-0.617481 	137.714 	360.844 	123.754 	539.704 	
24.3079 	-0.0159663 	-0.723417 	0.821015 	1.32282 	-0.0115631 	-3.13833 	90.0566 	117.85 	-0.617578 	136.719 	360.844 	123.754 	539.704 	
24.4099 	-0.0160543 	-0.71711 	0.827221 	1.30537 	-0.0117532 	-3.13831 	90.0567 	117.852 	-0.617578 	135.709 	360.844 	123.754 	539.704 	
24.5131 	-0.0161415 	-0.710695 	0.833316 	1.28792 	-0.0119436 	-3.13829 	90.0567 	117.849 	-0.617578 	134.63 	360.844 	123.754 	539.704 	
24.6162 	-0.0162281 	-0.704176 	0.839297 	1.27046 	-0.0121343 	-3.13828 	90.0566 	117.842 	-0.617578 	133.654 	360.844 	123.754 	539.704 	
24.7189 	-0.0163138 	-0.697552 	0.845164 	1.25301 	-0.0123252 	-3.13827 	90.0567 	117.846 	-0.617578 	132.621 	360.844 	123.754 	539.704 	
24.822 	-0.0163987 	-0.690828 	0.850915 	1.23556 	-0.0125162 	-3.13826 	90.0566 	117.844 	-0.617578 	131.537 	360.844 	123.754 	539.704 	
24.9251 	-0.0164828 	-0.684004 	0.856547 	1.21811 	-0.0127073 	-3.13826 	90.0566 	117.842 	-0.617481 	130.562 	360.844 	123.754 	539.704 	
25.0281 	-0.0165661 	-0.677082 	0.862059 	1.20065 	-0.0128984 	-3.13826 	90.0566 	117.841 	-0.617578 	129.559 	360.844 	123.754 	539.704 	
25.131 	-0.0166485 	-0.670066 	0.86745 	1.1832 	-0.0130896 	-3.13826 	90.0565 	117.839 	-0.617383 	128.552 	360.844 	123.754 	539.704 	
25.233 	-0.01673 	-0.662957 	0.872717 	1.16575 	-0.0132806 	-3.13827 	90.0567 	117.837 	-0.617578 	127.471 	360.844 	123.754 	539.704 	
25.335 	-0.0168105 	-0.655757 	0.877859 	1.14829 	-0.0134715 	-3.13828 	90.0565 	117.836 	-0.617481 	126.465 	360.844 	123.754 	539.704 	
25.4378 	-0.0168901 	-0.648468 	0.882875 	1.13084 	-0.0136621 	-3.13829 	90.0567 	117.837 	-0.617481 	125.468 	360.844 	123.754 	539.704 	
25.5409 	-0.0169687 	-0.641093 	0.887763 	1.11339 	-0.0138525 	-3.13831 	90.0566 	117.835 	-0.617383 	124.487 	360.844 	123.754 	539.704 	
25.6443 	-0.0170463 	-0.633634 	0.892521 	1.09594 	-0.0140426 	-3.13833 	90.0566 	117.834 	-0.617481 	123.406 	360.844 	123.754 	539.704 	
25.7472 	-0.0171229 	-0.626093 	0.897148 	1.07848 	-0.0142323 	-3.13835 	90.0566 	117.834 	-0.617481 	122.38 	360.844 	123.754 	539.704 	
25.8497 	-0.0171985 	-0.618473 	0.901643 	1.06103 	-0.0144216 	-3.13838 	90.0566 	117.831 	-0.617383 	121.402 	360.844 	123.754 	539.704 	
25.9532 	-0.0172729 	-0.610775 	0.906005 	1.04358 	-0.0146103 	-3.13841 	90.0567 	117.83 	-0.617578 	120.305 	360.844 	123.754 	539.704 	
26.0558 	-0.0173463 	-0.603002 	0.910231 	1.02613 	-0.0147985 	-3.13844 	90.0566 	117.827 	-0.617383 	119.318 	360.844 	123.754 	539.704 	
26.1641 	-0.0174186 	-0.595156 	0.914321 	1.00867 	-0.0149861 	-3.13848 	90.0567 	117.825 	-0.617676 	118.22 	360.844 	123.754 	539.704 	
26.2674 	-0.0174897 	-0.587241 	0.918274 	0.991222 	-0.0151731 	-3.13852 	90.0566 	117.823 	-0.617383 	117.212 	360.844 	123.754 	539.704 	
26.3697 	-0.0175597 	-0.579257 	0.922087 	0.97377 	-0.0153593 	-3.13856 	90.0566 	117.816 	-0.617481 	116.233 	360.844 	123.753 	539.704 	
26.4728 	-0.0176284 	-0.571208 	0.925761 	0.956317 	-0.0155448 	-3.13861 	90.0567 	117.815 	-0.617578 	115.126 	360.844 	123.753 	539.704 	
42.0604 	-0.0177676 	-0.554268 	0.93295 	0.920015 	-0.0159277 	-3.13872 	90.0562 	117.567 	-0.617188 	113.485 	360.844 	123.7 	539.704 	
42.165 	-0.0177676 	-0.554268 	0.93295 	0.920015 	-0.0159277 	-3.13872 	90.0562 	117.644 	-0.617188 	113.479 	360.844 	124.073 	539.704 	
42.2669 	-0.017776 	-0.551035 	0.937097 	0.900677 	-0.0159609 	-3.13902 	90.0562 	117.686 	-0.616895 	113.478 	360.844 	125.834 	539.704 	
42.37 	-0.0177891 	-0.545192 	0.944211 	0.865766 	-0.0160105 	-3.13958 	90.0563 	117.687 	-0.617481 	113.48 	360.844 	127.772 	539.704 	
42.4729 	-0.017797 	-0.539104 	0.951117 	0.830855 	-0.0160406 	-3.14014 	90.0562 	117.786 	-0.616992 	113.437 	360.844 	130.072 	539.704 	
42.5769 	-0.0177974 	-0.526225 	0.964271 	0.761034 	-0.0160421 	-3.14126 	90.0563 	117.795 	-0.61709 	113.431 	360.844 	132.074 	539.704 	
42.6808 	-0.0177898 	-0.519449 	0.970502 	0.726124 	-0.0160135 	3.14137 	90.056 	117.77 	-0.616895 	113.438 	360.844 	134.171 	539.704 	
42.7826 	-0.0177772 	-0.512459 	0.976494 	0.691213 	-0.0159654 	3.14081 	90.0562 	117.793 	-0.616992 	113.43 	360.844 	136.225 	539.704 	
42.8846 	-0.0177593 	-0.505265 	0.982238 	0.656303 	-0.0158978 	3.14025 	90.0561 	117.785 	-0.616992 	113.434 	360.844 	138.184 	539.704 	
42.9868 	-0.0177364 	-0.497875 	0.987728 	0.621393 	-0.0158109 	3.1397 	90.0562 	117.739 	-0.617188 	113.444 	360.844 	140.163 	539.704 	
43.0886 	-0.0177084 	-0.490298 	0.992956 	0.586482 	-0.0157047 	3.13915 	90.0562 	117.684 	-0.616992 	113.448 	360.844 	142.126 	539.704 	
43.1907 	-0.0176754 	-0.482543 	0.997917 	0.551573 	-0.0155794 	3.1386 	90.0561 	117.693 	-0.616699 	113.446 	360.844 	144.352 	539.704 	
43.2976 	-0.0176373 	-0.474619 	1.0026 	0.516662 	-0.0154351 	3.13806 	90.0562 	117.716 	-0.617188 	113.444 	360.844 	146.374 	539.704 	
43.3999 	-0.0175943 	-0.466537 	1.00701 	0.481753 	-0.015272 	3.13753 	90.0562 	117.742 	-0.616992 	113.438 	360.844 	148.391 	539.704 	
43.5026 	-0.0175464 	-0.458306 	1.01113 	0.446843 	-0.0150903 	3.137 	90.0561 	117.726 	-0.616797 	113.443 	360.844 	150.529 	539.704 	
43.6048 	-0.0174936 	-0.449936 	1.01497 	0.411934 	-0.0148902 	3.13647 	90.0564 	117.678 	-0.617578 	113.452 	360.844 	152.488 	539.704 	
43.7076 	-0.0174361 	-0.441438 	1.01851 	0.377025 	-0.014672 	3.13596 	90.0562 	117.688 	-0.616992 	113.45 	360.844 	154.518 	539.704 	
43.8108 	-0.0173738 	-0.432821 	1.02175 	0.342115 	-0.0144359 	3.13545 	90.0562 	117.69 	-0.616895 	113.449 	360.844 	156.72 	539.704 	
43.9139 	-0.0173069 	-0.424097 	1.02468 	0.307207 	-0.0141822 	3.13495 	90.0563 	117.703 	-0.617188 	113.448 	360.844 	158.719 	539.704 	
44.017 	-0.0172354 	-0.415275 	1.02732 	0.272298 	-0.0139112 	3.13446 	90.0563 	117.779 	-0.616699 	113.436 	360.844 	160.781 	539.704 	
44.1197 	-0.0171595 	-0.406367 	1.02964 	0.23739 	-0.0136233 	3.13398 	90.0562 	117.765 	-0.616602 	113.441 	360.844 	162.729 	539.704 	
44.2225 	-0.0170792 	-0.397383 	1.03165 	0.202482 	-0.0133188 	3.13351 	90.0564 	117.722 	-0.617481 	113.449 	360.844 	164.849 	539.704 	
44.3245 	-0.0169946 	-0.388335 	1.03334 	0.167575 	-0.012998 	3.13305 	90.0563 	117.677 	-0.616992 	113.456 	360.844 	166.838 	539.704 	
44.4277 	-0.0169058 	-0.379233 	1.03472 	0.132667 	-0.0126614 	3.1326 	90.0563 	117.696 	-0.616797 	113.453 	360.844 	168.887 	539.704 	
44.5305 	-0.016813 	-0.370089 	1.03578 	0.0977604 	-0.0123094 	3.13216 	90.0564 	117.694 	-0.617383 	113.454 	360.844 	171.074 	539.704 	
44.6326 	-0.0167162 	-0.360913 	1.03652 	0.0628536 	-0.0119424 	3.13174 	90.0562 	117.642 	-0.616797 	113.475 	360.844 	172.991 	539.704 	
44.7359 	-0.0166156 	-0.351717 	1.03694 	0.0279474 	-0.0115609 	3.13133 	90.0563 	117.702 	-0.616895 	113.477 	360.844 	175.046 	539.704 	
44.8385 	-0.0165112 	-0.342512 	1.03703 	-0.00695879 	-0.0111652 	3.13093 	90.0564 	117.768 	-0.61709 	113.463 	360.844 	177.085 	539.704 	
44.9417 	-0.0164033 	-0.33331 	1.03681 	-0.0418646 	-0.010756 	3.13055 	90.0563 	117.742 	-0.616992 	113.473 	360.844 	179.217 	539.704 	
45.0449 	-0.0162919 	-0.32412 	1.03627 	-0.0767699 	-0.0103337 	3.13018 	90.0562 	117.744 	-0.616504 	113.472 	360.844 	181.242 	539.704 	
45.1478 	-0.0161772 	-0.314956 	1.0354 	-0.111675 	-0.00989874 	3.12983 	90.0563 	117.697 	-0.616992 	113.483 	360.844 	183.193 	539.704 	
45.2506 	-0.0160593 	-0.305827 	1.03422 	-0.14658 	-0.00945176 	3.12949 	90.0563 	117.695 	-0.61709 	113.484 	360.844 	185.385 	539.704 	
45.3537 	-0.0159384 	-0.296745 	1.03272 	-0.181484 	-0.00899326 	3.12917 	90.0563 	117.749 	-0.616797 	113.474 	360.844 	187.464 	539.704 	
45.4572 	-0.0158146 	-0.287721 	1.0309 	-0.216389 	-0.0085238 	3.12886 	90.0563 	117.659 	-0.616895 	113.492 	360.844 	189.334 	539.704 	
45.5658 	-0.015688 	-0.278767 	1.02877 	-0.251293 	-0.00804397 	3.12858 	90.0563 	117.631 	-0.616992 	113.5 	360.844 	191.512 	539.704 	
45.6687 	-0.0155589 	-0.269892 	1.02632 	-0.286196 	-0.00755433 	3.1283 	90.0564 	117.687 	-0.617188 	113.493 	360.844 	193.579 	539.704 	
45.7715 	-0.0154273 	-0.261107 	1.02357 	-0.3211 	-0.00705549 	3.12805 	90.0563 	117.691 	-0.616797 	113.492 	360.844 	195.79 	539.704 	
45.8784 	-0.0151576 	-0.243854 	1.01716 	-0.390906 	-0.00603265 	3.12759 	90.0563 	117.683 	-0.616699 	113.496 	360.844 	197.72 	539.704 	
45.9803 	-0.0150197 	-0.235405 	1.0135 	-0.425809 	-0.0055099 	3.12739 	90.0563 	117.692 	-0.616797 	113.493 	360.844 	199.947 	539.705 	
46.0824 	-0.01488 	-0.22709 	1.00956 	-0.460711 	-0.00498043 	3.12721 	90.0563 	117.688 	-0.616406 	113.496 	360.844 	201.937 	539.704 	
46.1853 	-0.0147388 	-0.218917 	1.00532 	-0.495613 	-0.0044449 	3.12704 	90.0563 	117.686 	-0.61709 	113.496 	360.844 	203.515 	539.705 	
46.2873 	-0.0145961 	-0.210897 	1.0008 	-0.530516 	-0.00390395 	3.1269 	90.0562 	117.656 	-0.616895 	113.499 	360.844 	205.884 	539.704 	
46.3895 	-0.0144522 	-0.203039 	0.996008 	-0.565417 	-0.00335825 	3.12677 	90.0564 	117.681 	-0.617188 	113.497 	360.844 	207.908 	539.704 	
46.4924 	-0.0143072 	-0.195354 	0.990942 	-0.60032 	-0.00280845 	3.12666 	90.0563 	117.678 	-0.61709 	113.499 	360.844 	210.087 	539.705 	
46.5983 	-0.0141613 	-0.18785 	0.98561 	-0.635221 	-0.00225524 	3.12657 	90.0563 	117.676 	-0.616992 	113.499 	360.844 	212.056 	539.705 	
46.7002 	-0.0140146 	-0.180537 	0.98002 	-0.670123 	-0.00169928 	3.1265 	90.0563 	117.681 	-0.616992 	113.499 	360.844 	214.082 	539.705 	
46.8027 	-0.0138675 	-0.173424 	0.974178 	-0.705025 	-0.00114125 	3.12646 	90.0563 	117.685 	-0.616602 	113.497 	360.844 	216.282 	539.705 	
46.9054 	-0.0137199 	-0.166518 	0.968092 	-0.739926 	-0.000581828 	3.12643 	90.0563 	117.666 	-0.617188 	113.502 	360.844 	218.233 	539.705 	
47.0086 	-0.0135722 	-0.15983 	0.961768 	-0.774828 	-2.16957e-05 	3.12641 	90.0562 	117.683 	-0.616602 	113.502 	360.844 	220.246 	539.705 	
47.1111 	-0.0134244 	-0.153366 	0.955215 	-0.809729 	0.000538461 	3.12642 	90.0562 	117.666 	-0.616992 	113.505 	360.844 	222.404 	539.705 	
47.2135 	-0.0132769 	-0.147135 	0.94844 	-0.844631 	0.00109796 	3.12645 	90.0563 	117.657 	-0.616992 	113.513 	360.844 	224.42 	539.705 	
47.3161 	-0.0131297 	-0.141144 	0.941451 	-0.879533 	0.00165612 	3.1265 	90.0563 	117.651 	-0.616895 	113.516 	360.844 	226.438 	539.705 	
47.4196 	-0.012983 	-0.135401 	0.934258 	-0.914434 	0.00221227 	3.12657 	90.0563 	117.652 	-0.617285 	113.517 	360.844 	228.435 	539.705 	
47.5225 	-0.012837 	-0.129912 	0.926869 	-0.949336 	0.00276572 	3.12665 	90.0563 	117.655 	-0.617285 	113.517 	360.844 	230.617 	539.705 	
47.6256 	-0.0126919 	-0.124684 	0.919292 	-0.984238 	0.0033158 	3.12676 	90.0563 	117.659 	-0.616992 	113.518 	360.844 	232.59 	539.705 	
47.7282 	-0.0125479 	-0.119724 	0.911538 	-1.01914 	0.00386185 	3.12689 	90.0562 	117.647 	-0.61709 	113.521 	360.844 	234.568 	539.705 	
47.8314 	-0.0124051 	-0.115038 	0.903615 	-1.05404 	0.00440318 	3.12703 	90.0562 	117.65 	-0.616602 	113.521 	360.844 	236.778 	539.705 	
47.9344 	-0.0122638 	-0.110631 	0.895534 	-1.08894 	0.00493916 	3.12719 	90.0562 	117.653 	-0.617676 	113.524 	360.844 	238.775 	539.705 	
48.0373 	-0.012124 	-0.106509 	0.887303 	-1.12385 	0.00546912 	3.12737 	90.0562 	117.652 	-0.616211 	113.525 	360.844 	240.766 	539.705 	
48.1401 	-0.011986 	-0.102677 	0.878934 	-1.15875 	0.00599242 	3.12757 	90.0562 	117.643 	-0.616602 	113.528 	360.844 	242.772 	539.705 	
48.2421 	-0.0118499 	-0.099139 	0.870436 	-1.19365 	0.00650842 	3.12779 	90.0562 	117.653 	-0.617969 	113.527 	360.844 	244.958 	539.705 	
48.3442 	-0.0117159 	-0.0958998 	0.86182 	-1.22856 	0.00701649 	3.12803 	90.0562 	117.652 	-0.616406 	113.527 	360.844 	246.967 	539.705 	
48.4478 	-0.0115841 	-0.0929632 	0.853096 	-1.26346 	0.00751602 	3.12828 	90.0563 	117.654 	-0.616602 	113.527 	360.844 	248.974 	539.705 	
48.5503 	-0.0114548 	-0.090333 	0.844274 	-1.29836 	0.00800639 	3.12855 	90.0564 	117.644 	-0.616895 	113.529 	360.844 	250.983 	539.705 	
48.6529 	-0.011328 	-0.0880122 	0.835367 	-1.33327 	0.008487 	3.12884 	90.0563 	117.643 	-0.616797 	113.529 	360.844 	253.174 	539.705 	
48.7553 	-0.011204 	-0.0860037 	0.826383 	-1.36817 	0.00895729 	3.12915 	90.0564 	117.65 	-0.616602 	113.528 	360.844 	255.133 	539.705 	
48.8585 	-0.0110829 	-0.0843099 	0.817335 	-1.40308 	0.00941666 	3.12947 	90.0564 	117.653 	-0.616797 	113.527 	360.844 	257.144 	539.705 	
48.9631 	-0.0109647 	-0.0829329 	0.808233 	-1.43798 	0.0098646 	3.1298 	90.0564 	117.625 	-0.616895 	113.534 	360.844 	259.333 	539.705 	
49.0662 	-0.0108498 	-0.0818745 	0.799088 	-1.47289 	0.0103005 	3.13016 	90.0563 	117.641 	-0.616113 	113.532 	360.844 	261.314 	539.705 	
49.1701 	-0.0107381 	-0.0811358 	0.789911 	-1.5078 	0.0107239 	3.13052 	90.0564 	117.593 	-0.617188 	113.542 	360.844 	263.321 	539.705 	
49.2752 	-0.0106299 	-0.0807178 	0.780715 	-1.54271 	0.0111342 	3.1309 	90.0563 	117.664 	-0.616699 	113.538 	360.844 	265.525 	539.705 	
49.3801 	-0.0105253 	-0.0806211 	0.771509 	-1.57762 	0.0115309 	3.1313 	90.0562 	117.668 	-0.616504 	113.54 	360.844 	267.531 	539.705 	
49.483 	-0.0103272 	-0.0813915 	0.753116 	-1.64744 	0.0122817 	3.13213 	90.0563 	117.658 	-0.616797 	113.541 	360.844 	269.701 	539.705 	
49.5849 	-0.0102341 	-0.0822576 	0.74395 	-1.68234 	0.012635 	3.13257 	90.0563 	117.663 	-0.617188 	113.54 	360.844 	271.712 	539.705 	
49.6868 	-0.010145 	-0.0834431 	0.734821 	-1.71725 	0.0129728 	3.13301 	90.0563 	117.655 	-0.616699 	113.541 	360.844 	273.72 	539.705 	
49.7888 	-0.0100601 	-0.0849465 	0.725738 	-1.75217 	0.0132948 	3.13347 	90.0563 	117.639 	-0.616895 	113.543 	360.844 	275.74 	539.705 	
49.8909 	-0.00997942 	-0.0867659 	0.716713 	-1.78708 	0.0136006 	3.13394 	90.0563 	117.641 	-0.616797 	113.543 	360.844 	277.934 	539.705 	
49.9978 	-0.00990315 	-0.0888993 	0.707757 	-1.82199 	0.0138898 	3.13442 	90.0564 	117.643 	-0.616895 	113.542 	360.844 	279.921 	539.705 	
50.0999 	-0.00983133 	-0.0913439 	0.698881 	-1.8569 	0.0141621 	3.13491 	90.0563 	117.643 	-0.616797 	113.543 	360.844 	281.925 	539.705 	
50.2021 	-0.00976798 	-0.0939229 	0.690621 	-1.88971 	0.0144023 	3.13538 	90.0563 	117.642 	-0.616699 	113.543 	360.844 	283.992 	539.705 	
50.2198 	-0.00976798 	-0.0939229 	0.690621 	-1.88971 	0.0144023 	3.13538 	90.0563 	117.643 	-0.616895 	113.543 	360.844 	284.11 	539.705 	
50.3221 	-0.00976064 	-0.0953409 	0.689683 	-1.89373 	0.0144169 	3.13549 	90.0562 	117.642 	-0.616797 	113.799 	360.844 	284.565 	539.705 	
50.4251 	-0.00979294 	-0.0993388 	0.694348 	-1.87628 	0.014226 	3.1355 	90.0563 	117.644 	-0.616895 	114.654 	360.844 	284.592 	539.705 	
50.5281 	-0.00982421 	-0.103417 	0.698943 	-1.85883 	0.0140353 	3.13551 	90.0563 	117.647 	-0.616895 	115.622 	360.844 	284.599 	539.705 	
50.6309 	-0.00985443 	-0.107576 	0.703465 	-1.84138 	0.0138448 	3.13553 	90.0564 	117.647 	-0.616992 	116.714 	360.844 	284.603 	539.705 	
50.7338 	-0.0098836 	-0.111812 	0.707915 	-1.82393 	0.0136546 	3.13555 	90.0563 	117.65 	-0.616699 	117.713 	360.844 	284.606 	539.705 	
50.8359 	-0.00991171 	-0.116126 	0.712289 	-1.80647 	0.0134648 	3.13557 	90.0563 	117.644 	-0.616699 	118.715 	360.844 	284.608 	539.705 	
50.9389 	-0.00993875 	-0.120515 	0.716588 	-1.78902 	0.0132754 	3.13559 	90.0563 	117.645 	-0.616992 	119.709 	360.844 	284.609 	539.705 	
51.0424 	-0.0099647 	-0.124979 	0.720809 	-1.77157 	0.0130865 	3.13562 	90.0565 	117.65 	-0.617188 	120.797 	360.844 	284.61 	539.705 	
51.1452 	-0.00998957 	-0.129515 	0.724952 	-1.75412 	0.0128981 	3.13565 	90.0563 	117.65 	-0.617188 	121.798 	360.844 	284.61 	539.705 	
51.2481 	-0.0100133 	-0.134123 	0.729015 	-1.73667 	0.0127103 	3.13569 	90.0562 	117.646 	-0.616602 	122.805 	360.844 	284.614 	539.705 	
51.3512 	-0.010036 	-0.138802 	0.732998 	-1.71922 	0.0125232 	3.13573 	90.0565 	117.654 	-0.617578 	123.889 	360.844 	284.616 	539.705 	
51.4541 	-0.0100576 	-0.143549 	0.736898 	-1.70177 	0.0123367 	3.13577 	90.0563 	117.655 	-0.616895 	124.887 	360.844 	284.618 	539.705 	
51.5573 	-0.010078 	-0.148364 	0.740714 	-1.68431 	0.0121511 	3.13582 	90.0563 	117.657 	-0.616504 	125.872 	360.844 	284.618 	539.705 	
51.6642 	-0.0100974 	-0.153244 	0.744446 	-1.66686 	0.0119662 	3.13586 	90.0563 	117.657 	-0.616797 	126.99 	360.844 	284.619 	539.705 	
51.7668 	-0.0101156 	-0.158189 	0.748092 	-1.64941 	0.0117822 	3.13592 	90.0563 	117.657 	-0.616797 	127.973 	360.844 	284.622 	539.705 	
51.8697 	-0.0101326 	-0.163197 	0.751651 	-1.63196 	0.0115991 	3.13597 	90.0563 	117.662 	-0.61709 	129.072 	360.844 	284.624 	539.705 	
51.9749 	-0.0101633 	-0.173395 	0.758505 	-1.59705 	0.011236 	3.13609 	90.0563 	117.662 	-0.61709 	130.08 	360.844 	284.628 	539.705 	
52.0787 	-0.010177 	-0.178583 	0.761798 	-1.5796 	0.0110561 	3.13615 	90.0563 	117.666 	-0.616797 	131.071 	360.844 	284.63 	539.705 	
52.1817 	-0.0101895 	-0.183827 	0.764999 	-1.56215 	0.0108773 	3.13622 	90.0563 	117.675 	-0.616797 	132.154 	360.844 	284.633 	539.705 	
52.2839 	-0.0102008 	-0.189126 	0.768109 	-1.5447 	0.0106997 	3.13629 	90.0564 	117.676 	-0.616895 	133.145 	360.844 	284.637 	539.705 	
52.3866 	-0.010211 	-0.194479 	0.771125 	-1.52724 	0.0105234 	3.13637 	90.0563 	117.678 	-0.616699 	134.152 	360.844 	284.641 	539.705 	
52.4886 	-0.01022 	-0.199883 	0.774048 	-1.50979 	0.0103483 	3.13644 	90.0563 	117.681 	-0.616797 	135.14 	360.844 	284.641 	539.705 	
52.5906 	-0.0102278 	-0.205338 	0.776876 	-1.49234 	0.0101747 	3.13652 	90.0563 	117.689 	-0.616992 	136.233 	360.844 	284.642 	539.705 	
52.6976 	-0.0102345 	-0.210841 	0.779608 	-1.47489 	0.0100025 	3.13661 	90.0563 	117.687 	-0.617383 	137.242 	360.844 	284.646 	539.705 	
52.7998 	-0.01024 	-0.216392 	0.782244 	-1.45743 	0.00983173 	3.13669 	90.0564 	117.691 	-0.617188 	138.337 	360.844 	284.648 	539.705 	
52.9028 	-0.0102443 	-0.221987 	0.784783 	-1.43998 	0.00966251 	3.13678 	90.0563 	117.697 	-0.616797 	139.329 	360.844 	284.648 	539.705 	
53.0058 	-0.0102475 	-0.227626 	0.787223 	-1.42253 	0.00949486 	3.13687 	90.0564 	117.696 	-0.61709 	140.33 	360.844 	284.649 	539.705 	
53.1081 	-0.0102495 	-0.233306 	0.789565 	-1.40508 	0.00932884 	3.13697 	90.0564 	117.698 	-0.616992 	141.335 	360.844 	284.65 	539.705 	
53.2108 	-0.0102503 	-0.239026 	0.791807 	-1.38762 	0.0091645 	3.13707 	90.0562 	117.698 	-0.616992 	142.43 	360.844 	284.65 	539.705 	
53.3136 	-0.0102499 	-0.244785 	0.793949 	-1.37017 	0.00900188 	3.13717 	90.0563 	117.698 	-0.617285 	143.409 	360.844 	284.65 	539.705 	
53.4156 	-0.0102484 	-0.25058 	0.79599 	-1.35272 	0.00884105 	3.13727 	90.0563 	117.698 	-0.616699 	144.417 	360.844 	284.65 	539.705 	
53.5178 	-0.0102457 	-0.25641 	0.79793 	-1.33527 	0.00868204 	3.13738 	90.0563 	117.699 	-0.616895 	145.406 	360.844 	284.65 	539.705 	
53.6205 	-0.0102418 	-0.262273 	0.799768 	-1.31781 	0.0085249 	3.13748 	90.0562 	117.701 	-0.616895 	146.499 	360.844 	284.651 	539.705 	
53.7227 	-0.0102368 	-0.268167 	0.801503 	-1.30036 	0.00836969 	3.1376 	90.0563 	117.699 	-0.616992 	147.513 	360.844 	284.651 	539.705 	
53.8257 	-0.0102305 	-0.274091 	0.803135 	-1.28291 	0.00821645 	3.13771 	90.0563 	117.7 	-0.616992 	148.501 	360.844 	284.652 	539.705 	
53.929 	-0.0102232 	-0.280042 	0.804663 	-1.26546 	0.00806523 	3.13783 	90.0562 	117.705 	-0.616992 	149.483 	360.844 	284.652 	539.705 	
54.0317 	-0.0102146 	-0.286019 	0.806087 	-1.248 	0.00791607 	3.13795 	90.0563 	117.705 	-0.61709 	150.587 	360.844 	284.652 	539.705 	
54.1348 	-0.0102049 	-0.292019 	0.807407 	-1.23055 	0.00776902 	3.13807 	90.0563 	117.705 	-0.616992 	151.583 	360.844 	284.652 	539.705 	
54.2377 	-0.010194 	-0.298042 	0.808622 	-1.2131 	0.00762412 	3.13819 	90.0562 	117.705 	-0.616895 	152.574 	360.844 	284.652 	539.705 	
54.3406 	-0.010182 	-0.304085 	0.809732 	-1.19565 	0.00748141 	3.13832 	90.0562 	117.708 	-0.616992 	153.662 	360.844 	284.652 	539.705 	
54.4434 	-0.0101688 	-0.310147 	0.810735 	-1.1782 	0.00734095 	3.13845 	90.0562 	117.708 	-0.61709 	154.683 	360.844 	284.652 	539.705 	
54.5455 	-0.0101544 	-0.316225 	0.811633 	-1.16074 	0.00720278 	3.13858 	90.0563 	117.708 	-0.616992 	155.666 	360.844 	284.653 	539.705 	
54.6486 	-0.0101389 	-0.322318 	0.812425 	-1.14329 	0.00706693 	3.13872 	90.0563 	117.709 	-0.61709 	156.663 	360.844 	284.653 	539.705 	
54.7517 	-0.0101223 	-0.328424 	0.81311 	-1.12584 	0.00693344 	3.13885 	90.0562 	117.712 	-0.616992 	157.762 	360.844 	284.657 	539.705 	
54.8546 	-0.0101045 	-0.334541 	0.813689 	-1.10839 	0.00680237 	3.13899 	90.0562 	117.713 	-0.616992 	158.763 	360.844 	284.659 	539.705 	
54.9576 	-0.0100856 	-0.340667 	0.814161 	-1.09093 	0.00667374 	3.13913 	90.0562 	117.716 	-0.61709 	159.763 	360.844 	284.661 	539.705 	
55.0635 	-0.0100656 	-0.3468 	0.814525 	-1.07348 	0.00654759 	3.13928 	90.0562 	117.737 	-0.616992 	160.841 	360.844 	284.663 	539.705 	
55.1655 	-0.0100445 	-0.352939 	0.814783 	-1.05603 	0.00642398 	3.13942 	90.0562 	117.737 	-0.616992 	161.835 	360.844 	284.663 	539.705 	
55.2675 	-0.0100223 	-0.359081 	0.814934 	-1.03858 	0.00630293 	3.13957 	90.0562 	117.737 	-0.616992 	162.845 	360.844 	284.664 	539.705 	
55.3704 	-0.0099989 	-0.365225 	0.814977 	-1.02112 	0.00618447 	3.13972 	90.0562 	117.74 	-0.61709 	163.929 	360.844 	284.665 	539.705 	
55.4769 	-0.00997445 	-0.371369 	0.814913 	-1.00367 	0.00606866 	3.13987 	90.0562 	117.739 	-0.616992 	164.932 	360.844 	284.665 	539.705 	
55.5803 	-0.00992229 	-0.383649 	0.814463 	-0.968767 	0.00584507 	3.14018 	90.0563 	117.74 	-0.61709 	166.025 	360.844 	284.668 	539.705 	
55.6824 	-0.00989459 	-0.389781 	0.814078 	-0.951315 	0.00573737 	3.14034 	90.0562 	117.744 	-0.61709 	167.016 	360.844 	284.669 	539.705 	
55.7843 	-0.00986583 	-0.395905 	0.813585 	-0.933862 	0.00563244 	3.1405 	90.0563 	117.749 	-0.616992 	168.027 	360.844 	284.67 	539.705 	
55.8862 	-0.00983601 	-0.40202 	0.812986 	-0.91641 	0.00553031 	3.14066 	90.0563 	117.751 	-0.61709 	169.021 	360.844 	284.67 	539.705 	
55.9882 	-0.00980514 	-0.408123 	0.81228 	-0.898957 	0.00543102 	3.14083 	90.0563 	117.753 	-0.616992 	170.016 	360.844 	284.674 	539.705 	
56.0903 	-0.00977323 	-0.414213 	0.811468 	-0.881505 	0.0053346 	3.14099 	90.0563 	117.754 	-0.61709 	171.104 	360.844 	284.676 	539.705 	
56.1982 	-0.0097403 	-0.420288 	0.81055 	-0.864053 	0.00524107 	3.14116 	90.0563 	117.754 	-0.616992 	172.105 	360.844 	284.68 	539.705 	
56.3004 	-0.00970634 	-0.426346 	0.809525 	-0.8466 	0.00515046 	3.14133 	90.0563 	117.755 	-0.616992 	173.205 	360.844 	284.683 	539.705 	
56.4033 	-0.00967138 	-0.432386 	0.808396 	-0.829148 	0.00506281 	3.1415 	90.0563 	117.759 	-0.616992 	174.186 	360.844 	284.686 	539.705 	
56.5056 	-0.00963541 	-0.438404 	0.80716 	-0.811695 	0.00497813 	-3.14152 	90.0563 	117.759 	-0.61709 	175.208 	360.844 	284.688 	539.705 	
56.6085 	-0.00959847 	-0.444401 	0.80582 	-0.794243 	0.00489645 	-3.14135 	90.0564 	117.766 	-0.617188 	176.188 	360.844 	284.692 	539.705 	
56.7111 	-0.00956054 	-0.450372 	0.804376 	-0.77679 	0.00481781 	-3.14117 	90.0562 	117.767 	-0.61709 	177.302 	360.844 	284.699 	539.705 	
56.8132 	-0.00952165 	-0.456318 	0.802828 	-0.759338 	0.00474221 	-3.141 	90.0562 	117.767 	-0.61709 	178.299 	360.844 	284.708 	539.705 	
56.915 	-0.00948181 	-0.462236 	0.801176 	-0.741885 	0.00466969 	-3.14082 	90.0563 	117.776 	-0.61709 	179.276 	360.844 	284.717 	539.705 	
57.0179 	-0.00944103 	-0.468124 	0.799421 	-0.724433 	0.00460027 	-3.14064 	90.0562 	117.777 	-0.617188 	180.282 	360.844 	284.719 	539.705 	
57.1202 	-0.00939932 	-0.473981 	0.797563 	-0.70698 	0.00453397 	-3.14046 	90.0562 	117.777 	-0.61709 	181.386 	360.844 	284.722 	539.705 	
57.2236 	-0.0093567 	-0.479804 	0.795604 	-0.689528 	0.0044708 	-3.14028 	90.0561 	117.786 	-0.616992 	182.369 	360.844 	284.724 	539.705 	
57.3264 	-0.00931317 	-0.485592 	0.793543 	-0.672075 	0.00441079 	-3.1401 	90.0563 	117.789 	-0.61709 	183.364 	360.844 	284.726 	539.705 	
57.4293 	-0.00926875 	-0.491343 	0.791382 	-0.654623 	0.00435396 	-3.13992 	90.0562 	117.789 	-0.616992 	184.473 	360.844 	284.728 	539.705 	
57.5323 	-0.00922346 	-0.497056 	0.78912 	-0.63717 	0.00430033 	-3.13973 	90.0562 	117.791 	-0.617188 	185.481 	360.844 	284.729 	539.705 	
57.6352 	-0.00917731 	-0.502728 	0.786759 	-0.619718 	0.0042499 	-3.13955 	90.0563 	117.8 	-0.617188 	186.455 	360.844 	284.734 	539.705 	
57.738 	-0.00913031 	-0.508358 	0.7843 	-0.602265 	0.0042027 	-3.13936 	90.056 	117.799 	-0.617188 	187.473 	360.844 	284.736 	539.705 	
57.8402 	-0.00908248 	-0.513945 	0.781742 	-0.584813 	0.00415874 	-3.13918 	90.0563 	117.807 	-0.617188 	188.546 	360.844 	284.738 	539.705 	
57.9433 	-0.00903383 	-0.519486 	0.779088 	-0.56736 	0.00411802 	-3.13899 	90.0561 	117.813 	-0.61709 	189.538 	360.844 	284.738 	539.705 	
58.0465 	-0.00898437 	-0.52498 	0.776337 	-0.549908 	0.00408058 	-3.1388 	90.0562 	117.816 	-0.616992 	190.546 	360.844 	284.739 	539.705 	
58.1492 	-0.00893413 	-0.530425 	0.773491 	-0.532455 	0.00404641 	-3.13862 	90.0563 	117.819 	-0.61709 	191.647 	360.844 	284.74 	539.705 	
58.2526 	-0.00888311 	-0.535819 	0.77055 	-0.515002 	0.00401553 	-3.13843 	90.0562 	117.821 	-0.61709 	192.637 	360.844 	284.741 	539.705 	
58.3551 	-0.00883133 	-0.541161 	0.767515 	-0.49755 	0.00398795 	-3.13824 	90.0562 	117.822 	-0.617188 	193.625 	360.844 	284.743 	539.705 	
58.4584 	-0.00877882 	-0.54645 	0.764388 	-0.480098 	0.00396367 	-3.13805 	90.0562 	117.822 	-0.61709 	194.65 	360.844 	284.745 	539.705 	
58.5632 	-0.00872557 	-0.551683 	0.761169 	-0.462645 	0.0039427 	-3.13786 	90.0563 	117.823 	-0.61709 	195.738 	360.844 	284.749 	539.705 	
58.6662 	-0.00867162 	-0.556859 	0.757859 	-0.445192 	0.00392505 	-3.13767 	90.0562 	117.823 	-0.61709 	196.742 	360.844 	284.751 	539.705 	
58.7688 	-0.00861697 	-0.561976 	0.754459 	-0.42774 	0.00391073 	-3.13748 	90.0562 	117.824 	-0.617188 	197.83 	360.844 	284.752 	539.705 	
58.8722 	-0.00856165 	-0.567034 	0.75097 	-0.410287 	0.00389974 	-3.13729 	90.0562 	117.831 	-0.61709 	198.825 	360.844 	284.755 	539.705 	
58.9762 	-0.00844903 	-0.576962 	0.743731 	-0.375382 	0.00388774 	-3.1369 	90.0561 	117.831 	-0.617188 	199.831 	360.844 	284.762 	539.705 	
59.08 	-0.00839178 	-0.58183 	0.739982 	-0.357929 	0.00388675 	-3.13671 	90.0562 	117.831 	-0.617188 	200.926 	360.844 	284.768 	539.705 	
59.182 	-0.00833392 	-0.586632 	0.73615 	-0.340477 	0.00388909 	-3.13652 	90.0561 	117.831 	-0.617188 	201.928 	360.844 	284.774 	539.705 	
59.2841 	-0.00827547 	-0.591366 	0.732233 	-0.323024 	0.00389477 	-3.13633 	90.0562 	117.831 	-0.61709 	202.916 	360.844 	284.78 	539.705 	
59.387 	-0.00821645 	-0.596031 	0.728235 	-0.305572 	0.00390378 	-3.13614 	90.0562 	117.831 	-0.617188 	203.924 	360.844 	284.785 	539.705 	
59.4889 	-0.00815687 	-0.600625 	0.724156 	-0.288119 	0.00391612 	-3.13595 	90.0562 	117.831 	-0.617188 	205.008 	360.844 	284.788 	539.705 	
59.5908 	-0.00809675 	-0.605148 	0.719998 	-0.270667 	0.00393179 	-3.13576 	90.0562 	117.831 	-0.61709 	206.021 	360.844 	284.793 	539.705 	
59.6979 	-0.00803612 	-0.609597 	0.715761 	-0.253214 	0.00395078 	-3.13557 	90.0562 	117.832 	-0.617188 	207.005 	360.844 	284.795 	539.705 	
59.8009 	-0.00797499 	-0.613972 	0.711447 	-0.235761 	0.00397308 	-3.13538 	90.0563 	117.832 	-0.61709 	208.111 	360.844 	284.797 	539.705 	
59.9029 	-0.00791337 	-0.61827 	0.707057 	-0.218309 	0.0039987 	-3.13519 	90.056 	117.832 	-0.617188 	209.132 	360.844 	284.798 	539.705 	
60.0059 	-0.0078513 	-0.622492 	0.702593 	-0.200856 	0.00402762 	-3.135 	90.0564 	117.837 	-0.617188 	210.097 	360.844 	284.803 	539.705 	
60.1084 	-0.00778878 	-0.626635 	0.698056 	-0.183404 	0.00405983 	-3.13481 	90.0558 	117.837 	-0.617188 	211.108 	360.844 	284.805 	539.705 	
60.2108 	-0.00772583 	-0.630698 	0.693448 	-0.165951 	0.00409532 	-3.13462 	90.0561 	117.837 	-0.617188 	212.204 	360.844 	284.808 	539.705 	
60.3127 	-0.00766248 	-0.63468 	0.688769 	-0.148499 	0.00413409 	-3.13444 	90.0562 	117.837 	-0.617188 	213.205 	360.844 	284.811 	539.705 	
60.4149 	-0.00759874 	-0.638579 	0.684022 	-0.131046 	0.00417611 	-3.13425 	90.0562 	117.837 	-0.617188 	214.191 	360.844 	284.814 	539.705 	
60.5181 	-0.00753464 	-0.642396 	0.679207 	-0.113594 	0.00422139 	-3.13407 	90.056 	117.837 	-0.617285 	215.209 	360.844 	284.815 	539.705 	
60.6208 	-0.00747019 	-0.646127 	0.674326 	-0.0961411 	0.00426989 	-3.13388 	90.0561 	117.838 	-0.617188 	216.291 	360.844 	284.818 	539.705 	
60.7238 	-0.00740541 	-0.649773 	0.669381 	-0.0786886 	0.00432162 	-3.1337 	90.0563 	117.839 	-0.61709 	217.294 	360.844 	284.826 	539.705 	
60.8275 	-0.00734033 	-0.653332 	0.664373 	-0.0612361 	0.00437655 	-3.13351 	90.0561 	117.838 	-0.617188 	218.304 	360.844 	284.828 	539.705 	
60.9298 	-0.00727495 	-0.656803 	0.659303 	-0.0437837 	0.00443467 	-3.13333 	90.056 	117.839 	-0.617285 	219.406 	360.844 	284.835 	539.705 	
61.032 	-0.00720931 	-0.660185 	0.654174 	-0.0263312 	0.00449595 	-3.13315 	90.0562 	117.835 	-0.617188 	220.419 	360.844 	284.843 	539.705 	
61.1352 	-0.00714342 	-0.663477 	0.648987 	-0.00887868 	0.00456039 	-3.13297 	90.0561 	117.84 	-0.617188 	221.401 	360.844 	284.848 	539.705 	
61.2381 	-0.00707731 	-0.666678 	0.643743 	0.00857387 	0.00462796 	-3.13279 	90.0561 	117.841 	-0.617188 	222.399 	360.844 	284.851 	539.705 	
61.341 	-0.00701098 	-0.669787 	0.638443 	0.0260264 	0.00469863 	-3.13261 	90.0561 	117.843 	-0.617188 	223.487 	360.844 	284.859 	539.705 	
61.4439 	-0.00694447 	-0.672803 	0.633091 	0.0434788 	0.0047724 	-3.13244 	90.0559 	117.843 	-0.617383 	224.5 	360.844 	284.861 	539.705 	
61.5468 	-0.00687779 	-0.675725 	0.627686 	0.0609314 	0.00484923 	-3.13226 	90.0562 	117.843 	-0.617188 	225.499 	360.844 	284.862 	539.705 	
61.6503 	-0.00681097 	-0.678552 	0.622232 	0.0783838 	0.0049291 	-3.13209 	90.0562 	117.846 	-0.617285 	226.583 	360.844 	284.868 	539.705 	
61.7529 	-0.00674401 	-0.681284 	0.616729 	0.0958363 	0.00501199 	-3.13192 	90.0561 	117.846 	-0.617188 	227.59 	360.844 	284.87 	539.705 	
61.8564 	-0.00667695 	-0.683919 	0.611179 	0.113289 	0.00509788 	-3.13175 	90.0561 	117.848 	-0.617188 	228.582 	360.844 	284.872 	539.705 	
61.9637 	-0.00660981 	-0.686457 	0.605584 	0.130741 	0.00518673 	-3.13158 	90.0561 	117.85 	-0.617285 	229.688 	360.844 	284.876 	539.705 	
62.0672 	-0.0065426 	-0.688897 	0.599945 	0.148194 	0.00527852 	-3.13141 	90.056 	117.851 	-0.617383 	230.703 	360.844 	284.879 	539.705 	
62.1707 	-0.00647534 	-0.691238 	0.594265 	0.165646 	0.00537322 	-3.13124 	90.0561 	117.851 	-0.617285 	231.814 	360.844 	284.881 	539.705 	
62.2776 	-0.00640806 	-0.693479 	0.588544 	0.183098 	0.00547081 	-3.13108 	90.0562 	117.854 	-0.617188 	232.797 	360.844 	284.891 	539.705 	
62.3806 	-0.00627352 	-0.697661 	0.576991 	0.218003 	0.00567451 	-3.13076 	90.0561 	117.86 	-0.617383 	233.897 	360.844 	284.923 	539.705 	
62.4825 	-0.00620628 	-0.6996 	0.571161 	0.235456 	0.00578057 	-3.1306 	90.0561 	117.861 	-0.617285 	234.9 	360.844 	284.932 	539.705 	
62.5846 	-0.00613911 	-0.701437 	0.565298 	0.252908 	0.00588938 	-3.13044 	90.0561 	117.861 	-0.617285 	235.912 	360.844 	284.935 	539.705 	
62.6866 	-0.00607202 	-0.703172 	0.559404 	0.270361 	0.00600092 	-3.13028 	90.0561 	117.863 	-0.617285 	236.896 	360.844 	284.94 	539.705 	
62.7886 	-0.00600502 	-0.704803 	0.553481 	0.287813 	0.00611515 	-3.13013 	90.056 	117.863 	-0.617285 	237.895 	360.844 	284.942 	539.705 	
62.8905 	-0.00593815 	-0.706331 	0.54753 	0.305265 	0.00623204 	-3.12998 	90.0561 	117.863 	-0.617285 	239.015 	360.844 	284.944 	539.705 	
62.9985 	-0.00587141 	-0.707754 	0.541553 	0.322718 	0.00635154 	-3.12983 	90.0561 	117.866 	-0.617285 	239.996 	360.844 	284.947 	539.705 	
63.1005 	-0.00580483 	-0.709073 	0.535553 	0.34017 	0.00647363 	-3.12968 	90.0561 	117.865 	-0.617383 	241.114 	360.844 	284.947 	539.705 	
63.2025 	-0.00573844 	-0.710287 	0.52953 	0.357622 	0.00659828 	-3.12954 	90.056 	117.866 	-0.617383 	242.106 	360.844 	284.948 	539.705 	
63.3045 	-0.00567224 	-0.711396 	0.523487 	0.375074 	0.00672543 	-3.1294 	90.056 	117.866 	-0.617285 	243.107 	360.844 	284.95 	539.705 	
63.407 	-0.00560626 	-0.712399 	0.517426 	0.392527 	0.00685505 	-3.12925 	90.056 	117.866 	-0.617383 	244.116 	360.844 	284.95 	539.705 	
63.5097 	-0.00554052 	-0.713296 	0.511348 	0.409979 	0.0069871 	-3.12912 	90.0561 	117.866 	-0.617481 	245.219 	360.844 	284.953 	539.705 	
63.613 	-0.00547505 	-0.714087 	0.505255 	0.427432 	0.00712155 	-3.12898 	90.0564 	117.868 	-0.617188 	246.21 	360.844 	284.958 	539.705 	
63.7155 	-0.00540985 	-0.714772 	0.49915 	0.444884 	0.00725835 	-3.12885 	90.056 	117.868 	-0.617383 	247.217 	360.844 	284.96 	539.705 	
63.8187 	-0.00534496 	-0.715349 	0.493033 	0.462337 	0.00739745 	-3.12872 	90.0559 	117.868 	-0.617578 	248.218 	360.844 	284.964 	539.705 	
63.9217 	-0.00528038 	-0.71582 	0.486907 	0.479789 	0.00753882 	-3.12859 	90.056 	117.87 	-0.617578 	249.296 	360.844 	284.987 	539.705 	
64.0247 	-0.00521615 	-0.716184 	0.480774 	0.497241 	0.00768242 	-3.12846 	90.0563 	117.871 	-0.61709 	250.317 	360.844 	284.996 	539.705 	
64.1274 	-0.00515227 	-0.716441 	0.474636 	0.514693 	0.00782819 	-3.12834 	90.0561 	117.869 	-0.617383 	251.328 	360.844 	284.999 	539.705 	
64.2294 	-0.00508877 	-0.716591 	0.468494 	0.532146 	0.0079761 	-3.12822 	90.0561 	117.869 	-0.617383 	252.424 	360.844 	285.003 	539.705 	
64.3329 	-0.00502567 	-0.716633 	0.46235 	0.549598 	0.0081261 	-3.1281 	90.0562 	117.872 	-0.617383 	253.42 	360.844 	285.011 	539.705 	
64.4357 	-0.00496299 	-0.716568 	0.456206 	0.56705 	0.00827815 	-3.12798 	90.0561 	117.872 	-0.617285 	254.424 	360.844 	285.013 	539.705 	
64.5384 	-0.00490074 	-0.716396 	0.450065 	0.584503 	0.00843219 	-3.12787 	90.0562 	117.872 	-0.617285 	255.432 	360.844 	285.014 	539.705 	
64.6404 	-0.00483895 	-0.716117 	0.443928 	0.601955 	0.00858818 	-3.12776 	90.0562 	117.872 	-0.617383 	256.528 	360.844 	285.018 	539.705 	
64.7434 	-0.00477764 	-0.715731 	0.437796 	0.619407 	0.00874608 	-3.12765 	90.0562 	117.872 	-0.617383 	257.529 	360.844 	285.021 	539.705 	
64.8454 	-0.00471681 	-0.715238 	0.431672 	0.63686 	0.00890583 	-3.12755 	90.0562 	117.872 	-0.617481 	258.541 	360.844 	285.025 	539.705 	
64.9477 	-0.0046565 	-0.714638 	0.425557 	0.654312 	0.0090674 	-3.12744 	90.0561 	117.872 	-0.617481 	259.535 	360.844 	285.028 	539.705 	
65.051 	-0.00459672 	-0.713931 	0.419454 	0.671764 	0.00923071 	-3.12734 	90.0561 	117.872 	-0.617383 	260.639 	360.844 	285.032 	539.705 	
65.1533 	-0.00453748 	-0.713118 	0.413364 	0.689217 	0.00939574 	-3.12725 	90.0561 	117.871 	-0.617383 	261.645 	360.844 	285.036 	539.705 	
65.2572 	-0.00447881 	-0.712198 	0.40729 	0.706669 	0.00956242 	-3.12715 	90.0561 	117.871 	-0.617481 	262.648 	360.844 	285.039 	539.705 	
65.3596 	-0.00442073 	-0.711173 	0.401232 	0.724122 	0.00973072 	-3.12706 	90.0561 	117.872 	-0.617383 	263.752 	360.844 	285.051 	539.705 	
65.4646 	-0.00436324 	-0.710042 	0.395193 	0.741574 	0.00990057 	-3.12698 	90.0561 	117.871 	-0.617481 	264.747 	360.844 	285.054 	539.705 	
65.5675 	-0.00430638 	-0.708806 	0.389175 	0.759027 	0.0100719 	-3.12689 	90.0561 	117.871 	-0.617578 	265.749 	360.844 	285.059 	539.705 	
65.6707 	-0.00425015 	-0.707466 	0.383179 	0.776479 	0.0102447 	-3.12681 	90.0561 	117.87 	-0.617676 	266.86 	360.844 	285.065 	539.705 	
65.7733 	-0.00418906 	-0.70587 	0.376611 	0.795677 	0.0104364 	-3.12672 	90.0562 	117.869 	-0.617481 	267.859 	360.844 	285.067 	539.705 	
65.8765 	-0.00413968 	-0.704471 	0.371262 	0.811384 	0.0105945 	-3.12666 	90.0562 	117.867 	-0.617188 	268.878 	360.844 	285.068 	539.705 	
65.9803 	-0.00408546 	-0.702818 	0.365344 	0.828837 	0.0107713 	-3.12658 	90.0562 	117.868 	-0.617481 	269.971 	360.844 	285.069 	539.705 	
66.0824 	-0.00397915 	-0.699204 	0.3536 	0.863742 	0.0111287 	-3.12645 	90.0558 	117.869 	-0.617676 	270.968 	360.844 	285.073 	539.705 	
66.1855 	-0.0039271 	-0.697244 	0.347778 	0.881195 	0.0113091 	-3.12638 	90.056 	117.869 	-0.617676 	271.974 	360.844 	285.075 	539.705 	
66.2888 	-0.00387579 	-0.695182 	0.34199 	0.898647 	0.0114905 	-3.12632 	90.0561 	117.869 	-0.617578 	272.975 	360.844 	285.077 	539.705 	
66.3914 	-0.00382526 	-0.69302 	0.336239 	0.9161 	0.011673 	-3.12627 	90.0561 	117.869 	-0.617285 	274.077 	360.844 	285.078 	539.705 	
66.4981 	-0.0037755 	-0.690757 	0.330527 	0.933553 	0.0118565 	-3.12621 	90.0561 	117.869 	-0.617578 	275.084 	360.844 	285.079 	539.705 	
66.6003 	-0.00372655 	-0.688396 	0.324855 	0.951005 	0.0120408 	-3.12616 	90.0561 	117.867 	-0.617481 	276.195 	360.844 	285.08 	539.705 	
66.7021 	-0.0036784 	-0.685935 	0.319225 	0.968458 	0.012226 	-3.12612 	90.0561 	117.867 	-0.617578 	277.198 	360.844 	285.081 	539.705 	
66.8042 	-0.00363109 	-0.683377 	0.313639 	0.985911 	0.0124121 	-3.12607 	90.0562 	117.861 	-0.617285 	278.204 	360.844 	285.081 	539.705 	
66.9062 	-0.00358461 	-0.680722 	0.308098 	1.00336 	0.0125988 	-3.12603 	90.056 	117.863 	-0.617969 	279.194 	360.844 	285.088 	539.705 	
67.0081 	-0.003539 	-0.67797 	0.302605 	1.02082 	0.0127862 	-3.12599 	90.056 	117.866 	-0.618066 	280.198 	360.844 	285.1 	539.705 	
67.1105 	-0.00349425 	-0.675123 	0.29716 	1.03827 	0.0129743 	-3.12596 	90.056 	117.859 	-0.617773 	281.305 	360.844 	285.107 	539.705 	
67.2131 	-0.00345039 	-0.672181 	0.291766 	1.05572 	0.0131629 	-3.12593 	90.0562 	117.832 	-0.617578 	282.314 	360.844 	285.109 	539.705 	
67.3165 	-0.00340742 	-0.669146 	0.286425 	1.07317 	0.0133521 	-3.1259 	90.0562 	117.829 	-0.617188 	283.32 	360.844 	285.123 	539.705 	
67.4195 	-0.00336537 	-0.666018 	0.281136 	1.09063 	0.0135416 	-3.12588 	90.0561 	117.83 	-0.617676 	284.423 	360.844 	285.128 	539.705 	
67.5224 	-0.00332424 	-0.662798 	0.275904 	1.10808 	0.0137316 	-3.12586 	90.0561 	117.833 	-0.617383 	285.421 	360.844 	285.136 	539.705 	
67.6252 	-0.00328404 	-0.659487 	0.270728 	1.12553 	0.0139219 	-3.12584 	90.056 	117.833 	-0.618164 	286.417 	360.844 	285.138 	539.705 	
67.7285 	-0.00324479 	-0.656086 	0.265611 	1.14299 	0.0141125 	-3.12582 	90.056 	117.833 	-0.618066 	287.419 	360.844 	285.139 	539.705 	
67.8314 	-0.0032065 	-0.652597 	0.260554 	1.16044 	0.0143034 	-3.12581 	90.0562 	117.832 	-0.617578 	288.533 	360.844 	285.139 	539.705 	
67.934 	-0.00316918 	-0.649019 	0.255559 	1.17789 	0.0144944 	-3.12581 	90.0561 	117.832 	-0.617773 	289.54 	360.844 	285.14 	539.705 	
68.0367 	-0.00313285 	-0.645356 	0.250627 	1.19535 	0.0146854 	-3.1258 	90.0561 	117.831 	-0.617676 	290.538 	360.844 	285.141 	539.705 	
68.139 	-0.00309751 	-0.641606 	0.245759 	1.2128 	0.0148766 	-3.1258 	90.0561 	117.83 	-0.617773 	291.644 	360.844 	285.142 	539.705 	
68.2413 	-0.00306317 	-0.637772 	0.240958 	1.23025 	0.0150677 	-3.1258 	90.0561 	117.828 	-0.617871 	292.649 	360.844 	285.142 	539.705 	
68.3443 	-0.00302985 	-0.633855 	0.236224 	1.24771 	0.0152588 	-3.12581 	90.0561 	117.829 	-0.617578 	293.656 	360.844 	285.142 	539.705 	
68.4473 	-0.00299756 	-0.629856 	0.23156 	1.26516 	0.0154497 	-3.12582 	90.0561 	117.828 	-0.618066 	294.664 	360.844 	285.143 	539.705 	
68.5505 	-0.0029663 	-0.625777 	0.226966 	1.28261 	0.0156404 	-3.12583 	90.0561 	117.828 	-0.617676 	295.765 	360.844 	285.143 	539.705 	
68.6532 	-0.00293608 	-0.621617 	0.222444 	1.30007 	0.0158309 	-3.12584 	90.0561 	117.828 	-0.617871 	296.77 	360.844 	285.143 	539.705 	
68.7562 	-0.00290692 	-0.617379 	0.217995 	1.31752 	0.0160211 	-3.12586 	90.0561 	117.828 	-0.617871 	297.766 	360.844 	285.144 	539.705 	
68.8646 	-0.00287882 	-0.613065 	0.213621 	1.33497 	0.0162109 	-3.12589 	90.056 	117.826 	-0.617773 	298.877 	360.844 	285.144 	539.705 	
68.9677 	-0.00284915 	-0.608231 	0.208897 	1.35417 	0.0164193 	-3.12591 	90.056 	117.824 	-0.618457 	299.878 	360.844 	285.144 	539.705 	
69.0709 	-0.00282585 	-0.60421 	0.205101 	1.36988 	0.0165893 	-3.12594 	90.056 	117.825 	-0.618066 	300.978 	360.844 	285.145 	539.705 	
69.1739 	-0.00280098 	-0.599672 	0.200959 	1.38734 	0.0167777 	-3.12597 	90.0561 	117.824 	-0.617871 	301.99 	360.844 	285.145 	539.705 	
69.2781 	-0.00277722 	-0.595063 	0.196896 	1.40479 	0.0169655 	-3.12601 	90.0561 	117.821 	-0.618262 	302.99 	360.844 	285.145 	539.705 	
69.38 	-0.002733 	-0.585635 	0.189015 	1.4397 	0.0173392 	-3.12609 	90.0561 	117.822 	-0.617481 	304.098 	360.844 	285.145 	539.705 	
69.482 	-0.00271256 	-0.580819 	0.1852 	1.45715 	0.0175249 	-3.12613 	90.0561 	117.821 	-0.618066 	305.092 	360.844 	285.145 	539.705 	
69.5849 	-0.00269325 	-0.575938 	0.181468 	1.47461 	0.0177097 	-3.12618 	90.0562 	117.82 	-0.617383 	306.097 	360.844 	285.145 	539.705 	
69.6871 	-0.00267506 	-0.570992 	0.177823 	1.49206 	0.0178937 	-3.12623 	90.0562 	117.806 	-0.617773 	307.107 	360.844 	285.146 	539.705 	
69.7888 	-0.002658 	-0.565983 	0.174265 	1.50951 	0.0180768 	-3.12629 	90.0561 	117.801 	-0.617969 	308.213 	360.844 	285.146 	539.705 	
69.8911 	-0.00264208 	-0.560913 	0.170794 	1.52697 	0.0182589 	-3.12635 	90.0561 	117.801 	-0.617578 	309.228 	360.844 	285.146 	539.705 	
69.9978 	-0.00262731 	-0.555783 	0.167412 	1.54442 	0.01844 	-3.12641 	90.0561 	117.801 	-0.618066 	310.227 	360.844 	285.146 	539.705 	
70.0999 	-0.00261369 	-0.550595 	0.164121 	1.56188 	0.0186199 	-3.12647 	90.056 	117.787 	-0.617871 	311.316 	360.844 	285.146 	539.705 	
70.202 	-0.00260121 	-0.545351 	0.16092 	1.57933 	0.0187987 	-3.12654 	90.0561 	117.784 	-0.618066 	312.33 	360.844 	285.149 	539.705 	
70.3039 	-0.0025899 	-0.540051 	0.157812 	1.59679 	0.0189763 	-3.12661 	90.0563 	117.781 	-0.617871 	313.334 	360.844 	285.149 	539.705 	
70.4076 	-0.00257974 	-0.534697 	0.154796 	1.61424 	0.0191526 	-3.12669 	90.056 	117.779 	-0.618164 	314.332 	360.844 	285.149 	539.705 	
70.51 	-0.00257074 	-0.529292 	0.151875 	1.6317 	0.0193277 	-3.12676 	90.0562 	117.778 	-0.617773 	315.444 	360.844 	285.15 	539.705 	
70.6119 	-0.00256291 	-0.523837 	0.149048 	1.64915 	0.0195013 	-3.12684 	90.0561 	117.776 	-0.618066 	316.44 	360.844 	285.15 	539.705 	
70.6288 	-0.00256291 	-0.523837 	0.149048 	1.64915 	0.0195013 	-3.12684 	90.0561 	117.776 	-0.617969 	316.545 	360.844 	285.15 	539.705 	
70.731 	-0.00255994 	-0.5205 	0.146508 	1.66067 	0.0195934 	-3.12478 	90.0561 	117.492 	-0.617871 	316.913 	360.844 	285.152 	539.624 	
70.834 	-0.00256385 	-0.52364 	0.140238 	1.66067 	0.0194259 	-3.11176 	90.0561 	116.654 	-0.617773 	316.237 	360.844 	285.154 	539.302 	
70.9371 	-0.00256891 	-0.526734 	0.133786 	1.66067 	0.0192531 	-3.10957 	90.0562 	115.648 	-0.618262 	315.293 	360.844 	285.155 	539.27 	
71.0403 	-0.00257505 	-0.529715 	0.12728 	1.66067 	0.0190786 	-3.10947 	90.0562 	114.586 	-0.617773 	314.216 	360.844 	285.156 	539.267 	
71.143 	-0.00258226 	-0.532582 	0.120724 	1.66066 	0.0189023 	-3.10937 	90.0561 	113.562 	-0.617676 	313.214 	360.844 	285.156 	539.265 	
71.2461 	-0.00259055 	-0.535334 	0.114119 	1.66066 	0.0187244 	-3.10928 	90.0562 	112.556 	-0.617969 	312.217 	360.844 	285.157 	539.264 	
71.349 	-0.00259991 	-0.53797 	0.107466 	1.66066 	0.0185449 	-3.10919 	90.0562 	111.457 	-0.617383 	311.107 	360.844 	285.157 	539.263 	
71.4517 	-0.00261033 	-0.54049 	0.100769 	1.66066 	0.0183639 	-3.1091 	90.0562 	110.464 	-0.617578 	310.114 	360.844 	285.158 	539.262 	
71.5551 	-0.00262182 	-0.542892 	0.0940287 	1.66066 	0.0181813 	-3.10902 	90.0561 	109.478 	-0.618066 	309.108 	360.844 	285.158 	539.261 	
71.6578 	-0.00263437 	-0.545176 	0.0872476 	1.66065 	0.0179973 	-3.10893 	90.0561 	108.393 	-0.617871 	308.11 	360.844 	285.158 	539.261 	
71.7636 	-0.00264797 	-0.547342 	0.0804274 	1.66065 	0.0178119 	-3.10886 	90.0561 	107.391 	-0.618066 	307.013 	360.844 	285.158 	539.26 	
71.866 	-0.00266415 	-0.549587 	0.0728831 	1.66065 	0.0176065 	-3.10877 	90.0561 	106.4 	-0.617578 	306.01 	360.844 	285.158 	539.259 	
71.9689 	-0.00267834 	-0.551315 	0.0666792 	1.66065 	0.0174372 	-3.10871 	90.0561 	105.319 	-0.618066 	304.915 	360.844 	285.158 	539.259 	
72.0719 	-0.00269509 	-0.553121 	0.0597553 	1.66065 	0.017248 	-3.10864 	90.0561 	104.292 	-0.617773 	303.907 	360.844 	285.159 	539.259 	
72.1758 	-0.00271471 	-0.554967 	0.0521037 	1.66065 	0.0170386 	-3.10857 	90.0561 	103.314 	-0.618164 	302.906 	360.844 	285.159 	539.258 	
72.2788 	-0.0027317 	-0.556369 	0.0458179 	1.66065 	0.0168662 	-3.10852 	90.0561 	102.224 	-0.618066 	301.81 	360.844 	285.159 	539.258 	
72.3815 	-0.00277242 	-0.559128 	0.0317757 	1.66064 	0.0164802 	-3.1084 	90.0561 	101.23 	-0.618066 	300.811 	360.844 	285.159 	539.257 	
72.4836 	-0.00279431 	-0.560323 	0.0247207 	1.66064 	0.0162858 	-3.10835 	90.0562 	100.233 	-0.618066 	299.816 	360.844 	285.159 	539.257 	
72.5857 	-0.0028172 	-0.561395 	0.0176458 	1.66064 	0.0160905 	-3.1083 	90.0562 	99.214 	-0.617969 	298.808 	360.844 	285.159 	539.257 	
72.6885 	-0.0028411 	-0.562344 	0.0105533 	1.66064 	0.0158944 	-3.10826 	90.0562 	98.1446 	-0.617773 	297.713 	360.844 	285.159 	539.257 	
72.7909 	-0.00286598 	-0.563169 	0.00344539 	1.66064 	0.0156976 	-3.10822 	90.0561 	97.1345 	-0.617871 	296.711 	360.844 	285.159 	539.256 	
72.898 	-0.00289186 	-0.563869 	-0.00367588 	1.66064 	0.0155001 	-3.10818 	90.0562 	96.0419 	-0.617871 	295.716 	360.844 	285.159 	539.256 	
73.0007 	-0.00291871 	-0.564445 	-0.0108083 	1.66064 	0.015302 	-3.10815 	90.0562 	95.0406 	-0.617578 	294.614 	360.844 	285.159 	539.255 	
73.1035 	-0.00294654 	-0.564896 	-0.0179497 	1.66064 	0.0151033 	-3.10812 	90.0561 	93.9991 	-0.617969 	293.608 	360.844 	285.159 	539.255 	
73.2055 	-0.00297533 	-0.565223 	-0.0250978 	1.66064 	0.0149041 	-3.10809 	90.056 	92.9846 	-0.618164 	292.613 	360.844 	285.159 	539.255 	
73.3077 	-0.00300506 	-0.565425 	-0.0322506 	1.66064 	0.0147044 	-3.10807 	90.056 	91.9245 	-0.617773 	291.615 	360.844 	285.159 	539.255 	
73.4105 	-0.00303575 	-0.565502 	-0.0394058 	1.66064 	0.0145044 	-3.10805 	90.0562 	90.9302 	-0.617578 	290.516 	360.844 	285.16 	539.255 	
73.5129 	-0.00306737 	-0.565454 	-0.0465612 	1.66064 	0.014304 	-3.10803 	90.0562 	89.9293 	-0.617481 	289.507 	360.844 	285.16 	539.254 	
73.6159 	-0.00309991 	-0.565282 	-0.0537148 	1.66063 	0.0141034 	-3.10802 	90.0563 	88.9116 	-0.617383 	288.508 	360.844 	285.16 	539.254 	
73.7187 	-0.00313337 	-0.564984 	-0.0608642 	1.66063 	0.0139026 	-3.10801 	90.0562 	87.8457 	-0.617578 	287.416 	360.844 	285.16 	539.254 	
73.8218 	-0.00316773 	-0.564562 	-0.0680073 	1.66063 	0.0137016 	-3.108 	90.0561 	86.804 	-0.617871 	286.413 	360.844 	285.16 	539.254 	
73.9251 	-0.00320299 	-0.564015 	-0.0751421 	1.66063 	0.0135006 	-3.108 	90.056 	85.8213 	-0.618164 	285.409 	360.844 	285.16 	539.253 	
74.0277 	-0.00323913 	-0.563343 	-0.0822662 	1.66063 	0.0132995 	-3.108 	90.056 	84.7523 	-0.618164 	284.409 	360.844 	285.16 	539.253 	
74.131 	-0.00327614 	-0.562548 	-0.0893774 	1.66063 	0.0130985 	-3.108 	90.056 	83.7416 	-0.618164 	283.316 	360.844 	285.16 	539.253 	
74.2337 	-0.00331402 	-0.561628 	-0.0964737 	1.66063 	0.0128976 	-3.10801 	90.0561 	82.7152 	-0.617578 	282.303 	360.844 	285.16 	539.253 	
74.3367 	-0.00335275 	-0.560585 	-0.103553 	1.66063 	0.0126969 	-3.10802 	90.0562 	81.6745 	-0.617578 	281.318 	360.844 	285.16 	539.253 	
74.4396 	-0.00339231 	-0.559418 	-0.110613 	1.66063 	0.0124964 	-3.10804 	90.0562 	80.6231 	-0.617676 	280.214 	360.844 	285.16 	539.253 	
74.5428 	-0.0034327 	-0.558129 	-0.117651 	1.66063 	0.0122962 	-3.10805 	90.0561 	79.5955 	-0.617871 	279.205 	360.844 	285.16 	539.252 	
74.6456 	-0.0034739 	-0.556716 	-0.124666 	1.66063 	0.0120963 	-3.10808 	90.056 	78.6249 	-0.617969 	278.206 	360.844 	285.16 	539.252 	
74.7485 	-0.00351591 	-0.555182 	-0.131655 	1.66063 	0.0118969 	-3.1081 	90.056 	77.5314 	-0.617871 	277.104 	360.844 	285.16 	539.252 	
74.8516 	-0.0035587 	-0.553525 	-0.138616 	1.66063 	0.0116979 	-3.10813 	90.0561 	76.5292 	-0.617969 	276.114 	360.844 	285.16 	539.252 	
74.9547 	-0.00360227 	-0.551748 	-0.145548 	1.66063 	0.0114994 	-3.10816 	90.0562 	75.563 	-0.617481 	275.102 	360.844 	285.161 	539.252 	
75.0578 	-0.0036466 	-0.549849 	-0.152447 	1.66063 	0.0113016 	-3.1082 	90.0562 	74.412 	-0.617773 	274.117 	360.844 	285.161 	539.252 	
75.1636 	-0.00369168 	-0.547831 	-0.159312 	1.66064 	0.0111044 	-3.10824 	90.0561 	73.3773 	-0.617871 	273.012 	360.844 	285.161 	539.252 	
75.2673 	-0.00373749 	-0.545693 	-0.166141 	1.66064 	0.0109079 	-3.10828 	90.0561 	72.4117 	-0.617773 	272.007 	360.844 	285.161 	539.252 	
75.3705 	-0.00378403 	-0.543436 	-0.172931 	1.66064 	0.0107122 	-3.10833 	90.0561 	71.3194 	-0.617676 	270.904 	360.844 	285.162 	539.252 	
75.4745 	-0.00383603 	-0.540817 	-0.180354 	1.66064 	0.0104978 	-3.10838 	90.0561 	70.318 	-0.617969 	269.91 	360.844 	285.162 	539.251 	
75.5784 	-0.00387801 	-0.538458 	-0.186443 	1.66099 	0.0103272 	-3.10843 	90.056 	69.1689 	-0.618164 	269.118 	360.844 	285.163 	539.251 	
75.6823 	-0.00389643 	-0.533079 	-0.194454 	1.66974 	0.010232 	-3.10844 	90.0561 	68.2352 	-0.617773 	268.93 	360.844 	285.164 	539.251 	
75.7842 	-0.00387308 	-0.516353 	-0.212772 	1.70465 	0.0102377 	-3.10839 	90.056 	67.1933 	-0.617578 	268.895 	360.844 	285.164 	539.251 	
75.8864 	-0.00386107 	-0.507753 	-0.221709 	1.7221 	0.0102411 	-3.10837 	90.0562 	66.1349 	-0.617773 	268.883 	360.844 	285.164 	539.251 	
75.9884 	-0.00384884 	-0.498999 	-0.230495 	1.73955 	0.010245 	-3.10835 	90.0562 	65.0791 	-0.617871 	268.875 	360.844 	285.167 	539.251 	
76.0904 	-0.00383666 	-0.490271 	-0.238956 	1.75666 	0.0102492 	-3.10832 	90.0561 	64.0714 	-0.617676 	268.874 	360.844 	285.17 	539.25 	
