RISC-NYUAD/HeavyPayloadDrone/projects/kinova-ros/devel/lib/ne_kinova_demo/VulcanTrajectory/Vulcan1_Vicon_y19m11d14h14min27.csv
time (NSec) 	Kinova Tip Position (t_x) 	t_y 	t_z 	Kinova Tip Angle (theta_x) 	Kinova Tip Angle (theta_y) 	Kinova Tip Angle (theta_z) 	Kinova Joint Angle (j1) 	(j2) 	(j3) 	(j4) 	Kinova Joint Angle (j5) 	(j6) 	(j7)
0.0475311 	-0.00499996 	-0.430645 	-0.30544 	2.5893 	0.0121182 	3.12256 	89.3848 	81.126 	0.35957 	281.98 	0.790199 	232.912 	179.911 	
0.151133 	-0.00245307 	-0.432116 	-0.30765 	2.5795 	0.0217775 	3.12003 	89.6531 	80.8196 	0.0516602 	281.624 	1.16236 	233.426 	180.242 	
0.254061 	0.00826696 	-0.438636 	-0.309785 	2.54236 	0.0568616 	3.072 	89.9469 	79.865 	-0.386719 	280.771 	2.87139 	235.195 	181.94 	
0.357196 	0.0153964 	-0.443659 	-0.311042 	2.51173 	0.0839177 	3.02549 	89.9642 	78.885 	-0.506543 	279.695 	5.06335 	237.367 	184.113 	
0.459922 	0.023592 	-0.448681 	-0.312063 	2.47809 	0.115102 	2.97573 	89.969 	77.9122 	-0.529688 	278.685 	7.07698 	239.403 	186.109 	
0.563254 	0.0320373 	-0.453096 	-0.312688 	2.44481 	0.147361 	2.92802 	89.971 	76.8925 	-0.540039 	277.695 	9.0707 	241.397 	188.095 	
0.666185 	0.0406911 	-0.456884 	-0.312919 	2.41179 	0.180581 	2.88241 	89.9735 	75.7948 	-0.543066 	276.588 	11.2425 	243.607 	190.296 	
0.769155 	0.0495113 	-0.460029 	-0.312759 	2.37895 	0.214653 	2.83894 	89.9736 	74.8058 	-0.544043 	275.574 	13.2658 	245.614 	192.309 	
0.872064 	0.0584546 	-0.46252 	-0.312212 	2.34616 	0.249466 	2.79766 	89.9737 	73.813 	-0.549121 	274.554 	15.2682 	247.601 	194.295 	
0.975203 	0.0674777 	-0.464346 	-0.311283 	2.31332 	0.284909 	2.75862 	89.9745 	72.6951 	-0.558789 	273.448 	17.4843 	249.83 	196.331 	
1.07808 	0.0765363 	-0.465499 	-0.30998 	2.28029 	0.32087 	2.7219 	89.9745 	71.6977 	-0.568945 	272.44 	19.4725 	251.836 	198.515 	
1.18132 	0.0855862 	-0.465975 	-0.30831 	2.24692 	0.357234 	2.68757 	89.9746 	70.6876 	-0.570508 	271.445 	21.4977 	253.819 	200.52 	
1.28416 	0.0945833 	-0.465774 	-0.306282 	2.21306 	0.393886 	2.65572 	89.9746 	69.5894 	-0.572559 	270.439 	23.4784 	255.846 	202.526 	
1.38738 	0.103485 	-0.464745 	-0.303936 	2.17888 	0.43071 	2.62645 	89.975 	68.5846 	-0.574414 	269.427 	25.6878 	258.067 	204.728 	
1.49038 	0.112269 	-0.460125 	-0.301835 	2.15085 	0.467659 	2.59988 	89.9751 	67.5948 	-0.575391 	269.009 	27.6992 	260.063 	206.741 	
1.59334 	0.120902 	-0.450958 	-0.300151 	2.13153 	0.504637 	2.57615 	89.9761 	66.5789 	-0.575781 	268.939 	29.7037 	262.053 	208.727 	
1.69596 	0.129311 	-0.441309 	-0.298066 	2.11129 	0.541391 	2.55544 	89.9768 	65.4647 	-0.581055 	268.908 	31.9091 	264.259 	210.922 	
1.79988 	0.137452 	-0.431352 	-0.295549 	2.08954 	0.577766 	2.53793 	89.9891 	64.4533 	-0.580957 	268.906 	33.8906 	266.258 	212.937 	
1.90238 	0.145286 	-0.421317 	-0.292449 	2.06567 	0.613598 	2.5238 	89.9906 	63.6162 	-0.584766 	268.906 	35.9229 	268.258 	214.93 	
2.00937 	0.152768 	-0.415748 	-0.285463 	2.03141 	0.648708 	2.51327 	89.9915 	63.2584 	-0.585059 	268.906 	38.1256 	270.453 	217.134 	
2.11277 	0.160547 	-0.414247 	-0.273732 	1.98203 	0.686265 	2.50609 	90.0085 	63.1991 	-0.58457 	268.906 	40.1117 	272.447 	219.131 	
2.21613 	0.166535 	-0.412879 	-0.26376 	1.93883 	0.715979 	2.50389 	90.0116 	63.2004 	-0.584863 	268.905 	42.3186 	274.686 	221.335 	
2.32294 	0.173357 	-0.410743 	-0.251376 	1.88286 	0.750793 	2.50594 	90.0117 	63.201 	-0.586523 	268.905 	44.3227 	276.701 	223.35 	
2.42781 	0.183739 	-0.405947 	-0.229569 	1.77708 	0.806087 	2.52256 	90.0114 	63.2002 	-0.590234 	268.905 	46.5364 	278.91 	225.531 	
2.53117 	0.188439 	-0.402912 	-0.21793 	1.71639 	0.832181 	2.53827 	90.0112 	63.1921 	-0.610449 	268.905 	48.5479 	280.892 	227.53 	
2.63403 	0.19258 	-0.399561 	-0.206215 	1.65212 	0.855811 	2.55887 	90.0095 	63.1614 	-0.622754 	268.905 	50.5854 	282.871 	229.535 	
2.73717 	0.196568 	-0.395379 	-0.196256 	1.5951 	0.879194 	2.57598 	90.0095 	63.1591 	-0.623145 	268.905 	52.7698 	284.739 	231.753 	
2.84464 	0.201673 	-0.389066 	-0.192597 	1.57344 	0.910123 	2.56699 	90.0099 	63.1577 	-0.622559 	268.905 	54.9345 	285.094 	233.728 	
2.94689 	0.206624 	-0.38246 	-0.189292 	1.55227 	0.941343 	2.55805 	90.0117 	63.1534 	-0.622168 	268.905 	56.9324 	285.134 	235.946 	
3.05028 	0.211313 	-0.375703 	-0.185916 	1.52871 	0.972206 	2.55145 	90.0132 	63.1237 	-0.62207 	268.905 	58.9435 	285.14 	237.931 	
3.15333 	0.215737 	-0.3688 	-0.182473 	1.50243 	1.00265 	2.54754 	90.0133 	63.1168 	-0.622266 	268.905 	60.9473 	285.14 	239.953 	
3.25635 	0.219888 	-0.361762 	-0.178967 	1.47299 	1.03261 	2.54673 	90.0133 	63.1067 	-0.622363 	268.905 	63.1388 	285.14 	242.135 	
3.35953 	0.223763 	-0.354597 	-0.175403 	1.43993 	1.062 	2.54951 	90.0133 	63.107 	-0.622168 	268.905 	65.1472 	285.141 	244.136 	
3.4623 	0.227356 	-0.347314 	-0.171784 	1.40266 	1.09071 	2.55646 	90.0133 	63.1067 	-0.622168 	268.905 	67.1578 	285.141 	246.143 	
3.56547 	0.230663 	-0.33992 	-0.168115 	1.36053 	1.11861 	2.56825 	90.0149 	63.1069 	-0.62207 	268.906 	69.3313 	285.142 	248.126 	
3.66843 	0.233679 	-0.332426 	-0.1644 	1.31275 	1.14553 	2.58565 	90.0159 	63.1067 	-0.621875 	268.906 	71.3338 	285.142 	250.341 	
3.77164 	0.236402 	-0.324841 	-0.160645 	1.25846 	1.1713 	2.60953 	90.0165 	63.1068 	-0.621973 	268.906 	73.3713 	285.143 	252.347 	
3.8744 	0.238829 	-0.317173 	-0.156853 	1.1967 	1.19565 	2.64086 	90.0178 	63.1069 	-0.62207 	268.906 	75.3676 	285.143 	254.349 	
3.9774 	0.240955 	-0.309433 	-0.15303 	1.12649 	1.2183 	2.68063 	90.0178 	63.1069 	-0.62207 	268.906 	77.5391 	285.143 	256.52 	
4.08041 	0.242778 	-0.301629 	-0.149179 	1.04692 	1.23891 	2.72973 	90.018 	63.107 	-0.62207 	268.906 	79.5624 	285.143 	258.535 	
4.18354 	0.244297 	-0.29377 	-0.145306 	0.957306 	1.25706 	2.78887 	90.0181 	63.1069 	-0.62207 	268.906 	81.551 	285.143 	260.526 	
4.28663 	0.245613 	-0.285076 	-0.141026 	0.846935 	1.27366 	2.8657 	90.0181 	63.1068 	-0.62207 	268.906 	83.7551 	285.143 	262.745 	
4.3894 	0.246413 	-0.277931 	-0.137512 	0.747998 	1.2842 	2.93718 	90.0182 	63.1066 	-0.62207 	268.906 	85.7584 	285.143 	264.738 	
4.49228 	0.247008 	-0.269968 	-0.1336 	0.630539 	1.29228 	3.02413 	90.0182 	63.1064 	-0.62207 	268.906 	87.7537 	285.143 	266.737 	
4.59544 	0.247293 	-0.26199 	-0.129685 	0.507837 	1.29624 	3.11633 	90.0181 	63.1067 	-0.622363 	268.906 	89.9665 	285.143 	268.736 	
4.69848 	0.247267 	-0.254007 	-0.125771 	0.383501 	1.29588 	-3.07304 	90.0182 	63.1071 	-0.622363 	268.906 	91.9573 	285.143 	270.946 	
4.80149 	0.246932 	-0.246027 	-0.121864 	0.261429 	1.29123 	-2.98147 	90.0182 	63.1076 	-0.622461 	268.906 	93.9538 	285.143 	272.931 	
4.90882 	0.246286 	-0.238061 	-0.117967 	0.145121 	1.2825 	-2.89567 	90.0191 	63.1089 	-0.622656 	268.906 	96.1456 	285.144 	275.152 	
5.0124 	0.245331 	-0.230119 	-0.114085 	0.03715 	1.27003 	-2.8182 	90.0191 	63.1084 	-0.622656 	268.906 	98.1602 	285.144 	277.15 	
5.11556 	0.244069 	-0.222209 	-0.110225 	-0.0610286 	1.25427 	-2.75051 	90.0191 	63.1076 	-0.622559 	268.906 	100.349 	285.144 	279.139 	
5.21938 	0.2425 	-0.214343 	-0.106389 	-0.148966 	1.23568 	-2.69305 	90.019 	63.1076 	-0.622656 	268.907 	102.359 	285.144 	281.327 	
5.32347 	0.238451 	-0.198777 	-0.0988109 	-0.295704 	1.19176 	-2.60722 	90.019 	63.1074 	-0.622656 	268.907 	104.356 	285.144 	283.335 	
5.42645 	0.235976 	-0.191096 	-0.0950781 	-0.356168 	1.16716 	-2.57718 	90.0191 	63.1072 	-0.622363 	268.907 	106.556 	285.144 	285.532 	
5.52972 	0.233204 	-0.183495 	-0.0913888 	-0.409326 	1.14119 	-2.55443 	90.0191 	63.1071 	-0.622461 	268.907 	108.552 	285.144 	287.521 	
5.63249 	0.23014 	-0.175985 	-0.0877476 	-0.456121 	1.11409 	-2.53801 	90.019 	63.107 	-0.622559 	268.907 	110.563 	285.144 	289.533 	
