RISC-NYUAD/HeavyPayloadDrone/projects/kinova-ros/devel/lib/ne_kinova_demo/VulcanTrajectory/Vulcan1_Vicon_y19m11d13h18min5.csv
time (NSec) 	Kinova Tip Position (t_x) 	t_y 	t_z 	Kinova Tip Angle (theta_x) 	Kinova Tip Angle (theta_y) 	Kinova Tip Angle (theta_z) 	Kinova Joint Angle (j1) 	(j2) 	(j3) 	(j4) 	Kinova Joint Angle (j5) 	(j6) 	(j7)
20.3872 	-0.015996 	-0.607552 	0.663823 	0.440057 	-0.00201999 	-3.13031 	90.95 	143.372 	359.664 	269.488 	0.35142 	280.37 	179.032 	
20.8377 	-0.015996 	-0.607552 	0.663823 	0.440057 	-0.00201999 	-3.13031 	90.95 	143.372 	359.664 	269.488 	0.35142 	280.37 	179.032 	
21.2058 	-0.015996 	-0.607552 	0.663823 	0.440057 	-0.00201999 	-3.13031 	90.95 	143.372 	359.664 	269.488 	0.35142 	280.37 	179.032 	
21.216 	-0.015996 	-0.607552 	0.663823 	0.440057 	-0.00201999 	-3.13031 	90.95 	143.372 	359.664 	269.488 	0.35142 	280.37 	179.032 	
21.2259 	-0.015996 	-0.607552 	0.663823 	0.440057 	-0.00201999 	-3.13031 	90.95 	143.372 	359.664 	269.488 	0.35142 	280.37 	179.032 	
21.236 	-0.015996 	-0.607552 	0.663823 	0.440057 	-0.00201999 	-3.13031 	90.95 	143.372 	359.664 	269.488 	0.35142 	280.37 	179.032 	
21.2459 	-0.015996 	-0.607552 	0.663823 	0.440057 	-0.00201999 	-3.13031 	90.95 	143.372 	359.664 	269.488 	0.35142 	280.37 	179.032 	
21.2559 	-0.015996 	-0.607552 	0.663823 	0.440057 	-0.00201999 	-3.13031 	90.95 	143.372 	359.664 	269.488 	0.35142 	280.37 	179.032 	
21.2659 	-0.015996 	-0.607552 	0.663823 	0.440057 	-0.00201999 	-3.13031 	90.95 	143.372 	359.664 	269.488 	0.35142 	280.37 	179.032 	
21.2759 	-0.015996 	-0.607552 	0.663823 	0.440057 	-0.00201999 	-3.13031 	90.95 	143.372 	359.664 	269.488 	0.35142 	280.37 	179.032 	
21.2859 	-0.015996 	-0.607552 	0.663823 	0.440057 	-0.00201999 	-3.13031 	90.95 	143.372 	359.664 	269.488 	0.35142 	280.37 	179.032 	
21.2959 	-0.015996 	-0.607552 	0.663823 	0.440057 	-0.00201999 	-3.13031 	90.95 	143.372 	359.664 	269.488 	0.35142 	280.37 	179.032 	
21.3059 	-0.015996 	-0.607552 	0.663823 	0.440057 	-0.00201999 	-3.13031 	90.95 	143.372 	359.664 	269.488 	0.35142 	280.37 	179.032 	
21.316 	-0.015996 	-0.607552 	0.663823 	0.440057 	-0.00201999 	-3.13031 	90.95 	143.372 	359.664 	269.488 	0.35142 	280.37 	179.032 	
21.326 	-0.015996 	-0.607552 	0.663823 	0.440057 	-0.00201999 	-3.13031 	90.95 	143.372 	359.664 	269.488 	0.35142 	280.37 	179.032 	
21.3359 	-0.015996 	-0.607552 	0.663823 	0.440057 	-0.00201999 	-3.13031 	90.95 	143.372 	359.664 	269.488 	0.35142 	280.37 	179.032 	
21.3459 	-0.015996 	-0.607552 	0.663823 	0.440057 	-0.00201999 	-3.13031 	90.95 	143.372 	359.664 	269.488 	0.35142 	280.37 	179.032 	
21.3559 	-0.015996 	-0.607552 	0.663823 	0.440057 	-0.00201999 	-3.13031 	90.95 	143.372 	359.664 	269.488 	0.35142 	280.37 	179.032 	
21.3659 	-0.015996 	-0.607552 	0.663823 	0.440057 	-0.00201999 	-3.13031 	90.95 	143.372 	359.664 	269.488 	0.35142 	280.37 	179.032 	
21.3759 	-0.015996 	-0.607552 	0.663823 	0.440057 	-0.00201999 	-3.13031 	90.95 	143.372 	359.664 	269.488 	0.35142 	280.37 	179.032 	
21.3858 	-0.015996 	-0.607552 	0.663823 	0.440057 	-0.00201999 	-3.13031 	90.95 	143.372 	359.664 	269.488 	0.35142 	280.37 	179.032 	
21.3959 	-0.015996 	-0.607552 	0.663823 	0.440057 	-0.00201999 	-3.13031 	90.95 	143.372 	359.664 	269.488 	0.35142 	280.37 	179.032 	
21.4059 	-0.015996 	-0.607552 	0.663823 	0.440057 	-0.00201999 	-3.13031 	90.95 	143.372 	359.664 	269.488 	0.35142 	280.37 	179.032 	
21.416 	-0.015996 	-0.607552 	0.663823 	0.440057 	-0.00201999 	-3.13031 	90.95 	143.372 	359.664 	269.488 	0.35142 	280.37 	179.032 	
21.4259 	-0.015996 	-0.607552 	0.663823 	0.440057 	-0.00201999 	-3.13031 	90.95 	143.372 	359.664 	269.488 	0.35142 	280.37 	179.032 	
21.436 	-0.015996 	-0.607552 	0.663823 	0.440057 	-0.00201999 	-3.13031 	90.95 	143.372 	359.664 	269.488 	0.35142 	280.37 	179.032 	
21.4461 	-0.015996 	-0.607552 	0.663823 	0.440057 	-0.00201999 	-3.13031 	90.95 	143.372 	359.664 	269.488 	0.35142 	280.37 	179.032 	
21.4559 	-0.015996 	-0.607552 	0.663823 	0.440057 	-0.00201999 	-3.13031 	90.95 	143.372 	359.664 	269.488 	0.35142 	280.37 	179.032 	
21.4659 	-0.015996 	-0.607552 	0.663823 	0.440057 	-0.00201999 	-3.13031 	90.95 	143.372 	359.664 	269.488 	0.35142 	280.37 	179.032 	
21.4759 	-0.015996 	-0.607552 	0.663823 	0.440057 	-0.00201999 	-3.13031 	90.95 	143.372 	359.664 	269.488 	0.35142 	280.37 	179.032 	
21.486 	-0.015996 	-0.607552 	0.663823 	0.440057 	-0.00201999 	-3.13031 	90.95 	143.372 	359.664 	269.488 	0.35142 	280.37 	179.032 	
21.4959 	-0.015996 	-0.607552 	0.663823 	0.440057 	-0.00201999 	-3.13031 	90.95 	143.372 	359.664 	269.488 	0.35142 	280.37 	179.032 	
21.5059 	-0.015996 	-0.607552 	0.663823 	0.440057 	-0.00201999 	-3.13031 	90.95 	143.372 	359.664 	269.488 	0.35142 	280.37 	179.032 	
21.516 	-0.015996 	-0.607552 	0.663823 	0.440057 	-0.00201999 	-3.13031 	90.95 	143.372 	359.664 	269.488 	0.35142 	280.37 	179.032 	
21.5259 	-0.015996 	-0.607552 	0.663823 	0.440057 	-0.00201999 	-3.13031 	90.95 	143.372 	359.664 	269.488 	0.35142 	280.37 	179.032 	
21.536 	-0.015996 	-0.607552 	0.663823 	0.440057 	-0.00201999 	-3.13031 	90.95 	143.372 	359.664 	269.488 	0.35142 	280.37 	179.032 	
21.5459 	-0.015996 	-0.607552 	0.663823 	0.440057 	-0.00201999 	-3.13031 	90.95 	143.372 	359.664 	269.488 	0.35142 	280.37 	179.032 	
21.5559 	-0.015996 	-0.607552 	0.663823 	0.440057 	-0.00201999 	-3.13031 	90.95 	143.372 	359.664 	269.488 	0.35142 	280.37 	179.032 	
21.5659 	-0.015996 	-0.607552 	0.663823 	0.440057 	-0.00201999 	-3.13031 	90.95 	143.372 	359.664 	269.488 	0.35142 	280.37 	179.032 	
21.5759 	-0.015996 	-0.607552 	0.663823 	0.440057 	-0.00201999 	-3.13031 	90.95 	143.372 	359.664 	269.488 	0.35142 	280.37 	179.032 	
21.5858 	-0.015996 	-0.607552 	0.663823 	0.440057 	-0.00201999 	-3.13031 	90.95 	143.372 	359.664 	269.488 	0.35142 	280.37 	179.032 	
21.5959 	-0.015996 	-0.607552 	0.663823 	0.440057 	-0.00201999 	-3.13031 	90.95 	143.372 	359.664 	269.488 	0.35142 	280.37 	179.032 	
21.6059 	-0.015996 	-0.607552 	0.663823 	0.440057 	-0.00201999 	-3.13031 	90.95 	143.372 	359.664 	269.488 	0.35142 	280.37 	179.032 	
21.616 	-0.015996 	-0.607552 	0.663823 	0.440057 	-0.00201999 	-3.13031 	90.95 	143.372 	359.664 	269.488 	0.35142 	280.37 	179.032 	
21.6259 	-0.015996 	-0.607552 	0.663823 	0.440057 	-0.00201999 	-3.13031 	90.95 	143.372 	359.664 	269.488 	0.35142 	280.37 	179.032 	
21.636 	-0.015996 	-0.607552 	0.663823 	0.440057 	-0.00201999 	-3.13031 	90.95 	143.372 	359.664 	269.488 	0.35142 	280.37 	179.032 	
21.6459 	-0.015996 	-0.607552 	0.663823 	0.440057 	-0.00201999 	-3.13031 	90.95 	143.372 	359.664 	269.488 	0.35142 	280.37 	179.032 	
21.6559 	-0.015996 	-0.607552 	0.663823 	0.440057 	-0.00201999 	-3.13031 	90.95 	143.372 	359.664 	269.488 	0.35142 	280.37 	179.032 	
21.6659 	-0.015996 	-0.607552 	0.663823 	0.440057 	-0.00201999 	-3.13031 	90.95 	143.372 	359.664 	269.488 	0.35142 	280.37 	179.032 	
21.6759 	-0.015996 	-0.607552 	0.663823 	0.440057 	-0.00201999 	-3.13031 	90.95 	143.372 	359.664 	269.488 	0.35142 	280.37 	179.032 	
21.6859 	-0.015996 	-0.607552 	0.663823 	0.440057 	-0.00201999 	-3.13031 	90.95 	143.372 	359.664 	269.488 	0.35142 	280.37 	179.032 	
21.6959 	-0.015996 	-0.607552 	0.663823 	0.440057 	-0.00201999 	-3.13031 	90.95 	143.372 	359.664 	269.488 	0.35142 	280.37 	179.032 	
21.7059 	-0.015996 	-0.607552 	0.663823 	0.440057 	-0.00201999 	-3.13031 	90.95 	143.372 	359.664 	269.488 	0.35142 	280.37 	179.032 	
21.716 	-0.015996 	-0.607552 	0.663823 	0.440057 	-0.00201999 	-3.13031 	90.95 	143.372 	359.664 	269.488 	0.35142 	280.37 	179.032 	
21.7259 	-0.015996 	-0.607552 	0.663823 	0.440057 	-0.00201999 	-3.13031 	90.95 	143.372 	359.664 	269.488 	0.35142 	280.37 	179.032 	
21.7359 	-0.015996 	-0.607552 	0.663823 	0.440057 	-0.00201999 	-3.13031 	90.95 	143.372 	359.664 	269.488 	0.35142 	280.37 	179.032 	
21.7461 	-0.015996 	-0.607552 	0.663823 	0.440057 	-0.00201999 	-3.13031 	90.95 	143.372 	359.664 	269.488 	0.35142 	280.37 	179.032 	
21.7559 	-0.015996 	-0.607552 	0.663823 	0.440057 	-0.00201999 	-3.13031 	90.95 	143.372 	359.664 	269.488 	0.35142 	280.37 	179.032 	
21.7658 	-0.015996 	-0.607552 	0.663823 	0.440057 	-0.00201999 	-3.13031 	90.95 	143.372 	359.664 	269.488 	0.35142 	280.37 	179.032 	
21.7759 	-0.015996 	-0.607552 	0.663823 	0.440057 	-0.00201999 	-3.13031 	90.95 	143.372 	359.664 	269.488 	0.35142 	280.37 	179.032 	
21.7859 	-0.015996 	-0.607552 	0.663823 	0.440057 	-0.00201999 	-3.13031 	90.95 	143.372 	359.664 	269.488 	0.35142 	280.37 	179.032 	
21.7959 	-0.015996 	-0.607552 	0.663823 	0.440057 	-0.00201999 	-3.13031 	90.95 	143.372 	359.664 	269.488 	0.35142 	280.37 	179.032 	
21.8059 	-0.015996 	-0.607552 	0.663823 	0.440057 	-0.00201999 	-3.13031 	90.95 	143.372 	359.664 	269.488 	0.35142 	280.37 	179.032 	
21.816 	-0.015996 	-0.607552 	0.663823 	0.440057 	-0.00201999 	-3.13031 	90.95 	143.372 	359.664 	269.488 	0.35142 	280.37 	179.032 	
21.826 	-0.015996 	-0.607552 	0.663823 	0.440057 	-0.00201999 	-3.13031 	90.95 	143.372 	359.664 	269.488 	0.35142 	280.37 	179.032 	
21.836 	-0.015996 	-0.607552 	0.663823 	0.440057 	-0.00201999 	-3.13031 	90.95 	143.372 	359.664 	269.488 	0.35142 	280.37 	179.032 	
21.8459 	-0.015996 	-0.607552 	0.663823 	0.440057 	-0.00201999 	-3.13031 	90.95 	143.372 	359.664 	269.488 	0.35142 	280.37 	179.032 	
21.8559 	-0.015996 	-0.607552 	0.663823 	0.440057 	-0.00201999 	-3.13031 	90.95 	143.372 	359.664 	269.488 	0.35142 	280.37 	179.032 	
21.866 	-0.015996 	-0.607552 	0.663823 	0.440057 	-0.00201999 	-3.13031 	90.95 	143.372 	359.664 	269.488 	0.35142 	280.37 	179.032 	
21.8759 	-0.015996 	-0.607552 	0.663823 	0.440057 	-0.00201999 	-3.13031 	90.95 	143.372 	359.664 	269.488 	0.35142 	280.37 	179.032 	
21.8859 	-0.015996 	-0.607552 	0.663823 	0.440057 	-0.00201999 	-3.13031 	90.95 	143.372 	359.664 	269.488 	0.35142 	280.37 	179.032 	
21.8959 	-0.015996 	-0.607552 	0.663823 	0.440057 	-0.00201999 	-3.13031 	90.95 	143.372 	359.664 	269.488 	0.35142 	280.37 	179.032 	
21.9059 	-0.015996 	-0.607552 	0.663823 	0.440057 	-0.00201999 	-3.13031 	90.95 	143.372 	359.664 	269.488 	0.35142 	280.37 	179.032 	
21.916 	-0.015996 	-0.607552 	0.663823 	0.440057 	-0.00201999 	-3.13031 	90.95 	143.372 	359.664 	269.488 	0.35142 	280.37 	179.032 	
21.9259 	-0.015996 	-0.607552 	0.663823 	0.440057 	-0.00201999 	-3.13031 	90.95 	143.372 	359.664 	269.488 	0.35142 	280.37 	179.032 	
21.936 	-0.015996 	-0.607552 	0.663823 	0.440057 	-0.00201999 	-3.13031 	90.95 	143.372 	359.664 	269.488 	0.35142 	280.37 	179.032 	
21.9461 	-0.015996 	-0.607552 	0.663823 	0.440057 	-0.00201999 	-3.13031 	90.95 	143.372 	359.664 	269.488 	0.35142 	280.37 	179.032 	
21.9559 	-0.015996 	-0.607552 	0.663823 	0.440057 	-0.00201999 	-3.13031 	90.95 	143.372 	359.664 	269.488 	0.35142 	280.37 	179.032 	
21.9659 	-0.015996 	-0.607552 	0.663823 	0.440057 	-0.00201999 	-3.13031 	90.95 	143.372 	359.664 	269.488 	0.35142 	280.37 	179.032 	
21.9759 	-0.015996 	-0.607552 	0.663823 	0.440057 	-0.00201999 	-3.13031 	90.95 	143.372 	359.664 	269.488 	0.35142 	280.37 	179.032 	
21.9859 	-0.015996 	-0.607552 	0.663823 	0.440057 	-0.00201999 	-3.13031 	90.95 	143.372 	359.664 	269.488 	0.35142 	280.37 	179.032 	
21.9959 	-0.015996 	-0.607552 	0.663823 	0.440057 	-0.00201999 	-3.13031 	90.95 	143.372 	359.664 	269.488 	0.35142 	280.37 	179.032 	
22.0059 	-0.015996 	-0.607552 	0.663823 	0.440057 	-0.00201999 	-3.13031 	90.95 	143.372 	359.664 	269.488 	0.35142 	280.37 	179.032 	
22.016 	-0.015996 	-0.607552 	0.663823 	0.440057 	-0.00201999 	-3.13031 	90.95 	143.372 	359.664 	269.488 	0.35142 	280.37 	179.032 	
22.0259 	-0.015996 	-0.607552 	0.663823 	0.440057 	-0.00201999 	-3.13031 	90.95 	143.372 	359.664 	269.488 	0.35142 	280.37 	179.032 	
22.036 	-0.015996 	-0.607552 	0.663823 	0.440057 	-0.00201999 	-3.13031 	90.95 	143.372 	359.664 	269.488 	0.35142 	280.37 	179.032 	
22.0459 	-0.015996 	-0.607552 	0.663823 	0.440057 	-0.00201999 	-3.13031 	90.95 	143.372 	359.664 	269.488 	0.35142 	280.37 	179.032 	
22.0559 	-0.015996 	-0.607552 	0.663823 	0.440057 	-0.00201999 	-3.13031 	90.95 	143.372 	359.664 	269.488 	0.35142 	280.37 	179.032 	
22.0659 	-0.015996 	-0.607552 	0.663823 	0.440057 	-0.00201999 	-3.13031 	90.95 	143.372 	359.664 	269.488 	0.35142 	280.37 	179.032 	
22.0759 	-0.015996 	-0.607552 	0.663823 	0.440057 	-0.00201999 	-3.13031 	90.95 	143.372 	359.664 	269.488 	0.35142 	280.37 	179.032 	
22.0859 	-0.015996 	-0.607552 	0.663823 	0.440057 	-0.00201999 	-3.13031 	90.95 	143.372 	359.664 	269.488 	0.35142 	280.37 	179.032 	
22.0959 	-0.015996 	-0.607552 	0.663823 	0.440057 	-0.00201999 	-3.13031 	90.95 	143.372 	359.664 	269.488 	0.35142 	280.37 	179.032 	
22.1059 	-0.015996 	-0.607552 	0.663823 	0.440057 	-0.00201999 	-3.13031 	90.95 	143.372 	359.664 	269.488 	0.35142 	280.37 	179.032 	
22.1159 	-0.015996 	-0.607552 	0.663823 	0.440057 	-0.00201999 	-3.13031 	90.95 	143.372 	359.664 	269.488 	0.35142 	280.37 	179.032 	
22.1259 	-0.015996 	-0.607552 	0.663823 	0.440057 	-0.00201999 	-3.13031 	90.95 	143.372 	359.664 	269.488 	0.35142 	280.37 	179.032 	
22.136 	-0.015996 	-0.607552 	0.663823 	0.440057 	-0.00201999 	-3.13031 	90.95 	143.372 	359.664 	269.488 	0.35142 	280.37 	179.032 	
22.1461 	-0.015996 	-0.607552 	0.663823 	0.440057 	-0.00201999 	-3.13031 	90.95 	143.372 	359.664 	269.488 	0.35142 	280.37 	179.032 	
22.1559 	-0.015996 	-0.607552 	0.663823 	0.440057 	-0.00201999 	-3.13031 	90.95 	143.372 	359.664 	269.488 	0.35142 	280.37 	179.032 	
22.1659 	-0.015996 	-0.607552 	0.663823 	0.440057 	-0.00201999 	-3.13031 	90.95 	143.372 	359.664 	269.488 	0.35142 	280.37 	179.032 	
22.1759 	-0.015996 	-0.607552 	0.663823 	0.440057 	-0.00201999 	-3.13031 	90.95 	143.372 	359.664 	269.488 	0.35142 	280.37 	179.032 	
22.1859 	-0.015996 	-0.607552 	0.663823 	0.440057 	-0.00201999 	-3.13031 	90.95 	143.372 	359.664 	269.488 	0.35142 	280.37 	179.032 	
22.1959 	-0.015996 	-0.607552 	0.663823 	0.440057 	-0.00201999 	-3.13031 	90.95 	143.372 	359.664 	269.488 	0.35142 	280.37 	179.032 	
22.2059 	-0.015996 	-0.607552 	0.663823 	0.440057 	-0.00201999 	-3.13031 	90.95 	143.372 	359.664 	269.488 	0.35142 	280.37 	179.032 	
22.216 	-0.015996 	-0.607552 	0.663823 	0.440057 	-0.00201999 	-3.13031 	90.95 	143.372 	359.664 	269.488 	0.35142 	280.37 	179.032 	
22.2259 	-0.015996 	-0.607552 	0.663823 	0.440057 	-0.00201999 	-3.13031 	90.95 	143.372 	359.664 	269.488 	0.35142 	280.37 	179.032 	
22.2359 	-0.015996 	-0.607552 	0.663823 	0.440057 	-0.00201999 	-3.13031 	90.95 	143.372 	359.664 	269.488 	0.35142 	280.37 	179.032 	
22.2459 	-0.015996 	-0.607552 	0.663823 	0.440057 	-0.00201999 	-3.13031 	90.95 	143.372 	359.664 	269.488 	0.35142 	280.37 	179.032 	
22.2559 	-0.015996 	-0.607552 	0.663823 	0.440057 	-0.00201999 	-3.13031 	90.95 	143.372 	359.664 	269.488 	0.35142 	280.37 	179.032 	
22.2659 	-0.015996 	-0.607552 	0.663823 	0.440057 	-0.00201999 	-3.13031 	90.95 	143.372 	359.664 	269.488 	0.35142 	280.37 	179.032 	
22.2759 	-0.015996 	-0.607552 	0.663823 	0.440057 	-0.00201999 	-3.13031 	90.95 	143.372 	359.664 	269.488 	0.35142 	280.37 	179.032 	
22.2859 	-0.015996 	-0.607552 	0.663823 	0.440057 	-0.00201999 	-3.13031 	90.95 	143.372 	359.664 	269.488 	0.35142 	280.37 	179.032 	
22.2959 	-0.015996 	-0.607552 	0.663823 	0.440057 	-0.00201999 	-3.13031 	90.95 	143.372 	359.664 	269.488 	0.35142 	280.37 	179.032 	
22.3059 	-0.015996 	-0.607552 	0.663823 	0.440057 	-0.00201999 	-3.13031 	90.95 	143.372 	359.664 	269.488 	0.35142 	280.37 	179.032 	
22.316 	-0.015996 	-0.607552 	0.663823 	0.440057 	-0.00201999 	-3.13031 	90.95 	143.372 	359.664 	269.488 	0.35142 	280.37 	179.032 	
22.3261 	-0.015996 	-0.607552 	0.663823 	0.440057 	-0.00201999 	-3.13031 	90.95 	143.372 	359.664 	269.488 	0.35142 	280.37 	179.032 	
22.336 	-0.015996 	-0.607552 	0.663823 	0.440057 	-0.00201999 	-3.13031 	90.95 	143.372 	359.664 	269.488 	0.35142 	280.37 	179.032 	
22.346 	-0.015996 	-0.607552 	0.663823 	0.440057 	-0.00201999 	-3.13031 	90.95 	143.372 	359.664 	269.488 	0.35142 	280.37 	179.032 	
22.3559 	-0.015996 	-0.607552 	0.663823 	0.440057 	-0.00201999 	-3.13031 	90.95 	143.372 	359.664 	269.488 	0.35142 	280.37 	179.032 	
22.3659 	-0.015996 	-0.607552 	0.663823 	0.440057 	-0.00201999 	-3.13031 	90.95 	143.372 	359.664 	269.488 	0.35142 	280.37 	179.032 	
22.3759 	-0.015996 	-0.607552 	0.663823 	0.440057 	-0.00201999 	-3.13031 	90.95 	143.372 	359.664 	269.488 	0.35142 	280.37 	179.032 	
22.3859 	-0.015996 	-0.607552 	0.663823 	0.440057 	-0.00201999 	-3.13031 	90.95 	143.372 	359.664 	269.488 	0.35142 	280.37 	179.032 	
22.3959 	-0.015996 	-0.607552 	0.663823 	0.440057 	-0.00201999 	-3.13031 	90.95 	143.372 	359.664 	269.488 	0.35142 	280.37 	179.032 	
22.4059 	-0.015996 	-0.607552 	0.663823 	0.440057 	-0.00201999 	-3.13031 	90.95 	143.372 	359.664 	269.488 	0.35142 	280.37 	179.032 	
22.4159 	-0.015996 	-0.607552 	0.663823 	0.440057 	-0.00201999 	-3.13031 	90.95 	143.372 	359.664 	269.488 	0.35142 	280.37 	179.032 	
22.4261 	-0.015996 	-0.607552 	0.663823 	0.440057 	-0.00201999 	-3.13031 	90.95 	143.372 	359.664 	269.488 	0.35142 	280.37 	179.032 	
22.436 	-0.015996 	-0.607552 	0.663823 	0.440057 	-0.00201999 	-3.13031 	90.95 	143.372 	359.664 	269.488 	0.35142 	280.37 	179.032 	
22.4459 	-0.015996 	-0.607552 	0.663823 	0.440057 	-0.00201999 	-3.13031 	90.95 	143.372 	359.664 	269.488 	0.35142 	280.37 	179.032 	
22.4559 	-0.015996 	-0.607552 	0.663823 	0.440057 	-0.00201999 	-3.13031 	90.95 	143.372 	359.664 	269.488 	0.35142 	280.37 	179.032 	
22.4659 	-0.015996 	-0.607552 	0.663823 	0.440057 	-0.00201999 	-3.13031 	90.95 	143.372 	359.664 	269.488 	0.35142 	280.37 	179.032 	
22.4759 	-0.015996 	-0.607552 	0.663823 	0.440057 	-0.00201999 	-3.13031 	90.95 	143.372 	359.664 	269.488 	0.35142 	280.37 	179.032 	
22.4859 	-0.015996 	-0.607552 	0.663823 	0.440057 	-0.00201999 	-3.13031 	90.95 	143.372 	359.664 	269.488 	0.35142 	280.37 	179.032 	
22.4959 	-0.015996 	-0.607552 	0.663823 	0.440057 	-0.00201999 	-3.13031 	90.95 	143.372 	359.664 	269.488 	0.35142 	280.37 	179.032 	
22.5059 	-0.015996 	-0.607552 	0.663823 	0.440057 	-0.00201999 	-3.13031 	90.95 	143.372 	359.664 	269.488 	0.35142 	280.37 	179.032 	
22.516 	-0.015996 	-0.607552 	0.663823 	0.440057 	-0.00201999 	-3.13031 	90.95 	143.372 	359.664 	269.488 	0.35142 	280.37 	179.032 	
22.5259 	-0.015996 	-0.607552 	0.663823 	0.440057 	-0.00201999 	-3.13031 	90.95 	143.372 	359.664 	269.488 	0.35142 	280.37 	179.032 	
22.5359 	-0.015996 	-0.607552 	0.663823 	0.440057 	-0.00201999 	-3.13031 	90.95 	143.372 	359.664 	269.488 	0.35142 	280.37 	179.032 	
22.5459 	-0.015996 	-0.607552 	0.663823 	0.440057 	-0.00201999 	-3.13031 	90.95 	143.372 	359.664 	269.488 	0.35142 	280.37 	179.032 	
22.5559 	-0.015996 	-0.607552 	0.663823 	0.440057 	-0.00201999 	-3.13031 	90.95 	143.372 	359.664 	269.488 	0.35142 	280.37 	179.032 	
22.5659 	-0.015996 	-0.607552 	0.663823 	0.440057 	-0.00201999 	-3.13031 	90.95 	143.372 	359.664 	269.488 	0.35142 	280.37 	179.032 	
22.5759 	-0.015996 	-0.607552 	0.663823 	0.440057 	-0.00201999 	-3.13031 	90.95 	143.372 	359.664 	269.488 	0.35142 	280.37 	179.032 	
22.5859 	-0.015996 	-0.607552 	0.663823 	0.440057 	-0.00201999 	-3.13031 	90.95 	143.372 	359.664 	269.488 	0.35142 	280.37 	179.032 	
22.5959 	-0.015996 	-0.607552 	0.663823 	0.440057 	-0.00201999 	-3.13031 	90.95 	143.372 	359.664 	269.488 	0.35142 	280.37 	179.032 	
22.6059 	-0.015996 	-0.607552 	0.663823 	0.440057 	-0.00201999 	-3.13031 	90.95 	143.372 	359.664 	269.488 	0.35142 	280.37 	179.032 	
22.616 	-0.015996 	-0.607552 	0.663823 	0.440057 	-0.00201999 	-3.13031 	90.95 	143.372 	359.664 	269.488 	0.35142 	280.37 	179.032 	
22.6261 	-0.015996 	-0.607552 	0.663823 	0.440057 	-0.00201999 	-3.13031 	90.95 	143.372 	359.664 	269.488 	0.35142 	280.37 	179.032 	
22.636 	-0.015996 	-0.607552 	0.663823 	0.440057 	-0.00201999 	-3.13031 	90.95 	143.372 	359.664 	269.488 	0.35142 	280.37 	179.032 	
22.6459 	-0.015996 	-0.607552 	0.663823 	0.440057 	-0.00201999 	-3.13031 	90.95 	143.372 	359.664 	269.488 	0.35142 	280.37 	179.032 	
22.6559 	-0.015996 	-0.607552 	0.663823 	0.440057 	-0.00201999 	-3.13031 	90.95 	143.372 	359.664 	269.488 	0.35142 	280.37 	179.032 	
22.6658 	-0.015996 	-0.607552 	0.663823 	0.440057 	-0.00201999 	-3.13031 	90.95 	143.372 	359.664 	269.488 	0.35142 	280.37 	179.032 	
22.6759 	-0.015996 	-0.607552 	0.663823 	0.440057 	-0.00201999 	-3.13031 	90.95 	143.372 	359.664 	269.488 	0.35142 	280.37 	179.032 	
22.6859 	-0.015996 	-0.607552 	0.663823 	0.440057 	-0.00201999 	-3.13031 	90.95 	143.372 	359.664 	269.488 	0.35142 	280.37 	179.032 	
22.6959 	-0.015996 	-0.607552 	0.663823 	0.440057 	-0.00201999 	-3.13031 	90.95 	143.372 	359.664 	269.488 	0.35142 	280.37 	179.032 	
22.7059 	-0.015996 	-0.607552 	0.663823 	0.440057 	-0.00201999 	-3.13031 	90.95 	143.372 	359.664 	269.488 	0.35142 	280.37 	179.032 	
22.7159 	-0.015996 	-0.607552 	0.663823 	0.440057 	-0.00201999 	-3.13031 	90.95 	143.372 	359.664 	269.488 	0.35142 	280.37 	179.032 	
22.7258 	-0.015996 	-0.607552 	0.663823 	0.440057 	-0.00201999 	-3.13031 	90.95 	143.372 	359.664 	269.488 	0.35142 	280.37 	179.032 	
22.736 	-0.015996 	-0.607552 	0.663823 	0.440057 	-0.00201999 	-3.13031 	90.95 	143.372 	359.664 	269.488 	0.35142 	280.37 	179.032 	
22.7459 	-0.015996 	-0.607552 	0.663823 	0.440057 	-0.00201999 	-3.13031 	90.95 	143.372 	359.664 	269.488 	0.35142 	280.37 	179.032 	
22.7559 	-0.015996 	-0.607552 	0.663823 	0.440057 	-0.00201999 	-3.13031 	90.95 	143.372 	359.664 	269.488 	0.35142 	280.37 	179.032 	
22.7659 	-0.015996 	-0.607552 	0.663823 	0.440057 	-0.00201999 	-3.13031 	90.95 	143.372 	359.664 	269.488 	0.35142 	280.37 	179.032 	
22.7759 	-0.015996 	-0.607552 	0.663823 	0.440057 	-0.00201999 	-3.13031 	90.95 	143.372 	359.664 	269.488 	0.35142 	280.37 	179.032 	
22.7859 	-0.015996 	-0.607552 	0.663823 	0.440057 	-0.00201999 	-3.13031 	90.95 	143.372 	359.664 	269.488 	0.35142 	280.37 	179.032 	
22.7959 	-0.015996 	-0.607552 	0.663823 	0.440057 	-0.00201999 	-3.13031 	90.95 	143.372 	359.664 	269.488 	0.35142 	280.37 	179.032 	
22.8059 	-0.015996 	-0.607552 	0.663823 	0.440057 	-0.00201999 	-3.13031 	90.95 	143.372 	359.664 	269.488 	0.35142 	280.37 	179.032 	
22.816 	-0.015996 	-0.607552 	0.663823 	0.440057 	-0.00201999 	-3.13031 	90.95 	143.372 	359.664 	269.488 	0.35142 	280.37 	179.032 	
22.8259 	-0.015996 	-0.607552 	0.663823 	0.440057 	-0.00201999 	-3.13031 	90.95 	143.372 	359.664 	269.488 	0.35142 	280.37 	179.032 	
22.8359 	-0.015996 	-0.607552 	0.663823 	0.440057 	-0.00201999 	-3.13031 	90.95 	143.372 	359.664 	269.488 	0.35142 	280.37 	179.032 	
22.8461 	-0.015996 	-0.607552 	0.663823 	0.440057 	-0.00201999 	-3.13031 	90.95 	143.372 	359.664 	269.488 	0.35142 	280.37 	179.032 	
22.8559 	-0.015996 	-0.607552 	0.663823 	0.440057 	-0.00201999 	-3.13031 	90.95 	143.372 	359.664 	269.488 	0.35142 	280.37 	179.032 	
22.8659 	-0.015996 	-0.607552 	0.663823 	0.440057 	-0.00201999 	-3.13031 	90.95 	143.372 	359.664 	269.488 	0.35142 	280.37 	179.032 	
22.8759 	-0.015996 	-0.607552 	0.663823 	0.440057 	-0.00201999 	-3.13031 	90.95 	143.372 	359.664 	269.488 	0.35142 	280.37 	179.032 	
22.8859 	-0.015996 	-0.607552 	0.663823 	0.440057 	-0.00201999 	-3.13031 	90.95 	143.372 	359.664 	269.488 	0.35142 	280.37 	179.032 	
22.8959 	-0.015996 	-0.607552 	0.663823 	0.440057 	-0.00201999 	-3.13031 	90.95 	143.372 	359.664 	269.488 	0.35142 	280.37 	179.032 	
22.9059 	-0.015996 	-0.607552 	0.663823 	0.440057 	-0.00201999 	-3.13031 	90.95 	143.372 	359.664 	269.488 	0.35142 	280.37 	179.032 	
22.916 	-0.015996 	-0.607552 	0.663823 	0.440057 	-0.00201999 	-3.13031 	90.95 	143.372 	359.664 	269.488 	0.35142 	280.37 	179.032 	
22.9259 	-0.015996 	-0.607552 	0.663823 	0.440057 	-0.00201999 	-3.13031 	90.95 	143.372 	359.664 	269.488 	0.35142 	280.37 	179.032 	
22.9361 	-0.015996 	-0.607552 	0.663823 	0.440057 	-0.00201999 	-3.13031 	90.95 	143.372 	359.664 	269.488 	0.35142 	280.37 	179.032 	
22.9461 	-0.015996 	-0.607552 	0.663823 	0.440057 	-0.00201999 	-3.13031 	90.95 	143.372 	359.664 	269.488 	0.35142 	280.37 	179.032 	
22.9559 	-0.015996 	-0.607552 	0.663823 	0.440057 	-0.00201999 	-3.13031 	90.95 	143.372 	359.664 	269.488 	0.35142 	280.37 	179.032 	
22.9659 	-0.015996 	-0.607552 	0.663823 	0.440057 	-0.00201999 	-3.13031 	90.95 	143.372 	359.664 	269.488 	0.35142 	280.37 	179.032 	
22.9759 	-0.015996 	-0.607552 	0.663823 	0.440057 	-0.00201999 	-3.13031 	90.95 	143.372 	359.664 	269.488 	0.35142 	280.37 	179.032 	
22.9859 	-0.015996 	-0.607552 	0.663823 	0.440057 	-0.00201999 	-3.13031 	90.95 	143.372 	359.664 	269.488 	0.35142 	280.37 	179.032 	
22.9959 	-0.015996 	-0.607552 	0.663823 	0.440057 	-0.00201999 	-3.13031 	90.95 	143.372 	359.664 	269.488 	0.35142 	280.37 	179.032 	
23.0059 	-0.015996 	-0.607552 	0.663823 	0.440057 	-0.00201999 	-3.13031 	90.95 	143.372 	359.664 	269.488 	0.35142 	280.37 	179.032 	
23.016 	-0.015996 	-0.607552 	0.663823 	0.440057 	-0.00201999 	-3.13031 	90.95 	143.372 	359.664 	269.488 	0.35142 	280.37 	179.032 	
23.0259 	-0.015996 	-0.607552 	0.663823 	0.440057 	-0.00201999 	-3.13031 	90.95 	143.372 	359.664 	269.488 	0.35142 	280.37 	179.032 	
23.036 	-0.015996 	-0.607552 	0.663823 	0.440057 	-0.00201999 	-3.13031 	90.95 	143.372 	359.664 	269.488 	0.35142 	280.37 	179.032 	
23.0459 	-0.015996 	-0.607552 	0.663823 	0.440057 	-0.00201999 	-3.13031 	90.95 	143.372 	359.664 	269.488 	0.35142 	280.37 	179.032 	
23.0559 	-0.015996 	-0.607552 	0.663823 	0.440057 	-0.00201999 	-3.13031 	90.95 	143.372 	359.664 	269.488 	0.35142 	280.37 	179.032 	
23.0659 	-0.015996 	-0.607552 	0.663823 	0.440057 	-0.00201999 	-3.13031 	90.95 	143.372 	359.664 	269.488 	0.35142 	280.37 	179.032 	
23.0759 	-0.015996 	-0.607552 	0.663823 	0.440057 	-0.00201999 	-3.13031 	90.95 	143.372 	359.664 	269.488 	0.35142 	280.37 	179.032 	
23.0859 	-0.015996 	-0.607552 	0.663823 	0.440057 	-0.00201999 	-3.13031 	90.95 	143.372 	359.664 	269.488 	0.35142 	280.37 	179.032 	
23.0959 	-0.015996 	-0.607552 	0.663823 	0.440057 	-0.00201999 	-3.13031 	90.95 	143.372 	359.664 	269.488 	0.35142 	280.37 	179.032 	
23.1059 	-0.015996 	-0.607552 	0.663823 	0.440057 	-0.00201999 	-3.13031 	90.95 	143.372 	359.664 	269.488 	0.35142 	280.37 	179.032 	
23.116 	-0.015996 	-0.607552 	0.663823 	0.440057 	-0.00201999 	-3.13031 	90.95 	143.372 	359.664 	269.488 	0.35142 	280.37 	179.032 	
23.1259 	-0.015996 	-0.607552 	0.663823 	0.440057 	-0.00201999 	-3.13031 	90.95 	143.372 	359.664 	269.488 	0.35142 	280.37 	179.032 	
23.136 	-0.015996 	-0.607552 	0.663823 	0.440057 	-0.00201999 	-3.13031 	90.95 	143.372 	359.664 	269.488 	0.35142 	280.37 	179.032 	
23.1461 	-0.015996 	-0.607552 	0.663823 	0.440057 	-0.00201999 	-3.13031 	90.95 	143.372 	359.664 	269.488 	0.35142 	280.37 	179.032 	
23.1559 	-0.015996 	-0.607552 	0.663823 	0.440057 	-0.00201999 	-3.13031 	90.95 	143.372 	359.664 	269.488 	0.35142 	280.37 	179.032 	
23.1659 	-0.015996 	-0.607552 	0.663823 	0.440057 	-0.00201999 	-3.13031 	90.95 	143.372 	359.664 	269.488 	0.35142 	280.37 	179.032 	
23.1759 	-0.015996 	-0.607552 	0.663823 	0.440057 	-0.00201999 	-3.13031 	90.95 	143.372 	359.664 	269.488 	0.35142 	280.37 	179.032 	
23.1859 	-0.015996 	-0.607552 	0.663823 	0.440057 	-0.00201999 	-3.13031 	90.95 	143.372 	359.664 	269.488 	0.35142 	280.37 	179.032 	
23.1959 	-0.015996 	-0.607552 	0.663823 	0.440057 	-0.00201999 	-3.13031 	90.95 	143.372 	359.664 	269.488 	0.35142 	280.37 	179.032 	
23.2059 	-0.015996 	-0.607552 	0.663823 	0.440057 	-0.00201999 	-3.13031 	90.95 	143.372 	359.664 	269.488 	0.35142 	280.37 	179.032 	
23.216 	-0.015996 	-0.607552 	0.663823 	0.440057 	-0.00201999 	-3.13031 	90.95 	143.372 	359.664 	269.488 	0.35142 	280.37 	179.032 	
23.2261 	-0.015996 	-0.607552 	0.663823 	0.440057 	-0.00201999 	-3.13031 	90.95 	143.372 	359.664 	269.488 	0.35142 	280.37 	179.032 	
23.2361 	-0.015996 	-0.607552 	0.663823 	0.440057 	-0.00201999 	-3.13031 	90.95 	143.372 	359.664 	269.488 	0.35142 	280.37 	179.032 	
23.2459 	-0.015996 	-0.607552 	0.663823 	0.440057 	-0.00201999 	-3.13031 	90.95 	143.372 	359.664 	269.488 	0.35142 	280.37 	179.032 	
23.2559 	-0.015996 	-0.607552 	0.663823 	0.440057 	-0.00201999 	-3.13031 	90.95 	143.372 	359.664 	269.488 	0.35142 	280.37 	179.032 	
23.2659 	-0.015996 	-0.607552 	0.663823 	0.440057 	-0.00201999 	-3.13031 	90.95 	143.372 	359.664 	269.488 	0.35142 	280.37 	179.032 	
23.2759 	-0.015996 	-0.607552 	0.663823 	0.440057 	-0.00201999 	-3.13031 	90.95 	143.372 	359.664 	269.488 	0.35142 	280.37 	179.032 	
23.2859 	-0.015996 	-0.607552 	0.663823 	0.440057 	-0.00201999 	-3.13031 	90.95 	143.372 	359.664 	269.488 	0.35142 	280.37 	179.032 	
23.2959 	-0.015996 	-0.607552 	0.663823 	0.440057 	-0.00201999 	-3.13031 	90.95 	143.372 	359.664 	269.488 	0.35142 	280.37 	179.032 	
23.3059 	-0.015996 	-0.607552 	0.663823 	0.440057 	-0.00201999 	-3.13031 	90.95 	143.372 	359.664 	269.488 	0.35142 	280.37 	179.032 	
23.3159 	-0.015996 	-0.607552 	0.663823 	0.440057 	-0.00201999 	-3.13031 	90.95 	143.372 	359.664 	269.488 	0.35142 	280.37 	179.032 	
23.3261 	-0.015996 	-0.607552 	0.663823 	0.440057 	-0.00201999 	-3.13031 	90.95 	143.372 	359.664 	269.488 	0.35142 	280.37 	179.032 	
23.3361 	-0.015996 	-0.607552 	0.663823 	0.440057 	-0.00201999 	-3.13031 	90.95 	143.372 	359.664 	269.488 	0.35142 	280.37 	179.032 	
23.3461 	-0.015996 	-0.607552 	0.663823 	0.440057 	-0.00201999 	-3.13031 	90.95 	143.372 	359.664 	269.488 	0.35142 	280.37 	179.032 	
23.356 	-0.015996 	-0.607552 	0.663823 	0.440057 	-0.00201999 	-3.13031 	90.95 	143.372 	359.664 	269.488 	0.35142 	280.37 	179.032 	
23.3659 	-0.015996 	-0.607552 	0.663823 	0.440057 	-0.00201999 	-3.13031 	90.95 	143.372 	359.664 	269.488 	0.35142 	280.37 	179.032 	
23.3759 	-0.015996 	-0.607552 	0.663823 	0.440057 	-0.00201999 	-3.13031 	90.95 	143.372 	359.664 	269.488 	0.35142 	280.37 	179.032 	
23.3859 	-0.015996 	-0.607552 	0.663823 	0.440057 	-0.00201999 	-3.13031 	90.95 	143.372 	359.664 	269.488 	0.35142 	280.37 	179.032 	
23.3959 	-0.015996 	-0.607552 	0.663823 	0.440057 	-0.00201999 	-3.13031 	90.95 	143.372 	359.664 	269.488 	0.35142 	280.37 	179.032 	
23.406 	-0.015996 	-0.607552 	0.663823 	0.440057 	-0.00201999 	-3.13031 	90.95 	143.372 	359.664 	269.488 	0.35142 	280.37 	179.032 	
23.416 	-0.015996 	-0.607552 	0.663823 	0.440057 	-0.00201999 	-3.13031 	90.95 	143.372 	359.664 	269.488 	0.35142 	280.37 	179.032 	
23.4259 	-0.015996 	-0.607552 	0.663823 	0.440057 	-0.00201999 	-3.13031 	90.95 	143.372 	359.664 	269.488 	0.35142 	280.37 	179.032 	
23.4361 	-0.015996 	-0.607552 	0.663823 	0.440057 	-0.00201999 	-3.13031 	90.95 	143.372 	359.664 	269.488 	0.35142 	280.37 	179.032 	
23.4461 	-0.015996 	-0.607552 	0.663823 	0.440057 	-0.00201999 	-3.13031 	90.95 	143.372 	359.664 	269.488 	0.35142 	280.37 	179.032 	
23.4559 	-0.015996 	-0.607552 	0.663823 	0.440057 	-0.00201999 	-3.13031 	90.95 	143.372 	359.664 	269.488 	0.35142 	280.37 	179.032 	
23.4659 	-0.015996 	-0.607552 	0.663823 	0.440057 	-0.00201999 	-3.13031 	90.95 	143.372 	359.664 	269.488 	0.35142 	280.37 	179.032 	
23.4759 	-0.015996 	-0.607552 	0.663823 	0.440057 	-0.00201999 	-3.13031 	90.95 	143.372 	359.664 	269.488 	0.35142 	280.37 	179.032 	
23.4859 	-0.015996 	-0.607552 	0.663823 	0.440057 	-0.00201999 	-3.13031 	90.95 	143.372 	359.664 	269.488 	0.35142 	280.37 	179.032 	
23.4959 	-0.015996 	-0.607552 	0.663823 	0.440057 	-0.00201999 	-3.13031 	90.95 	143.372 	359.664 	269.488 	0.35142 	280.37 	179.032 	
23.5052 	-0.015996 	-0.607552 	0.663823 	0.440057 	-0.00201999 	-3.13031 	90.95 	143.372 	359.664 	269.488 	0.35142 	280.37 	179.032 	
23.5155 	-0.015996 	-0.607552 	0.663823 	0.440057 	-0.00201999 	-3.13031 	90.95 	143.372 	359.664 	269.488 	0.35142 	280.37 	179.032 	
23.5256 	-0.015996 	-0.607552 	0.663823 	0.440057 	-0.00201999 	-3.13031 	90.95 	143.372 	359.664 	269.488 	0.35142 	280.37 	179.032 	
23.5355 	-0.015996 	-0.607552 	0.663823 	0.440057 	-0.00201999 	-3.13031 	90.95 	143.372 	359.664 	269.488 	0.35142 	280.37 	179.032 	
23.5456 	-0.015996 	-0.607552 	0.663823 	0.440057 	-0.00201999 	-3.13031 	90.95 	143.372 	359.664 	269.488 	0.35142 	280.37 	179.032 	
23.5554 	-0.015996 	-0.607552 	0.663823 	0.440057 	-0.00201999 	-3.13031 	90.95 	143.372 	359.664 	269.488 	0.35142 	280.37 	179.032 	
23.5654 	-0.015996 	-0.607552 	0.663823 	0.440057 	-0.00201999 	-3.13031 	90.95 	143.372 	359.664 	269.488 	0.35142 	280.37 	179.032 	
23.5754 	-0.015996 	-0.607552 	0.663823 	0.440057 	-0.00201999 	-3.13031 	90.95 	143.372 	359.664 	269.488 	0.35142 	280.37 	179.032 	
23.5856 	-0.015996 	-0.607552 	0.663823 	0.440057 	-0.00201999 	-3.13031 	90.95 	143.372 	359.664 	269.488 	0.35142 	280.37 	179.032 	
23.5954 	-0.015996 	-0.607552 	0.663823 	0.440057 	-0.00201999 	-3.13031 	90.95 	143.372 	359.664 	269.488 	0.35142 	280.37 	179.032 	
23.6054 	-0.015996 	-0.607552 	0.663823 	0.440057 	-0.00201999 	-3.13031 	90.95 	143.372 	359.664 	269.488 	0.35142 	280.37 	179.032 	
23.6155 	-0.015996 	-0.607552 	0.663823 	0.440057 	-0.00201999 	-3.13031 	90.95 	143.372 	359.664 	269.488 	0.35142 	280.37 	179.032 	
23.6256 	-0.015996 	-0.607552 	0.663823 	0.440057 	-0.00201999 	-3.13031 	90.95 	143.372 	359.664 	269.488 	0.35142 	280.37 	179.032 	
23.6356 	-0.015996 	-0.607552 	0.663823 	0.440057 	-0.00201999 	-3.13031 	90.95 	143.372 	359.664 	269.488 	0.35142 	280.37 	179.032 	
23.6456 	-0.015996 	-0.607552 	0.663823 	0.440057 	-0.00201999 	-3.13031 	90.95 	143.372 	359.664 	269.488 	0.35142 	280.37 	179.032 	
23.6554 	-0.015996 	-0.607552 	0.663823 	0.440057 	-0.00201999 	-3.13031 	90.95 	143.372 	359.664 	269.488 	0.35142 	280.37 	179.032 	
23.6655 	-0.015996 	-0.607552 	0.663823 	0.440057 	-0.00201999 	-3.13031 	90.95 	143.372 	359.664 	269.488 	0.35142 	280.37 	179.032 	
23.6755 	-0.015996 	-0.607552 	0.663823 	0.440057 	-0.00201999 	-3.13031 	90.95 	143.372 	359.664 	269.488 	0.35142 	280.37 	179.032 	
23.6857 	-0.015996 	-0.607552 	0.663823 	0.440057 	-0.00201999 	-3.13031 	90.95 	143.372 	359.664 	269.488 	0.35142 	280.37 	179.032 	
23.6954 	-0.015996 	-0.607552 	0.663823 	0.440057 	-0.00201999 	-3.13031 	90.95 	143.372 	359.664 	269.488 	0.35142 	280.37 	179.032 	
23.697 	-0.015996 	-0.607552 	0.663823 	0.440057 	-0.00201999 	-3.13031 	90.95 	143.372 	359.664 	269.488 	0.35142 	280.37 	179.032 	
23.7072 	-0.015996 	-0.607552 	0.663823 	0.440057 	-0.00201999 	-3.13031 	90.95 	143.372 	359.664 	269.488 	0.35142 	280.37 	179.032 	
23.7172 	-0.015996 	-0.607552 	0.663823 	0.440057 	-0.00201999 	-3.13031 	90.95 	143.372 	359.664 	269.488 	0.35142 	280.37 	179.032 	
23.7272 	-0.015996 	-0.607552 	0.663823 	0.440057 	-0.00201999 	-3.13031 	90.95 	143.372 	359.664 	269.488 	0.35142 	280.37 	179.032 	
23.7373 	-0.015996 	-0.607552 	0.663823 	0.440057 	-0.00201999 	-3.13031 	90.95 	143.372 	359.664 	269.488 	0.35142 	280.37 	179.032 	
23.7472 	-0.015996 	-0.607552 	0.663823 	0.440057 	-0.00201999 	-3.13031 	90.95 	143.372 	359.664 	269.488 	0.35142 	280.37 	179.032 	
23.7573 	-0.015996 	-0.607552 	0.663823 	0.440057 	-0.00201999 	-3.13031 	90.95 	143.372 	359.664 	269.488 	0.35142 	280.37 	179.032 	
23.7671 	-0.015996 	-0.607552 	0.663823 	0.440057 	-0.00201999 	-3.13031 	90.95 	143.372 	359.664 	269.488 	0.35142 	280.37 	179.032 	
23.7772 	-0.015996 	-0.607552 	0.663823 	0.440057 	-0.00201999 	-3.13031 	90.95 	143.372 	359.664 	269.488 	0.35142 	280.37 	179.032 	
23.7872 	-0.015996 	-0.607552 	0.663823 	0.440057 	-0.00201999 	-3.13031 	90.95 	143.372 	359.664 	269.488 	0.35142 	280.37 	179.032 	
23.7972 	-0.015996 	-0.607552 	0.663823 	0.440057 	-0.00201999 	-3.13031 	90.95 	143.372 	359.664 	269.488 	0.35142 	280.37 	179.032 	
23.8072 	-0.015996 	-0.607552 	0.663823 	0.440057 	-0.00201999 	-3.13031 	90.95 	143.372 	359.664 	269.488 	0.35142 	280.37 	179.032 	
23.8173 	-0.015996 	-0.607552 	0.663823 	0.440057 	-0.00201999 	-3.13031 	90.95 	143.372 	359.664 	269.488 	0.35142 	280.37 	179.032 	
23.8274 	-0.015996 	-0.607552 	0.663823 	0.440057 	-0.00201999 	-3.13031 	90.95 	143.372 	359.664 	269.488 	0.35142 	280.37 	179.032 	
23.8374 	-0.015996 	-0.607552 	0.663823 	0.440057 	-0.00201999 	-3.13031 	90.95 	143.372 	359.664 	269.488 	0.35142 	280.37 	179.032 	
23.8474 	-0.015996 	-0.607552 	0.663823 	0.440057 	-0.00201999 	-3.13031 	90.95 	143.372 	359.664 	269.488 	0.35142 	280.37 	179.032 	
23.8572 	-0.015996 	-0.607552 	0.663823 	0.440057 	-0.00201999 	-3.13031 	90.95 	143.372 	359.664 	269.488 	0.35142 	280.37 	179.032 	
23.8662 	-0.015996 	-0.607552 	0.663823 	0.440057 	-0.00201999 	-3.13031 	90.95 	143.372 	359.664 	269.488 	0.35142 	280.37 	179.032 	
23.8765 	-0.015996 	-0.607552 	0.663823 	0.440057 	-0.00201999 	-3.13031 	90.95 	143.372 	359.664 	269.488 	0.35142 	280.37 	179.032 	
23.8865 	-0.015996 	-0.607552 	0.663823 	0.440057 	-0.00201999 	-3.13031 	90.95 	143.372 	359.664 	269.488 	0.35142 	280.37 	179.032 	
23.8964 	-0.015996 	-0.607552 	0.663823 	0.440057 	-0.00201999 	-3.13031 	90.95 	143.372 	359.664 	269.488 	0.35142 	280.37 	179.032 	
23.9065 	-0.015996 	-0.607552 	0.663823 	0.440057 	-0.00201999 	-3.13031 	90.95 	143.372 	359.664 	269.488 	0.35142 	280.37 	179.032 	
23.9165 	-0.015996 	-0.607552 	0.663823 	0.440057 	-0.00201999 	-3.13031 	90.95 	143.372 	359.664 	269.488 	0.35142 	280.37 	179.032 	
23.9265 	-0.015996 	-0.607552 	0.663823 	0.440057 	-0.00201999 	-3.13031 	90.95 	143.372 	359.664 	269.488 	0.35142 	280.37 	179.032 	
23.9365 	-0.015996 	-0.607552 	0.663823 	0.440057 	-0.00201999 	-3.13031 	90.95 	143.372 	359.664 	269.488 	0.35142 	280.37 	179.032 	
23.9467 	-0.015996 	-0.607552 	0.663823 	0.440057 	-0.00201999 	-3.13031 	90.95 	143.372 	359.664 	269.488 	0.35142 	280.37 	179.032 	
23.9565 	-0.015996 	-0.607552 	0.663823 	0.440057 	-0.00201999 	-3.13031 	90.95 	143.372 	359.664 	269.488 	0.35142 	280.37 	179.032 	
23.9664 	-0.015996 	-0.607552 	0.663823 	0.440057 	-0.00201999 	-3.13031 	90.95 	143.372 	359.664 	269.488 	0.35142 	280.37 	179.032 	
23.9765 	-0.015996 	-0.607552 	0.663823 	0.440057 	-0.00201999 	-3.13031 	90.95 	143.372 	359.664 	269.488 	0.35142 	280.37 	179.032 	
23.9865 	-0.015996 	-0.607552 	0.663823 	0.440057 	-0.00201999 	-3.13031 	90.95 	143.372 	359.664 	269.488 	0.35142 	280.37 	179.032 	
23.9965 	-0.015996 	-0.607552 	0.663823 	0.440057 	-0.00201999 	-3.13031 	90.95 	143.372 	359.664 	269.488 	0.35142 	280.37 	179.032 	
24.0065 	-0.015996 	-0.607552 	0.663823 	0.440057 	-0.00201999 	-3.13031 	90.95 	143.372 	359.664 	269.488 	0.35142 	280.37 	179.032 	
24.0166 	-0.015996 	-0.607552 	0.663823 	0.440057 	-0.00201999 	-3.13031 	90.95 	143.372 	359.664 	269.488 	0.35142 	280.37 	179.032 	
24.0266 	-0.015996 	-0.607552 	0.663823 	0.440057 	-0.00201999 	-3.13031 	90.95 	143.372 	359.664 	269.488 	0.35142 	280.37 	179.032 	
24.0366 	-0.015996 	-0.607552 	0.663823 	0.440057 	-0.00201999 	-3.13031 	90.95 	143.372 	359.664 	269.488 	0.35142 	280.37 	179.032 	
24.0465 	-0.015996 	-0.607552 	0.663823 	0.440057 	-0.00201999 	-3.13031 	90.95 	143.372 	359.664 	269.488 	0.35142 	280.37 	179.032 	
24.0564 	-0.015996 	-0.607552 	0.663823 	0.440057 	-0.00201999 	-3.13031 	90.95 	143.372 	359.664 	269.488 	0.35142 	280.37 	179.032 	
24.0664 	-0.015996 	-0.607552 	0.663823 	0.440057 	-0.00201999 	-3.13031 	90.95 	143.372 	359.664 	269.488 	0.35142 	280.37 	179.032 	
24.0765 	-0.015996 	-0.607552 	0.663823 	0.440057 	-0.00201999 	-3.13031 	90.95 	143.372 	359.664 	269.488 	0.35142 	280.37 	179.032 	
24.0864 	-0.015996 	-0.607552 	0.663823 	0.440057 	-0.00201999 	-3.13031 	90.95 	143.372 	359.664 	269.488 	0.35142 	280.37 	179.032 	
24.0888 	-0.015996 	-0.607552 	0.663823 	0.440057 	-0.00201999 	-3.13031 	90.95 	143.372 	359.664 	269.488 	0.35142 	280.37 	179.032 	
24.099 	-0.015996 	-0.607552 	0.663823 	0.440057 	-0.00201999 	-3.13031 	90.95 	143.372 	359.664 	269.488 	0.35142 	280.37 	179.032 	
24.1092 	-0.015996 	-0.607552 	0.663823 	0.440057 	-0.00201999 	-3.13031 	90.95 	143.372 	359.664 	269.488 	0.35142 	280.37 	179.032 	
24.1191 	-0.015996 	-0.607552 	0.663823 	0.440057 	-0.00201999 	-3.13031 	90.95 	143.372 	359.664 	269.488 	0.35142 	280.37 	179.032 	
24.1292 	-0.015996 	-0.607552 	0.663823 	0.440057 	-0.00201999 	-3.13031 	90.95 	143.372 	359.664 	269.488 	0.35142 	280.37 	179.032 	
24.1391 	-0.015996 	-0.607552 	0.663823 	0.440057 	-0.00201999 	-3.13031 	90.95 	143.372 	359.664 	269.488 	0.35142 	280.37 	179.032 	
24.1491 	-0.015996 	-0.607552 	0.663823 	0.440057 	-0.00201999 	-3.13031 	90.95 	143.372 	359.664 	269.488 	0.35142 	280.37 	179.032 	
24.159 	-0.015996 	-0.607552 	0.663823 	0.440057 	-0.00201999 	-3.13031 	90.95 	143.372 	359.664 	269.488 	0.35142 	280.37 	179.032 	
24.169 	-0.015996 	-0.607552 	0.663823 	0.440057 	-0.00201999 	-3.13031 	90.95 	143.372 	359.664 	269.488 	0.35142 	280.37 	179.032 	
24.179 	-0.015996 	-0.607552 	0.663823 	0.440057 	-0.00201999 	-3.13031 	90.95 	143.372 	359.664 	269.488 	0.35142 	280.37 	179.032 	
24.1891 	-0.015996 	-0.607552 	0.663823 	0.440057 	-0.00201999 	-3.13031 	90.95 	143.372 	359.664 	269.488 	0.35142 	280.37 	179.032 	
24.1991 	-0.015996 	-0.607552 	0.663823 	0.440057 	-0.00201999 	-3.13031 	90.95 	143.372 	359.664 	269.488 	0.35142 	280.37 	179.032 	
24.209 	-0.015996 	-0.607552 	0.663823 	0.440057 	-0.00201999 	-3.13031 	90.95 	143.372 	359.664 	269.488 	0.35142 	280.37 	179.032 	
24.2191 	-0.015996 	-0.607552 	0.663823 	0.440057 	-0.00201999 	-3.13031 	90.95 	143.372 	359.664 	269.488 	0.35142 	280.37 	179.032 	
24.2291 	-0.015996 	-0.607552 	0.663823 	0.440057 	-0.00201999 	-3.13031 	90.95 	143.372 	359.664 	269.488 	0.35142 	280.37 	179.032 	
24.239 	-0.015996 	-0.607552 	0.663823 	0.440057 	-0.00201999 	-3.13031 	90.95 	143.372 	359.664 	269.488 	0.35142 	280.37 	179.032 	
24.249 	-0.015996 	-0.607552 	0.663823 	0.440057 	-0.00201999 	-3.13031 	90.95 	143.372 	359.664 	269.488 	0.35142 	280.37 	179.032 	
24.259 	-0.015996 	-0.607552 	0.663823 	0.440057 	-0.00201999 	-3.13031 	90.95 	143.372 	359.664 	269.488 	0.35142 	280.37 	179.032 	
24.2691 	-0.015996 	-0.607552 	0.663823 	0.440057 	-0.00201999 	-3.13031 	90.95 	143.372 	359.664 	269.488 	0.35142 	280.37 	179.032 	
24.279 	-0.015996 	-0.607552 	0.663823 	0.440057 	-0.00201999 	-3.13031 	90.95 	143.372 	359.664 	269.488 	0.35142 	280.37 	179.032 	
24.2891 	-0.015996 	-0.607552 	0.663823 	0.440057 	-0.00201999 	-3.13031 	90.95 	143.372 	359.664 	269.488 	0.35142 	280.37 	179.032 	
24.299 	-0.015996 	-0.607552 	0.663823 	0.440057 	-0.00201999 	-3.13031 	90.95 	143.372 	359.664 	269.488 	0.35142 	280.37 	179.032 	
24.3091 	-0.015996 	-0.607552 	0.663823 	0.440057 	-0.00201999 	-3.13031 	90.95 	143.372 	359.664 	269.488 	0.35142 	280.37 	179.032 	
24.319 	-0.015996 	-0.607552 	0.663823 	0.440057 	-0.00201999 	-3.13031 	90.95 	143.372 	359.664 	269.488 	0.35142 	280.37 	179.032 	
24.329 	-0.015996 	-0.607552 	0.663823 	0.440057 	-0.00201999 	-3.13031 	90.95 	143.372 	359.664 	269.488 	0.35142 	280.37 	179.032 	
24.339 	-0.015996 	-0.607552 	0.663823 	0.440057 	-0.00201999 	-3.13031 	90.95 	143.372 	359.664 	269.488 	0.35142 	280.37 	179.032 	
24.349 	-0.015996 	-0.607552 	0.663823 	0.440057 	-0.00201999 	-3.13031 	90.95 	143.372 	359.664 	269.488 	0.35142 	280.37 	179.032 	
24.359 	-0.015996 	-0.607552 	0.663823 	0.440057 	-0.00201999 	-3.13031 	90.95 	143.372 	359.664 	269.488 	0.35142 	280.37 	179.032 	
24.369 	-0.015996 	-0.607552 	0.663823 	0.440057 	-0.00201999 	-3.13031 	90.95 	143.372 	359.664 	269.488 	0.35142 	280.37 	179.032 	
24.3791 	-0.015996 	-0.607552 	0.663823 	0.440057 	-0.00201999 	-3.13031 	90.95 	143.372 	359.664 	269.488 	0.35142 	280.37 	179.032 	
24.3891 	-0.015996 	-0.607552 	0.663823 	0.440057 	-0.00201999 	-3.13031 	90.95 	143.372 	359.664 	269.488 	0.35142 	280.37 	179.032 	
24.399 	-0.015996 	-0.607552 	0.663823 	0.440057 	-0.00201999 	-3.13031 	90.95 	143.372 	359.664 	269.488 	0.35142 	280.37 	179.032 	
24.4092 	-0.015996 	-0.607552 	0.663823 	0.440057 	-0.00201999 	-3.13031 	90.95 	143.372 	359.664 	269.488 	0.35142 	280.37 	179.032 	
24.4191 	-0.015996 	-0.607552 	0.663823 	0.440057 	-0.00201999 	-3.13031 	90.95 	143.372 	359.664 	269.488 	0.35142 	280.37 	179.032 	
24.429 	-0.015996 	-0.607552 	0.663823 	0.440057 	-0.00201999 	-3.13031 	90.95 	143.372 	359.664 	269.488 	0.35142 	280.37 	179.032 	
24.439 	-0.015996 	-0.607552 	0.663823 	0.440057 	-0.00201999 	-3.13031 	90.95 	143.372 	359.664 	269.488 	0.35142 	280.37 	179.032 	
24.4491 	-0.015996 	-0.607552 	0.663823 	0.440057 	-0.00201999 	-3.13031 	90.95 	143.372 	359.664 	269.488 	0.35142 	280.37 	179.032 	
24.459 	-0.015996 	-0.607552 	0.663823 	0.440057 	-0.00201999 	-3.13031 	90.95 	143.372 	359.664 	269.488 	0.35142 	280.37 	179.032 	
24.4691 	-0.015996 	-0.607552 	0.663823 	0.440057 	-0.00201999 	-3.13031 	90.95 	143.372 	359.664 	269.488 	0.35142 	280.37 	179.032 	
24.479 	-0.015996 	-0.607552 	0.663823 	0.440057 	-0.00201999 	-3.13031 	90.95 	143.372 	359.664 	269.488 	0.35142 	280.37 	179.032 	
24.4891 	-0.015996 	-0.607552 	0.663823 	0.440057 	-0.00201999 	-3.13031 	90.95 	143.372 	359.664 	269.488 	0.35142 	280.37 	179.032 	
24.499 	-0.015996 	-0.607552 	0.663823 	0.440057 	-0.00201999 	-3.13031 	90.95 	143.372 	359.664 	269.488 	0.35142 	280.37 	179.032 	
24.5092 	-0.015996 	-0.607552 	0.663823 	0.440057 	-0.00201999 	-3.13031 	90.95 	143.372 	359.664 	269.488 	0.35142 	280.37 	179.032 	
24.5191 	-0.015996 	-0.607552 	0.663823 	0.440057 	-0.00201999 	-3.13031 	90.95 	143.372 	359.664 	269.488 	0.35142 	280.37 	179.032 	
24.5292 	-0.015996 	-0.607552 	0.663823 	0.440057 	-0.00201999 	-3.13031 	90.95 	143.372 	359.664 	269.488 	0.35142 	280.37 	179.032 	
24.5391 	-0.015996 	-0.607552 	0.663823 	0.440057 	-0.00201999 	-3.13031 	90.95 	143.372 	359.664 	269.488 	0.35142 	280.37 	179.032 	
24.5492 	-0.015996 	-0.607552 	0.663823 	0.440057 	-0.00201999 	-3.13031 	90.95 	143.372 	359.664 	269.488 	0.35142 	280.37 	179.032 	
24.559 	-0.015996 	-0.607552 	0.663823 	0.440057 	-0.00201999 	-3.13031 	90.95 	143.372 	359.664 	269.488 	0.35142 	280.37 	179.032 	
24.569 	-0.015996 	-0.607552 	0.663823 	0.440057 	-0.00201999 	-3.13031 	90.95 	143.372 	359.664 	269.488 	0.35142 	280.37 	179.032 	
24.579 	-0.015996 	-0.607552 	0.663823 	0.440057 	-0.00201999 	-3.13031 	90.95 	143.372 	359.664 	269.488 	0.35142 	280.37 	179.032 	
24.5891 	-0.015996 	-0.607552 	0.663823 	0.440057 	-0.00201999 	-3.13031 	90.95 	143.372 	359.664 	269.488 	0.35142 	280.37 	179.032 	
24.599 	-0.015996 	-0.607552 	0.663823 	0.440057 	-0.00201999 	-3.13031 	90.95 	143.372 	359.664 	269.488 	0.35142 	280.37 	179.032 	
24.6091 	-0.015996 	-0.607552 	0.663823 	0.440057 	-0.00201999 	-3.13031 	90.95 	143.372 	359.664 	269.488 	0.35142 	280.37 	179.032 	
24.6191 	-0.015996 	-0.607552 	0.663823 	0.440057 	-0.00201999 	-3.13031 	90.95 	143.372 	359.664 	269.488 	0.35142 	280.37 	179.032 	
24.629 	-0.015996 	-0.607552 	0.663823 	0.440057 	-0.00201999 	-3.13031 	90.95 	143.372 	359.664 	269.488 	0.35142 	280.37 	179.032 	
24.6391 	-0.015996 	-0.607552 	0.663823 	0.440057 	-0.00201999 	-3.13031 	90.95 	143.372 	359.664 	269.488 	0.35142 	280.37 	179.032 	
24.649 	-0.015996 	-0.607552 	0.663823 	0.440057 	-0.00201999 	-3.13031 	90.95 	143.372 	359.664 	269.488 	0.35142 	280.37 	179.032 	
24.659 	-0.015996 	-0.607552 	0.663823 	0.440057 	-0.00201999 	-3.13031 	90.95 	143.372 	359.664 	269.488 	0.35142 	280.37 	179.032 	
24.669 	-0.015996 	-0.607552 	0.663823 	0.440057 	-0.00201999 	-3.13031 	90.95 	143.372 	359.664 	269.488 	0.35142 	280.37 	179.032 	
24.679 	-0.015996 	-0.607552 	0.663823 	0.440057 	-0.00201999 	-3.13031 	90.95 	143.372 	359.664 	269.488 	0.35142 	280.37 	179.032 	
24.6891 	-0.015996 	-0.607552 	0.663823 	0.440057 	-0.00201999 	-3.13031 	90.95 	143.372 	359.664 	269.488 	0.35142 	280.37 	179.032 	
24.699 	-0.015996 	-0.607552 	0.663823 	0.440057 	-0.00201999 	-3.13031 	90.95 	143.372 	359.664 	269.488 	0.35142 	280.37 	179.032 	
24.709 	-0.015996 	-0.607552 	0.663823 	0.440057 	-0.00201999 	-3.13031 	90.95 	143.372 	359.664 	269.488 	0.35142 	280.37 	179.032 	
24.719 	-0.015996 	-0.607552 	0.663823 	0.440057 	-0.00201999 	-3.13031 	90.95 	143.372 	359.664 	269.488 	0.35142 	280.37 	179.032 	
24.7291 	-0.015996 	-0.607552 	0.663823 	0.440057 	-0.00201999 	-3.13031 	90.95 	143.372 	359.664 	269.488 	0.35142 	280.37 	179.032 	
24.739 	-0.015996 	-0.607552 	0.663823 	0.440057 	-0.00201999 	-3.13031 	90.95 	143.372 	359.664 	269.488 	0.35142 	280.37 	179.032 	
24.749 	-0.015996 	-0.607552 	0.663823 	0.440057 	-0.00201999 	-3.13031 	90.95 	143.372 	359.664 	269.488 	0.35142 	280.37 	179.032 	
24.7591 	-0.015996 	-0.607552 	0.663823 	0.440057 	-0.00201999 	-3.13031 	90.95 	143.372 	359.664 	269.488 	0.35142 	280.37 	179.032 	
24.7691 	-0.015996 	-0.607552 	0.663823 	0.440057 	-0.00201999 	-3.13031 	90.95 	143.372 	359.664 	269.488 	0.35142 	280.37 	179.032 	
24.779 	-0.015996 	-0.607552 	0.663823 	0.440057 	-0.00201999 	-3.13031 	90.95 	143.372 	359.664 	269.488 	0.35142 	280.37 	179.032 	
24.7892 	-0.015996 	-0.607552 	0.663823 	0.440057 	-0.00201999 	-3.13031 	90.95 	143.372 	359.664 	269.488 	0.35142 	280.37 	179.032 	
24.799 	-0.015996 	-0.607552 	0.663823 	0.440057 	-0.00201999 	-3.13031 	90.95 	143.372 	359.664 	269.488 	0.35142 	280.37 	179.032 	
24.8092 	-0.015996 	-0.607552 	0.663823 	0.440057 	-0.00201999 	-3.13031 	90.95 	143.372 	359.664 	269.488 	0.35142 	280.37 	179.032 	
24.8191 	-0.015996 	-0.607552 	0.663823 	0.440057 	-0.00201999 	-3.13031 	90.95 	143.372 	359.664 	269.488 	0.35142 	280.37 	179.032 	
24.8292 	-0.015996 	-0.607552 	0.663823 	0.440057 	-0.00201999 	-3.13031 	90.95 	143.372 	359.664 	269.488 	0.35142 	280.37 	179.032 	
24.8392 	-0.015996 	-0.607552 	0.663823 	0.440057 	-0.00201999 	-3.13031 	90.95 	143.372 	359.664 	269.488 	0.35142 	280.37 	179.032 	
24.8492 	-0.015996 	-0.607552 	0.663823 	0.440057 	-0.00201999 	-3.13031 	90.95 	143.372 	359.664 	269.488 	0.35142 	280.37 	179.032 	
24.859 	-0.015996 	-0.607552 	0.663823 	0.440057 	-0.00201999 	-3.13031 	90.95 	143.372 	359.664 	269.488 	0.35142 	280.37 	179.032 	
24.8691 	-0.015996 	-0.607552 	0.663823 	0.440057 	-0.00201999 	-3.13031 	90.95 	143.372 	359.664 	269.488 	0.35142 	280.37 	179.032 	
24.879 	-0.015996 	-0.607552 	0.663823 	0.440057 	-0.00201999 	-3.13031 	90.95 	143.372 	359.664 	269.488 	0.35142 	280.37 	179.032 	
24.8892 	-0.015996 	-0.607552 	0.663823 	0.440057 	-0.00201999 	-3.13031 	90.95 	143.372 	359.664 	269.488 	0.35142 	280.37 	179.032 	
24.899 	-0.015996 	-0.607552 	0.663823 	0.440057 	-0.00201999 	-3.13031 	90.95 	143.372 	359.664 	269.488 	0.35142 	280.37 	179.032 	
24.9091 	-0.015996 	-0.607552 	0.663823 	0.440057 	-0.00201999 	-3.13031 	90.95 	143.372 	359.664 	269.488 	0.35142 	280.37 	179.032 	
24.9192 	-0.015996 	-0.607552 	0.663823 	0.440057 	-0.00201999 	-3.13031 	90.95 	143.372 	359.664 	269.488 	0.35142 	280.37 	179.032 	
24.929 	-0.015996 	-0.607552 	0.663823 	0.440057 	-0.00201999 	-3.13031 	90.95 	143.372 	359.664 	269.488 	0.35142 	280.37 	179.032 	
24.9391 	-0.015996 	-0.607552 	0.663823 	0.440057 	-0.00201999 	-3.13031 	90.95 	143.372 	359.664 	269.488 	0.35142 	280.37 	179.032 	
24.9491 	-0.015996 	-0.607552 	0.663823 	0.440057 	-0.00201999 	-3.13031 	90.95 	143.372 	359.664 	269.488 	0.35142 	280.37 	179.032 	
24.959 	-0.015996 	-0.607552 	0.663823 	0.440057 	-0.00201999 	-3.13031 	90.95 	143.372 	359.664 	269.488 	0.35142 	280.37 	179.032 	
24.969 	-0.015996 	-0.607552 	0.663823 	0.440057 	-0.00201999 	-3.13031 	90.95 	143.372 	359.664 	269.488 	0.35142 	280.37 	179.032 	
24.979 	-0.015996 	-0.607552 	0.663823 	0.440057 	-0.00201999 	-3.13031 	90.95 	143.372 	359.664 	269.488 	0.35142 	280.37 	179.032 	
24.9892 	-0.015996 	-0.607552 	0.663823 	0.440057 	-0.00201999 	-3.13031 	90.95 	143.372 	359.664 	269.488 	0.35142 	280.37 	179.032 	
24.999 	-0.015996 	-0.607552 	0.663823 	0.440057 	-0.00201999 	-3.13031 	90.95 	143.372 	359.664 	269.488 	0.35142 	280.37 	179.032 	
25.0092 	-0.015996 	-0.607552 	0.663823 	0.440057 	-0.00201999 	-3.13031 	90.95 	143.372 	359.664 	269.488 	0.35142 	280.37 	179.032 	
25.0191 	-0.015996 	-0.607552 	0.663823 	0.440057 	-0.00201999 	-3.13031 	90.95 	143.372 	359.664 	269.488 	0.35142 	280.37 	179.032 	
25.029 	-0.015996 	-0.607552 	0.663823 	0.440057 	-0.00201999 	-3.13031 	90.95 	143.372 	359.664 	269.488 	0.35142 	280.37 	179.032 	
25.0391 	-0.015996 	-0.607552 	0.663823 	0.440057 	-0.00201999 	-3.13031 	90.95 	143.372 	359.664 	269.488 	0.35142 	280.37 	179.032 	
25.0491 	-0.015996 	-0.607552 	0.663823 	0.440057 	-0.00201999 	-3.13031 	90.95 	143.372 	359.664 	269.488 	0.35142 	280.37 	179.032 	
25.059 	-0.015996 	-0.607552 	0.663823 	0.440057 	-0.00201999 	-3.13031 	90.95 	143.372 	359.664 	269.488 	0.35142 	280.37 	179.032 	
25.069 	-0.015996 	-0.607552 	0.663823 	0.440057 	-0.00201999 	-3.13031 	90.95 	143.372 	359.664 	269.488 	0.35142 	280.37 	179.032 	
25.0791 	-0.015996 	-0.607552 	0.663823 	0.440057 	-0.00201999 	-3.13031 	90.95 	143.372 	359.664 	269.488 	0.35142 	280.37 	179.032 	
25.0892 	-0.015996 	-0.607552 	0.663823 	0.440057 	-0.00201999 	-3.13031 	90.95 	143.372 	359.664 	269.488 	0.35142 	280.37 	179.032 	
25.0991 	-0.015996 	-0.607552 	0.663823 	0.440057 	-0.00201999 	-3.13031 	90.95 	143.372 	359.664 	269.488 	0.35142 	280.37 	179.032 	
25.109 	-0.015996 	-0.607552 	0.663823 	0.440057 	-0.00201999 	-3.13031 	90.95 	143.372 	359.664 	269.488 	0.35142 	280.37 	179.032 	
25.119 	-0.015996 	-0.607552 	0.663823 	0.440057 	-0.00201999 	-3.13031 	90.95 	143.372 	359.664 	269.488 	0.35142 	280.37 	179.032 	
25.129 	-0.015996 	-0.607552 	0.663823 	0.440057 	-0.00201999 	-3.13031 	90.95 	143.372 	359.664 	269.488 	0.35142 	280.37 	179.032 	
25.139 	-0.015996 	-0.607552 	0.663823 	0.440057 	-0.00201999 	-3.13031 	90.95 	143.372 	359.664 	269.488 	0.35142 	280.37 	179.032 	
25.149 	-0.015996 	-0.607552 	0.663823 	0.440057 	-0.00201999 	-3.13031 	90.95 	143.372 	359.664 	269.488 	0.35142 	280.37 	179.032 	
25.159 	-0.015996 	-0.607552 	0.663823 	0.440057 	-0.00201999 	-3.13031 	90.95 	143.372 	359.664 	269.488 	0.35142 	280.37 	179.032 	
25.169 	-0.015996 	-0.607552 	0.663823 	0.440057 	-0.00201999 	-3.13031 	90.95 	143.372 	359.664 	269.488 	0.35142 	280.37 	179.032 	
25.1791 	-0.015996 	-0.607552 	0.663823 	0.440057 	-0.00201999 	-3.13031 	90.95 	143.372 	359.664 	269.488 	0.35142 	280.37 	179.032 	
25.189 	-0.015996 	-0.607552 	0.663823 	0.440057 	-0.00201999 	-3.13031 	90.95 	143.372 	359.664 	269.488 	0.35142 	280.37 	179.032 	
25.199 	-0.015996 	-0.607552 	0.663823 	0.440057 	-0.00201999 	-3.13031 	90.95 	143.372 	359.664 	269.488 	0.35142 	280.37 	179.032 	
25.2091 	-0.015996 	-0.607552 	0.663823 	0.440057 	-0.00201999 	-3.13031 	90.95 	143.372 	359.664 	269.488 	0.35142 	280.37 	179.032 	
25.219 	-0.015996 	-0.607552 	0.663823 	0.440057 	-0.00201999 	-3.13031 	90.95 	143.372 	359.664 	269.488 	0.35142 	280.37 	179.032 	
25.229 	-0.015996 	-0.607552 	0.663823 	0.440057 	-0.00201999 	-3.13031 	90.95 	143.372 	359.664 	269.488 	0.35142 	280.37 	179.032 	
25.239 	-0.015996 	-0.607552 	0.663823 	0.440057 	-0.00201999 	-3.13031 	90.95 	143.372 	359.664 	269.488 	0.35142 	280.37 	179.032 	
25.249 	-0.015996 	-0.607552 	0.663823 	0.440057 	-0.00201999 	-3.13031 	90.95 	143.372 	359.664 	269.488 	0.35142 	280.37 	179.032 	
25.259 	-0.015996 	-0.607552 	0.663823 	0.440057 	-0.00201999 	-3.13031 	90.95 	143.372 	359.664 	269.488 	0.35142 	280.37 	179.032 	
25.2691 	-0.015996 	-0.607552 	0.663823 	0.440057 	-0.00201999 	-3.13031 	90.95 	143.372 	359.664 	269.488 	0.35142 	280.37 	179.032 	
25.279 	-0.015996 	-0.607552 	0.663823 	0.440057 	-0.00201999 	-3.13031 	90.95 	143.372 	359.664 	269.488 	0.35142 	280.37 	179.032 	
25.289 	-0.015996 	-0.607552 	0.663823 	0.440057 	-0.00201999 	-3.13031 	90.95 	143.372 	359.664 	269.488 	0.35142 	280.37 	179.032 	
25.299 	-0.015996 	-0.607552 	0.663823 	0.440057 	-0.00201999 	-3.13031 	90.95 	143.372 	359.664 	269.488 	0.35142 	280.37 	179.032 	
25.3092 	-0.015996 	-0.607552 	0.663823 	0.440057 	-0.00201999 	-3.13031 	90.95 	143.372 	359.664 	269.488 	0.35142 	280.37 	179.032 	
25.319 	-0.015996 	-0.607552 	0.663823 	0.440057 	-0.00201999 	-3.13031 	90.95 	143.372 	359.664 	269.488 	0.35142 	280.37 	179.032 	
25.329 	-0.015996 	-0.607552 	0.663823 	0.440057 	-0.00201999 	-3.13031 	90.95 	143.372 	359.664 	269.488 	0.35142 	280.37 	179.032 	
25.339 	-0.015996 	-0.607552 	0.663823 	0.440057 	-0.00201999 	-3.13031 	90.95 	143.372 	359.664 	269.488 	0.35142 	280.37 	179.032 	
25.3491 	-0.015996 	-0.607552 	0.663823 	0.440057 	-0.00201999 	-3.13031 	90.95 	143.372 	359.664 	269.488 	0.35142 	280.37 	179.032 	
25.359 	-0.015996 	-0.607552 	0.663823 	0.440057 	-0.00201999 	-3.13031 	90.95 	143.372 	359.664 	269.488 	0.35142 	280.37 	179.032 	
25.369 	-0.015996 	-0.607552 	0.663823 	0.440057 	-0.00201999 	-3.13031 	90.95 	143.372 	359.664 	269.488 	0.35142 	280.37 	179.032 	
25.379 	-0.015996 	-0.607552 	0.663823 	0.440057 	-0.00201999 	-3.13031 	90.95 	143.372 	359.664 	269.488 	0.35142 	280.37 	179.032 	
25.3891 	-0.015996 	-0.607552 	0.663823 	0.440057 	-0.00201999 	-3.13031 	90.95 	143.372 	359.664 	269.488 	0.35142 	280.37 	179.032 	
25.399 	-0.015996 	-0.607552 	0.663823 	0.440057 	-0.00201999 	-3.13031 	90.95 	143.372 	359.664 	269.488 	0.35142 	280.37 	179.032 	
25.4091 	-0.015996 	-0.607552 	0.663823 	0.440057 	-0.00201999 	-3.13031 	90.95 	143.372 	359.664 	269.488 	0.35142 	280.37 	179.032 	
25.4191 	-0.015996 	-0.607552 	0.663823 	0.440057 	-0.00201999 	-3.13031 	90.95 	143.372 	359.664 	269.488 	0.35142 	280.37 	179.032 	
25.4291 	-0.015996 	-0.607552 	0.663823 	0.440057 	-0.00201999 	-3.13031 	90.95 	143.372 	359.664 	269.488 	0.35142 	280.37 	179.032 	
25.4391 	-0.015996 	-0.607552 	0.663823 	0.440057 	-0.00201999 	-3.13031 	90.95 	143.372 	359.664 	269.488 	0.35142 	280.37 	179.032 	
25.449 	-0.015996 	-0.607552 	0.663823 	0.440057 	-0.00201999 	-3.13031 	90.95 	143.372 	359.664 	269.488 	0.35142 	280.37 	179.032 	
25.459 	-0.015996 	-0.607552 	0.663823 	0.440057 	-0.00201999 	-3.13031 	90.95 	143.372 	359.664 	269.488 	0.35142 	280.37 	179.032 	
25.4691 	-0.015996 	-0.607552 	0.663823 	0.440057 	-0.00201999 	-3.13031 	90.95 	143.372 	359.664 	269.488 	0.35142 	280.37 	179.032 	
25.4791 	-0.015996 	-0.607552 	0.663823 	0.440057 	-0.00201999 	-3.13031 	90.95 	143.372 	359.664 	269.488 	0.35142 	280.37 	179.032 	
25.4892 	-0.015996 	-0.607552 	0.663823 	0.440057 	-0.00201999 	-3.13031 	90.95 	143.372 	359.664 	269.488 	0.35142 	280.37 	179.032 	
25.499 	-0.015996 	-0.607552 	0.663823 	0.440057 	-0.00201999 	-3.13031 	90.95 	143.372 	359.664 	269.488 	0.35142 	280.37 	179.032 	
25.5092 	-0.015996 	-0.607552 	0.663823 	0.440057 	-0.00201999 	-3.13031 	90.95 	143.372 	359.664 	269.488 	0.35142 	280.37 	179.032 	
25.5191 	-0.015996 	-0.607552 	0.663823 	0.440057 	-0.00201999 	-3.13031 	90.95 	143.372 	359.664 	269.488 	0.35142 	280.37 	179.032 	
25.5291 	-0.015996 	-0.607552 	0.663823 	0.440057 	-0.00201999 	-3.13031 	90.95 	143.372 	359.664 	269.488 	0.35142 	280.37 	179.032 	
25.5391 	-0.015996 	-0.607552 	0.663823 	0.440057 	-0.00201999 	-3.13031 	90.95 	143.372 	359.664 	269.488 	0.35142 	280.37 	179.032 	
25.549 	-0.015996 	-0.607552 	0.663823 	0.440057 	-0.00201999 	-3.13031 	90.95 	143.372 	359.664 	269.488 	0.35142 	280.37 	179.032 	
25.559 	-0.015996 	-0.607552 	0.663823 	0.440057 	-0.00201999 	-3.13031 	90.95 	143.372 	359.664 	269.488 	0.35142 	280.37 	179.032 	
25.569 	-0.015996 	-0.607552 	0.663823 	0.440057 	-0.00201999 	-3.13031 	90.95 	143.372 	359.664 	269.488 	0.35142 	280.37 	179.032 	
25.579 	-0.015996 	-0.607552 	0.663823 	0.440057 	-0.00201999 	-3.13031 	90.95 	143.372 	359.664 	269.488 	0.35142 	280.37 	179.032 	
25.5892 	-0.015996 	-0.607552 	0.663823 	0.440057 	-0.00201999 	-3.13031 	90.95 	143.372 	359.664 	269.488 	0.35142 	280.37 	179.032 	
25.599 	-0.015996 	-0.607552 	0.663823 	0.440057 	-0.00201999 	-3.13031 	90.95 	143.372 	359.664 	269.488 	0.35142 	280.37 	179.032 	
25.6091 	-0.015996 	-0.607552 	0.663823 	0.440057 	-0.00201999 	-3.13031 	90.95 	143.372 	359.664 	269.488 	0.35142 	280.37 	179.032 	
25.6191 	-0.015996 	-0.607552 	0.663823 	0.440057 	-0.00201999 	-3.13031 	90.95 	143.372 	359.664 	269.488 	0.35142 	280.37 	179.032 	
25.6291 	-0.015996 	-0.607552 	0.663823 	0.440057 	-0.00201999 	-3.13031 	90.95 	143.372 	359.664 	269.488 	0.35142 	280.37 	179.032 	
25.6391 	-0.015996 	-0.607552 	0.663823 	0.440057 	-0.00201999 	-3.13031 	90.95 	143.372 	359.664 	269.488 	0.35142 	280.37 	179.032 	
25.6491 	-0.015996 	-0.607552 	0.663823 	0.440057 	-0.00201999 	-3.13031 	90.95 	143.372 	359.664 	269.488 	0.35142 	280.37 	179.032 	
25.659 	-0.015996 	-0.607552 	0.663823 	0.440057 	-0.00201999 	-3.13031 	90.95 	143.372 	359.664 	269.488 	0.35142 	280.37 	179.032 	
25.6691 	-0.015996 	-0.607552 	0.663823 	0.440057 	-0.00201999 	-3.13031 	90.95 	143.372 	359.664 	269.488 	0.35142 	280.37 	179.032 	
25.679 	-0.015996 	-0.607552 	0.663823 	0.440057 	-0.00201999 	-3.13031 	90.95 	143.372 	359.664 	269.488 	0.35142 	280.37 	179.032 	
25.6892 	-0.015996 	-0.607552 	0.663823 	0.440057 	-0.00201999 	-3.13031 	90.95 	143.372 	359.664 	269.488 	0.35142 	280.37 	179.032 	
25.699 	-0.015996 	-0.607552 	0.663823 	0.440057 	-0.00201999 	-3.13031 	90.95 	143.372 	359.664 	269.488 	0.35142 	280.37 	179.032 	
25.7091 	-0.015996 	-0.607552 	0.663823 	0.440057 	-0.00201999 	-3.13031 	90.95 	143.372 	359.664 	269.488 	0.35142 	280.37 	179.032 	
25.719 	-0.015996 	-0.607552 	0.663823 	0.440057 	-0.00201999 	-3.13031 	90.95 	143.372 	359.664 	269.488 	0.35142 	280.37 	179.032 	
25.7291 	-0.015996 	-0.607552 	0.663823 	0.440057 	-0.00201999 	-3.13031 	90.95 	143.372 	359.664 	269.488 	0.35142 	280.37 	179.032 	
25.739 	-0.015996 	-0.607552 	0.663823 	0.440057 	-0.00201999 	-3.13031 	90.95 	143.372 	359.664 	269.488 	0.35142 	280.37 	179.032 	
25.749 	-0.015996 	-0.607552 	0.663823 	0.440057 	-0.00201999 	-3.13031 	90.95 	143.372 	359.664 	269.488 	0.35142 	280.37 	179.032 	
25.759 	-0.015996 	-0.607552 	0.663823 	0.440057 	-0.00201999 	-3.13031 	90.95 	143.372 	359.664 	269.488 	0.35142 	280.37 	179.032 	
25.769 	-0.015996 	-0.607552 	0.663823 	0.440057 	-0.00201999 	-3.13031 	90.95 	143.372 	359.664 	269.488 	0.35142 	280.37 	179.032 	
25.779 	-0.015996 	-0.607552 	0.663823 	0.440057 	-0.00201999 	-3.13031 	90.95 	143.372 	359.664 	269.488 	0.35142 	280.37 	179.032 	
25.7891 	-0.015996 	-0.607552 	0.663823 	0.440057 	-0.00201999 	-3.13031 	90.95 	143.372 	359.664 	269.488 	0.35142 	280.37 	179.032 	
25.799 	-0.015996 	-0.607552 	0.663823 	0.440057 	-0.00201999 	-3.13031 	90.95 	143.372 	359.664 	269.488 	0.35142 	280.37 	179.032 	
25.809 	-0.015996 	-0.607552 	0.663823 	0.440057 	-0.00201999 	-3.13031 	90.95 	143.372 	359.664 	269.488 	0.35142 	280.37 	179.032 	
25.819 	-0.015996 	-0.607552 	0.663823 	0.440057 	-0.00201999 	-3.13031 	90.95 	143.372 	359.664 	269.488 	0.35142 	280.37 	179.032 	
25.829 	-0.015996 	-0.607552 	0.663823 	0.440057 	-0.00201999 	-3.13031 	90.95 	143.372 	359.664 	269.488 	0.35142 	280.37 	179.032 	
25.8392 	-0.015996 	-0.607552 	0.663823 	0.440057 	-0.00201999 	-3.13031 	90.95 	143.372 	359.664 	269.488 	0.35142 	280.37 	179.032 	
25.849 	-0.015996 	-0.607552 	0.663823 	0.440057 	-0.00201999 	-3.13031 	90.95 	143.372 	359.664 	269.488 	0.35142 	280.37 	179.032 	
25.859 	-0.015996 	-0.607552 	0.663823 	0.440057 	-0.00201999 	-3.13031 	90.95 	143.372 	359.664 	269.488 	0.35142 	280.37 	179.032 	
25.869 	-0.015996 	-0.607552 	0.663823 	0.440057 	-0.00201999 	-3.13031 	90.95 	143.372 	359.664 	269.488 	0.35142 	280.37 	179.032 	
25.879 	-0.015996 	-0.607552 	0.663823 	0.440057 	-0.00201999 	-3.13031 	90.95 	143.372 	359.664 	269.488 	0.35142 	280.37 	179.032 	
25.8892 	-0.015996 	-0.607552 	0.663823 	0.440057 	-0.00201999 	-3.13031 	90.95 	143.372 	359.664 	269.488 	0.35142 	280.37 	179.032 	
25.899 	-0.015996 	-0.607552 	0.663823 	0.440057 	-0.00201999 	-3.13031 	90.95 	143.372 	359.664 	269.488 	0.35142 	280.37 	179.032 	
25.9091 	-0.015996 	-0.607552 	0.663823 	0.440057 	-0.00201999 	-3.13031 	90.95 	143.372 	359.664 	269.488 	0.35142 	280.37 	179.032 	
25.9192 	-0.015996 	-0.607552 	0.663823 	0.440057 	-0.00201999 	-3.13031 	90.95 	143.372 	359.664 	269.488 	0.35142 	280.37 	179.032 	
25.929 	-0.015996 	-0.607552 	0.663823 	0.440057 	-0.00201999 	-3.13031 	90.95 	143.372 	359.664 	269.488 	0.35142 	280.37 	179.032 	
25.9392 	-0.015996 	-0.607552 	0.663823 	0.440057 	-0.00201999 	-3.13031 	90.95 	143.372 	359.664 	269.488 	0.35142 	280.37 	179.032 	
25.9491 	-0.015996 	-0.607552 	0.663823 	0.440057 	-0.00201999 	-3.13031 	90.95 	143.372 	359.664 	269.488 	0.35142 	280.37 	179.032 	
25.959 	-0.015996 	-0.607552 	0.663823 	0.440057 	-0.00201999 	-3.13031 	90.95 	143.372 	359.664 	269.488 	0.35142 	280.37 	179.032 	
25.969 	-0.015996 	-0.607552 	0.663823 	0.440057 	-0.00201999 	-3.13031 	90.95 	143.372 	359.664 	269.488 	0.35142 	280.37 	179.032 	
25.979 	-0.015996 	-0.607552 	0.663823 	0.440057 	-0.00201999 	-3.13031 	90.95 	143.372 	359.664 	269.488 	0.35142 	280.37 	179.032 	
25.9892 	-0.015996 	-0.607552 	0.663823 	0.440057 	-0.00201999 	-3.13031 	90.95 	143.372 	359.664 	269.488 	0.35142 	280.37 	179.032 	
25.999 	-0.015996 	-0.607552 	0.663823 	0.440057 	-0.00201999 	-3.13031 	90.95 	143.372 	359.664 	269.488 	0.35142 	280.37 	179.032 	
26.0091 	-0.015996 	-0.607552 	0.663823 	0.440057 	-0.00201999 	-3.13031 	90.95 	143.372 	359.664 	269.488 	0.35142 	280.37 	179.032 	
26.019 	-0.015996 	-0.607552 	0.663823 	0.440057 	-0.00201999 	-3.13031 	90.95 	143.372 	359.664 	269.488 	0.35142 	280.37 	179.032 	
26.029 	-0.015996 	-0.607552 	0.663823 	0.440057 	-0.00201999 	-3.13031 	90.95 	143.372 	359.664 	269.488 	0.35142 	280.37 	179.032 	
26.0391 	-0.015996 	-0.607552 	0.663823 	0.440057 	-0.00201999 	-3.13031 	90.95 	143.372 	359.664 	269.488 	0.35142 	280.37 	179.032 	
26.049 	-0.015996 	-0.607552 	0.663823 	0.440057 	-0.00201999 	-3.13031 	90.95 	143.372 	359.664 	269.488 	0.35142 	280.37 	179.032 	
26.059 	-0.015996 	-0.607552 	0.663823 	0.440057 	-0.00201999 	-3.13031 	90.95 	143.372 	359.664 	269.488 	0.35142 	280.37 	179.032 	
26.069 	-0.015996 	-0.607552 	0.663823 	0.440057 	-0.00201999 	-3.13031 	90.95 	143.372 	359.664 	269.488 	0.35142 	280.37 	179.032 	
26.079 	-0.015996 	-0.607552 	0.663823 	0.440057 	-0.00201999 	-3.13031 	90.95 	143.372 	359.664 	269.488 	0.35142 	280.37 	179.032 	
26.0892 	-0.015996 	-0.607552 	0.663823 	0.440057 	-0.00201999 	-3.13031 	90.95 	143.372 	359.664 	269.488 	0.35142 	280.37 	179.032 	
26.099 	-0.015996 	-0.607552 	0.663823 	0.440057 	-0.00201999 	-3.13031 	90.95 	143.372 	359.664 	269.488 	0.35142 	280.37 	179.032 	
26.1091 	-0.015996 	-0.607552 	0.663823 	0.440057 	-0.00201999 	-3.13031 	90.95 	143.372 	359.664 	269.488 	0.35142 	280.37 	179.032 	
26.1192 	-0.015996 	-0.607552 	0.663823 	0.440057 	-0.00201999 	-3.13031 	90.95 	143.372 	359.664 	269.488 	0.35142 	280.37 	179.032 	
26.129 	-0.015996 	-0.607552 	0.663823 	0.440057 	-0.00201999 	-3.13031 	90.95 	143.372 	359.664 	269.488 	0.35142 	280.37 	179.032 	
26.139 	-0.015996 	-0.607552 	0.663823 	0.440057 	-0.00201999 	-3.13031 	90.95 	143.372 	359.664 	269.488 	0.35142 	280.37 	179.032 	
26.149 	-0.015996 	-0.607552 	0.663823 	0.440057 	-0.00201999 	-3.13031 	90.95 	143.372 	359.664 	269.488 	0.35142 	280.37 	179.032 	
26.1596 	-0.015996 	-0.607552 	0.663823 	0.440057 	-0.00201999 	-3.13031 	90.95 	143.372 	359.664 	269.488 	0.35142 	280.37 	179.032 	
26.1691 	-0.015996 	-0.607552 	0.663823 	0.440057 	-0.00201999 	-3.13031 	90.95 	143.372 	359.664 	269.488 	0.35142 	280.37 	179.032 	
26.179 	-0.015996 	-0.607552 	0.663823 	0.440057 	-0.00201999 	-3.13031 	90.95 	143.372 	359.664 	269.488 	0.35142 	280.37 	179.032 	
26.189 	-0.015996 	-0.607552 	0.663823 	0.440057 	-0.00201999 	-3.13031 	90.95 	143.372 	359.664 	269.488 	0.35142 	280.37 	179.032 	
26.199 	-0.015996 	-0.607552 	0.663823 	0.440057 	-0.00201999 	-3.13031 	90.95 	143.372 	359.664 	269.488 	0.35142 	280.37 	179.032 	
26.2091 	-0.015996 	-0.607552 	0.663823 	0.440057 	-0.00201999 	-3.13031 	90.95 	143.372 	359.664 	269.488 	0.35142 	280.37 	179.032 	
26.219 	-0.015996 	-0.607552 	0.663823 	0.440057 	-0.00201999 	-3.13031 	90.95 	143.372 	359.664 	269.488 	0.35142 	280.37 	179.032 	
26.2291 	-0.015996 	-0.607552 	0.663823 	0.440057 	-0.00201999 	-3.13031 	90.95 	143.372 	359.664 	269.488 	0.35142 	280.37 	179.032 	
26.239 	-0.015996 	-0.607552 	0.663823 	0.440057 	-0.00201999 	-3.13031 	90.95 	143.372 	359.664 	269.488 	0.35142 	280.37 	179.032 	
26.249 	-0.015996 	-0.607552 	0.663823 	0.440057 	-0.00201999 	-3.13031 	90.95 	143.372 	359.664 	269.488 	0.35142 	280.37 	179.032 	
26.259 	-0.015996 	-0.607552 	0.663823 	0.440057 	-0.00201999 	-3.13031 	90.95 	143.372 	359.664 	269.488 	0.35142 	280.37 	179.032 	
26.269 	-0.015996 	-0.607552 	0.663823 	0.440057 	-0.00201999 	-3.13031 	90.95 	143.372 	359.664 	269.488 	0.35142 	280.37 	179.032 	
26.2791 	-0.015996 	-0.607552 	0.663823 	0.440057 	-0.00201999 	-3.13031 	90.95 	143.372 	359.664 	269.488 	0.35142 	280.37 	179.032 	
26.2892 	-0.015996 	-0.607552 	0.663823 	0.440057 	-0.00201999 	-3.13031 	90.95 	143.372 	359.664 	269.488 	0.35142 	280.37 	179.032 	
26.2991 	-0.015996 	-0.607552 	0.663823 	0.440057 	-0.00201999 	-3.13031 	90.95 	143.372 	359.664 	269.488 	0.35142 	280.37 	179.032 	
26.309 	-0.015996 	-0.607552 	0.663823 	0.440057 	-0.00201999 	-3.13031 	90.95 	143.372 	359.664 	269.488 	0.35142 	280.37 	179.032 	
26.3191 	-0.015996 	-0.607552 	0.663823 	0.440057 	-0.00201999 	-3.13031 	90.95 	143.372 	359.664 	269.488 	0.35142 	280.37 	179.032 	
26.329 	-0.015996 	-0.607552 	0.663823 	0.440057 	-0.00201999 	-3.13031 	90.95 	143.372 	359.664 	269.488 	0.35142 	280.37 	179.032 	
26.3391 	-0.015996 	-0.607552 	0.663823 	0.440057 	-0.00201999 	-3.13031 	90.95 	143.372 	359.664 	269.488 	0.35142 	280.37 	179.032 	
26.349 	-0.015996 	-0.607552 	0.663823 	0.440057 	-0.00201999 	-3.13031 	90.95 	143.372 	359.664 	269.488 	0.35142 	280.37 	179.032 	
26.359 	-0.015996 	-0.607552 	0.663823 	0.440057 	-0.00201999 	-3.13031 	90.95 	143.372 	359.664 	269.488 	0.35142 	280.37 	179.032 	
26.3691 	-0.015996 	-0.607552 	0.663823 	0.440057 	-0.00201999 	-3.13031 	90.95 	143.372 	359.664 	269.488 	0.35142 	280.37 	179.032 	
26.379 	-0.015996 	-0.607552 	0.663823 	0.440057 	-0.00201999 	-3.13031 	90.95 	143.372 	359.664 	269.488 	0.35142 	280.37 	179.032 	
26.389 	-0.015996 	-0.607552 	0.663823 	0.440057 	-0.00201999 	-3.13031 	90.95 	143.372 	359.664 	269.488 	0.35142 	280.37 	179.032 	
26.399 	-0.015996 	-0.607552 	0.663823 	0.440057 	-0.00201999 	-3.13031 	90.95 	143.372 	359.664 	269.488 	0.35142 	280.37 	179.032 	
26.409 	-0.015996 	-0.607552 	0.663823 	0.440057 	-0.00201999 	-3.13031 	90.95 	143.372 	359.664 	269.488 	0.35142 	280.37 	179.032 	
26.419 	-0.015996 	-0.607552 	0.663823 	0.440057 	-0.00201999 	-3.13031 	90.95 	143.372 	359.664 	269.488 	0.35142 	280.37 	179.032 	
26.429 	-0.015996 	-0.607552 	0.663823 	0.440057 	-0.00201999 	-3.13031 	90.95 	143.372 	359.664 	269.488 	0.35142 	280.37 	179.032 	
26.4392 	-0.015996 	-0.607552 	0.663823 	0.440057 	-0.00201999 	-3.13031 	90.95 	143.372 	359.664 	269.488 	0.35142 	280.37 	179.032 	
26.4491 	-0.015996 	-0.607552 	0.663823 	0.440057 	-0.00201999 	-3.13031 	90.95 	143.372 	359.664 	269.488 	0.35142 	280.37 	179.032 	
26.459 	-0.015996 	-0.607552 	0.663823 	0.440057 	-0.00201999 	-3.13031 	90.95 	143.372 	359.664 	269.488 	0.35142 	280.37 	179.032 	
26.4691 	-0.015996 	-0.607552 	0.663823 	0.440057 	-0.00201999 	-3.13031 	90.95 	143.372 	359.664 	269.488 	0.35142 	280.37 	179.032 	
26.4791 	-0.015996 	-0.607552 	0.663823 	0.440057 	-0.00201999 	-3.13031 	90.95 	143.372 	359.664 	269.488 	0.35142 	280.37 	179.032 	
26.489 	-0.015996 	-0.607552 	0.663823 	0.440057 	-0.00201999 	-3.13031 	90.95 	143.372 	359.664 	269.488 	0.35142 	280.37 	179.032 	
26.499 	-0.015996 	-0.607552 	0.663823 	0.440057 	-0.00201999 	-3.13031 	90.95 	143.372 	359.664 	269.488 	0.35142 	280.37 	179.032 	
26.509 	-0.015996 	-0.607552 	0.663823 	0.440057 	-0.00201999 	-3.13031 	90.95 	143.372 	359.664 	269.488 	0.35142 	280.37 	179.032 	
26.5191 	-0.015996 	-0.607552 	0.663823 	0.440057 	-0.00201999 	-3.13031 	90.95 	143.372 	359.664 	269.488 	0.35142 	280.37 	179.032 	
26.5292 	-0.015996 	-0.607552 	0.663823 	0.440057 	-0.00201999 	-3.13031 	90.95 	143.372 	359.664 	269.488 	0.35142 	280.37 	179.032 	
26.539 	-0.015996 	-0.607552 	0.663823 	0.440057 	-0.00201999 	-3.13031 	90.95 	143.372 	359.664 	269.488 	0.35142 	280.37 	179.032 	
26.549 	-0.015996 	-0.607552 	0.663823 	0.440057 	-0.00201999 	-3.13031 	90.95 	143.372 	359.664 	269.488 	0.35142 	280.37 	179.032 	
26.559 	-0.015996 	-0.607552 	0.663823 	0.440057 	-0.00201999 	-3.13031 	90.95 	143.372 	359.664 	269.488 	0.35142 	280.37 	179.032 	
26.569 	-0.015996 	-0.607552 	0.663823 	0.440057 	-0.00201999 	-3.13031 	90.95 	143.372 	359.664 	269.488 	0.35142 	280.37 	179.032 	
26.579 	-0.015996 	-0.607552 	0.663823 	0.440057 	-0.00201999 	-3.13031 	90.95 	143.372 	359.664 	269.488 	0.35142 	280.37 	179.032 	
26.5892 	-0.015996 	-0.607552 	0.663823 	0.440057 	-0.00201999 	-3.13031 	90.95 	143.372 	359.664 	269.488 	0.35142 	280.37 	179.032 	
26.599 	-0.015996 	-0.607552 	0.663823 	0.440057 	-0.00201999 	-3.13031 	90.95 	143.372 	359.664 	269.488 	0.35142 	280.37 	179.032 	
26.6092 	-0.015996 	-0.607552 	0.663823 	0.440057 	-0.00201999 	-3.13031 	90.95 	143.372 	359.664 	269.488 	0.35142 	280.37 	179.032 	
26.6192 	-0.015996 	-0.607552 	0.663823 	0.440057 	-0.00201999 	-3.13031 	90.95 	143.372 	359.664 	269.488 	0.35142 	280.37 	179.032 	
26.6291 	-0.015996 	-0.607552 	0.663823 	0.440057 	-0.00201999 	-3.13031 	90.95 	143.372 	359.664 	269.488 	0.35142 	280.37 	179.032 	
26.6391 	-0.015996 	-0.607552 	0.663823 	0.440057 	-0.00201999 	-3.13031 	90.95 	143.372 	359.664 	269.488 	0.35142 	280.37 	179.032 	
26.6492 	-0.015996 	-0.607552 	0.663823 	0.440057 	-0.00201999 	-3.13031 	90.95 	143.372 	359.664 	269.488 	0.35142 	280.37 	179.032 	
26.659 	-0.015996 	-0.607552 	0.663823 	0.440057 	-0.00201999 	-3.13031 	90.95 	143.372 	359.664 	269.488 	0.35142 	280.37 	179.032 	
26.6691 	-0.015996 	-0.607552 	0.663823 	0.440057 	-0.00201999 	-3.13031 	90.95 	143.372 	359.664 	269.488 	0.35142 	280.37 	179.032 	
26.6791 	-0.015996 	-0.607552 	0.663823 	0.440057 	-0.00201999 	-3.13031 	90.95 	143.372 	359.664 	269.488 	0.35142 	280.37 	179.032 	
26.6892 	-0.015996 	-0.607552 	0.663823 	0.440057 	-0.00201999 	-3.13031 	90.95 	143.372 	359.664 	269.488 	0.35142 	280.37 	179.032 	
26.699 	-0.015996 	-0.607552 	0.663823 	0.440057 	-0.00201999 	-3.13031 	90.95 	143.372 	359.664 	269.488 	0.35142 	280.37 	179.032 	
26.7091 	-0.015996 	-0.607552 	0.663823 	0.440057 	-0.00201999 	-3.13031 	90.95 	143.372 	359.664 	269.488 	0.35142 	280.37 	179.032 	
26.7191 	-0.015996 	-0.607552 	0.663823 	0.440057 	-0.00201999 	-3.13031 	90.95 	143.372 	359.664 	269.488 	0.35142 	280.37 	179.032 	
26.7291 	-0.015996 	-0.607552 	0.663823 	0.440057 	-0.00201999 	-3.13031 	90.95 	143.372 	359.664 	269.488 	0.35142 	280.37 	179.032 	
26.739 	-0.015996 	-0.607552 	0.663823 	0.440057 	-0.00201999 	-3.13031 	90.95 	143.372 	359.664 	269.488 	0.35142 	280.37 	179.032 	
26.749 	-0.015996 	-0.607552 	0.663823 	0.440057 	-0.00201999 	-3.13031 	90.95 	143.372 	359.664 	269.488 	0.35142 	280.37 	179.032 	
26.759 	-0.015996 	-0.607552 	0.663823 	0.440057 	-0.00201999 	-3.13031 	90.95 	143.372 	359.664 	269.488 	0.35142 	280.37 	179.032 	
26.7691 	-0.015996 	-0.607552 	0.663823 	0.440057 	-0.00201999 	-3.13031 	90.95 	143.372 	359.664 	269.488 	0.35142 	280.37 	179.032 	
26.7791 	-0.015996 	-0.607552 	0.663823 	0.440057 	-0.00201999 	-3.13031 	90.95 	143.372 	359.664 	269.488 	0.35142 	280.37 	179.032 	
26.7891 	-0.015996 	-0.607552 	0.663823 	0.440057 	-0.00201999 	-3.13031 	90.95 	143.372 	359.664 	269.488 	0.35142 	280.37 	179.032 	
26.799 	-0.015996 	-0.607552 	0.663823 	0.440057 	-0.00201999 	-3.13031 	90.95 	143.372 	359.664 	269.488 	0.35142 	280.37 	179.032 	
26.8091 	-0.015996 	-0.607552 	0.663823 	0.440057 	-0.00201999 	-3.13031 	90.95 	143.372 	359.664 	269.488 	0.35142 	280.37 	179.032 	
26.8191 	-0.015996 	-0.607552 	0.663823 	0.440057 	-0.00201999 	-3.13031 	90.95 	143.372 	359.664 	269.488 	0.35142 	280.37 	179.032 	
26.8291 	-0.015996 	-0.607552 	0.663823 	0.440057 	-0.00201999 	-3.13031 	90.95 	143.372 	359.664 	269.488 	0.35142 	280.37 	179.032 	
26.839 	-0.015996 	-0.607552 	0.663823 	0.440057 	-0.00201999 	-3.13031 	90.95 	143.372 	359.664 	269.488 	0.35142 	280.37 	179.032 	
26.849 	-0.015996 	-0.607552 	0.663823 	0.440057 	-0.00201999 	-3.13031 	90.95 	143.372 	359.664 	269.488 	0.35142 	280.37 	179.032 	
26.859 	-0.015996 	-0.607552 	0.663823 	0.440057 	-0.00201999 	-3.13031 	90.95 	143.372 	359.664 	269.488 	0.35142 	280.37 	179.032 	
26.8691 	-0.015996 	-0.607552 	0.663823 	0.440057 	-0.00201999 	-3.13031 	90.95 	143.372 	359.664 	269.488 	0.35142 	280.37 	179.032 	
26.8791 	-0.015996 	-0.607552 	0.663823 	0.440057 	-0.00201999 	-3.13031 	90.95 	143.372 	359.664 	269.488 	0.35142 	280.37 	179.032 	
26.8892 	-0.015996 	-0.607552 	0.663823 	0.440057 	-0.00201999 	-3.13031 	90.95 	143.372 	359.664 	269.488 	0.35142 	280.37 	179.032 	
26.899 	-0.015996 	-0.607552 	0.663823 	0.440057 	-0.00201999 	-3.13031 	90.95 	143.372 	359.664 	269.488 	0.35142 	280.37 	179.032 	
26.9091 	-0.015996 	-0.607552 	0.663823 	0.440057 	-0.00201999 	-3.13031 	90.95 	143.372 	359.664 	269.488 	0.35142 	280.37 	179.032 	
26.9191 	-0.015996 	-0.607552 	0.663823 	0.440057 	-0.00201999 	-3.13031 	90.95 	143.372 	359.664 	269.488 	0.35142 	280.37 	179.032 	
26.929 	-0.015996 	-0.607552 	0.663823 	0.440057 	-0.00201999 	-3.13031 	90.95 	143.372 	359.664 	269.488 	0.35142 	280.37 	179.032 	
26.939 	-0.015996 	-0.607552 	0.663823 	0.440057 	-0.00201999 	-3.13031 	90.95 	143.372 	359.664 	269.488 	0.35142 	280.37 	179.032 	
26.949 	-0.015996 	-0.607552 	0.663823 	0.440057 	-0.00201999 	-3.13031 	90.95 	143.372 	359.664 	269.488 	0.35142 	280.37 	179.032 	
26.959 	-0.015996 	-0.607552 	0.663823 	0.440057 	-0.00201999 	-3.13031 	90.95 	143.372 	359.664 	269.488 	0.35142 	280.37 	179.032 	
26.969 	-0.015996 	-0.607552 	0.663823 	0.440057 	-0.00201999 	-3.13031 	90.95 	143.372 	359.664 	269.488 	0.35142 	280.37 	179.032 	
26.979 	-0.015996 	-0.607552 	0.663823 	0.440057 	-0.00201999 	-3.13031 	90.95 	143.372 	359.664 	269.488 	0.35142 	280.37 	179.032 	
26.989 	-0.015996 	-0.607552 	0.663823 	0.440057 	-0.00201999 	-3.13031 	90.95 	143.372 	359.664 	269.488 	0.35142 	280.37 	179.032 	
26.999 	-0.015996 	-0.607552 	0.663823 	0.440057 	-0.00201999 	-3.13031 	90.95 	143.372 	359.664 	269.488 	0.35142 	280.37 	179.032 	
27.0092 	-0.015996 	-0.607552 	0.663823 	0.440057 	-0.00201999 	-3.13031 	90.95 	143.372 	359.664 	269.488 	0.35142 	280.37 	179.032 	
27.019 	-0.015996 	-0.607552 	0.663823 	0.440057 	-0.00201999 	-3.13031 	90.95 	143.372 	359.664 	269.488 	0.35142 	280.37 	179.032 	
27.0291 	-0.015996 	-0.607552 	0.663823 	0.440057 	-0.00201999 	-3.13031 	90.95 	143.372 	359.664 	269.488 	0.35142 	280.37 	179.032 	
27.0392 	-0.015996 	-0.607552 	0.663823 	0.440057 	-0.00201999 	-3.13031 	90.95 	143.372 	359.664 	269.488 	0.35142 	280.37 	179.032 	
27.049 	-0.015996 	-0.607552 	0.663823 	0.440057 	-0.00201999 	-3.13031 	90.95 	143.372 	359.664 	269.488 	0.35142 	280.37 	179.032 	
27.059 	-0.015996 	-0.607552 	0.663823 	0.440057 	-0.00201999 	-3.13031 	90.95 	143.372 	359.664 	269.488 	0.35142 	280.37 	179.032 	
27.0691 	-0.015996 	-0.607552 	0.663823 	0.440057 	-0.00201999 	-3.13031 	90.95 	143.372 	359.664 	269.488 	0.35142 	280.37 	179.032 	
27.0791 	-0.015996 	-0.607552 	0.663823 	0.440057 	-0.00201999 	-3.13031 	90.95 	143.372 	359.664 	269.488 	0.35142 	280.37 	179.032 	
27.0892 	-0.015996 	-0.607552 	0.663823 	0.440057 	-0.00201999 	-3.13031 	90.95 	143.372 	359.664 	269.488 	0.35142 	280.37 	179.032 	
27.099 	-0.015996 	-0.607552 	0.663823 	0.440057 	-0.00201999 	-3.13031 	90.95 	143.372 	359.664 	269.488 	0.35142 	280.37 	179.032 	
27.109 	-0.015996 	-0.607552 	0.663823 	0.440057 	-0.00201999 	-3.13031 	90.95 	143.372 	359.664 	269.488 	0.35142 	280.37 	179.032 	
27.1191 	-0.015996 	-0.607552 	0.663823 	0.440057 	-0.00201999 	-3.13031 	90.95 	143.372 	359.664 	269.488 	0.35142 	280.37 	179.032 	
27.1291 	-0.015996 	-0.607552 	0.663823 	0.440057 	-0.00201999 	-3.13031 	90.95 	143.372 	359.664 	269.488 	0.35142 	280.37 	179.032 	
27.1392 	-0.015996 	-0.607552 	0.663823 	0.440057 	-0.00201999 	-3.13031 	90.95 	143.372 	359.664 	269.488 	0.35142 	280.37 	179.032 	
27.149 	-0.015996 	-0.607552 	0.663823 	0.440057 	-0.00201999 	-3.13031 	90.95 	143.372 	359.664 	269.488 	0.35142 	280.37 	179.032 	
27.159 	-0.015996 	-0.607552 	0.663823 	0.440057 	-0.00201999 	-3.13031 	90.95 	143.372 	359.664 	269.488 	0.35142 	280.37 	179.032 	
27.169 	-0.015996 	-0.607552 	0.663823 	0.440057 	-0.00201999 	-3.13031 	90.95 	143.372 	359.664 	269.488 	0.35142 	280.37 	179.032 	
