RISC-NYUAD/HeavyPayloadDrone/projects/kinova-ros/devel/lib/ne_kinova_demo/VulcanTrajectory/Vulcan1_Vicon_y19m11d13h19min13.csv
time (NSec) 	Kinova Tip Position (t_x) 	t_y 	t_z 	Kinova Tip Angle (theta_x) 	Kinova Tip Angle (theta_y) 	Kinova Tip Angle (theta_z) 	Kinova Joint Angle (j1) 	(j2) 	(j3) 	(j4) 	Kinova Joint Angle (j5) 	(j6) 	(j7)
1.5721 	0.142589 	-0.163769 	1.15961 	0.219125 	0.765925 	-0.940345 	52.2104 	174.27 	273.867 	159.989 	212.08 	237.132 	327.656 	
1.67389 	0.150122 	-0.168265 	1.15618 	0.230632 	0.782979 	-0.959262 	52.4666 	174.008 	273.674 	160.154 	212.267 	237.347 	327.831 	
1.77531 	0.170967 	-0.182019 	1.14352 	0.279624 	0.839558 	-1.04362 	53.3189 	173.131 	272.736 	161.069 	214.043 	239.209 	329.392 	
1.87652 	0.190814 	-0.196421 	1.1293 	0.339666 	0.895893 	-1.14032 	54.2792 	172.012 	271.741 	162.052 	216.046 	241.204 	331.581 	
1.97896 	0.209205 	-0.211068 	1.11412 	0.410075 	0.949238 	-1.2462 	55.2746 	171.027 	270.757 	163.05 	218.039 	243.211 	333.552 	
2.08079 	0.226104 	-0.225883 	1.09805 	0.492716 	0.998885 	-1.36317 	56.2634 	170.012 	269.759 	164.06 	220.023 	245.209 	335.544 	
2.18248 	0.241482 	-0.240794 	1.08119 	0.589544 	1.04394 	-1.49323 	57.3703 	168.996 	268.772 	165.041 	222.035 	247.198 	337.551 	
2.28401 	0.255321 	-0.255729 	1.06363 	0.702261 	1.08332 	-1.63811 	58.3576 	167.893 	267.66 	166.161 	224.232 	249.404 	339.547 	
2.38532 	0.267611 	-0.270622 	1.04547 	0.8317 	1.11574 	-1.79866 	59.3621 	166.874 	266.661 	167.16 	226.234 	251.427 	341.759 	
2.48784 	0.278351 	-0.285406 	1.0268 	0.976934 	1.13987 	-1.97399 	60.3633 	165.861 	265.667 	168.164 	228.236 	253.433 	343.736 	
2.5912 	0.287547 	-0.300019 	1.0077 	1.13446 	1.15454 	-2.16059 	61.3605 	164.854 	264.661 	169.162 	230.221 	255.419 	345.765 	
2.69414 	0.295215 	-0.314402 	0.988264 	1.29808 	1.159 	-2.3523 	62.4552 	163.738 	263.573 	170.26 	232.432 	257.392 	347.755 	
2.79613 	0.301377 	-0.3285 	0.968586 	1.46011 	1.1532 	-2.54142 	63.4592 	162.736 	262.567 	171.263 	234.417 	259.64 	349.946 	
2.89773 	0.306062 	-0.342262 	0.948748 	1.61339 	1.13786 	-2.7208 	64.4629 	161.729 	261.57 	172.26 	236.432 	261.633 	351.965 	
3.00069 	0.309305 	-0.355641 	0.928832 	1.75305 	1.11421 	-2.88557 	65.4576 	160.713 	260.566 	173.271 	238.449 	263.601 	353.968 	
3.10335 	0.311147 	-0.368594 	0.908917 	1.87701 	1.08373 	-3.03362 	66.562 	159.613 	259.576 	174.265 	240.431 	265.6 	355.96 	
3.20595 	0.311634 	-0.381082 	0.889078 	1.98536 	1.04788 	3.11813 	67.5617 	158.601 	258.481 	175.371 	242.636 	267.828 	358.159 	
3.30797 	0.310818 	-0.393073 	0.869386 	2.07951 	1.00795 	3.00193 	68.5662 	157.583 	257.473 	176.368 	244.626 	269.815 	360.15 	
3.41004 	0.308753 	-0.404534 	0.849906 	2.16137 	0.964982 	2.89907 	69.5626 	156.578 	256.48 	177.365 	246.623 	271.79 	362.163 	
3.52614 	0.305498 	-0.41544 	0.8307 	2.23291 	0.919814 	2.80761 	70.6641 	155.468 	255.482 	178.372 	248.637 	273.799 	364.148 	
3.62817 	0.301114 	-0.425769 	0.811825 	2.29592 	0.8731 	2.72578 	71.7616 	154.353 	254.283 	179.562 	251.02 	276.223 	366.548 	
3.73014 	0.295664 	-0.435502 	0.793333 	2.35196 	0.825348 	2.65208 	72.7665 	153.355 	253.28 	180.571 	253.02 	278.185 	368.563 	
3.83367 	0.289215 	-0.444624 	0.775271 	2.40229 	0.776957 	2.58524 	73.8667 	152.239 	252.19 	181.568 	255.028 	280.175 	370.547 	
3.9436 	0.281832 	-0.453126 	0.75768 	2.44799 	0.728241 	2.52427 	74.8667 	151.24 	251.192 	182.669 	257.222 	282.403 	372.754 	
4.04552 	0.273583 	-0.460997 	0.740596 	2.4899 	0.679451 	2.46834 	75.9723 	150.124 	250.079 	183.78 	259.429 	284.437 	374.754 	
4.148 	0.258695 	-0.481502 	0.715824 	2.52001 	0.600414 	2.39424 	76.9653 	149.124 	249.096 	184.765 	261.434 	284.889 	376.961 	
4.25263 	0.251768 	-0.493452 	0.706495 	2.51862 	0.567682 	2.36718 	77.9624 	148.119 	248.091 	185.766 	263.421 	284.936 	378.944 	
4.35609 	0.244381 	-0.505111 	0.697347 	2.51714 	0.535448 	2.34003 	79.0754 	147.003 	246.985 	186.864 	265.637 	284.94 	380.961 	
4.45779 	0.23655 	-0.516475 	0.688386 	2.51556 	0.503705 	2.3128 	80.0688 	145.996 	245.988 	187.863 	267.636 	284.943 	383.182 	
4.55942 	0.227443 	-0.52863 	0.678753 	2.51369 	0.469345 	2.28281 	81.0773 	144.988 	244.986 	188.871 	269.645 	284.944 	385.191 	
4.66098 	0.219622 	-0.538304 	0.671048 	2.51204 	0.441659 	2.25826 	82.0757 	143.987 	243.994 	189.867 	271.612 	284.945 	387.16 	
4.76376 	0.210554 	-0.548762 	0.662678 	2.51007 	0.411337 	2.23098 	83.1656 	142.89 	242.903 	190.854 	273.612 	284.946 	389.164 	
4.86608 	0.201104 	-0.558913 	0.654512 	2.50796 	0.381467 	2.20374 	84.1568 	141.878 	241.904 	191.946 	275.796 	284.947 	391.349 	
4.96804 	0.191283 	-0.568752 	0.64655 	2.50569 	0.352037 	2.17656 	85.163 	140.868 	240.914 	192.946 	277.799 	284.947 	393.352 	
5.07016 	0.181104 	-0.578276 	0.638795 	2.50327 	0.323033 	2.14945 	86.1585 	139.864 	239.913 	193.946 	279.791 	284.947 	395.342 	
5.17589 	0.170579 	-0.587482 	0.631247 	2.5007 	0.294439 	2.12244 	87.2721 	138.744 	238.799 	195.047 	282.023 	284.947 	397.368 	
5.27867 	0.15972 	-0.596365 	0.623905 	2.49797 	0.266241 	2.09556 	88.2655 	137.74 	237.823 	196.04 	283.991 	284.948 	399.544 	
5.38095 	0.148535 	-0.604922 	0.61677 	2.49508 	0.238419 	2.06881 	89.2618 	136.738 	236.818 	197.031 	285.982 	284.948 	401.549 	
5.48347 	0.14238 	-0.611929 	0.609839 	2.49355 	0.21623 	2.03512 	89.9197 	135.63 	235.822 	198.02 	287.982 	284.948 	403.54 	
5.58547 	0.141441 	-0.617547 	0.603111 	2.49291 	0.199692 	1.99461 	89.972 	134.625 	234.722 	199.126 	290.18 	284.948 	405.746 	
5.68854 	0.140433 	-0.623053 	0.596584 	2.4915 	0.183544 	1.95448 	89.9772 	133.626 	233.724 	200.118 	292.167 	284.948 	407.746 	
5.79126 	0.139351 	-0.628452 	0.590254 	2.48938 	0.167781 	1.91472 	89.9778 	132.623 	232.721 	201.13 	294.176 	284.948 	409.748 	
5.89416 	0.138194 	-0.633745 	0.584118 	2.48656 	0.152399 	1.87535 	89.9837 	131.511 	231.626 	202.217 	296.154 	284.948 	411.741 	
5.99629 	0.136958 	-0.638934 	0.578173 	2.48307 	0.137389 	1.83638 	89.9835 	130.51 	230.633 	203.218 	298.357 	284.948 	413.961 	
6.09816 	0.135638 	-0.644023 	0.572413 	2.47897 	0.122742 	1.79783 	89.9878 	129.506 	229.634 	204.213 	300.379 	284.948 	415.945 	
6.20063 	0.13423 	-0.64901 	0.566835 	2.47427 	0.108447 	1.75972 	89.9878 	128.501 	228.636 	205.213 	302.347 	284.948 	417.942 	
6.30351 	0.132728 	-0.653899 	0.561433 	2.46901 	0.0944872 	1.72205 	89.9927 	127.39 	227.639 	206.204 	304.363 	284.948 	419.963 	
6.40611 	0.131127 	-0.658687 	0.556203 	2.46323 	0.0808471 	1.68485 	89.9934 	126.386 	226.538 	207.303 	306.555 	284.948 	422.16 	
6.50826 	0.129419 	-0.663375 	0.551137 	2.45696 	0.0675077 	1.64813 	89.9965 	125.388 	225.535 	208.305 	308.559 	284.948 	424.151 	
6.61056 	0.1276 	-0.667962 	0.54623 	2.45024 	0.0544485 	1.61191 	89.9974 	124.381 	224.541 	209.295 	310.553 	284.948 	426.153 	
6.7137 	0.12566 	-0.672448 	0.541475 	2.44311 	0.0416467 	1.57621 	89.9984 	123.279 	223.441 	210.298 	312.528 	284.948 	428.146 	
6.81627 	0.123594 	-0.676831 	0.536863 	2.4356 	0.0290775 	1.54103 	89.9987 	122.278 	222.447 	211.384 	314.754 	284.948 	430.366 	
6.91928 	0.121393 	-0.681107 	0.532389 	2.42775 	0.0167145 	1.5064 	89.9989 	121.269 	221.436 	212.387 	316.744 	284.948 	432.342 	
7.02121 	0.119049 	-0.685276 	0.528044 	2.4196 	0.00453025 	1.47232 	89.9993 	120.272 	220.445 	213.382 	318.74 	284.948 	434.352 	
7.12324 	0.116554 	-0.689335 	0.523819 	2.41119 	-0.00750559 	1.43882 	89.9992 	119.165 	219.439 	214.384 	320.736 	284.948 	436.362 	
7.22645 	0.113899 	-0.693279 	0.519707 	2.40255 	-0.0194232 	1.4059 	89.9995 	118.162 	218.346 	215.472 	322.955 	284.948 	438.543 	
7.32931 	0.111077 	-0.697107 	0.515697 	2.39373 	-0.0312545 	1.37358 	89.9997 	117.16 	217.341 	216.468 	324.93 	284.948 	440.553 	
7.43134 	0.108078 	-0.700813 	0.511782 	2.38477 	-0.0430321 	1.34186 	89.9998 	116.158 	216.352 	217.467 	326.942 	284.948 	442.545 	
7.53348 	0.104894 	-0.704394 	0.50795 	2.37571 	-0.0547893 	1.31076 	90 	115.055 	215.243 	218.464 	328.92 	284.948 	444.561 	
7.64021 	0.101517 	-0.707844 	0.504192 	2.36658 	-0.0665603 	1.28028 	90 	114.047 	214.249 	219.562 	331.146 	284.948 	446.736 	
7.74293 	0.0979388 	-0.71116 	0.500498 	2.35742 	-0.0783789 	1.25043 	90.0001 	113.046 	213.238 	220.564 	333.146 	284.948 	448.753 	
7.84569 	0.0937609 	-0.714645 	0.496496 	2.34738 	-0.0914753 	1.21833 	90.0002 	111.946 	212.136 	221.66 	335.313 	284.948 	450.947 	
7.9479 	0.0897346 	-0.71766 	0.4929 	2.33831 	-0.103506 	1.18982 	90.0002 	110.934 	211.134 	222.674 	337.347 	284.948 	452.987 	
8.05129 	0.0859192 	-0.720242 	0.48969 	2.33024 	-0.114464 	1.16471 	90.0003 	109.939 	210.124 	223.666 	339.361 	284.948 	454.967 	
8.15457 	0.0767649 	-0.725513 	0.482599 	2.31277 	-0.13938 	1.11078 	90.0002 	108.849 	209.039 	224.75 	341.505 	284.948 	456.734 	
8.25749 	0.071827 	-0.727893 	0.479054 	2.30436 	-0.152193 	1.08478 	90.0004 	107.823 	208.019 	225.762 	343.551 	284.948 	459.188 	
8.35969 	0.0666418 	-0.730092 	0.475493 	2.29622 	-0.165282 	1.05943 	90.0004 	106.824 	207.024 	226.758 	345.537 	284.949 	461.168 	
8.46141 	0.0612052 	-0.732102 	0.471905 	2.2884 	-0.178677 	1.03473 	90.0004 	105.823 	206.026 	227.762 	347.551 	284.949 	463.176 	
8.56289 	0.0555137 	-0.733915 	0.468276 	2.28094 	-0.192405 	1.01067 	90.0005 	104.739 	205.015 	228.764 	349.549 	284.949 	465.185 	
8.66544 	0.048956 	-0.735671 	0.464225 	2.27321 	-0.20792 	0.98495 	90.0005 	103.738 	203.925 	229.842 	351.713 	284.949 	467.342 	
8.76809 	0.0433573 	-0.736913 	0.460853 	2.26729 	-0.220957 	0.964485 	90.0005 	102.731 	202.933 	230.84 	353.72 	284.949 	469.352 	
8.87096 	0.0368901 	-0.738079 	0.457035 	2.26118 	-0.235826 	0.942358 	90.0005 	101.731 	201.924 	231.837 	355.716 	284.949 	471.336 	
8.97544 	0.0301637 	-0.739009 	0.45313 	2.25562 	-0.251117 	0.920876 	90.0006 	100.621 	200.81 	232.954 	357.7 	284.949 	473.34 	
9.07696 	0.0234309 	-0.73971 	0.44904 	2.25088 	-0.265856 	0.89983 	90.0007 	99.6137 	199.808 	233.948 	359.843 	284.949 	475.573 	
9.17973 	0.0221104 	-0.740614 	0.442899 	2.2516 	-0.258743 	0.874623 	90.0049 	98.6306 	198.812 	234.938 	360.511 	284.949 	477.537 	
9.28198 	0.0230405 	-0.741567 	0.435924 	2.25443 	-0.24224 	0.847791 	90.0046 	97.632 	197.821 	235.939 	360.571 	284.949 	479.547 	
9.38375 	0.0238162 	-0.742469 	0.428287 	2.2574 	-0.224452 	0.818776 	90.0048 	96.5292 	196.709 	237.038 	360.594 	284.949 	481.542 	
9.48598 	0.0242573 	-0.743097 	0.422064 	2.25972 	-0.210194 	0.795421 	90.0051 	95.5254 	195.719 	238.031 	360.601 	284.949 	483.746 	
9.58813 	0.0245426 	-0.74368 	0.415173 	2.26217 	-0.194675 	0.769872 	90.0049 	94.5266 	194.71 	239.036 	360.603 	284.949 	485.733 	
9.69133 	0.024612 	-0.744145 	0.408302 	2.26448 	-0.179508 	0.744741 	90.005 	93.5293 	193.709 	240.031 	360.605 	284.949 	487.739 	
9.79424 	0.0244653 	-0.744492 	0.401449 	2.26664 	-0.164705 	0.720022 	90.005 	92.4195 	192.603 	241.134 	360.607 	284.949 	489.766 	
9.89633 	0.0241028 	-0.744725 	0.39461 	2.26866 	-0.150278 	0.695711 	90.0049 	91.427 	191.604 	242.126 	360.609 	284.95 	491.945 	
9.99844 	0.023525 	-0.744843 	0.387781 	2.27052 	-0.136239 	0.671802 	90.005 	90.4275 	190.601 	243.123 	360.609 	284.95 	493.94 	
10.1007 	0.0227325 	-0.744847 	0.380957 	2.27223 	-0.1226 	0.648288 	90.0049 	89.4291 	189.606 	244.133 	360.61 	284.95 	495.941 	
10.204 	0.0217264 	-0.744737 	0.374137 	2.27378 	-0.109372 	0.625165 	90.005 	88.3327 	188.596 	245.13 	360.611 	284.95 	497.948 	
10.3075 	0.0205079 	-0.744514 	0.367314 	2.27518 	-0.0965684 	0.602424 	90.0051 	87.3361 	187.496 	246.226 	360.611 	284.95 	500.153 	
10.4092 	0.0190785 	-0.744177 	0.360487 	2.27641 	-0.0842003 	0.580062 	90.0049 	86.3275 	186.49 	247.232 	360.612 	284.95 	502.142 	
10.5111 	0.0174399 	-0.743725 	0.353651 	2.27749 	-0.0722796 	0.558068 	90.005 	85.3258 	185.485 	248.23 	360.612 	284.95 	504.155 	
10.6134 	0.0155942 	-0.743157 	0.346803 	2.27842 	-0.0608179 	0.536438 	90.005 	84.2251 	184.487 	249.231 	360.613 	284.95 	506.163 	
10.7165 	0.0135436 	-0.742472 	0.339939 	2.27919 	-0.0498268 	0.515161 	90.005 	83.23 	183.379 	250.33 	360.614 	284.95 	508.35 	
10.8191 	0.0112906 	-0.741667 	0.333056 	2.27981 	-0.0393171 	0.49423 	90.005 	82.2271 	182.378 	251.325 	360.615 	284.95 	510.347 	
10.9212 	0.00883802 	-0.74074 	0.326151 	2.28029 	-0.0293001 	0.473635 	90.005 	81.2339 	181.376 	252.323 	360.616 	284.95 	512.36 	
11.0231 	0.00618879 	-0.73969 	0.319221 	2.28063 	-0.0197864 	0.453367 	90.005 	80.2328 	180.373 	253.327 	360.618 	284.95 	514.364 	
11.1253 	0.00334617 	-0.738512 	0.312264 	2.28083 	-0.0107865 	0.433414 	90.005 	79.1362 	179.27 	254.43 	360.623 	284.95 	516.355 	
11.2283 	0.000313624 	-0.737205 	0.305276 	2.28091 	-0.00231021 	0.413767 	90.0049 	78.1354 	178.265 	255.424 	360.625 	284.95 	518.56 	
11.331 	-0.00290514 	-0.735765 	0.298256 	2.28087 	0.00563268 	0.394412 	90.005 	77.143 	177.266 	256.432 	360.628 	284.95 	520.566 	
11.4332 	-0.00630621 	-0.734188 	0.291203 	2.28073 	0.013033 	0.375339 	90.005 	76.1466 	176.255 	257.436 	360.633 	284.951 	522.564 	
11.5355 	-0.00988543 	-0.732471 	0.284113 	2.28048 	0.0198821 	0.356534 	90.005 	75.0379 	175.153 	258.532 	360.643 	284.951 	524.558 	
11.641 	-0.0136384 	-0.730609 	0.276986 	2.28015 	0.0261715 	0.337983 	90.005 	74.0344 	174.148 	259.535 	360.655 	284.951 	526.754 	
11.7454 	-0.017962 	-0.728389 	0.269103 	2.2797 	0.0324348 	0.317855 	90.005 	72.9261 	173.044 	260.531 	360.662 	284.951 	528.77 	
11.8469 	-0.0216473 	-0.726435 	0.262618 	2.27928 	0.0370424 	0.301589 	90.005 	71.9403 	172.033 	261.636 	360.668 	284.951 	530.983 	
11.9487 	-0.0258934 	-0.724113 	0.255376 	2.27876 	0.0416102 	0.283717 	90.005 	70.9508 	171.04 	262.632 	360.672 	284.951 	532.957 	
12.0506 	-0.0348432 	-0.718978 	0.240775 	2.27763 	0.0489818 	0.248541 	90.005 	69.9433 	170.04 	263.629 	360.674 	284.951 	534.962 	
12.1534 	-0.0395359 	-0.716156 	0.233418 	2.27705 	0.0517763 	0.231205 	90.005 	68.9604 	169.037 	264.629 	360.676 	284.951 	536.959 	
12.2557 	-0.0443664 	-0.713156 	0.226024 	2.27647 	0.0539714 	0.21751 	90.005 	67.8575 	167.928 	265.727 	360.677 	284.951 	539.061 	
12.3579 	-0.0493286 	-0.709974 	0.218596 	2.27593 	0.0555645 	0.231457 	90.005 	66.8553 	166.916 	266.744 	360.679 	284.951 	539.681 	
12.4596 	-0.0544166 	-0.706606 	0.211135 	2.27542 	0.0565535 	0.24942 	90.005 	65.858 	165.916 	267.738 	360.68 	284.951 	539.753 	
12.5617 	-0.0592996 	-0.704032 	0.198895 	2.28677 	0.0601346 	0.268416 	90.005 	64.8631 	164.913 	268.41 	360.681 	284.951 	539.761 	
12.6646 	-0.0629059 	-0.702321 	0.186995 	2.30152 	0.0644304 	0.283574 	90.005 	63.7822 	163.82 	268.522 	360.682 	284.951 	539.763 	
12.7671 	-0.0668947 	-0.700297 	0.174732 	2.31643 	0.0691849 	0.300425 	90.0051 	62.8056 	162.812 	268.538 	360.683 	284.951 	539.764 	
12.8699 	-0.0708644 	-0.6991 	0.169279 	2.32149 	0.0739114 	0.317277 	90.005 	62.2831 	161.813 	268.538 	360.684 	284.951 	539.765 	
12.9751 	-0.0748136 	-0.698518 	0.168164 	2.32018 	0.0786114 	0.334136 	90.0051 	62.1979 	160.697 	268.539 	360.685 	284.951 	539.765 	
13.0772 	-0.0787402 	-0.697904 	0.166987 	2.3188 	0.0832887 	0.351007 	90.0051 	62.1967 	159.702 	268.543 	360.685 	284.951 	539.766 	
13.1797 	-0.082643 	-0.697259 	0.165749 	2.31734 	0.087942 	0.367892 	90.0052 	62.1957 	158.702 	268.543 	360.685 	284.951 	539.766 	
13.2824 	-0.0865209 	-0.696583 	0.164452 	2.3158 	0.0925701 	0.38479 	90.0051 	62.1955 	157.709 	268.543 	360.686 	284.951 	539.766 	
13.3841 	-0.0907564 	-0.695803 	0.162955 	2.31401 	0.0976303 	0.403395 	90.0051 	62.1954 	156.606 	268.544 	360.686 	284.951 	539.766 	
13.4859 	-0.0941971 	-0.695138 	0.161676 	2.31247 	0.101745 	0.418631 	90.0051 	62.1952 	155.598 	268.544 	360.687 	284.951 	539.767 	
13.5879 	-0.0979931 	-0.694369 	0.1602 	2.3107 	0.106289 	0.435575 	90.0051 	62.1952 	154.599 	268.544 	360.687 	284.951 	539.767 	
13.6904 	-0.101759 	-0.69357 	0.158665 	2.30884 	0.110803 	0.452536 	90.0051 	62.1951 	153.591 	268.544 	360.687 	284.951 	539.767 	
13.7933 	-0.105495 	-0.692742 	0.157072 	2.3069 	0.115284 	0.469513 	90.0051 	62.1951 	152.587 	268.544 	360.688 	284.951 	539.767 	
13.8953 	-0.109199 	-0.691883 	0.155421 	2.30489 	0.119733 	0.486508 	90.0051 	62.1951 	151.486 	268.544 	360.688 	284.951 	539.767 	
13.9972 	-0.112869 	-0.690995 	0.153713 	2.3028 	0.124147 	0.503522 	90.0052 	62.195 	150.479 	268.544 	360.689 	284.951 	539.767 	
14.0991 	-0.116506 	-0.690077 	0.151948 	2.30064 	0.128524 	0.520554 	90.0052 	62.1951 	149.484 	268.545 	360.689 	284.951 	539.767 	
14.2014 	-0.120107 	-0.689131 	0.150128 	2.2984 	0.132865 	0.537606 	90.0051 	62.195 	148.478 	268.545 	360.689 	284.951 	539.767 	
14.3046 	-0.123672 	-0.688156 	0.148251 	2.29608 	0.137167 	0.554677 	90.0052 	62.195 	147.372 	268.545 	360.69 	284.951 	539.767 	
14.407 	-0.127199 	-0.687152 	0.14632 	2.29369 	0.141429 	0.571768 	90.0051 	62.195 	146.375 	268.545 	360.69 	284.951 	539.767 	
14.5091 	-0.130688 	-0.686121 	0.144334 	2.29122 	0.14565 	0.588881 	90.0051 	62.195 	145.364 	268.545 	360.691 	284.951 	539.767 	
14.6113 	-0.134137 	-0.685061 	0.142294 	2.28868 	0.149828 	0.606014 	90.0051 	62.195 	144.37 	268.545 	360.691 	284.951 	539.768 	
14.7147 	-0.137546 	-0.683974 	0.140202 	2.28606 	0.153963 	0.623169 	90.0051 	62.195 	143.257 	268.545 	360.692 	284.951 	539.768 	
14.8173 	-0.140913 	-0.68286 	0.138056 	2.28337 	0.158053 	0.640346 	90.0051 	62.195 	142.265 	268.545 	360.692 	284.951 	539.768 	
14.9191 	-0.144237 	-0.681719 	0.135859 	2.28061 	0.162097 	0.657546 	90.0051 	62.195 	141.252 	268.546 	360.693 	284.951 	539.768 	
15.021 	-0.147518 	-0.680552 	0.133611 	2.27778 	0.166093 	0.674768 	90.0051 	62.195 	140.255 	268.546 	360.696 	284.951 	539.768 	
15.123 	-0.150753 	-0.679359 	0.131312 	2.27488 	0.17004 	0.692013 	90.0051 	62.195 	139.246 	268.546 	360.715 	284.951 	539.768 	
15.2258 	-0.153944 	-0.67814 	0.128963 	2.2719 	0.173937 	0.709281 	90.0051 	62.195 	138.155 	268.546 	360.734 	284.951 	539.768 	
15.3285 	-0.157087 	-0.676895 	0.126565 	2.26886 	0.177783 	0.726573 	90.0051 	62.1951 	137.144 	268.546 	360.741 	284.951 	539.768 	
15.4311 	-0.160183 	-0.675626 	0.124119 	2.26574 	0.181577 	0.743889 	90.0052 	62.195 	136.148 	268.546 	360.744 	284.951 	539.768 	
15.5331 	-0.16323 	-0.674332 	0.121625 	2.26256 	0.185317 	0.761229 	90.0051 	62.1951 	135.143 	268.546 	360.746 	284.951 	539.768 	
15.6406 	-0.166228 	-0.673014 	0.119084 	2.25931 	0.189002 	0.778593 	90.0051 	62.1951 	134.039 	268.546 	360.749 	284.951 	539.768 	
15.7439 	-0.169175 	-0.671672 	0.116497 	2.25599 	0.192632 	0.795982 	90.0051 	62.1951 	133.037 	268.547 	360.75 	284.951 	539.768 	
15.8465 	-0.172071 	-0.670307 	0.113865 	2.25261 	0.196203 	0.813395 	90.0051 	62.1951 	131.924 	268.547 	360.752 	284.951 	539.768 	
15.9501 	-0.174915 	-0.668918 	0.111188 	2.24916 	0.199717 	0.830833 	90.0051 	62.1951 	130.927 	268.547 	360.753 	284.951 	539.768 	
16.0514 	-0.177706 	-0.667507 	0.108468 	2.24565 	0.203171 	0.848295 	90.0051 	62.1951 	129.917 	268.547 	360.755 	284.951 	539.768 	
16.1544 	-0.183125 	-0.66462 	0.102899 	2.23843 	0.209896 	0.883294 	90.0051 	62.1951 	128.925 	268.548 	360.756 	284.951 	539.768 	
16.2575 	-0.185751 	-0.663144 	0.100053 	2.23473 	0.213164 	0.900829 	90.0051 	62.1951 	127.805 	268.548 	360.757 	284.951 	539.768 	
16.3592 	-0.188321 	-0.661647 	0.0971659 	2.23097 	0.216368 	0.918389 	90.0052 	62.1951 	126.808 	268.549 	360.758 	284.951 	539.768 	
16.4609 	-0.190834 	-0.660131 	0.0942398 	2.22715 	0.219508 	0.935973 	90.0052 	62.1951 	125.812 	268.549 	360.758 	284.951 	539.768 	
16.5628 	-0.193289 	-0.658594 	0.0912752 	2.22327 	0.222581 	0.953582 	90.0052 	62.1951 	124.795 	268.551 	360.759 	284.951 	539.768 	
16.6658 	-0.195685 	-0.657038 	0.088273 	2.21933 	0.225587 	0.971215 	90.0052 	62.1951 	123.713 	268.553 	360.759 	284.951 	539.768 	
16.7683 	-0.198022 	-0.655463 	0.085234 	2.21534 	0.228525 	0.988873 	90.0051 	62.1951 	122.712 	268.554 	360.759 	284.951 	539.768 	
16.8712 	-0.200299 	-0.653869 	0.0821593 	2.21129 	0.231393 	1.00655 	90.0051 	62.1951 	121.7 	268.554 	360.76 	284.951 	539.768 	
16.9751 	-0.202515 	-0.652258 	0.0790497 	2.20718 	0.234191 	1.02426 	90.0051 	62.1951 	120.586 	268.555 	360.76 	284.951 	539.768 	
17.0773 	-0.204669 	-0.650629 	0.0759062 	2.20303 	0.236918 	1.04199 	90.0051 	62.1951 	119.584 	268.555 	360.76 	284.951 	539.768 	
17.1801 	-0.206762 	-0.648983 	0.0727298 	2.19882 	0.239573 	1.05974 	90.0051 	62.1951 	118.579 	268.555 	360.761 	284.951 	539.768 	
17.283 	-0.208792 	-0.647321 	0.0695213 	2.19456 	0.242155 	1.07751 	90.0051 	62.1951 	117.602 	268.555 	360.761 	284.951 	539.768 	
17.385 	-0.210951 	-0.645474 	0.0659563 	2.18982 	0.24491 	1.09709 	90.0051 	62.1952 	116.489 	268.556 	360.761 	284.951 	539.768 	
17.4868 	-0.21266 	-0.643949 	0.0630124 	2.18589 	0.247097 	1.11313 	90.0051 	62.1952 	115.494 	268.556 	360.762 	284.951 	539.768 	
17.5886 	-0.214498 	-0.64224 	0.0597139 	2.18149 	0.249454 	1.13097 	90.0052 	62.1952 	114.484 	268.556 	360.762 	284.951 	539.768 	
17.6914 	-0.216271 	-0.640517 	0.0563874 	2.17704 	0.251735 	1.14883 	90.0052 	62.1952 	113.485 	268.556 	360.762 	284.951 	539.768 	
17.7945 	-0.217978 	-0.63878 	0.0530339 	2.17255 	0.253938 	1.16671 	90.0052 	62.1952 	112.38 	268.557 	360.762 	284.951 	539.768 	
17.8964 	-0.219619 	-0.63703 	0.0496545 	2.16801 	0.256063 	1.18461 	90.0052 	62.1952 	111.382 	268.557 	360.762 	284.951 	539.768 	
17.9983 	-0.221193 	-0.635266 	0.04625 	2.16344 	0.25811 	1.20253 	90.0052 	62.1952 	110.381 	268.557 	360.763 	284.951 	539.768 	
18.1003 	-0.2227 	-0.633491 	0.0428216 	2.15882 	0.260076 	1.22047 	90.0051 	62.1952 	109.377 	268.558 	360.763 	284.951 	539.768 	
18.2036 	-0.224139 	-0.631704 	0.0393704 	2.15417 	0.261963 	1.23843 	90.0051 	62.1952 	108.379 	268.558 	360.763 	284.951 	539.768 	
18.3063 	-0.225511 	-0.629905 	0.0358973 	2.14948 	0.263768 	1.25641 	90.0051 	62.1952 	107.268 	268.559 	360.763 	284.951 	539.768 	
18.4088 	-0.226814 	-0.628096 	0.0324035 	2.14475 	0.265491 	1.27441 	90.0051 	62.1952 	106.273 	268.559 	360.763 	284.951 	539.768 	
18.5107 	-0.228048 	-0.626277 	0.02889 	2.13999 	0.267132 	1.29242 	90.0051 	62.1952 	105.274 	268.565 	360.763 	284.951 	539.768 	
18.6128 	-0.229213 	-0.624448 	0.0253578 	2.1352 	0.26869 	1.31044 	90.0052 	62.1953 	104.28 	268.569 	360.764 	284.951 	539.768 	
18.7157 	-0.230308 	-0.622611 	0.0218082 	2.13038 	0.270165 	1.32848 	90.0052 	62.1953 	103.178 	268.581 	360.764 	284.951 	539.768 	
18.8182 	-0.231333 	-0.620765 	0.018242 	2.12553 	0.271555 	1.34654 	90.0052 	62.1953 	102.181 	268.587 	360.764 	284.951 	539.768 	
18.9203 	-0.232288 	-0.618911 	0.0146604 	2.12065 	0.272861 	1.36461 	90.0052 	62.1953 	101.166 	268.589 	360.764 	284.95 	539.768 	
19.0224 	-0.233173 	-0.617049 	0.0110646 	2.11575 	0.274081 	1.38269 	90.0052 	62.1953 	100.174 	268.589 	360.764 	284.95 	539.768 	
19.1248 	-0.233986 	-0.615181 	0.00745553 	2.11082 	0.275216 	1.40079 	90.0052 	62.1953 	99.0716 	268.59 	360.764 	284.95 	539.768 	
19.2277 	-0.234729 	-0.613307 	0.00383441 	2.10587 	0.276265 	1.41889 	90.0051 	62.1953 	98.068 	268.59 	360.764 	284.95 	539.769 	
19.3304 	-0.235401 	-0.611427 	0.000202253 	2.1009 	0.277228 	1.43701 	90.0051 	62.1953 	97.0712 	268.591 	360.765 	284.95 	539.769 	
19.4327 	-0.236 	-0.609542 	-0.00343975 	2.09591 	0.278103 	1.45513 	90.0052 	62.1953 	96.0613 	268.591 	360.765 	284.95 	539.769 	
19.535 	-0.236529 	-0.607653 	-0.0070906 	2.09091 	0.278892 	1.47327 	90.0051 	62.1953 	94.9599 	268.592 	360.765 	284.95 	539.769 	
19.6422 	-0.236985 	-0.60576 	-0.0107491 	2.08589 	0.279593 	1.49141 	90.0052 	62.1954 	93.9596 	268.592 	360.765 	284.95 	539.769 	
19.7457 	-0.23737 	-0.603863 	-0.0144141 	2.08086 	0.280207 	1.50956 	90.0052 	62.1954 	92.8608 	268.592 	360.765 	284.95 	539.769 	
19.8481 	-0.237682 	-0.601964 	-0.0180846 	2.07581 	0.280733 	1.52771 	90.0052 	62.1954 	91.8646 	268.593 	360.765 	284.95 	539.769 	
19.9499 	-0.237922 	-0.600063 	-0.0217594 	2.07076 	0.28117 	1.54587 	90.0052 	62.1954 	90.8555 	268.593 	360.765 	284.95 	539.769 	
20.0515 	-0.23809 	-0.59816 	-0.0254374 	2.06569 	0.28152 	1.56403 	90.0052 	62.1954 	89.8623 	268.594 	360.766 	284.95 	539.769 	
20.1539 	-0.23821 	-0.594351 	-0.0327985 	2.05555 	0.281953 	1.60037 	90.0052 	62.1954 	88.8639 	268.594 	360.766 	284.95 	539.769 	
20.257 	-0.238161 	-0.592447 	-0.0364794 	2.05048 	0.282037 	1.61854 	90.0052 	62.1954 	87.7519 	268.594 	360.766 	284.95 	539.769 	
20.3586 	-0.238039 	-0.590544 	-0.040159 	2.0454 	0.282032 	1.63671 	90.0052 	62.1955 	86.7509 	268.595 	360.766 	284.95 	539.769 	
20.4604 	-0.237846 	-0.588642 	-0.0438362 	2.04032 	0.281939 	1.65488 	90.0051 	62.1955 	85.7492 	268.595 	360.766 	284.95 	539.769 	
20.5623 	-0.237549 	-0.586552 	-0.047877 	2.03474 	0.281734 	1.67487 	90.0052 	62.1955 	84.75 	268.595 	360.766 	284.95 	539.769 	
20.6647 	-0.237242 	-0.584844 	-0.0511789 	2.03018 	0.281487 	1.69122 	90.0052 	62.1955 	83.6624 	268.596 	360.766 	284.949 	539.769 	
20.7675 	-0.236832 	-0.582949 	-0.0548422 	2.02512 	0.281128 	1.70938 	90.0052 	62.1955 	82.6622 	268.596 	360.766 	284.949 	539.769 	
20.87 	-0.23635 	-0.581058 	-0.0584986 	2.02007 	0.280681 	1.72754 	90.0052 	62.1956 	81.6706 	268.597 	360.766 	284.949 	539.769 	
20.9755 	-0.235797 	-0.579172 	-0.062147 	2.01502 	0.280146 	1.74569 	90.0052 	62.1956 	80.5468 	268.598 	360.766 	284.949 	539.769 	
21.0775 	-0.235171 	-0.57729 	-0.0657863 	2.00999 	0.279523 	1.76384 	90.0052 	62.1956 	79.5638 	268.601 	360.766 	284.949 	539.769 	
21.1809 	-0.234475 	-0.575413 	-0.0694154 	2.00497 	0.278812 	1.78198 	90.0052 	62.1956 	78.5615 	268.602 	360.766 	284.949 	539.769 	
21.2833 	-0.233707 	-0.573543 	-0.0730331 	1.99997 	0.278014 	1.80012 	90.0052 	62.1956 	77.5689 	268.602 	360.766 	284.949 	539.769 	
21.3854 	-0.232868 	-0.571678 	-0.0766385 	1.99499 	0.277129 	1.81824 	90.0052 	62.1956 	76.4653 	268.603 	360.767 	284.949 	539.769 	
21.4871 	-0.231959 	-0.569821 	-0.0802303 	1.99002 	0.276157 	1.83635 	90.0052 	62.1957 	75.467 	268.603 	360.767 	284.949 	539.769 	
21.5887 	-0.230979 	-0.567972 	-0.0838076 	1.98507 	0.275099 	1.85446 	90.0052 	62.1957 	74.4654 	268.603 	360.767 	284.949 	539.769 	
21.6916 	-0.229929 	-0.566131 	-0.0873691 	1.98015 	0.273955 	1.87255 	90.0052 	62.1957 	73.4703 	268.604 	360.767 	284.949 	539.769 	
21.7947 	-0.228809 	-0.564298 	-0.0909139 	1.97525 	0.272726 	1.89063 	90.0052 	62.1957 	72.3727 	268.604 	360.767 	284.949 	539.769 	
21.8967 	-0.227619 	-0.562475 	-0.0944408 	1.97037 	0.271411 	1.9087 	90.0052 	62.1958 	71.3643 	268.605 	360.767 	284.949 	539.769 	
21.9988 	-0.226361 	-0.560662 	-0.0979487 	1.96553 	0.270012 	1.92675 	90.0052 	62.1958 	70.3681 	268.605 	360.767 	284.949 	539.769 	
22.1007 	-0.225034 	-0.558859 	-0.101437 	1.96071 	0.268528 	1.94479 	90.0052 	62.1958 	69.3693 	268.606 	360.767 	284.949 	539.769 	
22.2037 	-0.223638 	-0.557068 	-0.104904 	1.95592 	0.266961 	1.96282 	90.0052 	62.1958 	68.3762 	268.606 	360.767 	284.949 	539.769 	
22.3065 	-0.222175 	-0.555287 	-0.108348 	1.95116 	0.265312 	1.98083 	90.0052 	62.1959 	67.2734 	268.608 	360.767 	284.948 	539.769 	
22.4086 	-0.220644 	-0.553519 	-0.11177 	1.94644 	0.263579 	1.99882 	90.0051 	62.1959 	66.2798 	268.61 	360.767 	284.948 	539.769 	
22.5107 	-0.219046 	-0.551764 	-0.115167 	1.94175 	0.261766 	2.0168 	90.0052 	62.1959 	65.283 	268.615 	360.767 	284.948 	539.769 	
22.6129 	-0.217382 	-0.550021 	-0.118539 	1.9371 	0.259871 	2.03475 	90.0052 	62.1959 	64.2782 	268.621 	360.767 	284.948 	539.769 	
22.7161 	-0.215652 	-0.548293 	-0.121885 	1.93249 	0.257896 	2.05269 	90.0052 	62.1959 	63.1819 	268.633 	360.767 	284.948 	539.769 	
22.8194 	-0.213856 	-0.546578 	-0.125204 	1.92792 	0.255841 	2.07061 	90.0052 	62.1959 	62.181 	268.636 	360.767 	284.948 	539.769 	
22.9218 	-0.211995 	-0.544878 	-0.128494 	1.92339 	0.253707 	2.08851 	90.0052 	62.196 	61.178 	268.637 	360.767 	284.948 	539.769 	
23.0236 	-0.21007 	-0.543194 	-0.131755 	1.9189 	0.251495 	2.10639 	90.0052 	62.196 	60.182 	268.638 	360.767 	284.948 	539.769 	
23.126 	-0.208081 	-0.541525 	-0.134985 	1.91446 	0.249206 	2.12425 	90.0052 	62.196 	59.0864 	268.639 	360.767 	284.948 	539.769 	
23.2287 	-0.206029 	-0.539872 	-0.138185 	1.91006 	0.246841 	2.14209 	90.0052 	62.196 	58.082 	268.639 	360.767 	284.948 	539.769 	
23.3314 	-0.203915 	-0.538237 	-0.141352 	1.90571 	0.2444 	2.1599 	90.0052 	62.1961 	57.0934 	268.639 	360.767 	284.948 	539.769 	
23.4335 	-0.201739 	-0.536618 	-0.144486 	1.9014 	0.241884 	2.1777 	90.0052 	62.1961 	56.0984 	268.64 	360.767 	284.948 	539.769 	
23.5356 	-0.199501 	-0.535017 	-0.147585 	1.89715 	0.239294 	2.19547 	90.0052 	62.1961 	55.0018 	268.64 	360.767 	284.948 	539.769 	
23.6419 	-0.197203 	-0.533435 	-0.15065 	1.89295 	0.236631 	2.21322 	90.0052 	62.1961 	54.0052 	268.64 	360.767 	284.948 	539.769 	
23.7451 	-0.194845 	-0.531871 	-0.153678 	1.8888 	0.233897 	2.23094 	90.0052 	62.1962 	52.8972 	268.641 	360.767 	284.948 	539.769 	
23.847 	-0.192428 	-0.530326 	-0.15667 	1.8847 	0.231091 	2.24865 	90.0052 	62.1962 	51.9062 	268.641 	360.767 	284.948 	539.769 	
23.9499 	-0.189701 	-0.52865 	-0.159917 	1.88025 	0.227923 	2.26809 	90.0053 	62.1962 	50.8898 	268.641 	360.767 	284.948 	539.769 	
24.0515 	-0.187163 	-0.527147 	-0.162828 	1.87627 	0.224971 	2.28574 	90.0053 	62.1962 	49.9023 	268.641 	360.767 	284.948 	539.769 	
24.1538 	-0.182183 	-0.52435 	-0.168248 	1.86886 	0.219176 	2.31922 	90.0053 	62.1963 	48.9059 	268.641 	360.767 	284.948 	539.769 	
24.2569 	-0.179482 	-0.522908 	-0.171041 	1.86505 	0.21603 	2.3368 	90.0053 	62.1963 	47.8042 	268.642 	360.767 	284.948 	539.769 	
24.3588 	-0.176726 	-0.521488 	-0.173792 	1.86129 	0.212819 	2.35436 	90.0053 	62.1963 	46.8031 	268.642 	360.767 	284.948 	539.769 	
24.4607 	-0.173917 	-0.520091 	-0.1765 	1.8576 	0.209544 	2.37189 	90.0052 	62.1964 	45.8063 	268.642 	360.767 	284.948 	539.769 	
24.5628 	-0.171054 	-0.518716 	-0.179164 	1.85396 	0.206206 	2.3894 	90.0053 	62.1964 	44.8142 	268.642 	360.767 	284.947 	539.769 	
24.6661 	-0.16814 	-0.517365 	-0.181783 	1.85039 	0.202806 	2.40688 	90.0052 	62.1964 	43.7271 	268.643 	360.767 	284.947 	539.769 	
24.7682 	-0.165175 	-0.516037 	-0.184356 	1.84689 	0.199346 	2.42434 	90.0052 	62.1965 	42.7334 	268.643 	360.767 	284.947 	539.769 	
24.8702 	-0.16216 	-0.514734 	-0.186883 	1.84345 	0.195827 	2.44177 	90.0053 	62.1965 	41.7268 	268.644 	360.767 	284.947 	539.769 	
24.9755 	-0.159096 	-0.513455 	-0.189364 	1.84007 	0.192249 	2.45918 	90.0053 	62.1965 	40.6187 	268.644 	360.767 	284.947 	539.769 	
25.0775 	-0.155984 	-0.5122 	-0.191796 	1.83676 	0.188614 	2.47656 	90.0053 	62.1965 	39.6242 	268.645 	360.767 	284.947 	539.769 	
25.1808 	-0.152824 	-0.510971 	-0.19418 	1.83352 	0.184923 	2.49393 	90.0054 	62.1966 	38.6333 	268.645 	360.767 	284.947 	539.769 	
25.2844 	-0.149618 	-0.509767 	-0.196514 	1.83034 	0.181178 	2.51126 	90.0054 	62.1966 	37.6407 	268.645 	360.767 	284.947 	539.769 	
25.3864 	-0.146366 	-0.50859 	-0.198798 	1.82723 	0.177379 	2.52857 	90.0054 	62.1966 	36.5459 	268.646 	360.767 	284.947 	539.769 	
25.488 	-0.143071 	-0.507438 	-0.201032 	1.8242 	0.173528 	2.54586 	90.0054 	62.1967 	35.5453 	268.646 	360.767 	284.947 	539.769 	
25.5901 	-0.139731 	-0.506313 	-0.203214 	1.82123 	0.169625 	2.56313 	90.0053 	62.1967 	34.5539 	268.647 	360.767 	284.947 	539.769 	
25.6926 	-0.13635 	-0.505216 	-0.205344 	1.81833 	0.165673 	2.58037 	90.0054 	62.1967 	33.5481 	268.647 	360.767 	284.947 	539.769 	
25.7957 	-0.132927 	-0.504145 	-0.207422 	1.81551 	0.161672 	2.59759 	90.0054 	62.1967 	32.4608 	268.648 	360.767 	284.947 	539.77 	
25.8973 	-0.129464 	-0.503102 	-0.209446 	1.81276 	0.157624 	2.61478 	90.0054 	62.1967 	31.4588 	268.649 	360.767 	284.947 	539.77 	
25.9991 	-0.125962 	-0.502088 	-0.211416 	1.81008 	0.153529 	2.63196 	90.0054 	62.1967 	30.4679 	268.649 	360.767 	284.947 	539.77 	
26.1011 	-0.122421 	-0.501101 	-0.213331 	1.80747 	0.14939 	2.64911 	90.0055 	62.1968 	29.4678 	268.649 	360.767 	284.947 	539.77 	
26.2036 	-0.118844 	-0.500143 	-0.215192 	1.80494 	0.145207 	2.66624 	90.0055 	62.1968 	28.4662 	268.65 	360.767 	284.947 	539.77 	
26.3064 	-0.11523 	-0.499214 	-0.216997 	1.80248 	0.140982 	2.68335 	90.0055 	62.1968 	27.3686 	268.65 	360.767 	284.947 	539.77 	
26.4084 	-0.111582 	-0.498314 	-0.218745 	1.80009 	0.136716 	2.70043 	90.0056 	62.1968 	26.3697 	268.65 	360.767 	284.947 	539.77 	
26.5103 	-0.1079 	-0.497443 	-0.220437 	1.79778 	0.13241 	2.7175 	90.0056 	62.1968 	25.3816 	268.65 	360.767 	284.947 	539.77 	
26.6122 	-0.104185 	-0.496603 	-0.222071 	1.79555 	0.128066 	2.73455 	90.0055 	62.1969 	24.3763 	268.65 	360.767 	284.947 	539.77 	
26.7151 	-0.100438 	-0.495792 	-0.223647 	1.79339 	0.123685 	2.75158 	90.0055 	62.1969 	23.2855 	268.65 	360.767 	284.947 	539.77 	
26.8185 	-0.0966617 	-0.495011 	-0.225166 	1.79131 	0.119268 	2.76859 	90.0055 	62.1969 	22.2917 	268.65 	360.767 	284.947 	539.77 	
26.9209 	-0.0928558 	-0.494261 	-0.226625 	1.78931 	0.114816 	2.78558 	90.0054 	62.1969 	21.2901 	268.651 	360.767 	284.947 	539.77 	
27.023 	-0.0890218 	-0.493541 	-0.228025 	1.78738 	0.110331 	2.80256 	90.0055 	62.1969 	20.293 	268.651 	360.767 	284.947 	539.77 	
27.1249 	-0.085161 	-0.492852 	-0.229366 	1.78553 	0.105815 	2.81952 	90.0055 	62.197 	19.1951 	268.651 	360.767 	284.947 	539.77 	
27.2277 	-0.0812744 	-0.492195 	-0.230646 	1.78376 	0.101268 	2.83646 	90.0055 	62.197 	18.1999 	268.651 	360.767 	284.947 	539.77 	
27.3306 	-0.0773633 	-0.491568 	-0.231867 	1.78207 	0.0966913 	2.85338 	90.0055 	62.197 	17.2005 	268.651 	360.767 	284.947 	539.77 	
27.4325 	-0.0734289 	-0.490974 	-0.233026 	1.78046 	0.0920872 	2.87029 	90.0055 	62.197 	16.2044 	268.651 	360.767 	284.947 	539.77 	
27.5345 	-0.0694723 	-0.49041 	-0.234124 	1.77892 	0.0874567 	2.88719 	90.0056 	62.197 	15.1118 	268.651 	360.767 	284.947 	539.77 	
27.6409 	-0.0654948 	-0.489879 	-0.235161 	1.77747 	0.082801 	2.90407 	90.0056 	62.1971 	14.1097 	268.651 	360.767 	284.947 	539.77 	
27.7444 	-0.0610968 	-0.489331 	-0.23623 	1.77596 	0.0776523 	2.92263 	90.0055 	62.1971 	13.0133 	268.651 	360.767 	284.947 	539.77 	
27.8468 	-0.0574818 	-0.488912 	-0.237048 	1.7748 	0.0734196 	2.9378 	90.0056 	62.1971 	12.0122 	268.651 	360.767 	284.947 	539.77 	
27.9483 	-0.0534487 	-0.488477 	-0.237899 	1.77358 	0.0686965 	2.95464 	90.0056 	62.1971 	11.0101 	268.651 	360.767 	284.947 	539.77 	
28.0532 	-0.0493996 	-0.488075 	-0.238687 	1.77245 	0.0639538 	2.97148 	90.0055 	62.1971 	10.013 	268.651 	360.767 	284.947 	539.77 	
28.1557 	-0.0412582 	-0.487368 	-0.240073 	1.77042 	0.0544144 	3.00511 	90.0055 	62.1971 	8.92432 	268.651 	360.767 	284.946 	539.77 	
28.2587 	-0.0371684 	-0.487063 	-0.240672 	1.76953 	0.0496206 	3.02192 	90.0056 	62.1971 	7.92139 	268.651 	360.767 	284.946 	539.77 	
28.3607 	-0.0330675 	-0.486792 	-0.241207 	1.76871 	0.0448125 	3.03871 	90.0056 	62.1971 	6.92861 	268.651 	360.767 	284.946 	539.77 	
28.4627 	-0.0289567 	-0.486553 	-0.241678 	1.76798 	0.0399914 	3.0555 	90.0056 	62.1971 	5.92285 	268.651 	360.767 	284.946 	539.77 	
28.5646 	-0.0248373 	-0.486347 	-0.242086 	1.76733 	0.0351587 	3.07229 	90.0057 	62.1971 	4.8457 	268.651 	360.767 	284.946 	539.77 	
28.6677 	-0.0207106 	-0.486174 	-0.242429 	1.76676 	0.0303158 	3.08906 	90.0059 	62.1972 	3.84043 	268.652 	360.766 	284.946 	539.77 	
28.7704 	-0.0165778 	-0.486035 	-0.242709 	1.76628 	0.0254641 	3.10583 	90.0058 	62.1972 	2.84229 	268.652 	360.766 	284.946 	539.77 	
28.8756 	-0.0124402 	-0.485929 	-0.242925 	1.76587 	0.0206049 	3.1226 	90.0058 	62.1972 	1.84727 	268.652 	360.766 	284.946 	539.77 	
28.9771 	-0.00829906 	-0.485855 	-0.243076 	1.76555 	0.0157396 	3.13937 	90.0058 	62.1972 	0.737109 	268.652 	360.766 	284.946 	539.77 	
28.9943 	-0.00829906 	-0.485855 	-0.243076 	1.76555 	0.0157396 	3.13937 	90.0058 	62.1972 	0.646875 	268.652 	360.766 	284.946 	539.77 	
29.0963 	-0.00539799 	-0.486459 	-0.241965 	1.76571 	0.0118147 	-3.13135 	90.0072 	62.4352 	-0.165723 	268.992 	360.766 	284.946 	539.77 	
29.1983 	-0.00386889 	-0.489661 	-0.235591 	1.76563 	0.0102958 	-3.12532 	90.0076 	63.2799 	-0.493652 	269.876 	360.766 	284.946 	539.77 	
29.3003 	-0.00382302 	-0.492759 	-0.229141 	1.76563 	0.0104905 	-3.12527 	90.0092 	64.2466 	-0.535449 	270.856 	360.766 	284.945 	539.77 	
29.4035 	-0.00377784 	-0.495744 	-0.222638 	1.76563 	0.010686 	-3.12522 	90.0095 	65.2439 	-0.544238 	271.842 	360.766 	284.945 	539.77 	
29.5067 	-0.00373337 	-0.498616 	-0.216084 	1.76563 	0.0108823 	-3.12517 	90.0094 	66.3434 	-0.545996 	272.951 	360.766 	284.945 	539.77 	
29.6091 	-0.00368961 	-0.501373 	-0.20948 	1.76563 	0.0110793 	-3.12513 	90.0093 	67.3345 	-0.546484 	273.945 	360.766 	284.945 	539.77 	
29.711 	-0.00364657 	-0.504014 	-0.20283 	1.76563 	0.011277 	-3.1251 	90.0095 	68.325 	-0.54668 	274.94 	360.766 	284.945 	539.77 	
29.8132 	-0.00360428 	-0.506538 	-0.196134 	1.76563 	0.0114753 	-3.12506 	90.0096 	69.3196 	-0.546875 	275.945 	360.766 	284.945 	539.77 	
29.916 	-0.00356275 	-0.508945 	-0.189396 	1.76563 	0.0116741 	-3.12504 	90.0095 	70.4104 	-0.54707 	277.041 	360.766 	284.945 	539.77 	
30.0184 	-0.00352198 	-0.511235 	-0.182616 	1.76563 	0.0118735 	-3.12501 	90.0094 	71.403 	-0.54707 	278.043 	360.766 	284.945 	539.77 	
30.1209 	-0.00348198 	-0.513405 	-0.175798 	1.76563 	0.0120732 	-3.12499 	90.0095 	72.4022 	-0.54707 	279.05 	360.766 	284.945 	539.77 	
30.223 	-0.00344278 	-0.515456 	-0.168943 	1.76563 	0.0122734 	-3.12497 	90.0096 	73.4057 	-0.547168 	280.05 	360.766 	284.945 	539.77 	
30.3252 	-0.00340439 	-0.517388 	-0.162052 	1.76563 	0.0124738 	-3.12495 	90.0095 	74.5007 	-0.547266 	281.152 	360.766 	284.945 	539.77 	
30.4279 	-0.00336681 	-0.519199 	-0.15513 	1.76563 	0.0126745 	-3.12494 	90.0095 	75.4983 	-0.547266 	282.149 	360.766 	284.945 	539.77 	
30.5305 	-0.00333005 	-0.520888 	-0.148176 	1.76563 	0.0128753 	-3.12493 	90.0095 	76.5028 	-0.547266 	283.142 	360.766 	284.945 	539.77 	
30.6323 	-0.00329414 	-0.522456 	-0.141195 	1.76563 	0.0130763 	-3.12492 	90.0095 	77.4982 	-0.547363 	284.151 	360.766 	284.945 	539.77 	
30.735 	-0.00325907 	-0.523902 	-0.134187 	1.76563 	0.0132774 	-3.12492 	90.0095 	78.5971 	-0.547363 	285.15 	360.766 	284.945 	539.77 	
30.8411 	-0.00322486 	-0.525225 	-0.127154 	1.76563 	0.0134784 	-3.12493 	90.0095 	79.5814 	-0.547363 	286.248 	360.766 	284.945 	539.77 	
30.9475 	-0.00319152 	-0.526426 	-0.1201 	1.76563 	0.0136794 	-3.12493 	90.0095 	80.6849 	-0.547363 	287.351 	360.766 	284.945 	539.77 	
31.0491 	-0.00315587 	-0.527604 	-0.112318 	1.76563 	0.0139003 	-3.12494 	90.0095 	81.6872 	-0.547461 	288.362 	360.766 	284.945 	539.77 	
31.1531 	-0.0031275 	-0.528457 	-0.105934 	1.76563 	0.0140809 	-3.12495 	90.0095 	82.6701 	-0.547461 	289.349 	360.766 	284.945 	539.77 	
31.2559 	-0.00306707 	-0.529992 	-0.0917062 	1.76563 	0.0144815 	-3.12499 	90.0095 	83.7785 	-0.547461 	290.461 	360.766 	284.945 	539.77 	
31.3582 	-0.00303823 	-0.530573 	-0.0845742 	1.76563 	0.0146812 	-3.12501 	90.0095 	84.7699 	-0.547461 	291.448 	360.766 	284.945 	539.77 	
31.4613 	-0.00301031 	-0.531029 	-0.0774332 	1.76563 	0.0148806 	-3.12504 	90.0095 	85.774 	-0.547559 	292.448 	360.766 	284.945 	539.77 	
31.5629 	-0.00298333 	-0.531361 	-0.0702852 	1.76563 	0.0150794 	-3.12507 	90.0095 	86.7834 	-0.547559 	293.461 	360.766 	284.945 	539.77 	
31.665 	-0.0029573 	-0.531568 	-0.0631326 	1.76563 	0.0152777 	-3.1251 	90.0095 	87.8726 	-0.547559 	294.543 	360.766 	284.945 	539.77 	
31.7674 	-0.00293221 	-0.53165 	-0.0559774 	1.76564 	0.0154754 	-3.12514 	90.0095 	88.8782 	-0.547559 	295.549 	360.766 	284.945 	539.77 	
31.8707 	-0.00290809 	-0.531607 	-0.0488219 	1.76564 	0.0156724 	-3.12518 	90.0095 	89.8822 	-0.547559 	296.547 	360.766 	284.945 	539.77 	
31.9769 	-0.00288493 	-0.531439 	-0.0416683 	1.76564 	0.0158687 	-3.12522 	90.0095 	90.9756 	-0.547559 	297.649 	360.766 	284.945 	539.77 	
32.0789 	-0.00286274 	-0.531147 	-0.0345186 	1.76564 	0.0160642 	-3.12527 	90.0095 	91.9836 	-0.547559 	298.656 	360.766 	284.945 	539.77 	
32.1805 	-0.00284153 	-0.53073 	-0.0273752 	1.76564 	0.0162588 	-3.12532 	90.0095 	92.9823 	-0.547559 	299.659 	360.766 	284.945 	539.77 	
32.2837 	-0.00282131 	-0.530188 	-0.02024 	1.76564 	0.0164525 	-3.12537 	90.0095 	93.9771 	-0.547656 	300.661 	360.766 	284.945 	539.77 	
32.3862 	-0.00280209 	-0.529521 	-0.0131156 	1.76564 	0.0166453 	-3.12543 	90.0095 	95.0689 	-0.547656 	301.743 	360.766 	284.945 	539.77 	
32.488 	-0.00278386 	-0.528731 	-0.00600369 	1.76564 	0.016837 	-3.12549 	90.0095 	96.0781 	-0.547656 	302.752 	360.766 	284.945 	539.77 	
32.5904 	-0.00276664 	-0.527816 	0.00109323 	1.76564 	0.0170277 	-3.12555 	90.0095 	97.0692 	-0.547656 	303.74 	360.766 	284.945 	539.77 	
32.6919 	-0.00275042 	-0.526778 	0.00817314 	1.76564 	0.0172172 	-3.12562 	90.0095 	98.0683 	-0.547656 	304.745 	360.766 	284.945 	539.77 	
32.795 	-0.00273522 	-0.525616 	0.0152339 	1.76565 	0.0174055 	-3.12569 	90.0095 	99.1731 	-0.547656 	305.748 	360.766 	284.945 	539.77 	
32.8975 	-0.00272104 	-0.524332 	0.0222732 	1.76565 	0.0175925 	-3.12576 	90.0095 	100.183 	-0.547754 	306.845 	360.766 	284.945 	539.77 	
32.9989 	-0.00270788 	-0.522924 	0.029289 	1.76565 	0.0177783 	-3.12584 	90.0095 	101.189 	-0.547754 	307.843 	360.766 	284.945 	539.77 	
33.1011 	-0.00269575 	-0.521395 	0.0362793 	1.76565 	0.0179626 	-3.12592 	90.0095 	102.183 	-0.547754 	308.848 	360.766 	284.945 	539.77 	
33.2031 	-0.00268466 	-0.519743 	0.0432418 	1.76565 	0.0181456 	-3.126 	90.0095 	103.194 	-0.547754 	309.85 	360.766 	284.945 	539.77 	
33.3061 	-0.00267459 	-0.517971 	0.0501744 	1.76565 	0.018327 	-3.12609 	90.0095 	104.29 	-0.547754 	310.949 	360.766 	284.945 	539.77 	
33.4087 	-0.00266556 	-0.516077 	0.057075 	1.76566 	0.0185069 	-3.12618 	90.0095 	105.302 	-0.547754 	311.949 	360.766 	284.945 	539.77 	
33.5104 	-0.00265758 	-0.514064 	0.0639415 	1.76566 	0.0186853 	-3.12627 	90.0095 	106.293 	-0.547754 	312.947 	360.766 	284.945 	539.77 	
33.6125 	-0.00265063 	-0.511931 	0.0707719 	1.76566 	0.0188619 	-3.12637 	90.0095 	107.295 	-0.547852 	313.948 	360.766 	284.945 	539.77 	
33.7144 	-0.00264473 	-0.509679 	0.0775639 	1.76566 	0.0190369 	-3.12647 	90.0095 	108.397 	-0.547852 	314.955 	360.766 	284.945 	539.77 	
33.8169 	-0.00263988 	-0.507309 	0.0843156 	1.76567 	0.0192101 	-3.12657 	90.0096 	109.399 	-0.547852 	316.046 	360.766 	284.945 	539.77 	
33.9198 	-0.00263608 	-0.504821 	0.091025 	1.76567 	0.0193815 	-3.12667 	90.0096 	110.408 	-0.547852 	317.002 	360.766 	284.945 	539.77 	
34.0221 	-0.00263731 	-0.505285 	0.0988358 	1.75637 	0.0194581 	-3.12674 	90.0096 	111.414 	-0.547852 	317.268 	360.766 	284.945 	539.77 	
34.1243 	-0.0026421 	-0.508291 	0.107681 	1.73891 	0.0194532 	-3.12677 	90.0095 	112.52 	-0.547852 	317.311 	360.766 	284.945 	539.77 	
34.2266 	-0.00264665 	-0.511142 	0.116577 	1.72146 	0.0194488 	-3.12679 	90.0095 	113.515 	-0.547852 	317.343 	360.766 	284.945 	539.77 	
34.33 	-0.00265094 	-0.513838 	0.125522 	1.70401 	0.0194449 	-3.12682 	90.0095 	114.516 	-0.547949 	317.346 	360.766 	284.945 	539.77 	
34.4329 	-0.00265499 	-0.516377 	0.134513 	1.68656 	0.0194414 	-3.12685 	90.0095 	115.511 	-0.547949 	317.347 	360.766 	284.945 	539.77 	
34.4614 	-0.00265878 	-0.518759 	0.143546 	1.6691 	0.0194385 	-3.12688 	90.0095 	115.826 	-0.547949 	317.348 	360.766 	284.945 	539.77 	
34.5637 	-0.00266019 	-0.519643 	0.147072 	1.66231 	0.0194375 	-3.12689 	90.0095 	116.51 	-0.547949 	317.349 	360.766 	284.945 	539.77 	
34.6658 	-0.00266019 	-0.519643 	0.147072 	1.66231 	0.0194375 	-3.12689 	90.0095 	116.603 	-0.547949 	317.349 	360.766 	284.945 	539.77 	
34.7676 	-0.00266019 	-0.519643 	0.147072 	1.66231 	0.0194375 	-3.12689 	90.0095 	116.626 	-0.547949 	317.35 	360.766 	284.945 	539.77 	
34.8695 	-0.00266019 	-0.519643 	0.147072 	1.66231 	0.0194375 	-3.12689 	90.0095 	116.626 	-0.547949 	317.35 	360.766 	284.945 	539.77 	
34.9726 	-0.00266019 	-0.519643 	0.147072 	1.66231 	0.0194375 	-3.12689 	90.0095 	116.626 	-0.547949 	317.35 	360.766 	284.945 	539.77 	
35.0592 	-0.00266019 	-0.519643 	0.147072 	1.66231 	0.0194375 	-3.12689 	90.0095 	116.626 	-0.547949 	317.35 	360.766 	284.945 	539.77 	
35.1621 	-0.00251617 	-0.522621 	0.145279 	1.66466 	0.0197031 	-3.1271 	90.0093 	116.626 	-0.547949 	317.134 	360.766 	284.559 	539.77 	
35.2645 	-0.00240179 	-0.527287 	0.139012 	1.68177 	0.0199924 	-3.1277 	90.0093 	116.626 	-0.547949 	316.3 	360.766 	282.794 	539.77 	
35.3664 	-0.00229218 	-0.531895 	0.132751 	1.69923 	0.0202667 	-3.12832 	90.0093 	116.626 	-0.547949 	315.243 	360.766 	280.62 	539.77 	
35.4683 	-0.00218865 	-0.536453 	0.126591 	1.71669 	0.020521 	-3.12894 	90.0093 	116.626 	-0.548047 	314.245 	360.766 	278.616 	539.77 	
35.5701 	-0.00209126 	-0.540957 	0.120534 	1.73415 	0.0207551 	-3.12956 	90.0093 	116.626 	-0.548047 	313.259 	360.766 	276.616 	539.77 	
35.6801 	-0.00200005 	-0.545408 	0.114581 	1.75161 	0.0209689 	-3.1302 	90.0093 	116.626 	-0.548047 	312.164 	360.766 	274.439 	539.77 	
35.7829 	-0.00191506 	-0.549805 	0.108733 	1.76906 	0.0211624 	-3.13083 	90.0093 	116.626 	-0.548047 	311.163 	360.766 	272.418 	539.77 	
35.8853 	-0.00183632 	-0.554144 	0.102994 	1.78652 	0.0213354 	-3.13147 	90.0093 	116.626 	-0.548047 	310.071 	360.766 	270.397 	539.77 	
35.9873 	-0.00176387 	-0.558426 	0.0973644 	1.80398 	0.0214879 	-3.13211 	90.0093 	116.626 	-0.548047 	309.077 	360.766 	268.237 	539.77 	
36.0899 	-0.00169773 	-0.562649 	0.0918459 	1.82144 	0.0216197 	-3.13276 	90.0093 	116.626 	-0.548047 	308.077 	360.766 	266.231 	539.77 	
36.1929 	-0.0016379 	-0.566812 	0.0864406 	1.8389 	0.021731 	-3.1334 	90.0093 	116.626 	-0.548047 	307.077 	360.766 	264.205 	539.77 	
36.295 	-0.00158439 	-0.570914 	0.0811499 	1.85636 	0.0218217 	-3.13405 	90.0093 	116.626 	-0.548047 	305.989 	360.766 	262.213 	539.77 	
36.3971 	-0.00153721 	-0.574952 	0.0759755 	1.87382 	0.0218918 	-3.13469 	90.0093 	116.626 	-0.548047 	304.983 	360.766 	260.04 	539.77 	
36.499 	-0.00149635 	-0.578927 	0.0709189 	1.89129 	0.0219415 	-3.13534 	90.0093 	116.626 	-0.548047 	303.987 	360.766 	258.041 	539.77 	
36.6019 	-0.0014618 	-0.582836 	0.0659816 	1.90875 	0.0219707 	-3.13599 	90.0093 	116.626 	-0.548047 	302.99 	360.766 	256.002 	539.77 	
36.7046 	-0.00143354 	-0.586679 	0.0611659 	1.9262 	0.0219795 	-3.13663 	90.0093 	116.626 	-0.548047 	301.992 	360.766 	254.013 	539.77 	
36.8068 	-0.00141155 	-0.590454 	0.0564726 	1.94366 	0.0219682 	-3.13727 	90.0093 	116.626 	-0.548047 	300.898 	360.766 	251.832 	539.77 	
36.9087 	-0.00139579 	-0.594161 	0.0519031 	1.96112 	0.0219368 	-3.13791 	90.0093 	116.626 	-0.548047 	299.905 	360.766 	249.835 	539.77 	
37.0109 	-0.00138623 	-0.597798 	0.0474588 	1.97858 	0.0218855 	-3.13854 	90.0093 	116.626 	-0.548047 	298.903 	360.766 	247.802 	539.77 	
37.1137 	-0.00138283 	-0.601364 	0.0431411 	1.99604 	0.0218145 	-3.13917 	90.0093 	116.626 	-0.548047 	297.906 	360.766 	245.822 	539.77 	
37.2168 	-0.00138553 	-0.604858 	0.0389511 	2.0135 	0.021724 	-3.13979 	90.0093 	116.626 	-0.548145 	296.818 	360.766 	243.646 	539.771 	
37.3188 	-0.00139429 	-0.608279 	0.0348903 	2.03095 	0.0216142 	-3.14041 	90.0093 	116.626 	-0.548145 	295.808 	360.766 	241.62 	539.77 	
37.4208 	-0.00140904 	-0.611625 	0.03096 	2.04841 	0.0214855 	-3.14102 	90.0093 	116.626 	-0.548145 	294.816 	360.766 	239.632 	539.771 	
37.5229 	-0.00142971 	-0.614897 	0.0271612 	2.06587 	0.021338 	3.14156 	90.0093 	116.626 	-0.548145 	293.825 	360.766 	237.651 	539.771 	
37.6261 	-0.00145623 	-0.618092 	0.0234951 	2.08333 	0.021172 	3.14096 	90.0093 	116.626 	-0.548145 	292.72 	360.766 	235.455 	539.771 	
37.7285 	-0.00148853 	-0.62121 	0.0199628 	2.10078 	0.020988 	3.14038 	90.0093 	116.626 	-0.548145 	291.731 	360.766 	233.43 	539.771 	
37.8305 	-0.00152652 	-0.62425 	0.0165656 	2.11824 	0.0207861 	3.1398 	90.0093 	116.626 	-0.548145 	290.737 	360.766 	231.416 	539.771 	
37.9326 	-0.00157012 	-0.627211 	0.0133042 	2.1357 	0.0205668 	3.13923 	90.0093 	116.626 	-0.548145 	289.74 	360.766 	229.45 	539.771 	
38.0347 	-0.00161922 	-0.630092 	0.0101799 	2.15315 	0.0203305 	3.13867 	90.0093 	116.626 	-0.548145 	288.744 	360.766 	227.446 	539.771 	
38.1445 	-0.00167373 	-0.632892 	0.00719345 	2.17061 	0.0200775 	3.13812 	90.0093 	116.625 	-0.548145 	287.64 	360.766 	225.227 	539.771 	
38.2466 	-0.00173354 	-0.635611 	0.00434579 	2.18807 	0.0198082 	3.13758 	90.0093 	116.625 	-0.548145 	286.55 	360.766 	223.041 	539.771 	
38.3502 	-0.00186864 	-0.6408 	-0.000929475 	2.22298 	0.0192227 	3.13654 	90.0093 	116.625 	-0.548145 	285.555 	360.766 	221.059 	539.771 	
38.4525 	-0.0019437 	-0.643269 	-0.00335552 	2.24043 	0.0189073 	3.13603 	90.0093 	116.625 	-0.548145 	284.549 	360.766 	219.043 	539.771 	
38.5549 	-0.00202359 	-0.645652 	-0.00563951 	2.25789 	0.0185774 	3.13554 	90.0093 	116.625 	-0.548145 	283.551 	360.766 	217.05 	539.771 	
38.658 	-0.0021082 	-0.647951 	-0.00778082 	2.27534 	0.0182336 	3.13507 	90.0093 	116.625 	-0.548145 	282.451 	360.766 	214.851 	539.771 	
38.7595 	-0.0021974 	-0.650163 	-0.00977869 	2.2928 	0.0178763 	3.13461 	90.0093 	116.625 	-0.548145 	281.444 	360.766 	212.838 	539.771 	
38.8613 	-0.00229104 	-0.652288 	-0.0116325 	2.31025 	0.0175061 	3.13416 	90.0093 	116.625 	-0.548145 	280.452 	360.766 	210.823 	539.771 	
38.9628 	-0.00238898 	-0.654325 	-0.0133419 	2.32771 	0.0171235 	3.13373 	90.0093 	116.625 	-0.548145 	279.443 	360.766 	208.815 	539.771 	
39.0661 	-0.00249109 	-0.656274 	-0.0149061 	2.34516 	0.016729 	3.13331 	90.0093 	116.625 	-0.548242 	278.379 	360.766 	206.661 	539.771 	
39.1683 	-0.00259722 	-0.658135 	-0.0163247 	2.36261 	0.0163232 	3.1329 	90.0093 	116.625 	-0.548242 	277.374 	360.766 	204.68 	539.771 	
39.2703 	-0.00270723 	-0.659906 	-0.0175973 	2.38006 	0.0159067 	3.13252 	90.0093 	116.625 	-0.548242 	276.379 	360.766 	202.665 	539.771 	
39.3749 	-0.00282095 	-0.661587 	-0.0187234 	2.39752 	0.01548 	3.13215 	90.0093 	116.625 	-0.548242 	275.377 	360.766 	200.653 	539.771 	
39.4768 	-0.00293823 	-0.663177 	-0.0197029 	2.41497 	0.0150438 	3.13179 	90.0093 	116.625 	-0.548242 	274.275 	360.766 	198.469 	539.771 	
39.5801 	-0.00305892 	-0.664677 	-0.0205353 	2.43242 	0.0145985 	3.13145 	90.0093 	116.625 	-0.548242 	273.274 	360.766 	196.456 	539.771 	
39.6826 	-0.00318286 	-0.666085 	-0.0212204 	2.44987 	0.0141449 	3.13113 	90.0093 	116.625 	-0.548242 	272.384 	360.766 	194.668 	539.771 	
39.7848 	-0.00330987 	-0.667402 	-0.021758 	2.46732 	0.0136835 	3.13083 	90.0093 	116.625 	-0.548242 	271.297 	360.766 	192.489 	539.771 	
39.8867 	-0.00343981 	-0.668626 	-0.022148 	2.48478 	0.013215 	3.13054 	90.0093 	116.625 	-0.548242 	270.196 	360.766 	190.291 	539.771 	
39.9888 	-0.0035725 	-0.669758 	-0.0223902 	2.50223 	0.0127399 	3.13027 	90.0093 	116.625 	-0.548242 	269.2 	360.766 	188.284 	539.771 	
40.092 	-0.00370777 	-0.670797 	-0.0224844 	2.51968 	0.012259 	3.13002 	90.0093 	116.625 	-0.548242 	268.206 	360.766 	186.276 	539.771 	
40.1946 	-0.00384546 	-0.671742 	-0.0224309 	2.53713 	0.0117728 	3.12978 	90.0093 	116.625 	-0.548242 	267.204 	360.766 	184.29 	539.771 	
40.2967 	-0.0039854 	-0.672594 	-0.0222293 	2.55458 	0.0112819 	3.12957 	90.0093 	116.624 	-0.548242 	266.114 	360.766 	182.106 	539.771 	
40.3986 	-0.0041274 	-0.673352 	-0.02188 	2.57203 	0.0107871 	3.12937 	90.0093 	116.624 	-0.548242 	265.105 	360.766 	180.091 	539.771 	
40.5006 	-0.00427131 	-0.674016 	-0.021383 	2.58948 	0.0102889 	3.12919 	90.0093 	116.624 	-0.548242 	264.113 	360.766 	178.1 	539.771 	
40.6037 	-0.00441694 	-0.674585 	-0.0207385 	2.60693 	0.00978798 	3.12903 	90.0093 	116.624 	-0.548242 	263.112 	360.766 	176.092 	539.771 	
40.7066 	-0.00456413 	-0.675061 	-0.0199466 	2.62438 	0.00928502 	3.12888 	90.0093 	116.624 	-0.54834 	262.018 	360.766 	173.925 	539.771 	
40.8088 	-0.0047127 	-0.675441 	-0.0190075 	2.64182 	0.00878062 	3.12876 	90.0093 	116.624 	-0.54834 	261.009 	360.766 	171.896 	539.771 	
40.9108 	-0.00486248 	-0.675727 	-0.0179217 	2.65927 	0.00827545 	3.12865 	90.0093 	116.624 	-0.54834 	260.02 	360.766 	169.896 	539.771 	
41.0133 	-0.00501329 	-0.675919 	-0.0166892 	2.67672 	0.00777013 	3.12856 	90.0093 	116.624 	-0.54834 	259.029 	360.766 	167.909 	539.771 	
41.1161 	-0.00516496 	-0.676015 	-0.0153108 	2.69417 	0.00726529 	3.12849 	90.0093 	116.624 	-0.54834 	257.924 	360.766 	165.914 	539.771 	
41.2184 	-0.00531732 	-0.676017 	-0.0137865 	2.71162 	0.00676157 	3.12843 	90.0093 	116.624 	-0.54834 	256.932 	360.766 	163.702 	539.771 	
41.3206 	-0.0054702 	-0.675923 	-0.0121171 	2.72907 	0.0062596 	3.12839 	90.0093 	116.624 	-0.54834 	255.927 	360.766 	161.722 	539.771 	
41.4226 	-0.00562342 	-0.675735 	-0.0103028 	2.74652 	0.00575999 	3.12838 	90.0093 	116.624 	-0.54834 	254.936 	360.766 	159.726 	539.771 	
41.5248 	-0.00577682 	-0.675452 	-0.00834456 	2.76397 	0.00526337 	3.12837 	90.0093 	116.624 	-0.54834 	253.933 	360.766 	157.736 	539.771 	
41.6279 	-0.00593024 	-0.675074 	-0.00624265 	2.78142 	0.00477035 	3.12839 	90.0093 	116.624 	-0.54834 	252.828 	360.766 	155.503 	539.771 	
41.7305 	-0.00608349 	-0.674601 	-0.00399767 	2.79886 	0.00428151 	3.12842 	90.0093 	116.624 	-0.54834 	251.84 	360.766 	153.525 	539.771 	
41.8326 	-0.00623643 	-0.674034 	-0.00161055 	2.81631 	0.00379747 	3.12847 	90.0093 	116.624 	-0.54834 	250.836 	360.766 	151.547 	539.771 	
41.9348 	-0.00638889 	-0.673373 	0.00091818 	2.83376 	0.00331879 	3.12854 	90.0093 	116.623 	-0.54834 	249.834 	360.766 	149.541 	539.771 	
42.0427 	-0.0065407 	-0.672618 	0.00358751 	2.85121 	0.00284607 	3.12862 	90.0093 	116.623 	-0.548438 	248.746 	360.766 	147.332 	539.771 	
42.1464 	-0.00669172 	-0.671769 	0.00639701 	2.86866 	0.00237986 	3.12872 	90.0093 	116.623 	-0.548438 	247.638 	360.766 	145.33 	539.771 	
42.2483 	-0.00684178 	-0.670826 	0.00934538 	2.88611 	0.00192071 	3.12884 	90.0093 	116.623 	-0.548438 	246.651 	360.766 	143.151 	539.771 	
42.3502 	-0.00713844 	-0.668661 	0.015656 	2.92101 	0.00102578 	3.12912 	90.0093 	116.623 	-0.548438 	245.639 	360.766 	141.121 	539.771 	
42.4517 	-0.00713844 	-0.668661 	0.015656 	2.92101 	0.00102578 	3.12912 	90.0093 	116.623 	-0.548438 	244.645 	360.766 	139.139 	539.771 	
42.5549 	-0.00742951 	-0.666125 	0.0225115 	2.95591 	0.000165471 	3.12945 	90.0093 	116.623 	-0.548438 	243.656 	360.766 	137.151 	539.771 	
42.6571 	-0.00757259 	-0.664719 	0.026141 	2.97336 	-0.000250458 	3.12964 	90.0093 	116.623 	-0.548438 	242.543 	360.766 	134.956 	539.771 	
42.7586 	-0.00757259 	-0.664719 	0.026141 	2.97336 	-0.000250458 	3.12964 	90.0093 	116.623 	-0.548438 	241.55 	360.766 	132.924 	539.771 	
42.8605 	-0.00785316 	-0.661634 	0.0337981 	3.00826 	-0.00105148 	3.13006 	90.0093 	116.623 	-0.548438 	240.542 	360.766 	130.933 	539.771 	
42.9619 	-0.0079904 	-0.659955 	0.0378235 	3.02571 	-0.00143567 	3.13029 	90.0093 	116.623 	-0.548438 	239.539 	360.766 	128.933 	539.771 	
43.065 	-0.00812434 	-0.658277 	0.0419873 	3.04281 	-0.00180424 	3.13053 	90.0093 	116.623 	-0.548535 	238.55 	360.766 	126.98 	539.771 	
43.1675 	-0.00823449 	-0.658345 	0.0464328 	3.05293 	-0.00207953 	3.13077 	90.0093 	116.623 	-0.548535 	237.456 	360.766 	125.148 	539.771 	
43.2704 	-0.0083073 	-0.661447 	0.051216 	3.05118 	-0.00221022 	3.13099 	90.0093 	116.622 	-0.548535 	236.46 	360.766 	124.162 	539.771 	
43.3748 	-0.00834636 	-0.667442 	0.0563375 	3.0381 	-0.00220996 	3.13118 	90.0093 	116.622 	-0.548535 	235.468 	360.766 	123.778 	539.771 	
43.477 	-0.00837383 	-0.674493 	0.0616844 	3.02065 	-0.00216282 	3.13137 	90.0093 	116.622 	-0.548535 	234.356 	360.766 	123.718 	539.771 	
43.5794 	-0.00840291 	-0.681449 	0.0671533 	3.00319 	-0.00211891 	3.13155 	90.0093 	116.622 	-0.548535 	233.363 	360.766 	123.703 	539.771 	
43.682 	-0.0084336 	-0.688308 	0.072743 	2.98574 	-0.00207826 	3.13174 	90.0093 	116.622 	-0.548535 	232.364 	360.766 	123.693 	539.771 	
43.7837 	-0.0084659 	-0.695069 	0.0784515 	2.96829 	-0.00204087 	3.13193 	90.0093 	116.622 	-0.548535 	231.367 	360.766 	123.684 	539.771 	
43.886 	-0.00849978 	-0.701729 	0.0842771 	2.95083 	-0.00200676 	3.13211 	90.0093 	116.622 	-0.548535 	230.28 	360.766 	123.677 	539.771 	
43.9884 	-0.00853524 	-0.708287 	0.090218 	2.93338 	-0.00197593 	3.1323 	90.0093 	116.622 	-0.548535 	229.282 	360.766 	123.673 	539.771 	
44.0907 	-0.00857227 	-0.714739 	0.0962725 	2.91593 	-0.00194841 	3.13249 	90.0093 	116.621 	-0.548535 	228.283 	360.766 	123.671 	539.771 	
44.1935 	-0.00861086 	-0.721086 	0.102439 	2.89848 	-0.00192418 	3.13268 	90.0093 	116.621 	-0.548633 	227.282 	360.766 	123.669 	539.771 	
44.2957 	-0.00865099 	-0.727323 	0.108715 	2.88102 	-0.00190327 	3.13287 	90.0094 	116.62 	-0.548633 	226.187 	360.766 	123.668 	539.771 	
44.3974 	-0.00869266 	-0.73345 	0.115099 	2.86357 	-0.00188568 	3.13306 	90.0093 	116.614 	-0.548633 	225.194 	360.766 	123.666 	539.771 	
44.4997 	-0.00873585 	-0.739465 	0.121588 	2.84612 	-0.00187142 	3.13325 	90.0093 	116.614 	-0.548633 	224.197 	360.766 	123.665 	539.771 	
44.6028 	-0.00878054 	-0.745366 	0.128182 	2.82866 	-0.00186048 	3.13344 	90.0093 	116.614 	-0.548633 	223.197 	360.766 	123.664 	539.771 	
44.7061 	-0.00882673 	-0.75115 	0.134878 	2.81121 	-0.00185287 	3.13363 	90.0093 	116.614 	-0.548633 	222.11 	360.766 	123.663 	539.771 	
44.8078 	-0.0088744 	-0.756817 	0.141674 	2.79376 	-0.0018486 	3.13383 	90.0093 	116.614 	-0.548633 	221.102 	360.766 	123.662 	539.771 	
44.9095 	-0.00892353 	-0.762364 	0.148567 	2.7763 	-0.00184767 	3.13402 	90.0093 	116.614 	-0.548633 	220.108 	360.766 	123.661 	539.771 	
45.012 	-0.00897411 	-0.76779 	0.155557 	2.75885 	-0.00185007 	3.13421 	90.0093 	116.614 	-0.548633 	219.116 	360.766 	123.659 	539.771 	
45.115 	-0.00902613 	-0.773094 	0.16264 	2.7414 	-0.0018558 	3.1344 	90.0093 	116.614 	-0.54873 	218.108 	360.766 	123.653 	539.771 	
45.2174 	-0.00907957 	-0.778273 	0.169814 	2.72395 	-0.00186487 	3.13459 	90.0094 	116.614 	-0.54873 	217.01 	360.766 	123.631 	539.771 	
45.3196 	-0.00913441 	-0.783326 	0.177078 	2.70649 	-0.00187727 	3.13478 	90.0093 	116.614 	-0.54873 	216.012 	360.766 	123.602 	539.771 	
45.4213 	-0.00919063 	-0.788251 	0.184429 	2.68904 	-0.001893 	3.13497 	90.0094 	116.613 	-0.54873 	215.021 	360.766 	123.595 	539.771 	
45.5232 	-0.00924823 	-0.793047 	0.191864 	2.67159 	-0.00191205 	3.13516 	90.0094 	116.613 	-0.54873 	214.011 	360.766 	123.592 	539.771 	
45.626 	-0.00930717 	-0.797713 	0.199383 	2.65413 	-0.00193441 	3.13535 	90.0093 	116.613 	-0.54873 	212.923 	360.766 	123.591 	539.771 	
45.7295 	-0.00936745 	-0.802247 	0.206981 	2.63668 	-0.00196009 	3.13554 	90.0094 	116.613 	-0.54873 	211.921 	360.766 	123.59 	539.771 	
45.8314 	-0.00942905 	-0.806648 	0.214658 	2.61923 	-0.00198906 	3.13573 	90.0093 	116.613 	-0.54873 	210.929 	360.766 	123.589 	539.771 	
45.9335 	-0.00949194 	-0.810914 	0.22241 	2.60178 	-0.00202133 	3.13592 	90.0094 	116.613 	-0.54873 	209.928 	360.766 	123.588 	539.771 	
46.0404 	-0.00955611 	-0.815044 	0.230235 	2.58432 	-0.00205688 	3.13611 	90.0093 	116.613 	-0.548828 	208.828 	360.766 	123.588 	539.771 	
46.1444 	-0.00962814 	-0.819428 	0.238925 	2.56512 	-0.00209976 	3.13631 	90.0093 	116.613 	-0.548828 	207.838 	360.766 	123.587 	539.771 	
46.2468 	-0.00968819 	-0.822891 	0.246096 	2.54942 	-0.00213779 	3.13648 	90.0094 	116.613 	-0.548828 	206.719 	360.766 	123.587 	539.771 	
46.3489 	-0.00975607 	-0.826605 	0.254127 	2.53196 	-0.00218312 	3.13666 	90.0093 	116.613 	-0.548828 	205.736 	360.766 	123.586 	539.771 	
46.4508 	-0.00982515 	-0.830179 	0.262221 	2.51451 	-0.00223168 	3.13685 	90.0094 	116.613 	-0.548828 	204.727 	360.766 	123.585 	539.771 	
46.5537 	-0.0098954 	-0.833611 	0.270377 	2.49706 	-0.00228347 	3.13703 	90.0094 	116.613 	-0.548828 	203.726 	360.766 	123.585 	539.771 	
46.6565 	-0.0100393 	-0.840046 	0.286861 	2.46215 	-0.00239663 	3.1374 	90.0094 	116.613 	-0.548828 	202.631 	360.766 	123.584 	539.771 	
46.7588 	-0.010113 	-0.843047 	0.295185 	2.4447 	-0.00245797 	3.13758 	90.0094 	116.613 	-0.548926 	201.637 	360.766 	123.584 	539.771 	
46.8606 	-0.0101877 	-0.845901 	0.30356 	2.42725 	-0.00252246 	3.13776 	90.0094 	116.613 	-0.548926 	200.617 	360.766 	123.584 	539.771 	
46.9619 	-0.0102635 	-0.84861 	0.311984 	2.40979 	-0.00259008 	3.13794 	90.0094 	116.613 	-0.548926 	199.629 	360.766 	123.583 	539.771 	
47.065 	-0.0103404 	-0.851171 	0.320453 	2.39234 	-0.00266081 	3.13812 	90.0094 	116.613 	-0.548926 	198.623 	360.766 	123.583 	539.771 	
47.1675 	-0.0104182 	-0.853583 	0.328966 	2.37489 	-0.00273463 	3.13829 	90.0094 	116.613 	-0.548926 	197.542 	360.766 	123.582 	539.771 	
47.2703 	-0.0104971 	-0.855847 	0.33752 	2.35744 	-0.00281152 	3.13847 	90.0093 	116.613 	-0.548926 	196.545 	360.766 	123.579 	539.771 	
47.375 	-0.0105769 	-0.857961 	0.346112 	2.33998 	-0.00289145 	3.13864 	90.0094 	116.613 	-0.548926 	195.538 	360.766 	123.548 	539.771 	
47.4771 	-0.0106577 	-0.859924 	0.354739 	2.32253 	-0.00297439 	3.13881 	90.0094 	116.613 	-0.548926 	194.429 	360.766 	123.524 	539.771 	
47.5799 	-0.0107394 	-0.861737 	0.3634 	2.30508 	-0.00306033 	3.13898 	90.0094 	116.613 	-0.548926 	193.426 	360.766 	123.52 	539.771 	
47.6827 	-0.010822 	-0.863399 	0.372091 	2.28762 	-0.00314924 	3.13915 	90.0094 	116.613 	-0.548926 	192.436 	360.766 	123.518 	539.771 	
47.7846 	-0.0109055 	-0.864908 	0.380809 	2.27017 	-0.00324108 	3.13932 	90.0094 	116.613 	-0.548926 	191.428 	360.766 	123.516 	539.771 	
47.8868 	-0.0109898 	-0.866265 	0.389553 	2.25272 	-0.00333584 	3.13949 	90.0094 	116.613 	-0.549023 	190.334 	360.766 	123.514 	539.771 	
47.9886 	-0.0110749 	-0.867469 	0.398319 	2.23527 	-0.00343348 	3.13965 	90.0094 	116.613 	-0.549023 	189.339 	360.766 	123.512 	539.771 	
48.0919 	-0.0111608 	-0.86852 	0.407104 	2.21781 	-0.00353397 	3.13981 	90.0094 	116.613 	-0.549023 	188.342 	360.766 	123.511 	539.771 	
48.1947 	-0.0112475 	-0.869418 	0.415907 	2.20036 	-0.00363728 	3.13997 	90.0094 	116.612 	-0.549023 	187.333 	360.766 	123.51 	539.771 	
48.2966 	-0.011335 	-0.870162 	0.424723 	2.18291 	-0.00374338 	3.14013 	90.0094 	116.612 	-0.549023 	186.234 	360.766 	123.51 	539.771 	
48.3988 	-0.0114231 	-0.870751 	0.433552 	2.16545 	-0.00385225 	3.14029 	90.0094 	116.612 	-0.549023 	185.24 	360.766 	123.509 	539.771 	
48.5006 	-0.011512 	-0.871187 	0.442389 	2.148 	-0.00396384 	3.14045 	90.0094 	116.612 	-0.549023 	184.233 	360.766 	123.508 	539.771 	
48.6038 	-0.0116015 	-0.871468 	0.451233 	2.13055 	-0.00407811 	3.1406 	90.0094 	116.612 	-0.549023 	183.242 	360.766 	123.507 	539.771 	
48.7073 	-0.0116916 	-0.871595 	0.46008 	2.1131 	-0.00419505 	3.14075 	90.0094 	116.612 	-0.549023 	182.136 	360.766 	123.506 	539.771 	
48.8092 	-0.0117823 	-0.871567 	0.468928 	2.09564 	-0.0043146 	3.1409 	90.0094 	116.612 	-0.549023 	181.137 	360.766 	123.505 	539.771 	
48.9113 	-0.0118737 	-0.871385 	0.477774 	2.07819 	-0.00443674 	3.14105 	90.0094 	116.612 	-0.549023 	180.13 	360.766 	123.502 	539.771 	
49.0132 	-0.0119655 	-0.871049 	0.486616 	2.06074 	-0.00456143 	3.14119 	90.0094 	116.612 	-0.549023 	179.129 	360.766 	123.48 	539.771 	
49.1163 	-0.0120579 	-0.870558 	0.49545 	2.04329 	-0.00468863 	3.14133 	90.0094 	116.612 	-0.549023 	178.031 	360.766 	123.474 	539.771 	
49.2196 	-0.0121508 	-0.869913 	0.504275 	2.02583 	-0.0048183 	3.14147 	90.0094 	116.612 	-0.549023 	177.027 	360.766 	123.471 	539.771 	
49.3214 	-0.0122442 	-0.869115 	0.513087 	2.00838 	-0.00495039 	-3.14157 	90.0094 	116.612 	-0.549121 	176.023 	360.766 	123.47 	539.771 	
49.4233 	-0.012338 	-0.868162 	0.521884 	1.99093 	-0.00508488 	-3.14144 	90.0094 	116.612 	-0.549121 	175.02 	360.766 	123.47 	539.771 	
49.5254 	-0.0124322 	-0.867056 	0.530662 	1.97348 	-0.00522172 	-3.1413 	90.0094 	116.612 	-0.549121 	174.017 	360.766 	123.469 	539.771 	
49.6281 	-0.0125268 	-0.865797 	0.53942 	1.95602 	-0.00536087 	-3.14117 	90.0094 	116.612 	-0.549121 	172.92 	360.766 	123.469 	539.771 	
49.7307 	-0.0126217 	-0.864386 	0.548155 	1.93857 	-0.00550228 	-3.14104 	90.0094 	116.612 	-0.549121 	171.915 	360.766 	123.468 	539.771 	
49.8327 	-0.012717 	-0.862822 	0.556864 	1.92112 	-0.00564592 	-3.14092 	90.0094 	116.612 	-0.549121 	170.912 	360.766 	123.468 	539.771 	
49.9395 	-0.0128126 	-0.861107 	0.565544 	1.90366 	-0.00579173 	-3.14079 	90.0094 	116.612 	-0.549121 	169.818 	360.766 	123.467 	539.771 	
50.0436 	-0.0129084 	-0.85924 	0.574193 	1.88621 	-0.00593968 	-3.14067 	90.0094 	116.612 	-0.549219 	168.806 	360.766 	123.467 	539.771 	
50.1464 	-0.0130045 	-0.857222 	0.582808 	1.86876 	-0.00608972 	-3.14056 	90.0094 	116.612 	-0.549219 	167.71 	360.766 	123.467 	539.771 	
50.2482 	-0.0131007 	-0.855055 	0.591386 	1.85131 	-0.0062418 	-3.14044 	90.0094 	116.612 	-0.549219 	166.69 	360.766 	123.466 	539.771 	
50.3538 	-0.0132938 	-0.850272 	0.608423 	1.8164 	-0.00655191 	-3.14022 	90.0094 	116.612 	-0.549219 	165.697 	360.766 	123.466 	539.771 	
50.4572 	-0.0133905 	-0.847659 	0.616876 	1.79895 	-0.00670984 	-3.14011 	90.0094 	116.612 	-0.549219 	164.595 	360.766 	123.466 	539.771 	
50.5596 	-0.0134873 	-0.844898 	0.625283 	1.7815 	-0.00686963 	-3.14 	90.0094 	116.612 	-0.549219 	163.59 	360.766 	123.466 	539.771 	
50.6622 	-0.0135842 	-0.841991 	0.633639 	1.76404 	-0.00703122 	-3.1399 	90.0094 	116.612 	-0.549219 	162.589 	360.766 	123.466 	539.771 	
50.7637 	-0.0136811 	-0.838938 	0.641944 	1.74659 	-0.00719457 	-3.1398 	90.0094 	116.612 	-0.549219 	161.576 	360.766 	123.466 	539.771 	
50.8661 	-0.013778 	-0.835741 	0.650195 	1.72914 	-0.00735963 	-3.13971 	90.0094 	116.612 	-0.549219 	160.49 	360.766 	123.466 	539.771 	
50.9689 	-0.0138748 	-0.832401 	0.658388 	1.71169 	-0.00752635 	-3.13961 	90.0094 	116.612 	-0.549316 	159.483 	360.766 	123.465 	539.771 	
51.0717 	-0.0139716 	-0.828918 	0.666521 	1.69423 	-0.00769467 	-3.13952 	90.0094 	116.612 	-0.549316 	158.478 	360.766 	123.465 	539.771 	
51.1758 	-0.0140684 	-0.825293 	0.674593 	1.67678 	-0.00786455 	-3.13943 	90.0094 	116.613 	-0.549316 	157.473 	360.766 	123.465 	539.771 	
51.2781 	-0.014165 	-0.821529 	0.6826 	1.65933 	-0.00803592 	-3.13935 	90.0094 	116.613 	-0.549316 	156.363 	360.766 	123.465 	539.771 	
51.38 	-0.0142614 	-0.817625 	0.69054 	1.64188 	-0.00820875 	-3.13927 	90.0094 	116.613 	-0.549316 	155.356 	360.766 	123.465 	539.771 	
51.4831 	-0.0143577 	-0.813583 	0.698411 	1.62442 	-0.00838298 	-3.13919 	90.0094 	116.613 	-0.549316 	154.362 	360.766 	123.465 	539.771 	
51.5866 	-0.0144538 	-0.809404 	0.70621 	1.60697 	-0.00855855 	-3.13911 	90.0094 	116.613 	-0.549316 	153.264 	360.766 	123.465 	539.771 	
51.6884 	-0.0145496 	-0.80509 	0.713935 	1.58952 	-0.00873542 	-3.13904 	90.0094 	116.613 	-0.549414 	152.261 	360.766 	123.465 	539.771 	
51.7906 	-0.0146452 	-0.800641 	0.721584 	1.57207 	-0.00891352 	-3.13897 	90.0094 	116.613 	-0.549414 	151.26 	360.766 	123.465 	539.771 	
51.8924 	-0.0147405 	-0.79606 	0.729154 	1.55461 	-0.00909281 	-3.13891 	90.0094 	116.613 	-0.549414 	150.247 	360.766 	123.465 	539.771 	
51.9961 	-0.0148355 	-0.791348 	0.736642 	1.53716 	-0.00927323 	-3.13884 	90.0094 	116.613 	-0.549414 	149.146 	360.766 	123.465 	539.771 	
52.0986 	-0.0149301 	-0.786505 	0.744048 	1.51971 	-0.00945471 	-3.13878 	90.0094 	116.613 	-0.549414 	148.148 	360.766 	123.465 	539.771 	
52.2005 	-0.0150243 	-0.781534 	0.751367 	1.50225 	-0.00963722 	-3.13873 	90.0094 	116.613 	-0.549414 	147.14 	360.766 	123.465 	539.771 	
52.3025 	-0.0151181 	-0.776436 	0.758599 	1.4848 	-0.00982069 	-3.13867 	90.0094 	116.613 	-0.549414 	146.132 	360.766 	123.465 	539.771 	
52.4045 	-0.0152115 	-0.771212 	0.76574 	1.46735 	-0.0100051 	-3.13862 	90.0094 	116.613 	-0.549414 	145.139 	360.766 	123.465 	539.771 	
52.5071 	-0.0153044 	-0.765865 	0.77279 	1.4499 	-0.0101903 	-3.13857 	90.0094 	116.613 	-0.549512 	144.026 	360.766 	123.464 	539.771 	
52.6096 	-0.0153969 	-0.760395 	0.779745 	1.43244 	-0.0103763 	-3.13853 	90.0094 	116.613 	-0.549512 	143.021 	360.766 	123.464 	539.771 	
52.7112 	-0.0154888 	-0.754805 	0.786603 	1.41499 	-0.0105631 	-3.13849 	90.0094 	116.613 	-0.549512 	142.017 	360.766 	123.464 	539.771 	
52.8132 	-0.0155801 	-0.749096 	0.793363 	1.39754 	-0.0107505 	-3.13845 	90.0094 	116.613 	-0.549512 	141.015 	360.766 	123.464 	539.771 	
52.9153 	-0.0156709 	-0.743269 	0.800022 	1.38008 	-0.0109386 	-3.13842 	90.0094 	116.613 	-0.549512 	140.018 	360.766 	123.464 	539.771 	
53.0183 	-0.0157611 	-0.737328 	0.806578 	1.36263 	-0.0111272 	-3.13839 	90.0094 	116.613 	-0.549512 	138.908 	360.766 	123.464 	539.771 	
53.1216 	-0.0158506 	-0.731273 	0.81303 	1.34518 	-0.0113164 	-3.13836 	90.0094 	116.613 	-0.549512 	137.901 	360.766 	123.464 	539.771 	
53.2236 	-0.0159395 	-0.725106 	0.819375 	1.32773 	-0.011506 	-3.13834 	90.0094 	116.613 	-0.549512 	136.901 	360.766 	123.464 	539.771 	
53.3255 	-0.0160277 	-0.718829 	0.825611 	1.31027 	-0.011696 	-3.13831 	90.0094 	116.613 	-0.549609 	135.79 	360.766 	123.464 	539.771 	
53.4277 	-0.0161152 	-0.712445 	0.831737 	1.29282 	-0.0118863 	-3.1383 	90.0094 	116.613 	-0.549609 	134.782 	360.766 	123.464 	539.771 	
53.5307 	-0.0162019 	-0.705954 	0.837751 	1.27537 	-0.0120769 	-3.13828 	90.0094 	116.613 	-0.549609 	133.783 	360.766 	123.464 	539.771 	
53.6334 	-0.0162879 	-0.69936 	0.84365 	1.25791 	-0.0122677 	-3.13827 	90.0094 	116.613 	-0.549609 	132.774 	360.766 	123.464 	539.771 	
53.7398 	-0.0163731 	-0.692663 	0.849434 	1.24046 	-0.0124587 	-3.13826 	90.0094 	116.613 	-0.549609 	131.673 	360.766 	123.464 	539.771 	
53.8415 	-0.0164574 	-0.685867 	0.855099 	1.22301 	-0.0126498 	-3.13826 	90.0093 	116.613 	-0.549609 	130.673 	360.766 	123.464 	539.771 	
53.9441 	-0.0165409 	-0.678973 	0.860646 	1.20555 	-0.0128409 	-3.13826 	90.0094 	116.613 	-0.549609 	129.669 	360.766 	123.464 	539.771 	
54.0477 	-0.0166236 	-0.671983 	0.866071 	1.1881 	-0.0130321 	-3.13826 	90.0094 	116.613 	-0.549707 	128.562 	360.766 	123.464 	539.771 	
54.1518 	-0.0167053 	-0.664899 	0.871373 	1.17065 	-0.0132231 	-3.13827 	90.0094 	116.613 	-0.549707 	127.556 	360.766 	123.464 	539.771 	
54.2543 	-0.0167862 	-0.657725 	0.87655 	1.15319 	-0.013414 	-3.13828 	90.0094 	116.613 	-0.549707 	126.551 	360.766 	123.464 	539.771 	
54.3559 	-0.0169449 	-0.64311 	0.886525 	1.11829 	-0.0137952 	-3.1383 	90.0094 	116.613 	-0.549707 	125.551 	360.766 	123.464 	539.771 	
54.4584 	-0.0170229 	-0.635675 	0.89132 	1.10084 	-0.0139854 	-3.13832 	90.0094 	116.613 	-0.549707 	124.443 	360.766 	123.464 	539.771 	
54.5609 	-0.0170998 	-0.628156 	0.895984 	1.08339 	-0.0141752 	-3.13835 	90.0094 	116.613 	-0.549707 	123.436 	360.766 	123.464 	539.771 	
54.6628 	-0.0171756 	-0.620558 	0.900517 	1.06593 	-0.0143646 	-3.13837 	90.0094 	116.613 	-0.549707 	122.418 	360.766 	123.464 	539.771 	
54.7645 	-0.0172504 	-0.612881 	0.904916 	1.04848 	-0.0145535 	-3.1384 	90.0093 	116.613 	-0.549707 	121.416 	360.766 	123.464 	539.771 	
54.8667 	-0.0173241 	-0.605129 	0.90918 	1.03103 	-0.0147419 	-3.13843 	90.0094 	116.613 	-0.549707 	120.322 	360.766 	123.464 	539.771 	
54.9698 	-0.0173967 	-0.597304 	0.913309 	1.01358 	-0.0149297 	-3.13847 	90.0094 	116.614 	-0.549805 	119.313 	360.766 	123.464 	539.771 	
55.0771 	-0.0174682 	-0.589408 	0.9173 	0.996123 	-0.0151168 	-3.13851 	90.0094 	116.614 	-0.549805 	118.204 	360.766 	123.464 	539.771 	
55.1791 	-0.0175385 	-0.581443 	0.921153 	0.978671 	-0.0153033 	-3.13855 	90.0094 	116.614 	-0.549805 	117.2 	360.766 	123.464 	539.771 	
55.2814 	-0.0176076 	-0.573413 	0.924866 	0.961218 	-0.0154889 	-3.13859 	90.0094 	116.614 	-0.549805 	116.187 	360.766 	123.464 	539.771 	
55.3842 	-0.0176756 	-0.565318 	0.928438 	0.943765 	-0.0156738 	-3.13864 	90.0094 	116.614 	-0.549805 	115.189 	360.766 	123.464 	539.771 	
62.1218 	-0.0177673 	-0.554048 	0.933136 	0.91968 	-0.0159274 	-3.13872 	90.0094 	116.615 	-0.550098 	113.583 	360.766 	123.464 	539.771 	
62.2235 	-0.0177672 	-0.553974 	0.933318 	0.91883 	-0.0159275 	-3.13873 	90.0094 	116.615 	-0.550098 	113.583 	360.766 	123.749 	539.771 	
62.3252 	-0.017779 	-0.549886 	0.938536 	0.893695 	-0.0159724 	-3.13913 	90.0094 	116.615 	-0.550098 	113.583 	360.766 	125.412 	539.771 	
62.4275 	-0.017791 	-0.543993 	0.945609 	0.858784 	-0.0160181 	-3.13969 	90.0094 	116.615 	-0.550098 	113.583 	360.766 	127.594 	539.771 	
62.5303 	-0.0177979 	-0.537858 	0.952472 	0.823873 	-0.0160442 	-3.14025 	90.0094 	116.615 	-0.550098 	113.583 	360.766 	129.606 	539.771 	
62.632 	-0.0177997 	-0.531486 	0.959117 	0.788963 	-0.0160508 	-3.14081 	90.0094 	116.615 	-0.550098 	113.583 	360.766 	131.619 	539.771 	
62.7336 	-0.0177963 	-0.524887 	0.965536 	0.754052 	-0.0160379 	-3.14137 	90.0094 	116.615 	-0.550098 	113.583 	360.766 	133.619 	539.771 	
62.8418 	-0.0177877 	-0.518068 	0.97172 	0.719142 	-0.0160054 	3.14126 	90.0094 	116.615 	-0.550098 	113.582 	360.766 	135.804 	539.771 	
62.944 	-0.017774 	-0.511037 	0.977663 	0.684231 	-0.0159534 	3.1407 	90.0094 	116.615 	-0.550098 	113.582 	360.766 	137.628 	539.771 	
63.047 	-0.0177552 	-0.503803 	0.983357 	0.649321 	-0.015882 	3.14014 	90.0094 	116.615 	-0.550098 	113.582 	360.766 	140.043 	539.771 	
63.1505 	-0.0177022 	-0.488761 	0.99397 	0.5795 	-0.0156812 	3.13904 	90.0094 	116.615 	-0.550098 	113.581 	360.766 	142.025 	539.771 	
63.2518 	-0.0176682 	-0.480971 	0.998876 	0.54459 	-0.0155521 	3.13849 	90.0094 	116.615 	-0.550098 	113.581 	360.766 	144.046 	539.771 	
63.3542 	-0.0176291 	-0.473015 	1.00351 	0.509681 	-0.015404 	3.13795 	90.0094 	116.615 	-0.550098 	113.581 	360.766 	146.085 	539.771 	
63.4569 	-0.0175851 	-0.464903 	1.00786 	0.474771 	-0.0152372 	3.13742 	90.0094 	116.615 	-0.550098 	113.58 	360.766 	148.272 	539.771 	
63.5587 	-0.0175362 	-0.456643 	1.01192 	0.439861 	-0.0150518 	3.13689 	90.0094 	116.615 	-0.550098 	113.58 	360.766 	150.246 	539.771 	
63.6602 	-0.0174825 	-0.448247 	1.0157 	0.404952 	-0.014848 	3.13637 	90.0094 	116.615 	-0.550098 	113.579 	360.766 	152.277 	539.771 	
63.7622 	-0.017424 	-0.439724 	1.01918 	0.370043 	-0.0146262 	3.13585 	90.0094 	116.615 	-0.550098 	113.578 	360.766 	154.325 	539.771 	
63.8648 	-0.0173608 	-0.431085 	1.02236 	0.335134 	-0.0143866 	3.13535 	90.0094 	116.615 	-0.550195 	113.578 	360.766 	156.291 	539.771 	
63.9674 	-0.017293 	-0.42234 	1.02524 	0.300225 	-0.0141294 	3.13485 	90.0094 	116.615 	-0.550195 	113.578 	360.766 	158.48 	539.771 	
64.0702 	-0.0172206 	-0.4135 	1.0278 	0.265317 	-0.013855 	3.13436 	90.0094 	116.615 	-0.550195 	113.576 	360.766 	160.504 	539.771 	
64.1743 	-0.0171438 	-0.404576 	1.03006 	0.230409 	-0.0135637 	3.13388 	90.0094 	116.615 	-0.550195 	113.576 	360.766 	162.505 	539.771 	
64.2763 	-0.0170626 	-0.395578 	1.03201 	0.195501 	-0.0132559 	3.13341 	90.0094 	116.615 	-0.550195 	113.575 	360.766 	164.508 	539.771 	
64.3792 	-0.0169772 	-0.386519 	1.03364 	0.160593 	-0.012932 	3.13296 	90.0094 	116.616 	-0.550195 	113.573 	360.766 	166.745 	539.771 	
64.482 	-0.0168876 	-0.377407 	1.03496 	0.125686 	-0.0125923 	3.13251 	90.0094 	116.616 	-0.550195 	113.573 	360.766 	168.74 	539.771 	
64.5839 	-0.0167939 	-0.368256 	1.03595 	0.0907789 	-0.0122372 	3.13208 	90.0094 	116.616 	-0.550195 	113.572 	360.766 	170.772 	539.771 	
64.6861 	-0.0166964 	-0.359075 	1.03663 	0.0558724 	-0.0118673 	3.13166 	90.0094 	116.616 	-0.550195 	113.571 	360.766 	172.759 	539.771 	
64.7874 	-0.016595 	-0.349876 	1.03698 	0.020966 	-0.0114829 	3.13125 	90.0094 	116.616 	-0.550195 	113.57 	360.766 	174.938 	539.771 	
64.8901 	-0.0164899 	-0.340671 	1.03702 	-0.0139399 	-0.0110845 	3.13086 	90.0094 	116.616 	-0.550195 	113.57 	360.766 	176.966 	539.771 	
64.9927 	-0.0163813 	-0.33147 	1.03673 	-0.0488457 	-0.0106726 	3.13048 	90.0094 	116.616 	-0.550195 	113.568 	360.766 	178.957 	539.771 	
65.0945 	-0.0162692 	-0.322285 	1.03612 	-0.0837509 	-0.0102477 	3.13011 	90.0094 	116.616 	-0.550195 	113.566 	360.766 	180.949 	539.771 	
65.1962 	-0.0161539 	-0.313127 	1.03519 	-0.118656 	-0.00981029 	3.12976 	90.0094 	116.616 	-0.550195 	113.563 	360.766 	182.972 	539.771 	
65.2981 	-0.0160354 	-0.304007 	1.03394 	-0.153561 	-0.00936096 	3.12943 	90.0094 	116.616 	-0.550195 	113.562 	360.766 	185.193 	539.771 	
65.401 	-0.0159139 	-0.294935 	1.03238 	-0.188465 	-0.00890023 	3.12911 	90.0094 	116.616 	-0.550195 	113.559 	360.766 	187.189 	539.771 	
65.5036 	-0.0157895 	-0.285925 	1.0305 	-0.22337 	-0.00842865 	3.12881 	90.0094 	116.616 	-0.550195 	113.556 	360.766 	189.179 	539.771 	
65.6064 	-0.0156624 	-0.276985 	1.0283 	-0.258273 	-0.0079468 	3.12852 	90.0094 	116.616 	-0.550195 	113.547 	360.766 	191.41 	539.771 	
65.7084 	-0.0155328 	-0.268127 	1.0258 	-0.293177 	-0.00745528 	3.12825 	90.0094 	116.616 	-0.550195 	113.539 	360.766 	193.401 	539.771 	
65.8103 	-0.0154007 	-0.259362 	1.02298 	-0.32808 	-0.00695467 	3.128 	90.0094 	116.616 	-0.550195 	113.536 	360.766 	195.412 	539.771 	
65.9129 	-0.0152665 	-0.250701 	1.01987 	-0.362983 	-0.0064456 	3.12777 	90.0094 	116.616 	-0.550195 	113.534 	360.766 	197.409 	539.771 	
66.0157 	-0.0151301 	-0.242154 	1.01645 	-0.397886 	-0.00592867 	3.12755 	90.0094 	116.616 	-0.550195 	113.533 	360.766 	199.422 	539.771 	
66.1183 	-0.0149919 	-0.233731 	1.01274 	-0.432789 	-0.00540452 	3.12735 	90.0094 	116.616 	-0.550195 	113.531 	360.766 	201.627 	539.771 	
66.2201 	-0.0148519 	-0.225443 	1.00873 	-0.467692 	-0.00487379 	3.12717 	90.0094 	116.616 	-0.550195 	113.53 	360.766 	203.622 	539.771 	
66.3223 	-0.0147104 	-0.2173 	1.00444 	-0.502594 	-0.00433712 	3.12701 	90.0094 	116.617 	-0.550195 	113.53 	360.766 	205.611 	539.771 	
66.4254 	-0.0145674 	-0.209312 	0.999866 	-0.537496 	-0.00379517 	3.12687 	90.0094 	116.617 	-0.550195 	113.529 	360.766 	207.658 	539.771 	
66.5281 	-0.0144233 	-0.201488 	0.995016 	-0.572398 	-0.00324859 	3.12675 	90.0094 	116.617 	-0.550195 	113.528 	360.766 	209.861 	539.771 	
66.6304 	-0.0142781 	-0.193839 	0.989896 	-0.6073 	-0.00269806 	3.12664 	90.0094 	116.617 	-0.550195 	113.527 	360.766 	211.847 	539.771 	
66.7324 	-0.014132 	-0.186372 	0.984513 	-0.642202 	-0.00214424 	3.12656 	90.0094 	116.617 	-0.550195 	113.526 	360.766 	213.857 	539.771 	
66.8335 	-0.0139852 	-0.179098 	0.978872 	-0.677103 	-0.00158781 	3.12649 	90.0094 	116.617 	-0.550195 	113.525 	360.766 	215.878 	539.771 	
66.9413 	-0.013838 	-0.172026 	0.972981 	-0.712005 	-0.00102945 	3.12645 	90.0094 	116.617 	-0.550195 	113.523 	360.766 	218.062 	539.771 	
67.0459 	-0.0136904 	-0.165163 	0.966846 	-0.746907 	-0.000469834 	3.12642 	90.0094 	116.617 	-0.550195 	113.522 	360.766 	220.073 	539.771 	
67.1484 	-0.0135426 	-0.158519 	0.960476 	-0.781808 	9.03536e-05 	3.12641 	90.0094 	116.617 	-0.550195 	113.521 	360.766 	222.278 	539.771 	
67.251 	-0.0133949 	-0.152101 	0.953877 	-0.81671 	0.000650434 	3.12643 	90.0094 	116.617 	-0.550195 	113.52 	360.766 	224.278 	539.771 	
67.3537 	-0.0132474 	-0.145917 	0.947059 	-0.851611 	0.00120972 	3.12646 	90.0094 	116.617 	-0.550195 	113.518 	360.766 	226.278 	539.771 	
67.4567 	-0.0129537 	-0.134282 	0.932795 	-0.921415 	0.0023232 	3.12658 	90.0094 	116.617 	-0.550195 	113.515 	360.766 	228.284 	539.771 	
67.5583 	-0.0128079 	-0.128845 	0.925368 	-0.956317 	0.00287603 	3.12667 	90.0094 	116.617 	-0.550195 	113.501 	360.766 	230.499 	539.771 	
67.6601 	-0.012663 	-0.123671 	0.917755 	-0.991218 	0.00342535 	3.12678 	90.0094 	116.617 	-0.550195 	113.482 	360.766 	232.526 	539.771 	
67.7621 	-0.0125192 	-0.118765 	0.909966 	-1.02612 	0.00397051 	3.12691 	90.0094 	116.618 	-0.550195 	113.48 	360.766 	234.501 	539.771 	
67.8648 	-0.0123767 	-0.114134 	0.902011 	-1.06102 	0.00451083 	3.12706 	90.0094 	116.618 	-0.550293 	113.48 	360.766 	236.489 	539.771 	
67.9677 	-0.0122357 	-0.109784 	0.893899 	-1.09592 	0.00504565 	3.12723 	90.0094 	116.618 	-0.550293 	113.479 	360.766 	238.728 	539.771 	
68.0705 	-0.0120962 	-0.105719 	0.88564 	-1.13083 	0.00557433 	3.12741 	90.0094 	116.64 	-0.550293 	113.478 	360.766 	240.704 	539.771 	
68.1748 	-0.0119586 	-0.101946 	0.877244 	-1.16573 	0.00609622 	3.12762 	90.0094 	116.668 	-0.550293 	113.476 	360.766 	242.715 	539.771 	
68.2766 	-0.0118229 	-0.0984671 	0.868722 	-1.20063 	0.00661069 	3.12784 	90.0094 	116.671 	-0.550293 	113.476 	360.766 	244.715 	539.771 	
68.3798 	-0.0116893 	-0.0952881 	0.860083 	-1.23554 	0.0071171 	3.12808 	90.0094 	116.671 	-0.550293 	113.475 	360.766 	246.958 	539.771 	
68.4823 	-0.0115581 	-0.0924126 	0.851339 	-1.27044 	0.00761484 	3.12834 	90.0094 	116.671 	-0.550293 	113.474 	360.766 	248.942 	539.771 	
68.5842 	-0.0114292 	-0.089844 	0.842499 	-1.30534 	0.00810331 	3.12861 	90.0094 	116.671 	-0.550293 	113.474 	360.766 	250.926 	539.771 	
68.6864 	-0.011303 	-0.0875854 	0.833576 	-1.34025 	0.00858191 	3.1289 	90.0094 	116.672 	-0.550293 	113.474 	360.766 	252.947 	539.771 	
68.7881 	-0.0111795 	-0.0856397 	0.824578 	-1.37515 	0.00905005 	3.12921 	90.0094 	116.672 	-0.550293 	113.473 	360.766 	255.132 	539.771 	
68.8902 	-0.011059 	-0.0840091 	0.815518 	-1.41006 	0.00950719 	3.12953 	90.0094 	116.672 	-0.550293 	113.473 	360.766 	257.117 	539.771 	
68.9927 	-0.0109415 	-0.0826957 	0.806407 	-1.44497 	0.00995276 	3.12987 	90.0094 	116.672 	-0.550293 	113.473 	360.766 	259.127 	539.771 	
69.0945 	-0.0108272 	-0.0817011 	0.797254 	-1.47987 	0.0103862 	3.13023 	90.0094 	116.672 	-0.550293 	113.473 	360.766 	261.134 	539.771 	
69.1965 	-0.0107162 	-0.0810265 	0.788073 	-1.51478 	0.010807 	3.1306 	90.0094 	116.672 	-0.550293 	113.472 	360.766 	263.138 	539.771 	
69.2986 	-0.0106087 	-0.0806728 	0.778874 	-1.54969 	0.0112146 	3.13098 	90.0094 	116.672 	-0.550293 	113.47 	360.766 	265.324 	539.771 	
69.4012 	-0.0105048 	-0.0806403 	0.769668 	-1.5846 	0.0116086 	3.13138 	90.0094 	116.672 	-0.550293 	113.469 	360.766 	267.32 	539.771 	
69.5038 	-0.0104046 	-0.0809292 	0.760466 	-1.61951 	0.0119884 	3.13179 	90.0094 	116.672 	-0.550293 	113.468 	360.766 	269.336 	539.771 	
69.6067 	-0.0103083 	-0.0815391 	0.75128 	-1.65442 	0.0123536 	3.13222 	90.0094 	116.672 	-0.550293 	113.467 	360.766 	271.343 	539.771 	
69.7086 	-0.0102159 	-0.0824692 	0.742121 	-1.68933 	0.0127038 	3.13265 	90.0094 	116.672 	-0.550293 	113.467 	360.766 	273.516 	539.771 	
69.8108 	-0.0101277 	-0.0837184 	0.733 	-1.72424 	0.0130384 	3.1331 	90.0094 	116.672 	-0.550293 	113.466 	360.766 	275.513 	539.771 	
69.9142 	-0.0100436 	-0.0852852 	0.723928 	-1.75915 	0.0133572 	3.13356 	90.0094 	116.672 	-0.550293 	113.466 	360.766 	277.528 	539.771 	
70.0172 	-0.00996382 	-0.0871676 	0.714916 	-1.79406 	0.0136597 	3.13404 	90.0094 	116.672 	-0.550293 	113.464 	360.766 	279.533 	539.771 	
70.1192 	-0.00988843 	-0.0893634 	0.705975 	-1.82897 	0.0139456 	3.13452 	90.0094 	116.672 	-0.550293 	113.463 	360.766 	281.707 	539.771 	
70.2212 	-0.00981752 	-0.0918699 	0.697117 	-1.86388 	0.0142145 	3.13501 	90.0094 	116.672 	-0.550293 	113.462 	360.766 	283.708 	539.771 	
70.2383 	-0.00981752 	-0.0918699 	0.697117 	-1.86388 	0.0142145 	3.13501 	90.0094 	116.672 	-0.550293 	113.461 	360.766 	284.105 	539.771 	
70.3421 	-0.00976083 	-0.0942424 	0.68966 	-1.89355 	0.0144294 	3.13543 	90.0094 	116.672 	-0.550293 	113.46 	360.766 	284.876 	539.771 	
70.444 	-0.00975405 	-0.0945511 	0.688742 	-1.89722 	0.0144551 	3.13549 	90.0094 	116.672 	-0.550293 	113.459 	360.766 	284.976 	539.771 	
70.5467 	-0.00975405 	-0.0945511 	0.688742 	-1.89722 	0.0144551 	3.13549 	90.0094 	116.672 	-0.550293 	113.459 	360.766 	285.006 	539.771 	
70.6484 	-0.00975405 	-0.0945511 	0.688742 	-1.89722 	0.0144551 	3.13549 	90.0094 	116.672 	-0.550293 	113.458 	360.766 	285.01 	539.771 	
70.7509 	-0.00975405 	-0.0945511 	0.688742 	-1.89722 	0.0144551 	3.13549 	90.0094 	116.672 	-0.550293 	113.458 	360.766 	285.012 	539.771 	
70.8546 	-0.00975405 	-0.0945511 	0.688742 	-1.89722 	0.0144551 	3.13549 	90.0094 	116.672 	-0.550293 	113.458 	360.766 	285.013 	539.771 	
70.9554 	-0.00975405 	-0.0945511 	0.688742 	-1.89722 	0.0144551 	3.13549 	90.0094 	116.672 	-0.550293 	113.457 	360.766 	285.014 	539.771 	
71.0233 	-0.00975405 	-0.0945511 	0.688742 	-1.89722 	0.0144551 	3.13549 	90.0094 	116.672 	-0.550293 	113.457 	360.766 	285.015 	539.771 	
71.1254 	-0.009756 	-0.0952501 	0.688838 	-1.89548 	0.0144466 	3.13654 	90.0094 	116.505 	-0.550293 	113.69 	360.766 	285.03 	539.664 	
71.2282 	-0.00979608 	-0.105838 	0.691549 	-1.86267 	0.0142738 	-3.13374 	90.0094 	115.625 	-0.550293 	114.627 	360.766 	285.048 	539.275 	
71.3306 	-0.0098379 	-0.117302 	0.694102 	-1.82776 	0.0140891 	-3.13062 	90.0094 	114.61 	-0.550293 	115.624 	360.766 	285.066 	539.195 	
71.4329 	-0.00987883 	-0.128962 	0.696305 	-1.79286 	0.0139033 	-3.13062 	90.0094 	113.633 	-0.550293 	116.624 	360.766 	285.069 	539.188 	
71.5346 	-0.00991886 	-0.140807 	0.698148 	-1.75795 	0.0137165 	-3.13063 	90.0094 	112.602 	-0.550293 	117.633 	360.766 	285.071 	539.186 	
71.643 	-0.00995796 	-0.152825 	0.699624 	-1.72305 	0.0135289 	-3.13063 	90.0094 	111.497 	-0.550293 	118.734 	360.766 	285.073 	539.185 	
71.7462 	-0.00999612 	-0.165003 	0.700725 	-1.68814 	0.0133404 	-3.13063 	90.0094 	110.498 	-0.550293 	119.75 	360.766 	285.074 	539.184 	
71.8477 	-0.0100333 	-0.177329 	0.701444 	-1.65324 	0.013151 	-3.13063 	90.0094 	109.377 	-0.550391 	120.863 	360.766 	285.074 	539.184 	
71.9506 	-0.0100695 	-0.189791 	0.701773 	-1.61833 	0.0129609 	-3.13062 	90.0094 	108.373 	-0.550391 	121.858 	360.766 	285.075 	539.184 	
72.0523 	-0.0101387 	-0.215069 	0.701236 	-1.54852 	0.0125787 	-3.1306 	90.0094 	107.361 	-0.550391 	122.864 	360.766 	285.075 	539.183 	
72.155 	-0.0101718 	-0.227859 	0.700359 	-1.51362 	0.0123867 	-3.13058 	90.0094 	106.349 	-0.550391 	123.883 	360.766 	285.075 	539.183 	
72.2579 	-0.0102037 	-0.24073 	0.699069 	-1.47871 	0.0121941 	-3.13056 	90.0094 	105.238 	-0.550391 	124.982 	360.766 	285.076 	539.183 	
72.3597 	-0.0102346 	-0.25367 	0.697361 	-1.44381 	0.0120011 	-3.13054 	90.0094 	104.212 	-0.550391 	126.007 	360.766 	285.076 	539.183 	
72.4614 	-0.0102643 	-0.266664 	0.695231 	-1.4089 	0.0118077 	-3.13051 	90.0094 	103.217 	-0.550391 	127.001 	360.766 	285.076 	539.183 	
72.5629 	-0.0102928 	-0.279698 	0.692675 	-1.374 	0.0116139 	-3.13048 	90.0094 	102.2 	-0.550391 	128.02 	360.766 	285.076 	539.182 	
72.6663 	-0.0103201 	-0.292758 	0.689691 	-1.33909 	0.0114199 	-3.13045 	90.0094 	101.096 	-0.550391 	129.015 	360.766 	285.076 	539.182 	
72.7687 	-0.0103462 	-0.305828 	0.686274 	-1.30419 	0.0112257 	-3.13041 	90.0094 	100.089 	-0.550391 	130.124 	360.766 	285.076 	539.182 	
72.8705 	-0.0103711 	-0.318894 	0.682424 	-1.26928 	0.0110313 	-3.13037 	90.0094 	99.0853 	-0.550391 	131.127 	360.766 	285.076 	539.182 	
72.9753 	-0.0103948 	-0.331942 	0.678137 	-1.23438 	0.0108369 	-3.13032 	90.0095 	98.0741 	-0.550391 	132.143 	360.766 	285.076 	539.182 	
73.0772 	-0.0104171 	-0.344956 	0.673414 	-1.19947 	0.0106424 	-3.13027 	90.0094 	96.9604 	-0.550391 	133.254 	360.766 	285.076 	539.182 	
73.1802 	-0.0104382 	-0.357922 	0.668252 	-1.16456 	0.0104481 	-3.13022 	90.0094 	95.961 	-0.550391 	134.267 	360.766 	285.076 	539.182 	
73.2834 	-0.0104579 	-0.370823 	0.662653 	-1.12966 	0.010254 	-3.13017 	90.0095 	94.9503 	-0.550391 	135.273 	360.766 	285.076 	539.182 	
73.3856 	-0.0104763 	-0.383646 	0.656616 	-1.09475 	0.01006 	-3.13011 	90.0094 	93.8553 	-0.550391 	136.285 	360.766 	285.076 	539.182 	
73.4882 	-0.0104933 	-0.396376 	0.650142 	-1.05985 	0.00986644 	-3.13004 	90.0094 	92.8424 	-0.550488 	137.373 	360.766 	285.076 	539.181 	
73.5902 	-0.010509 	-0.408996 	0.643233 	-1.02494 	0.00967325 	-3.12998 	90.0094 	91.8445 	-0.550488 	138.384 	360.766 	285.076 	539.181 	
73.6929 	-0.0105232 	-0.421493 	0.63589 	-0.990037 	0.00948053 	-3.1299 	90.0094 	90.8329 	-0.550488 	139.394 	360.766 	285.076 	539.181 	
73.7956 	-0.010536 	-0.43385 	0.628116 	-0.955131 	0.00928838 	-3.12983 	90.0094 	89.8278 	-0.550488 	140.401 	360.766 	285.076 	539.181 	
73.898 	-0.0105473 	-0.446053 	0.619914 	-0.920226 	0.00909688 	-3.12975 	90.0094 	88.7188 	-0.550488 	141.516 	360.766 	285.076 	539.181 	
73.9999 	-0.0105572 	-0.458088 	0.611286 	-0.88532 	0.00890612 	-3.12967 	90.0094 	87.7247 	-0.550488 	142.517 	360.766 	285.076 	539.181 	
74.102 	-0.0105656 	-0.469939 	0.602238 	-0.850415 	0.00871617 	-3.12958 	90.0094 	86.7148 	-0.550488 	143.535 	360.766 	285.076 	539.181 	
74.2049 	-0.0105725 	-0.481592 	0.592774 	-0.815509 	0.00852712 	-3.12949 	90.0094 	85.7118 	-0.550488 	144.538 	360.766 	285.076 	539.181 	
74.3079 	-0.0105779 	-0.493031 	0.582898 	-0.780604 	0.00833908 	-3.1294 	90.0094 	84.6029 	-0.550488 	145.643 	360.766 	285.076 	539.181 	
74.4097 	-0.0105818 	-0.504243 	0.572617 	-0.745699 	0.00815211 	-3.1293 	90.0095 	83.6041 	-0.550488 	146.649 	360.766 	285.076 	539.181 	
74.5116 	-0.0105841 	-0.515214 	0.561935 	-0.710793 	0.00796631 	-3.1292 	90.0094 	82.6017 	-0.550488 	147.656 	360.766 	285.076 	539.181 	
74.6135 	-0.0105848 	-0.525929 	0.550861 	-0.675888 	0.00778177 	-3.12909 	90.0094 	81.6047 	-0.550488 	148.657 	360.766 	285.076 	539.181 	
74.7171 	-0.0105839 	-0.536374 	0.5394 	-0.640983 	0.00759859 	-3.12898 	90.0094 	80.4939 	-0.550488 	149.764 	360.766 	285.076 	539.181 	
74.8197 	-0.0105815 	-0.546536 	0.52756 	-0.606077 	0.00741684 	-3.12887 	90.0094 	79.4958 	-0.550488 	150.767 	360.766 	285.076 	539.181 	
74.9222 	-0.0105774 	-0.556402 	0.515349 	-0.571172 	0.00723663 	-3.12875 	90.0094 	78.4933 	-0.550488 	151.774 	360.766 	285.076 	539.181 	
75.0237 	-0.0105717 	-0.565957 	0.502776 	-0.536267 	0.00705805 	-3.12863 	90.0094 	77.4908 	-0.550488 	152.769 	360.766 	285.076 	539.181 	
75.1259 	-0.0105643 	-0.57519 	0.48985 	-0.501362 	0.00688118 	-3.1285 	90.0094 	76.3825 	-0.550488 	153.781 	360.766 	285.076 	539.181 	
75.2294 	-0.0105554 	-0.584087 	0.47658 	-0.466456 	0.00670612 	-3.12837 	90.0094 	75.3878 	-0.550488 	154.882 	360.766 	285.076 	539.181 	
75.3318 	-0.0105447 	-0.592636 	0.462975 	-0.431551 	0.00653297 	-3.12824 	90.0094 	74.3793 	-0.550488 	155.885 	360.766 	285.076 	539.181 	
75.4341 	-0.0105324 	-0.600825 	0.449046 	-0.396646 	0.00636181 	-3.1281 	90.0095 	73.3879 	-0.550488 	156.887 	360.766 	285.076 	539.181 	
75.5386 	-0.0105184 	-0.608643 	0.434803 	-0.361741 	0.00619274 	-3.12796 	90.0095 	72.2863 	-0.550488 	157.992 	360.766 	285.075 	539.181 	
75.642 	-0.0105027 	-0.616078 	0.420259 	-0.326835 	0.00602585 	-3.12782 	90.0095 	71.292 	-0.550488 	158.995 	360.766 	285.075 	539.181 	
75.7453 	-0.0104854 	-0.62312 	0.405423 	-0.29193 	0.00586123 	-3.12767 	90.0095 	70.2852 	-0.550488 	159.995 	360.766 	285.075 	539.181 	
75.8478 	-0.0104663 	-0.629756 	0.390309 	-0.257025 	0.00569898 	-3.12752 	90.0095 	69.1938 	-0.550488 	161.094 	360.766 	285.075 	539.181 	
75.95 	-0.0104455 	-0.635978 	0.374928 	-0.22212 	0.00553919 	-3.12736 	90.0094 	68.1864 	-0.550488 	162.094 	360.766 	285.075 	539.181 	
76.0522 	-0.0103988 	-0.647138 	0.343416 	-0.152309 	0.00522736 	-3.12704 	90.0094 	67.193 	-0.550488 	163.095 	360.766 	285.074 	539.181 	
76.1546 	-0.0103729 	-0.652059 	0.327311 	-0.117404 	0.0050755 	-3.12688 	90.0094 	66.1853 	-0.550488 	164.1 	360.766 	285.074 	539.181 	
76.2572 	-0.0103453 	-0.656527 	0.310993 	-0.0824988 	0.00492646 	-3.12671 	90.0094 	65.0889 	-0.550488 	165.202 	360.766 	285.074 	539.181 	
76.359 	-0.0103159 	-0.660536 	0.294474 	-0.0475936 	0.00478034 	-3.12654 	90.0094 	64.0882 	-0.550488 	166.215 	360.766 	285.074 	539.181 	
76.4607 	-0.0102848 	-0.664076 	0.278 	-0.0130373 	0.0046377 	-3.12636 	90.0094 	63.0885 	-0.550488 	167.212 	360.766 	285.073 	539.181 	
76.5621 	-0.0102521 	-0.667236 	0.266015 	0.014538 	0.0045079 	-3.12618 	90.0095 	62.3535 	-0.550488 	168.216 	360.766 	285.073 	539.181 	
76.6652 	-0.0102183 	-0.670307 	0.260464 	0.0323394 	0.0043949 	-3.126 	90.0095 	62.1285 	-0.550488 	169.232 	360.766 	285.073 	539.181 	
76.7679 	-0.0101833 	-0.673288 	0.255093 	0.0497915 	0.00428556 	-3.12582 	90.0094 	62.1078 	-0.550488 	170.298 	360.766 	285.073 	539.181 	
76.8707 	-0.0101471 	-0.676175 	0.249671 	0.0672437 	0.00417944 	-3.12563 	90.0094 	62.1073 	-0.550488 	171.303 	360.766 	285.073 	539.181 	
76.975 	-0.0101098 	-0.678967 	0.2442 	0.084696 	0.00407656 	-3.12544 	90.0094 	62.1049 	-0.550488 	172.313 	360.766 	285.073 	539.181 	
77.0764 	-0.0100714 	-0.681662 	0.23868 	0.102148 	0.00397696 	-3.12526 	90.0094 	62.105 	-0.550488 	173.296 	360.766 	285.072 	539.181 	
77.1796 	-0.0100318 	-0.684262 	0.233115 	0.119601 	0.00388067 	-3.12507 	90.0094 	62.1048 	-0.550488 	174.407 	360.766 	285.072 	539.181 	
77.2822 	-0.00999116 	-0.686763 	0.227504 	0.137053 	0.00378771 	-3.12487 	90.0094 	62.1041 	-0.550488 	175.415 	360.766 	285.072 	539.181 	
77.384 	-0.0099494 	-0.689166 	0.221851 	0.154505 	0.00369812 	-3.12468 	90.0094 	62.1041 	-0.550488 	176.409 	360.766 	285.072 	539.181 	
77.4864 	-0.00990656 	-0.691471 	0.216157 	0.171958 	0.00361193 	-3.12448 	90.0094 	62.1041 	-0.550488 	177.415 	360.766 	285.072 	539.181 	
77.5878 	-0.00986265 	-0.693675 	0.210424 	0.18941 	0.00352915 	-3.12429 	90.0094 	62.1041 	-0.550488 	178.505 	360.766 	285.071 	539.181 	
77.6911 	-0.00981768 	-0.695779 	0.204653 	0.206862 	0.00344982 	-3.12409 	90.0094 	62.1041 	-0.550488 	179.503 	360.766 	285.071 	539.181 	
77.7941 	-0.00977167 	-0.697782 	0.198846 	0.224315 	0.00337395 	-3.12389 	90.0094 	62.104 	-0.550488 	180.504 	360.766 	285.071 	539.181 	
77.8957 	-0.00972464 	-0.699684 	0.193005 	0.241767 	0.00330158 	-3.12369 	90.0094 	62.1041 	-0.550488 	181.503 	360.766 	285.071 	539.181 	
77.998 	-0.00967658 	-0.701483 	0.187132 	0.25922 	0.00323272 	-3.12349 	90.0094 	62.104 	-0.550488 	182.595 	360.766 	285.07 	539.181 	
78.0997 	-0.00962753 	-0.703179 	0.181228 	0.276672 	0.00316739 	-3.12328 	90.0094 	62.104 	-0.550488 	183.606 	360.766 	285.07 	539.181 	
78.2031 	-0.00957749 	-0.704773 	0.175296 	0.294124 	0.00310562 	-3.12308 	90.0094 	62.1041 	-0.550488 	184.596 	360.766 	285.069 	539.181 	
78.3062 	-0.00952649 	-0.706262 	0.169336 	0.311577 	0.00304742 	-3.12287 	90.0094 	62.1041 	-0.550488 	185.591 	360.766 	285.069 	539.181 	
78.408 	-0.00947453 	-0.707647 	0.163352 	0.329029 	0.00299282 	-3.12267 	90.0094 	62.1041 	-0.550488 	186.693 	360.766 	285.068 	539.18 	
78.51 	-0.00942163 	-0.708927 	0.157344 	0.346482 	0.00294182 	-3.12246 	90.0094 	62.1041 	-0.550488 	187.688 	360.766 	285.068 	539.18 	
78.6119 	-0.00936781 	-0.710103 	0.151315 	0.363934 	0.00289444 	-3.12225 	90.0094 	62.1041 	-0.550488 	188.698 	360.766 	285.068 	539.18 	
78.715 	-0.00931308 	-0.711173 	0.145267 	0.381386 	0.0028507 	-3.12204 	90.0094 	62.1041 	-0.550488 	189.697 	360.766 	285.068 	539.18 	
78.818 	-0.00925746 	-0.712137 	0.1392 	0.398839 	0.00281062 	-3.12183 	90.0094 	62.1041 	-0.550488 	190.786 	360.766 	285.067 	539.18 	
78.9198 	-0.00920098 	-0.712995 	0.133118 	0.416292 	0.00277419 	-3.12162 	90.0094 	62.1041 	-0.550488 	191.798 	360.766 	285.067 	539.18 	
79.0218 	-0.00914363 	-0.713747 	0.127022 	0.433744 	0.00274144 	-3.12141 	90.0094 	62.1041 	-0.550488 	192.795 	360.766 	285.066 	539.18 	
79.1237 	-0.00908545 	-0.714393 	0.120913 	0.451197 	0.00271238 	-3.1212 	90.0094 	62.1041 	-0.550488 	193.795 	360.766 	285.066 	539.18 	
79.2272 	-0.00902645 	-0.714931 	0.114794 	0.468649 	0.002687 	-3.12099 	90.0094 	62.1041 	-0.550488 	194.891 	360.766 	285.065 	539.18 	
79.3298 	-0.00896665 	-0.715363 	0.108667 	0.486102 	0.00266533 	-3.12078 	90.0094 	62.1041 	-0.550488 	195.885 	360.766 	285.064 	539.18 	
79.4317 	-0.00890607 	-0.715688 	0.102533 	0.503554 	0.00264737 	-3.12057 	90.0094 	62.1041 	-0.550488 	196.885 	360.766 	285.063 	539.18 	
79.5339 	-0.00884472 	-0.715905 	0.0963943 	0.521006 	0.00263312 	-3.12035 	90.0094 	62.1041 	-0.550488 	197.883 	360.766 	285.063 	539.18 	
79.6397 	-0.00878263 	-0.716016 	0.0902528 	0.538459 	0.00262258 	-3.12014 	90.0094 	62.1041 	-0.550488 	198.981 	360.766 	285.062 	539.18 	
79.7426 	-0.0087198 	-0.716019 	0.0841103 	0.555911 	0.00261577 	-3.11993 	90.0094 	62.1041 	-0.550488 	199.984 	360.766 	285.059 	539.18 	
79.8454 	-0.00865627 	-0.715915 	0.0779687 	0.573364 	0.00261268 	-3.11971 	90.0094 	62.1041 	-0.550488 	200.975 	360.766 	285.045 	539.18 	
79.9474 	-0.00859205 	-0.715704 	0.0718298 	0.590816 	0.00261331 	-3.1195 	90.0094 	62.1041 	-0.550488 	202.077 	360.766 	285.042 	539.18 	
80.0495 	-0.00852716 	-0.715386 	0.0656956 	0.608269 	0.00261766 	-3.11929 	90.0094 	62.1041 	-0.550488 	203.078 	360.766 	285.041 	539.18 	
80.1519 	-0.00839545 	-0.714429 	0.0534486 	0.643174 	0.00263754 	-3.11886 	90.0094 	62.1041 	-0.550488 	203.974 	360.766 	285.041 	539.18 	
80.2545 	-0.00832868 	-0.71379 	0.0473394 	0.660626 	0.00265305 	-3.11865 	90.0094 	62.1042 	-0.550488 	205.087 	360.766 	285.04 	539.18 	
80.3569 	-0.00826131 	-0.713044 	0.0412424 	0.678079 	0.00267228 	-3.11844 	90.0094 	62.1041 	-0.550488 	206.068 	360.766 	285.039 	539.18 	
80.4587 	-0.00819337 	-0.712193 	0.0351593 	0.695531 	0.0026952 	-3.11822 	90.0094 	62.1041 	-0.550488 	207.175 	360.766 	285.039 	539.18 	
80.5602 	-0.00812489 	-0.711235 	0.0290919 	0.712984 	0.00272183 	-3.11801 	90.0094 	62.1042 	-0.550488 	208.175 	360.766 	285.039 	539.18 	
80.6625 	-0.00805588 	-0.710171 	0.0230423 	0.730436 	0.00275215 	-3.1178 	90.0094 	62.1041 	-0.550488 	209.172 	360.766 	285.038 	539.18 	
80.7652 	-0.00798636 	-0.709003 	0.0170121 	0.747889 	0.00278615 	-3.11759 	90.0094 	62.1042 	-0.550488 	210.176 	360.766 	285.038 	539.18 	
80.868 	-0.00791636 	-0.707729 	0.0110033 	0.765341 	0.00282381 	-3.11738 	90.0094 	62.1042 	-0.550488 	211.262 	360.766 	285.037 	539.18 	
80.9699 	-0.0078459 	-0.70635 	0.00501764 	0.782794 	0.00286514 	-3.11717 	90.0094 	62.1042 	-0.550488 	212.245 	360.766 	285.037 	539.18 	
81.0752 	-0.00777499 	-0.704867 	-0.00094305 	0.800246 	0.00291012 	-3.11696 	90.0094 	62.1042 	-0.550488 	213.251 	360.766 	285.036 	539.18 	
81.178 	-0.00770366 	-0.70328 	-0.00687696 	0.817699 	0.00295872 	-3.11675 	90.0094 	62.1042 	-0.550488 	214.367 	360.766 	285.036 	539.18 	
81.2803 	-0.00763194 	-0.70159 	-0.0127823 	0.835151 	0.00301095 	-3.11655 	90.0094 	62.1042 	-0.550488 	215.364 	360.766 	285.035 	539.18 	
81.3829 	-0.00755983 	-0.699797 	-0.0186572 	0.852604 	0.00306678 	-3.11634 	90.0094 	62.1042 	-0.550488 	216.36 	360.766 	285.035 	539.18 	
81.4849 	-0.00748738 	-0.697902 	-0.0244999 	0.870056 	0.00312619 	-3.11614 	90.0094 	62.1042 	-0.550488 	217.358 	360.766 	285.035 	539.18 	
81.5869 	-0.00741459 	-0.695905 	-0.0303086 	0.887508 	0.00318917 	-3.11593 	90.0094 	62.1042 	-0.550488 	218.446 	360.766 	285.035 	539.18 	
81.6901 	-0.00734148 	-0.693807 	-0.0360816 	0.904961 	0.0032557 	-3.11573 	90.0094 	62.1042 	-0.550488 	219.441 	360.766 	285.035 	539.18 	
81.793 	-0.0072681 	-0.691609 	-0.0418171 	0.922413 	0.00332575 	-3.11553 	90.0094 	62.1043 	-0.550488 	220.436 	360.766 	285.035 	539.18 	
81.8943 	-0.00719444 	-0.689311 	-0.0475133 	0.939865 	0.00339931 	-3.11533 	90.0094 	62.1043 	-0.550488 	221.434 	360.766 	285.034 	539.18 	
81.9963 	-0.00712054 	-0.686913 	-0.0531685 	0.957318 	0.00347636 	-3.11513 	90.0094 	62.1043 	-0.550488 	222.43 	360.766 	285.034 	539.18 	
82.0984 	-0.00704642 	-0.684418 	-0.0587811 	0.97477 	0.00355687 	-3.11493 	90.0094 	62.1043 	-0.550488 	223.518 	360.766 	285.034 	539.18 	
82.2013 	-0.0069721 	-0.681825 	-0.0643492 	0.992223 	0.00364081 	-3.11474 	90.0094 	62.1043 	-0.550488 	224.521 	360.766 	285.034 	539.18 	
82.3039 	-0.00689761 	-0.679135 	-0.0698713 	1.00967 	0.00372816 	-3.11454 	90.0094 	62.1043 	-0.550488 	225.521 	360.766 	285.033 	539.18 	
82.4067 	-0.00682296 	-0.676349 	-0.0753455 	1.02713 	0.00381889 	-3.11435 	90.0094 	62.1044 	-0.550488 	226.616 	360.766 	285.033 	539.18 	
82.5087 	-0.00674819 	-0.673468 	-0.0807702 	1.04458 	0.00391298 	-3.11416 	90.0094 	62.1044 	-0.550488 	227.607 	360.766 	285.033 	539.18 	
82.6107 	-0.0066733 	-0.670492 	-0.0861439 	1.06203 	0.0040104 	-3.11397 	90.0094 	62.1044 	-0.550488 	228.606 	360.766 	285.033 	539.18 	
82.7141 	-0.00659833 	-0.667424 	-0.0914647 	1.07948 	0.00411112 	-3.11378 	90.0094 	62.1044 	-0.550488 	229.6 	360.766 	285.032 	539.18 	
