RISC-NYUAD/HeavyPayloadDrone/projects/kinova-ros/devel/lib/ne_kinova_demo/VulcanTrajectory/Vulcan1_Vicon_y19m11d14h14min54.csv
time (NSec) 	Kinova Tip Position (t_x) 	t_y 	t_z 	Kinova Tip Angle (theta_x) 	Kinova Tip Angle (theta_y) 	Kinova Tip Angle (theta_z) 	Kinova Joint Angle (j1) 	(j2) 	(j3) 	(j4) 	Kinova Joint Angle (j5) 	(j6) 	(j7)
0.0254922 	-0.00383036 	-0.485763 	-0.243215 	1.76538 	0.0102515 	-3.10831 	90.0546 	63.1162 	-0.618945 	268.864 	360.844 	285.236 	539.196 	
0.0455289 	-0.00383036 	-0.485763 	-0.243215 	1.76538 	0.0102515 	-3.10831 	90.0546 	63.1183 	-0.618848 	268.864 	360.844 	285.236 	539.196 	
0.0724697 	-0.00383036 	-0.485763 	-0.243215 	1.76538 	0.0102515 	-3.10831 	90.0546 	63.1193 	-0.619043 	268.863 	360.844 	285.236 	539.196 	
0.176667 	-0.00379601 	-0.488193 	-0.238679 	1.7654 	0.0103922 	-3.12259 	90.0546 	63.4512 	-0.619043 	269.147 	360.844 	285.235 	539.417 	
0.279528 	-0.00374454 	-0.491655 	-0.23161 	1.76539 	0.0106059 	-3.12532 	90.0546 	64.3618 	-0.619238 	270.012 	360.844 	285.235 	539.684 	
0.381661 	-0.00369848 	-0.494685 	-0.225127 	1.76539 	0.010801 	-3.12527 	90.0546 	65.3437 	-0.619141 	270.972 	360.844 	285.235 	539.694 	
0.484577 	-0.00365315 	-0.4976 	-0.218592 	1.76539 	0.010997 	-3.12523 	90.0546 	66.4519 	-0.619043 	272.08 	360.844 	285.235 	539.697 	
0.586537 	-0.00360854 	-0.500401 	-0.212008 	1.76539 	0.0111938 	-3.12519 	90.0546 	67.4494 	-0.619043 	273.076 	360.844 	285.235 	539.698 	
0.688574 	-0.00356469 	-0.503087 	-0.205375 	1.76539 	0.0113912 	-3.12515 	90.0546 	68.4577 	-0.619043 	274.073 	360.844 	285.235 	539.699 	
0.790505 	-0.00352159 	-0.505657 	-0.198697 	1.76539 	0.0115893 	-3.12512 	90.0546 	69.4718 	-0.619238 	275.063 	360.844 	285.235 	539.7 	
0.896582 	-0.00347926 	-0.508109 	-0.191975 	1.76539 	0.0117879 	-3.12509 	90.0545 	70.5461 	-0.619336 	276.182 	360.844 	285.235 	539.701 	
0.998535 	-0.00343772 	-0.510444 	-0.185211 	1.76539 	0.011987 	-3.12506 	90.0546 	71.4626 	-0.619141 	277.073 	360.844 	285.235 	539.701 	
1.10054 	-0.00339698 	-0.512661 	-0.178407 	1.76539 	0.0121866 	-3.12503 	90.0546 	72.4578 	-0.618945 	278.071 	360.844 	285.235 	539.702 	
1.20257 	-0.00335704 	-0.514758 	-0.171566 	1.76539 	0.0123866 	-3.12501 	90.0546 	73.4755 	-0.619043 	279.174 	360.844 	285.235 	539.702 	
1.30485 	-0.00331793 	-0.516736 	-0.164689 	1.76539 	0.012587 	-3.125 	90.0546 	74.655 	-0.619043 	280.269 	360.844 	285.235 	539.702 	
1.40753 	-0.00327965 	-0.518593 	-0.157779 	1.76539 	0.0127875 	-3.12498 	90.0546 	75.6716 	-0.619043 	281.27 	360.844 	285.235 	539.703 	
1.50987 	-0.00324222 	-0.520329 	-0.150837 	1.76539 	0.0129883 	-3.12497 	90.0546 	76.6668 	-0.619141 	282.277 	360.844 	285.235 	539.703 	
1.61281 	-0.00320565 	-0.521945 	-0.143866 	1.76539 	0.0131893 	-3.12497 	90.0546 	77.6899 	-0.619043 	283.269 	360.844 	285.235 	539.703 	
1.71564 	-0.00316995 	-0.523438 	-0.136868 	1.76539 	0.0133903 	-3.12496 	90.0546 	78.7842 	-0.619043 	284.374 	360.844 	285.235 	539.703 	
1.81891 	-0.00313512 	-0.524809 	-0.129845 	1.76539 	0.0135914 	-3.12496 	90.0546 	79.7901 	-0.619043 	285.379 	360.844 	285.235 	539.703 	
1.92157 	-0.00310118 	-0.526056 	-0.122799 	1.76539 	0.0137924 	-3.12497 	90.0546 	80.7825 	-0.618945 	286.374 	360.844 	285.235 	539.704 	
2.02392 	-0.00306815 	-0.527181 	-0.115732 	1.76539 	0.0139933 	-3.12497 	90.0547 	81.8746 	-0.619043 	287.478 	360.844 	285.235 	539.704 	
2.12702 	-0.00303602 	-0.528183 	-0.108647 	1.76539 	0.0141941 	-3.12498 	90.0546 	82.8727 	-0.619043 	288.47 	360.844 	285.235 	539.704 	
2.22975 	-0.00300482 	-0.52906 	-0.101545 	1.76539 	0.0143946 	-3.125 	90.0546 	83.8877 	-0.619336 	289.467 	360.844 	285.235 	539.704 	
2.3328 	-0.00297454 	-0.529814 	-0.0944292 	1.76539 	0.0145948 	-3.12502 	90.0545 	84.8873 	-0.619141 	290.472 	360.844 	285.235 	539.704 	
2.43577 	-0.0029452 	-0.530442 	-0.0873013 	1.76539 	0.0147948 	-3.12504 	90.0545 	85.9815 	-0.619629 	291.573 	360.844 	285.235 	539.704 	
2.53879 	-0.00291681 	-0.530947 	-0.0801635 	1.76539 	0.0149943 	-3.12506 	90.0545 	86.9823 	-0.619238 	292.582 	360.844 	285.235 	539.704 	
2.64164 	-0.00288938 	-0.531327 	-0.073018 	1.7654 	0.0151933 	-3.12509 	90.0546 	87.9772 	-0.619141 	293.573 	360.844 	285.235 	539.704 	
2.74489 	-0.00286292 	-0.531582 	-0.0658669 	1.7654 	0.0153918 	-3.12512 	90.0546 	89.0941 	-0.619238 	294.673 	360.844 	285.235 	539.704 	
2.84819 	-0.00283742 	-0.531713 	-0.0587124 	1.7654 	0.0155898 	-3.12516 	90.0544 	90.1075 	-0.619043 	295.68 	360.844 	285.235 	539.704 	
2.95083 	-0.00281291 	-0.531718 	-0.0515568 	1.7654 	0.015787 	-3.1252 	90.0545 	91.0901 	-0.619141 	296.683 	360.844 	285.235 	539.704 	
3.05359 	-0.00278938 	-0.531599 	-0.0444022 	1.7654 	0.0159836 	-3.12524 	90.0546 	92.1874 	-0.618945 	297.776 	360.844 	285.235 	539.704 	
3.1572 	-0.00276685 	-0.531354 	-0.0372507 	1.7654 	0.0161794 	-3.12529 	90.0546 	93.1743 	-0.619043 	298.773 	360.844 	285.235 	539.704 	
3.2627 	-0.00274532 	-0.530985 	-0.0301046 	1.7654 	0.0163744 	-3.12533 	90.0546 	94.1833 	-0.618848 	299.774 	360.844 	285.235 	539.705 	
3.36553 	-0.0027248 	-0.530491 	-0.022966 	1.7654 	0.0165685 	-3.12539 	90.0545 	95.2806 	-0.619141 	300.878 	360.844 	285.235 	539.705 	
3.46965 	-0.00270529 	-0.529873 	-0.0158372 	1.7654 	0.0167617 	-3.12544 	90.0545 	96.2531 	-0.619141 	301.874 	360.844 	285.235 	539.705 	
3.57361 	-0.00268681 	-0.529131 	-0.00872016 	1.7654 	0.0169538 	-3.1255 	90.0544 	97.3806 	-0.619043 	302.98 	360.844 	285.235 	539.705 	
3.67657 	-0.00266935 	-0.528264 	-0.00161723 	1.7654 	0.0171449 	-3.12556 	90.0544 	98.3685 	-0.619434 	303.972 	360.844 	285.235 	539.705 	
3.77959 	-0.00265293 	-0.527273 	0.00546958 	1.76541 	0.0173349 	-3.12563 	90.0543 	99.3865 	-0.619141 	304.979 	360.844 	285.235 	539.705 	
3.88142 	-0.00262319 	-0.524922 	0.0195858 	1.76541 	0.0177113 	-3.12577 	90.0545 	100.426 	-0.619043 	305.985 	360.844 	285.236 	539.705 	
3.98346 	-0.00260989 	-0.523562 	0.026611 	1.76541 	0.0178975 	-3.12585 	90.0544 	101.476 	-0.619141 	307.078 	360.844 	285.235 	539.705 	
4.08553 	-0.00259764 	-0.52208 	0.0336113 	1.76541 	0.0180824 	-3.12593 	90.0545 	102.485 	-0.619141 	308.082 	360.844 	285.235 	539.705 	
4.18775 	-0.00258644 	-0.520475 	0.0405848 	1.76541 	0.018266 	-3.12601 	90.0545 	103.467 	-0.618945 	309.07 	360.844 	285.235 	539.705 	
4.2894 	-0.0025763 	-0.518749 	0.0475292 	1.76542 	0.018448 	-3.12609 	90.0546 	104.47 	-0.618945 	310.076 	360.844 	285.235 	539.705 	
4.39647 	-0.00256722 	-0.516903 	0.0544424 	1.76542 	0.0186286 	-3.12618 	90.0546 	105.569 	-0.61875 	311.179 	360.844 	285.235 	539.705 	
4.49855 	-0.0025592 	-0.514935 	0.0613223 	1.76542 	0.0188075 	-3.12627 	90.0547 	106.575 	-0.618848 	312.184 	360.844 	285.235 	539.705 	
4.60057 	-0.00255225 	-0.512848 	0.068167 	1.76542 	0.0189848 	-3.12637 	90.0547 	107.567 	-0.618848 	313.17 	360.844 	285.235 	539.705 	
4.7024 	-0.0025469 	-0.510868 	0.074295 	1.76542 	0.019143 	-3.12646 	90.0547 	108.559 	-0.618945 	314.18 	360.844 	285.235 	539.705 	
4.80508 	-0.00254155 	-0.508318 	0.0817416 	1.76543 	0.0193344 	-3.12657 	90.0546 	109.655 	-0.618945 	315.276 	360.844 	285.235 	539.705 	
4.90799 	-0.0025378 	-0.505875 	0.0884675 	1.76543 	0.0195066 	-3.12667 	90.0546 	110.619 	-0.619043 	316.267 	360.844 	285.235 	539.705 	
5.011 	-0.00253601 	-0.504082 	0.0954332 	1.76311 	0.0196537 	-3.12677 	90.0546 	111.656 	-0.618945 	317.142 	360.844 	285.235 	539.705 	
5.11383 	-0.00254029 	-0.507148 	0.104258 	1.74566 	0.0196492 	-3.12679 	90.0545 	112.763 	-0.619043 	317.327 	360.844 	285.235 	539.705 	
5.2171 	-0.00254435 	-0.51006 	0.113135 	1.7282 	0.0196452 	-3.12681 	90.0545 	113.768 	-0.619238 	317.356 	360.844 	285.235 	539.705 	
5.31991 	-0.0025482 	-0.512815 	0.122061 	1.71075 	0.0196416 	-3.12684 	90.0546 	114.756 	-0.618848 	317.368 	360.844 	285.235 	539.705 	
5.42263 	-0.00255183 	-0.515415 	0.131034 	1.6933 	0.0196384 	-3.12686 	90.0546 	115.751 	-0.619141 	317.38 	360.844 	285.235 	539.705 	
5.44039 	-0.00255183 	-0.515415 	0.131034 	1.6933 	0.0196384 	-3.12686 	90.0546 	115.966 	-0.618848 	317.381 	360.844 	285.235 	539.705 	
5.54384 	-0.00255476 	-0.517572 	0.13786 	1.67934 	0.019626 	-3.12688 	90.0545 	116.854 	-0.619043 	317.104 	360.844 	285.235 	539.705 	
5.64665 	-0.00256525 	-0.52556 	0.149599 	1.64408 	0.019444 	-3.12681 	90.0546 	117.516 	-0.619043 	316.256 	360.844 	285.235 	539.705 	
5.75014 	-0.00257365 	-0.53113 	0.15301 	1.62558 	0.0192698 	-3.12674 	90.0545 	117.646 	-0.619141 	315.29 	360.844 	285.235 	539.705 	
5.85261 	-0.00258303 	-0.536517 	0.155965 	1.60812 	0.0190944 	-3.12666 	90.0546 	117.655 	-0.619043 	314.282 	360.844 	285.235 	539.705 	
5.95613 	-0.00259357 	-0.541852 	0.159013 	1.59067 	0.0189176 	-3.12659 	90.0546 	117.669 	-0.619043 	313.181 	360.844 	285.235 	539.705 	
6.06367 	-0.00260527 	-0.547132 	0.162154 	1.57322 	0.0187396 	-3.12652 	90.0546 	117.689 	-0.619141 	312.086 	360.844 	285.235 	539.705 	
6.16669 	-0.00261813 	-0.552357 	0.165386 	1.55576 	0.0185604 	-3.12645 	90.0546 	117.709 	-0.618945 	311.075 	360.844 	285.236 	539.705 	
6.26944 	-0.00263213 	-0.557525 	0.168709 	1.53831 	0.0183801 	-3.12639 	90.0546 	117.708 	-0.619141 	310.071 	360.844 	285.235 	539.705 	
6.37259 	-0.0026619 	-0.567181 	0.17527 	1.50514 	0.0180346 	-3.12628 	90.0546 	117.709 	-0.619043 	309.06 	360.844 	285.235 	539.705 	
6.47557 	-0.002681 	-0.57267 	0.179213 	1.48594 	0.0178329 	-3.12622 	90.0545 	117.719 	-0.619141 	307.963 	360.844 	285.235 	539.705 	
6.57874 	-0.00269766 	-0.577104 	0.182517 	1.47023 	0.0176671 	-3.12617 	90.0545 	117.721 	-0.619043 	306.955 	360.844 	285.235 	539.705 	
6.68142 	-0.00271925 	-0.582452 	0.18665 	1.45103 	0.0174635 	-3.12612 	90.0546 	117.723 	-0.618945 	305.955 	360.844 	285.235 	539.705 	
6.78358 	-0.00274006 	-0.587244 	0.190495 	1.43358 	0.0172775 	-3.12608 	90.0546 	117.724 	-0.619141 	304.848 	360.844 	285.235 	539.705 	
6.88547 	-0.00276198 	-0.591969 	0.194423 	1.41613 	0.0170908 	-3.12603 	90.0546 	117.725 	-0.619043 	303.845 	360.844 	285.235 	539.705 	
6.98738 	-0.00278501 	-0.596624 	0.198433 	1.39867 	0.0169034 	-3.126 	90.0545 	117.744 	-0.619043 	302.839 	360.844 	285.235 	539.705 	
7.08942 	-0.00280914 	-0.601208 	0.202524 	1.38122 	0.0167154 	-3.12596 	90.0546 	117.739 	-0.619043 	301.832 	360.844 	285.235 	539.705 	
7.19747 	-0.00283435 	-0.60572 	0.206694 	1.36377 	0.0165269 	-3.12593 	90.0545 	117.748 	-0.619043 	300.734 	360.844 	285.235 	539.706 	
7.29952 	-0.00286066 	-0.610159 	0.210942 	1.34631 	0.0163378 	-3.1259 	90.0545 	117.748 	-0.619238 	299.727 	360.844 	285.235 	539.705 	
7.40154 	-0.00288804 	-0.614523 	0.215267 	1.32886 	0.0161482 	-3.12588 	90.0545 	117.748 	-0.619238 	298.728 	360.844 	285.235 	539.706 	
7.50379 	-0.00291649 	-0.618811 	0.219668 	1.3114 	0.0159583 	-3.12586 	90.0545 	117.749 	-0.619141 	297.716 	360.844 	285.235 	539.706 	
7.60641 	-0.002946 	-0.623021 	0.224142 	1.29395 	0.015768 	-3.12584 	90.0545 	117.749 	-0.619141 	296.624 	360.844 	285.235 	539.706 	
7.70884 	-0.00297656 	-0.627153 	0.22869 	1.2765 	0.0155774 	-3.12583 	90.0546 	117.75 	-0.618945 	295.613 	360.844 	285.235 	539.706 	
7.81193 	-0.00300816 	-0.631204 	0.233309 	1.25904 	0.0153866 	-3.12581 	90.0546 	117.797 	-0.619043 	294.611 	360.844 	285.236 	539.706 	
7.91442 	-0.0030408 	-0.635175 	0.237998 	1.24159 	0.0151956 	-3.12581 	90.0546 	117.788 	-0.619238 	293.498 	360.844 	285.235 	539.706 	
8.01666 	-0.00307445 	-0.639063 	0.242755 	1.22414 	0.0150045 	-3.1258 	90.0545 	117.791 	-0.619141 	292.498 	360.844 	285.235 	539.706 	
8.1196 	-0.00310912 	-0.642867 	0.24758 	1.20668 	0.0148134 	-3.1258 	90.0544 	117.793 	-0.619238 	291.493 	360.844 	285.235 	539.706 	
8.22239 	-0.00314479 	-0.646587 	0.25247 	1.18923 	0.0146223 	-3.1258 	90.0546 	117.777 	-0.619141 	290.492 	360.844 	285.234 	539.706 	
8.32457 	-0.00317774 	-0.649861 	0.256926 	1.17352 	0.0144503 	-3.12581 	90.0545 	117.795 	-0.619141 	289.385 	360.844 	285.235 	539.706 	
8.42676 	-0.00321909 	-0.653767 	0.262442 	1.15432 	0.0142403 	-3.12582 	90.0545 	117.839 	-0.619141 	288.369 	360.844 	285.236 	539.706 	
8.52952 	-0.00325769 	-0.657225 	0.26752 	1.13687 	0.0140496 	-3.12583 	90.0546 	117.736 	-0.619336 	287.384 	360.844 	285.221 	539.706 	
8.63167 	-0.00329725 	-0.660595 	0.272658 	1.11942 	0.0138591 	-3.12584 	90.0546 	117.753 	-0.619043 	286.381 	360.844 	285.22 	539.706 	
8.7345 	-0.00333776 	-0.663874 	0.277853 	1.10196 	0.0136689 	-3.12586 	90.0546 	117.803 	-0.619141 	285.265 	360.844 	285.222 	539.706 	
8.83816 	-0.0033792 	-0.667062 	0.283106 	1.08451 	0.013479 	-3.12589 	90.0544 	117.821 	-0.619238 	284.258 	360.844 	285.223 	539.706 	
8.94103 	-0.00342155 	-0.670157 	0.288413 	1.06706 	0.0132896 	-3.12591 	90.0544 	117.822 	-0.619141 	283.26 	360.844 	285.223 	539.706 	
9.04391 	-0.00346481 	-0.67316 	0.293773 	1.04961 	0.0131006 	-3.12594 	90.0544 	117.84 	-0.619238 	282.255 	360.844 	285.224 	539.706 	
9.14683 	-0.00350897 	-0.676069 	0.299185 	1.03215 	0.0129122 	-3.12597 	90.0545 	117.842 	-0.619043 	281.138 	360.844 	285.224 	539.706 	
9.24988 	-0.003554 	-0.678883 	0.304647 	1.0147 	0.0127243 	-3.12601 	90.0545 	117.842 	-0.619141 	280.138 	360.844 	285.224 	539.706 	
9.35274 	-0.0035999 	-0.681601 	0.310157 	0.997246 	0.0125371 	-3.12604 	90.0544 	117.84 	-0.619141 	279.135 	360.844 	285.223 	539.706 	
9.45618 	-0.00364665 	-0.684222 	0.315714 	0.979794 	0.0123506 	-3.12609 	90.0545 	117.838 	-0.619043 	278.045 	360.844 	285.223 	539.706 	
9.56289 	-0.00369424 	-0.686746 	0.321315 	0.962341 	0.0121649 	-3.12613 	90.0545 	117.826 	-0.619434 	277.044 	360.844 	285.222 	539.706 	
9.66562 	-0.00374265 	-0.689172 	0.32696 	0.944888 	0.0119799 	-3.12618 	90.0547 	117.837 	-0.618945 	275.929 	360.844 	285.222 	539.706 	
9.76942 	-0.00379187 	-0.691499 	0.332646 	0.927435 	0.0117959 	-3.12623 	90.0546 	117.835 	-0.619043 	274.914 	360.844 	285.222 	539.706 	
9.87457 	-0.00384188 	-0.693726 	0.338372 	0.909983 	0.0116127 	-3.12629 	90.0545 	117.835 	-0.619238 	273.823 	360.844 	285.222 	539.706 	
9.97881 	-0.00394423 	-0.69788 	0.349937 	0.875078 	0.0112495 	-3.12641 	90.0546 	117.877 	-0.619043 	272.788 	360.844 	285.223 	539.706 	
10.0814 	-0.00399653 	-0.699804 	0.355771 	0.857625 	0.0110694 	-3.12647 	90.0544 	117.871 	-0.619434 	271.816 	360.844 	285.222 	539.706 	
10.1835 	-0.00404956 	-0.701627 	0.361639 	0.840172 	0.0108906 	-3.12654 	90.0544 	117.843 	-0.619141 	270.826 	360.844 	285.217 	539.706 	
10.2864 	-0.0041033 	-0.703346 	0.367537 	0.82272 	0.0107129 	-3.12661 	90.0546 	117.868 	-0.618945 	269.702 	360.844 	285.217 	539.706 	
10.3885 	-0.00415775 	-0.704963 	0.373465 	0.805267 	0.0105365 	-3.12668 	90.0543 	117.864 	-0.619336 	268.713 	360.844 	285.216 	539.706 	
10.4906 	-0.00421287 	-0.706476 	0.379419 	0.787815 	0.0103614 	-3.12676 	90.0546 	117.861 	-0.619238 	267.719 	360.844 	285.215 	539.706 	
10.5974 	-0.00426866 	-0.707885 	0.385399 	0.770363 	0.0101877 	-3.12684 	90.0548 	117.792 	-0.619043 	266.637 	360.844 	285.194 	539.706 	
10.6995 	-0.0043251 	-0.709189 	0.391403 	0.75291 	0.0100153 	-3.12692 	90.0546 	117.948 	-0.618848 	265.576 	360.844 	285.216 	539.706 	
10.8015 	-0.00438217 	-0.710388 	0.397429 	0.735457 	0.00984447 	-3.12701 	90.054 	117.932 	-0.619336 	264.583 	360.844 	285.215 	539.706 	
10.9049 	-0.00443985 	-0.711482 	0.403475 	0.718005 	0.00967514 	-3.12709 	90.0541 	117.909 	-0.619336 	263.484 	360.844 	285.211 	539.706 	
11.0078 	-0.00449813 	-0.71247 	0.409539 	0.700553 	0.00950738 	-3.12719 	90.0543 	117.903 	-0.619141 	262.498 	360.844 	285.209 	539.706 	
11.1106 	-0.00455698 	-0.713352 	0.415619 	0.6831 	0.00934124 	-3.12728 	90.0543 	117.902 	-0.619141 	261.483 	360.844 	285.208 	539.706 	
11.2126 	-0.0046164 	-0.714128 	0.421714 	0.665648 	0.00917678 	-3.12738 	90.0543 	117.901 	-0.619141 	260.478 	360.844 	285.208 	539.706 	
11.3144 	-0.00467635 	-0.714797 	0.427821 	0.648195 	0.00901404 	-3.12748 	90.0543 	117.903 	-0.619238 	259.378 	360.844 	285.208 	539.706 	
11.4163 	-0.00473683 	-0.71536 	0.433939 	0.630743 	0.00885308 	-3.12758 	90.0544 	117.904 	-0.619043 	258.373 	360.844 	285.208 	539.706 	
11.5192 	-0.00479782 	-0.715816 	0.440066 	0.613291 	0.00869395 	-3.12769 	90.0543 	117.905 	-0.619141 	257.371 	360.844 	285.208 	539.706 	
11.6216 	-0.00485929 	-0.716164 	0.4462 	0.595838 	0.00853667 	-3.1278 	90.0544 	117.904 	-0.618945 	256.376 	360.844 	285.207 	539.706 	
11.7246 	-0.00492123 	-0.716406 	0.452339 	0.578386 	0.00838133 	-3.12791 	90.0544 	117.905 	-0.619141 	255.272 	360.844 	285.207 	539.706 	
11.8275 	-0.00498362 	-0.71654 	0.458482 	0.560933 	0.00822794 	-3.12802 	90.0544 	117.906 	-0.619043 	254.261 	360.844 	285.207 	539.706 	
11.9305 	-0.00504644 	-0.716568 	0.464625 	0.543481 	0.00807658 	-3.12814 	90.0544 	117.907 	-0.619141 	253.261 	360.844 	285.207 	539.706 	
12.0335 	-0.00510968 	-0.716488 	0.470769 	0.526028 	0.00792727 	-3.12826 	90.0544 	117.907 	-0.619141 	252.263 	360.844 	285.206 	539.706 	
12.137 	-0.0051733 	-0.7163 	0.47691 	0.508576 	0.00778007 	-3.12838 	90.0544 	117.905 	-0.619141 	251.172 	360.844 	285.203 	539.706 	
12.2394 	-0.00523729 	-0.716006 	0.483047 	0.491124 	0.00763501 	-3.1285 	90.0543 	117.909 	-0.619141 	250.154 	360.844 	285.202 	539.706 	
12.3418 	-0.00530164 	-0.715605 	0.489177 	0.473672 	0.00749215 	-3.12863 	90.0543 	117.909 	-0.619043 	249.16 	360.844 	285.201 	539.706 	
12.4448 	-0.00536632 	-0.715096 	0.4953 	0.456219 	0.00735153 	-3.12876 	90.0544 	117.909 	-0.619043 	248.057 	360.844 	285.196 	539.706 	
12.5476 	-0.00543132 	-0.714481 	0.501413 	0.438767 	0.00721319 	-3.12889 	90.0544 	117.909 	-0.619043 	247.058 	360.844 	285.195 	539.706 	
12.6511 	-0.0054966 	-0.713759 	0.507514 	0.421315 	0.00707717 	-3.12903 	90.0543 	117.909 	-0.619141 	246.051 	360.844 	285.193 	539.706 	
12.7535 	-0.00556217 	-0.712931 	0.513602 	0.403862 	0.00694352 	-3.12916 	90.0544 	117.909 	-0.619043 	245.056 	360.844 	285.192 	539.706 	
12.8573 	-0.00562798 	-0.711997 	0.519674 	0.38641 	0.00681227 	-3.1293 	90.0545 	117.909 	-0.618945 	243.958 	360.844 	285.191 	539.706 	
12.9637 	-0.00569403 	-0.710957 	0.52573 	0.368957 	0.00668346 	-3.12944 	90.0545 	117.909 	-0.618945 	242.96 	360.844 	285.187 	539.706 	
13.0668 	-0.00576029 	-0.709811 	0.531766 	0.351505 	0.00655714 	-3.12959 	90.054 	117.909 	-0.619238 	241.861 	360.844 	285.181 	539.706 	
13.1747 	-0.00582675 	-0.70856 	0.537781 	0.334053 	0.00643334 	-3.12973 	90.0541 	117.909 	-0.619141 	240.749 	360.844 	285.174 	539.706 	
13.2785 	-0.00589338 	-0.707204 	0.543773 	0.3166 	0.0063121 	-3.12988 	90.0547 	117.911 	-0.618848 	239.751 	360.844 	285.164 	539.706 	
13.3815 	-0.00596016 	-0.705744 	0.549741 	0.299148 	0.00619346 	-3.13003 	90.0544 	117.911 	-0.619043 	238.755 	360.844 	285.157 	539.706 	
13.4834 	-0.00609411 	-0.702513 	0.561596 	0.264243 	0.00596411 	-3.13034 	90.0545 	117.911 	-0.618945 	237.758 	360.844 	285.154 	539.706 	
13.5863 	-0.00616123 	-0.700742 	0.567479 	0.246791 	0.00585348 	-3.13049 	90.0545 	117.911 	-0.618945 	236.649 	360.844 	285.152 	539.706 	
13.689 	-0.00622842 	-0.698869 	0.57333 	0.229338 	0.00574558 	-3.13065 	90.0545 	117.911 	-0.618945 	235.649 	360.844 	285.149 	539.706 	
13.7914 	-0.00629566 	-0.696895 	0.579148 	0.211886 	0.00564045 	-3.13081 	90.0545 	117.911 	-0.618945 	234.643 	360.844 	285.147 	539.706 	
13.8974 	-0.00636293 	-0.694819 	0.58493 	0.194434 	0.00553812 	-3.13097 	90.0545 	117.911 	-0.618945 	233.556 	360.844 	285.143 	539.706 	
13.9995 	-0.00643021 	-0.692642 	0.590676 	0.176981 	0.00543862 	-3.13113 	90.0545 	117.911 	-0.618945 	232.543 	360.844 	285.142 	539.706 	
14.1028 	-0.00649748 	-0.690366 	0.596382 	0.159529 	0.00534199 	-3.1313 	90.0545 	117.911 	-0.618945 	231.539 	360.844 	285.14 	539.706 	
14.2054 	-0.00656472 	-0.68799 	0.602048 	0.142077 	0.00524825 	-3.13146 	90.0545 	117.911 	-0.618945 	230.444 	360.844 	285.138 	539.706 	
14.3074 	-0.00663191 	-0.685516 	0.607672 	0.124624 	0.00515743 	-3.13163 	90.0545 	117.912 	-0.618945 	229.446 	360.844 	285.136 	539.706 	
14.4097 	-0.00669902 	-0.682944 	0.613251 	0.107172 	0.00506956 	-3.1318 	90.0545 	117.912 	-0.619043 	228.451 	360.844 	285.133 	539.706 	
14.5128 	-0.00676605 	-0.680275 	0.618785 	0.0897192 	0.00498466 	-3.13197 	90.0545 	117.912 	-0.618945 	227.44 	360.844 	285.132 	539.706 	
14.616 	-0.00683296 	-0.677509 	0.624271 	0.0722666 	0.00490277 	-3.13215 	90.0545 	117.912 	-0.618945 	226.354 	360.844 	285.129 	539.706 	
14.7188 	-0.00689974 	-0.674649 	0.629709 	0.0548141 	0.0048239 	-3.13232 	90.0545 	117.913 	-0.619043 	225.34 	360.844 	285.128 	539.706 	
14.822 	-0.00696636 	-0.671694 	0.635095 	0.0373616 	0.00474808 	-3.1325 	90.0546 	117.913 	-0.618945 	224.348 	360.844 	285.127 	539.706 	
14.9244 	-0.00703281 	-0.668645 	0.640429 	0.0199091 	0.00467534 	-3.13267 	90.0546 	117.912 	-0.618945 	223.248 	360.844 	285.125 	539.706 	
15.0269 	-0.00709906 	-0.665504 	0.645709 	0.00245655 	0.00460569 	-3.13285 	90.0545 	117.912 	-0.619043 	222.246 	360.844 	285.121 	539.706 	
15.1295 	-0.00716511 	-0.662271 	0.650934 	-0.0149959 	0.00453916 	-3.13303 	90.0545 	117.913 	-0.618945 	221.245 	360.844 	285.109 	539.706 	
15.2323 	-0.00723091 	-0.658947 	0.656101 	-0.0324484 	0.00447577 	-3.13321 	90.0545 	117.913 	-0.618945 	220.25 	360.844 	285.097 	539.706 	
15.3349 	-0.00729646 	-0.655534 	0.661209 	-0.0499007 	0.00441553 	-3.13339 	90.0546 	117.917 	-0.618945 	219.142 	360.844 	285.087 	539.706 	
15.4377 	-0.00736174 	-0.652032 	0.666257 	-0.0673533 	0.00435846 	-3.13357 	90.0545 	117.918 	-0.618945 	218.141 	360.844 	285.075 	539.706 	
15.5412 	-0.00742673 	-0.648442 	0.671243 	-0.0848059 	0.00430459 	-3.13376 	90.0545 	117.917 	-0.618945 	217.149 	360.844 	285.067 	539.706 	
15.6441 	-0.00749139 	-0.644766 	0.676166 	-0.102258 	0.00425393 	-3.13394 	90.0546 	117.918 	-0.618945 	216.147 	360.844 	285.065 	539.706 	
15.7468 	-0.00755573 	-0.641005 	0.681024 	-0.119711 	0.00420649 	-3.13413 	90.0545 	117.918 	-0.618945 	215.047 	360.844 	285.061 	539.706 	
15.8497 	-0.00761971 	-0.637159 	0.685815 	-0.137163 	0.00416229 	-3.13431 	90.0545 	117.916 	-0.618945 	214.054 	360.844 	285.057 	539.706 	
15.9525 	-0.00768332 	-0.63323 	0.690539 	-0.154616 	0.00412134 	-3.1345 	90.0546 	117.916 	-0.618945 	213.051 	360.844 	285.051 	539.706 	
16.0559 	-0.00774654 	-0.62922 	0.695193 	-0.172069 	0.00408366 	-3.13469 	90.0545 	117.917 	-0.618945 	211.958 	360.844 	285.042 	539.706 	
16.1625 	-0.00780934 	-0.625129 	0.699777 	-0.189521 	0.00404925 	-3.13487 	90.0545 	117.917 	-0.618945 	210.961 	360.844 	285.039 	539.706 	
16.266 	-0.00787171 	-0.620958 	0.704288 	-0.206974 	0.00401813 	-3.13506 	90.0546 	117.919 	-0.618848 	209.842 	360.844 	285.036 	539.706 	
16.3694 	-0.00793364 	-0.61671 	0.708726 	-0.224426 	0.0039903 	-3.13525 	90.0539 	117.92 	-0.618945 	208.847 	360.844 	285.034 	539.706 	
16.4734 	-0.00805606 	-0.607983 	0.717377 	-0.259331 	0.00394457 	-3.13563 	90.0542 	117.92 	-0.618945 	207.845 	360.844 	285.032 	539.706 	
16.5773 	-0.00811652 	-0.603508 	0.721586 	-0.276784 	0.00392668 	-3.13582 	90.0546 	117.92 	-0.618848 	206.753 	360.844 	285.027 	539.706 	
16.6795 	-0.00817646 	-0.59896 	0.725717 	-0.294236 	0.00391211 	-3.13601 	90.0542 	117.919 	-0.618945 	205.759 	360.844 	285.016 	539.706 	
16.7825 	-0.00823586 	-0.594341 	0.729768 	-0.311689 	0.00390087 	-3.1362 	90.0547 	117.92 	-0.618848 	204.736 	360.844 	285.012 	539.706 	
16.8846 	-0.00829469 	-0.589651 	0.733738 	-0.329142 	0.00389296 	-3.13639 	90.0548 	117.918 	-0.618848 	203.659 	360.844 	285.001 	539.706 	
16.9874 	-0.00835294 	-0.584894 	0.737625 	-0.346594 	0.00388839 	-3.13659 	90.0546 	117.913 	-0.618945 	202.677 	360.844 	284.996 	539.706 	
17.0895 	-0.0084106 	-0.580069 	0.741428 	-0.364047 	0.00388715 	-3.13678 	90.0548 	117.918 	-0.618945 	201.654 	360.844 	284.995 	539.706 	
17.1974 	-0.00846765 	-0.575178 	0.745147 	-0.381499 	0.00388924 	-3.13697 	90.0544 	117.913 	-0.618945 	200.564 	360.844 	284.993 	539.706 	
17.2994 	-0.00852406 	-0.570223 	0.74878 	-0.398952 	0.00389467 	-3.13716 	90.0546 	117.913 	-0.618848 	199.57 	360.844 	284.992 	539.706 	
17.4013 	-0.00857983 	-0.565205 	0.752325 	-0.416404 	0.00390344 	-3.13735 	90.0546 	117.913 	-0.618945 	198.573 	360.844 	284.991 	539.706 	
17.5035 	-0.00863493 	-0.560127 	0.755783 	-0.433857 	0.00391553 	-3.13754 	90.0546 	117.914 	-0.618848 	197.563 	360.844 	284.991 	539.706 	
17.6057 	-0.00868935 	-0.554988 	0.759151 	-0.45131 	0.00393096 	-3.13773 	90.0545 	117.914 	-0.618848 	196.465 	360.844 	284.99 	539.706 	
17.7084 	-0.00874306 	-0.549792 	0.76243 	-0.468762 	0.0039497 	-3.13792 	90.0546 	117.913 	-0.618945 	195.473 	360.844 	284.987 	539.706 	
17.8116 	-0.00879607 	-0.54454 	0.765617 	-0.486215 	0.00397176 	-3.13811 	90.0545 	117.913 	-0.618848 	194.485 	360.844 	284.984 	539.706 	
17.9145 	-0.00884834 	-0.539232 	0.768712 	-0.503667 	0.00399713 	-3.1383 	90.0545 	117.913 	-0.618848 	193.368 	360.844 	284.978 	539.706 	
18.0177 	-0.00889986 	-0.533871 	0.771713 	-0.52112 	0.00402581 	-3.13849 	90.0546 	117.913 	-0.618848 	192.368 	360.844 	284.969 	539.706 	
18.1203 	-0.00895063 	-0.528459 	0.774621 	-0.538572 	0.00405777 	-3.13868 	90.0546 	117.913 	-0.618848 	191.372 	360.844 	284.95 	539.706 	
18.2225 	-0.00900061 	-0.522997 	0.777434 	-0.556025 	0.00409302 	-3.13887 	90.0544 	117.913 	-0.618848 	190.379 	360.844 	284.943 	539.706 	
18.3253 	-0.0090498 	-0.517486 	0.780151 	-0.573477 	0.00413155 	-3.13905 	90.0546 	117.913 	-0.618848 	189.273 	360.844 	284.938 	539.706 	
18.4274 	-0.00909818 	-0.511929 	0.782772 	-0.59093 	0.00417333 	-3.13924 	90.0545 	117.913 	-0.618848 	188.286 	360.844 	284.935 	539.706 	
18.5294 	-0.00914574 	-0.506327 	0.785295 	-0.608383 	0.00421836 	-3.13943 	90.0545 	117.913 	-0.618848 	187.291 	360.844 	284.933 	539.706 	
18.6318 	-0.00919246 	-0.500682 	0.78772 	-0.625835 	0.00426663 	-3.13961 	90.0546 	117.913 	-0.618848 	186.291 	360.844 	284.931 	539.706 	
18.7346 	-0.00923833 	-0.494995 	0.790046 	-0.643287 	0.00431812 	-3.13979 	90.0544 	117.912 	-0.618848 	185.186 	360.844 	284.928 	539.706 	
18.8374 	-0.00928333 	-0.489269 	0.792273 	-0.66074 	0.00437281 	-3.13998 	90.0545 	117.911 	-0.61875 	184.201 	360.844 	284.926 	539.706 	
18.9394 	-0.00932745 	-0.483505 	0.794399 	-0.678193 	0.00443069 	-3.14016 	90.0546 	117.911 	-0.618945 	183.208 	360.844 	284.925 	539.706 	
19.0423 	-0.00937068 	-0.477704 	0.796424 	-0.695645 	0.00449174 	-3.14034 	90.0545 	117.911 	-0.618848 	182.2 	360.844 	284.924 	539.706 	
19.1448 	-0.009413 	-0.471869 	0.798348 	-0.713098 	0.00455594 	-3.14052 	90.0545 	117.911 	-0.61875 	181.095 	360.844 	284.923 	539.706 	
19.2477 	-0.0094544 	-0.466001 	0.80017 	-0.73055 	0.00462328 	-3.1407 	90.0547 	117.912 	-0.618848 	180.101 	360.844 	284.922 	539.706 	
19.3503 	-0.00949087 	-0.460694 	0.801721 	-0.746257 	0.00468654 	-3.14086 	90.0546 	117.911 	-0.618848 	179.117 	360.844 	284.921 	539.706 	
19.4524 	-0.00953049 	-0.454769 	0.803347 	-0.76371 	0.00475976 	-3.14104 	90.0545 	117.911 	-0.61875 	178.121 	360.844 	284.918 	539.706 	
19.5556 	-0.00957297 	-0.448219 	0.805016 	-0.782907 	0.00484386 	-3.14123 	90.0545 	117.922 	-0.61875 	176.983 	360.844 	284.917 	539.706 	
19.6624 	-0.00961057 	-0.442239 	0.806424 	-0.80036 	0.0049235 	-3.1414 	90.0546 	117.904 	-0.61875 	176.039 	360.844 	284.914 	539.706 	
19.7646 	-0.00964719 	-0.436235 	0.807727 	-0.817812 	0.00500617 	-3.14158 	90.0542 	117.851 	-0.61875 	174.968 	360.844 	284.91 	539.707 	
19.8674 	-0.00968282 	-0.430208 	0.808926 	-0.835265 	0.00509184 	3.14144 	90.0543 	117.83 	-0.618652 	173.974 	360.844 	284.907 	539.707 	
19.9704 	-0.00971745 	-0.424162 	0.810019 	-0.852717 	0.00518047 	3.14127 	90.0546 	117.843 	-0.618848 	172.934 	360.844 	284.902 	539.707 	
20.0742 	-0.00975107 	-0.418098 	0.811006 	-0.87017 	0.00527204 	3.1411 	90.0545 	117.842 	-0.618652 	171.841 	360.844 	284.895 	539.707 	
20.1785 	-0.00981523 	-0.405923 	0.812662 	-0.905075 	0.00546389 	3.14077 	90.0542 	117.841 	-0.618652 	170.854 	360.844 	284.885 	539.707 	
20.2802 	-0.00984575 	-0.399815 	0.81333 	-0.922527 	0.00556412 	3.14061 	90.0546 	117.839 	-0.61875 	169.866 	360.844 	284.869 	539.707 	
20.3823 	-0.00987522 	-0.393697 	0.813892 	-0.939979 	0.00566717 	3.14045 	90.0545 	117.844 	-0.618652 	168.839 	360.844 	284.865 	539.707 	
20.4843 	-0.00990363 	-0.387569 	0.814347 	-0.957432 	0.00577301 	3.14029 	90.0545 	117.841 	-0.61875 	167.758 	360.844 	284.858 	539.707 	
20.5861 	-0.00993098 	-0.381435 	0.814695 	-0.974884 	0.00588162 	3.14013 	90.0545 	117.84 	-0.618652 	166.772 	360.844 	284.856 	539.707 	
20.6885 	-0.00995724 	-0.375296 	0.814936 	-0.992337 	0.00599296 	3.13998 	90.0545 	117.841 	-0.61875 	165.769 	360.844 	284.852 	539.707 	
20.7904 	-0.00998242 	-0.369153 	0.815069 	-1.00979 	0.00610699 	3.13982 	90.0545 	117.83 	-0.618652 	164.799 	360.844 	284.848 	539.707 	
20.8972 	-0.0100041 	-0.363623 	0.815098 	-1.0255 	0.00621188 	3.13969 	90.0545 	117.832 	-0.618652 	163.691 	360.844 	284.846 	539.707 	
20.9993 	-0.0100295 	-0.356865 	0.815015 	-1.04469 	0.00634298 	3.13952 	90.0545 	117.842 	-0.618652 	162.642 	360.844 	284.844 	539.707 	
21.1013 	-0.0100492 	-0.351338 	0.814851 	-1.0604 	0.00645258 	3.13939 	90.0544 	117.841 	-0.618359 	161.663 	360.844 	284.841 	539.707 	
21.2032 	-0.0100701 	-0.3452 	0.814566 	-1.07785 	0.00657678 	3.13924 	90.0545 	117.837 	-0.618359 	160.683 	360.844 	284.84 	539.707 	
21.3053 	-0.0100899 	-0.339069 	0.814175 	-1.09531 	0.00670349 	3.1391 	90.0545 	117.837 	-0.618555 	159.603 	360.844 	284.837 	539.707 	
21.4073 	-0.0101103 	-0.332333 	0.81362 	-1.1145 	0.00684573 	3.13895 	90.0545 	117.832 	-0.618457 	158.608 	360.844 	284.836 	539.707 	
21.5093 	-0.010126 	-0.326831 	0.813071 	-1.13021 	0.00696431 	3.13882 	90.0546 	117.831 	-0.618555 	157.619 	360.844 	284.835 	539.707 	
21.6113 	-0.0101424 	-0.320728 	0.812359 	-1.14766 	0.00709833 	3.13869 	90.0544 	117.832 	-0.618359 	156.608 	360.844 	284.834 	539.707 	
21.7133 	-0.0101576 	-0.314638 	0.81154 	-1.16511 	0.00723472 	3.13855 	90.0546 	117.831 	-0.618555 	155.608 	360.844 	284.833 	539.707 	
21.8155 	-0.010173 	-0.307958 	0.810518 	-1.18431 	0.00738742 	3.13841 	90.0545 	117.829 	-0.618457 	154.525 	360.844 	284.831 	539.707 	
21.9182 	-0.0101846 	-0.302507 	0.809586 	-1.20002 	0.0075144 	3.13829 	90.0545 	117.828 	-0.618457 	153.518 	360.844 	284.83 	539.707 	
22.0202 	-0.0101964 	-0.296469 	0.80845 	-1.21747 	0.00765761 	3.13816 	90.0545 	117.829 	-0.618457 	152.521 	360.844 	284.829 	539.707 	
22.1223 	-0.010207 	-0.290451 	0.807208 	-1.23492 	0.007803 	3.13804 	90.0545 	117.824 	-0.618457 	151.538 	360.844 	284.828 	539.707 	
22.2242 	-0.0102173 	-0.283858 	0.805722 	-1.25412 	0.0079654 	3.13791 	90.0545 	117.824 	-0.618555 	150.454 	360.844 	284.828 	539.707 	
22.3263 	-0.0102247 	-0.278486 	0.804412 	-1.26983 	0.00810017 	3.1378 	90.0545 	117.824 	-0.618457 	149.441 	360.844 	284.826 	539.707 	
22.4282 	-0.0102325 	-0.271949 	0.802697 	-1.28903 	0.00826713 	3.13767 	90.0545 	117.826 	-0.618359 	148.435 	360.844 	284.826 	539.707 	
22.5302 	-0.0102378 	-0.266625 	0.8012 	-1.30473 	0.00840555 	3.13757 	90.0545 	117.82 	-0.618457 	147.456 	360.844 	284.825 	539.707 	
22.6322 	-0.010243 	-0.260152 	0.799257 	-1.32393 	0.00857687 	3.13745 	90.0546 	117.819 	-0.618555 	146.463 	360.844 	284.824 	539.707 	
22.7347 	-0.0102462 	-0.254884 	0.797576 	-1.33964 	0.00871876 	3.13735 	90.0544 	117.817 	-0.618164 	145.374 	360.844 	284.823 	539.707 	
22.8376 	-0.0102486 	-0.249062 	0.79561 	-1.35709 	0.00887819 	3.13725 	90.0545 	117.817 	-0.618359 	144.358 	360.844 	284.821 	539.707 	
22.9402 	-0.0102499 	-0.243276 	0.793544 	-1.37454 	0.00903944 	3.13714 	90.0546 	117.817 	-0.618359 	143.363 	360.844 	284.82 	539.707 	
23.0423 	-0.01025 	-0.237527 	0.791377 	-1.392 	0.00920244 	3.13704 	90.0545 	117.817 	-0.618164 	142.367 	360.844 	284.818 	539.707 	
23.1441 	-0.0102489 	-0.231816 	0.78911 	-1.40945 	0.00936717 	3.13695 	90.0545 	117.817 	-0.618164 	141.278 	360.844 	284.817 	539.707 	
23.2463 	-0.0102466 	-0.226146 	0.786743 	-1.4269 	0.00953357 	3.13685 	90.0545 	117.815 	-0.618359 	140.277 	360.844 	284.814 	539.707 	
23.3491 	-0.0102432 	-0.220518 	0.784278 	-1.44435 	0.00970158 	3.13676 	90.0545 	117.816 	-0.618262 	139.272 	360.844 	284.809 	539.707 	
23.4509 	-0.0102381 	-0.214378 	0.781453 	-1.46355 	0.00988819 	3.13666 	90.0545 	117.815 	-0.618262 	138.285 	360.844 	284.807 	539.707 	
23.5537 	-0.0102328 	-0.209396 	0.779055 	-1.47926 	0.0100422 	3.13659 	90.0545 	117.814 	-0.618262 	137.285 	360.844 	284.806 	539.707 	
23.6562 	-0.0102251 	-0.203358 	0.776018 	-1.49846 	0.0102321 	3.1365 	90.0545 	117.803 	-0.618262 	136.199 	360.844 	284.805 	539.707 	
23.7628 	-0.0102169 	-0.197921 	0.773156 	-1.51591 	0.0104062 	3.13642 	90.0545 	117.801 	-0.618164 	135.182 	360.844 	284.804 	539.707 	
23.8659 	-0.0102075 	-0.192534 	0.770201 	-1.53336 	0.0105817 	3.13634 	90.0545 	117.797 	-0.618359 	134.095 	360.844 	284.803 	539.707 	
23.9681 	-0.0101969 	-0.1872 	0.767152 	-1.55081 	0.0107584 	3.13627 	90.0545 	117.785 	-0.617969 	133.114 	360.844 	284.803 	539.707 	
24.0733 	-0.0101737 	-0.177215 	0.761104 	-1.58397 	0.0110976 	3.13614 	90.0545 	117.785 	-0.617969 	132.109 	360.844 	284.803 	539.707 	
24.1774 	-0.0101583 	-0.171528 	0.757452 	-1.60317 	0.0112959 	3.13607 	90.0545 	117.773 	-0.618262 	131.113 	360.844 	284.803 	539.707 	
24.2802 	-0.0101432 	-0.16642 	0.754038 	-1.62062 	0.0114772 	3.13601 	90.0546 	117.774 	-0.618262 	130.011 	360.844 	284.803 	539.707 	
24.3823 	-0.0101269 	-0.161372 	0.750536 	-1.63808 	0.0116597 	3.13595 	90.0545 	117.765 	-0.618164 	129.02 	360.844 	284.802 	539.707 	
24.4843 	-0.0101094 	-0.156386 	0.746946 	-1.65553 	0.011843 	3.1359 	90.0545 	117.765 	-0.617969 	127.943 	360.844 	284.802 	539.707 	
24.5863 	-0.0100909 	-0.151463 	0.743269 	-1.67298 	0.0120273 	3.13585 	90.0545 	117.764 	-0.618066 	126.93 	360.844 	284.802 	539.707 	
24.6894 	-0.0100732 	-0.147089 	0.739888 	-1.68869 	0.0121939 	3.13581 	90.0545 	117.764 	-0.617773 	125.935 	360.844 	284.802 	539.707 	
24.7972 	-0.0100504 	-0.141815 	0.735662 	-1.70788 	0.0123984 	3.13576 	90.0545 	117.76 	-0.618066 	124.834 	360.844 	284.801 	539.707 	
24.9004 	-0.0100307 	-0.137561 	0.73213 	-1.72359 	0.0125663 	3.13572 	90.0545 	117.758 	-0.618066 	123.833 	360.844 	284.801 	539.707 	
25.0023 	-0.0100077 	-0.1329 	0.728127 	-1.74104 	0.0127536 	3.13568 	90.0545 	117.751 	-0.617969 	122.844 	360.844 	284.801 	539.707 	
25.1054 	-0.00998125 	-0.127854 	0.723631 	-1.76024 	0.0129604 	3.13564 	90.0545 	117.733 	-0.617676 	121.756 	360.844 	284.801 	539.707 	
25.2084 	-0.00995602 	-0.123343 	0.719461 	-1.77769 	0.013149 	3.13561 	90.0546 	117.734 	-0.617773 	120.751 	360.844 	284.801 	539.707 	
25.3104 	-0.0099297 	-0.118905 	0.715212 	-1.79514 	0.013338 	3.13558 	90.0545 	117.734 	-0.617773 	119.747 	360.844 	284.801 	539.707 	
25.4126 	-0.0099051 	-0.114975 	0.711323 	-1.81085 	0.0135086 	3.13556 	90.0545 	117.694 	-0.617676 	118.774 	360.844 	284.801 	539.707 	
25.5156 	-0.00987675 	-0.110681 	0.706929 	-1.8283 	0.0136985 	3.13554 	90.0545 	117.694 	-0.617676 	117.671 	360.844 	284.801 	539.707 	
25.6194 	-0.00984733 	-0.106464 	0.702461 	-1.84575 	0.0138887 	3.13552 	90.0545 	117.694 	-0.617871 	116.671 	360.844 	284.801 	539.707 	
25.7215 	-0.00981687 	-0.102326 	0.697921 	-1.8632 	0.0140793 	3.13551 	90.0545 	117.694 	-0.617871 	115.673 	360.844 	284.801 	539.707 	
25.8248 	-0.00978216 	-0.0978656 	0.692843 	-1.8824 	0.0142891 	3.1355 	90.0545 	117.689 	-0.617578 	114.584 	360.844 	284.8 	539.707 	
25.8467 	-0.00978216 	-0.0978656 	0.692843 	-1.8824 	0.0142891 	3.1355 	90.0545 	117.691 	-0.617676 	114.407 	360.844 	284.8 	539.707 	
25.9498 	-0.00976091 	-0.0952668 	0.689718 	-1.89358 	0.0144167 	3.13548 	90.0545 	117.689 	-0.617676 	113.853 	360.844 	284.44 	539.707 	
26.0525 	-0.00980448 	-0.0925385 	0.695447 	-1.87054 	0.0142621 	3.13511 	90.0545 	117.685 	-0.617773 	113.743 	360.844 	282.691 	539.707 	
26.1555 	-0.00986725 	-0.0902157 	0.7034 	-1.83912 	0.014024 	3.13467 	90.0545 	117.685 	-0.617676 	113.709 	360.844 	280.471 	539.707 	
26.2636 	-0.00994892 	-0.0877177 	0.713214 	-1.80072 	0.0137143 	3.13414 	90.0546 	117.685 	-0.617969 	113.704 	360.844 	278.475 	539.707 	
26.3662 	-0.0100278 	-0.0857753 	0.722214 	-1.76581 	0.0134152 	3.13366 	90.0545 	117.684 	-0.617773 	113.698 	360.844 	276.286 	539.707 	
26.4695 	-0.010111 	-0.0841482 	0.731275 	-1.7309 	0.0130998 	3.1332 	90.0544 	117.676 	-0.617481 	113.679 	360.844 	274.264 	539.707 	
26.5754 	-0.0101984 	-0.0828383 	0.740388 	-1.69599 	0.0127684 	3.13275 	90.0545 	117.678 	-0.617676 	113.674 	360.844 	272.072 	539.707 	
26.6784 	-0.0103854 	-0.0811762 	0.758722 	-1.62617 	0.0120593 	3.13188 	90.0545 	117.679 	-0.617773 	113.671 	360.844 	270.059 	539.707 	
26.7803 	-0.0104848 	-0.080826 	0.767922 	-1.59126 	0.0116825 	3.13147 	90.0545 	117.678 	-0.617773 	113.67 	360.844 	268.064 	539.707 	
26.8824 	-0.0105879 	-0.0807971 	0.777128 	-1.55635 	0.0112915 	3.13106 	90.0545 	117.676 	-0.617578 	113.669 	360.844 	266.073 	539.707 	
26.9845 	-0.0106947 	-0.0810895 	0.786329 	-1.52144 	0.0108867 	3.13068 	90.0545 	117.681 	-0.617773 	113.666 	360.844 	264.05 	539.707 	
27.0875 	-0.0107937 	-0.0816272 	0.794597 	-1.49002 	0.010511 	3.13034 	90.0545 	117.662 	-0.617773 	113.666 	360.844 	261.859 	539.707 	
27.1893 	-0.0109185 	-0.0826366 	0.804673 	-1.45163 	0.0100378 	3.12995 	90.0544 	117.656 	-0.617578 	113.666 	360.844 	259.882 	539.707 	
27.2974 	-0.0110236 	-0.0837497 	0.812884 	-1.42021 	0.00963962 	3.12964 	90.0545 	117.659 	-0.617676 	113.665 	360.844 	257.667 	539.707 	
27.3994 	-0.0111553 	-0.0854595 	0.822864 	-1.38181 	0.00914007 	3.12928 	90.0546 	117.664 	-0.617969 	113.663 	360.844 	255.663 	539.707 	
27.5025 	-0.0112657 	-0.0871425 	0.830976 	-1.3504 	0.00872131 	3.129 	90.0545 	117.656 	-0.617481 	113.664 	360.844 	253.67 	539.707 	
27.6057 	-0.0113911 	-0.0893103 	0.839923 	-1.31549 	0.00824595 	3.1287 	90.0545 	117.646 	-0.617578 	113.662 	360.844 	251.467 	539.707 	
27.7085 	-0.0115191 	-0.0917891 	0.848788 	-1.28059 	0.00776055 	3.12842 	90.0545 	117.65 	-0.617773 	113.662 	360.844 	249.482 	539.707 	
27.8115 	-0.0116628 	-0.0948712 	0.858433 	-1.2422 	0.00721571 	3.12813 	90.0546 	117.653 	-0.617773 	113.66 	360.844 	247.475 	539.707 	
27.9146 	-0.0117825 	-0.0976668 	0.866231 	-1.21078 	0.00676199 	3.12791 	90.0545 	117.646 	-0.617676 	113.661 	360.844 	245.462 	539.707 	
28.0175 	-0.0119311 	-0.101414 	0.875638 	-1.17239 	0.00619842 	3.12766 	90.0545 	117.646 	-0.617481 	113.659 	360.844 	243.282 	539.707 	
28.1202 	-0.0120684 	-0.105132 	0.884059 	-1.13749 	0.00567813 	3.12746 	90.0545 	117.652 	-0.617969 	113.659 	360.844 	241.296 	539.707 	
28.2226 	-0.0121934 	-0.108728 	0.891522 	-1.10608 	0.00520395 	3.12729 	90.0545 	117.651 	-0.617481 	113.658 	360.844 	239.286 	539.707 	
28.3254 	-0.012334 	-0.112995 	0.899678 	-1.07117 	0.00467107 	3.12711 	90.0545 	117.656 	-0.617481 	113.657 	360.844 	237.097 	539.707 	
28.4287 	-0.012476 	-0.117545 	0.90768 	-1.03627 	0.0041325 	3.12696 	90.0546 	117.651 	-0.617578 	113.655 	360.844 	235.099 	539.707 	
28.5315 	-0.0126338 	-0.122869 	0.916292 	-0.997878 	0.0035343 	3.12681 	90.0545 	117.65 	-0.617578 	113.655 	360.844 	233.107 	539.707 	
28.6345 	-0.0127639 	-0.127468 	0.923183 	-0.966466 	0.00304094 	3.12671 	90.0546 	117.659 	-0.617773 	113.652 	360.844 	231.109 	539.707 	
28.7372 	-0.012924 	-0.13338 	0.931403 	-0.928074 	0.00243392 	3.12661 	90.0545 	117.654 	-0.617481 	113.652 	360.844 	228.895 	539.707 	
28.8394 	-0.0130557 	-0.138449 	0.937956 	-0.896663 	0.00193456 	3.12654 	90.0545 	117.652 	-0.617773 	113.652 	360.844 	226.922 	539.707 	
28.9426 	-0.0132026 	-0.144319 	0.945046 	-0.861761 	0.0013775 	3.12648 	90.0545 	117.653 	-0.617676 	113.651 	360.844 	224.913 	539.707 	
29.0456 	-0.0133648 	-0.151058 	0.952603 	-0.823369 	0.000762813 	3.12644 	90.0545 	117.659 	-0.617383 	113.646 	360.844 	222.735 	539.707 	
29.1487 	-0.0134976 	-0.156784 	0.95859 	-0.791958 	0.000259016 	3.12642 	90.0545 	117.659 	-0.617578 	113.645 	360.844 	220.725 	539.707 	
29.2515 	-0.0136454 	-0.163363 	0.965027 	-0.757056 	-0.000301034 	3.12642 	90.0545 	117.658 	-0.617578 	113.644 	360.844 	218.722 	539.707 	
29.3547 	-0.013793 	-0.170163 	0.971231 	-0.722155 	-0.000860721 	3.12644 	90.0545 	117.659 	-0.617676 	113.642 	360.844 	216.751 	539.707 	
29.4625 	-0.0139403 	-0.177176 	0.977194 	-0.687253 	-0.00141936 	3.12648 	90.0545 	117.655 	-0.617481 	113.642 	360.844 	214.543 	539.707 	
29.5654 	-0.0141019 	-0.185124 	0.983466 	-0.648861 	-0.00203184 	3.12655 	90.0545 	117.662 	-0.617676 	113.636 	360.844 	212.357 	539.707 	
29.6705 	-0.014248 	-0.192555 	0.988899 	-0.61396 	-0.00258606 	3.12663 	90.0546 	117.674 	-0.617676 	113.63 	360.844 	210.369 	539.707 	
29.7744 	-0.0143934 	-0.20017 	0.99407 	-0.579058 	-0.00313714 	3.12673 	90.0545 	117.668 	-0.617188 	113.629 	360.844 	208.348 	539.707 	
29.8787 	-0.0146809 	-0.215919 	1.0036 	-0.509254 	-0.00422715 	3.12699 	90.0546 	117.662 	-0.617871 	113.629 	360.844 	206.18 	539.707 	
29.9811 	-0.0148227 	-0.224033 	1.00794 	-0.474351 	-0.00476477 	3.12714 	90.0545 	117.687 	-0.617383 	113.621 	360.844 	204.21 	539.707 	
30.0833 	-0.0149629 	-0.232294 	1.012 	-0.439449 	-0.00529658 	3.12732 	90.0544 	117.675 	-0.617285 	113.623 	360.844 	202.182 	539.707 	
30.1851 	-0.0151015 	-0.240692 	1.01577 	-0.404546 	-0.00582195 	3.12751 	90.0546 	117.681 	-0.617773 	113.622 	360.844 	200.008 	539.707 	
30.2873 	-0.0152246 	-0.248358 	1.01891 	-0.373134 	-0.00628873 	3.1277 	90.0544 	117.68 	-0.617383 	113.622 	360.844 	198.015 	539.707 	
30.3893 	-0.0153728 	-0.257857 	1.02242 	-0.33474 	-0.00685076 	3.12796 	90.0545 	117.682 	-0.617578 	113.62 	360.844 	196.025 	539.707 	
30.4977 	-0.0154921 	-0.265723 	1.02502 	-0.303327 	-0.00730314 	3.12818 	90.0545 	117.685 	-0.617481 	113.62 	360.844 	193.833 	539.707 	
30.6003 	-0.0156354 	-0.275443 	1.02786 	-0.264934 	-0.00784621 	3.12847 	90.0545 	117.675 	-0.617481 	113.621 	360.844 	191.82 	539.707 	
30.7036 	-0.0157629 	-0.284368 	1.03011 	-0.23003 	-0.0083299 	3.12875 	90.0546 	117.686 	-0.617578 	113.618 	360.844 	189.835 	539.707 	
30.8063 	-0.0158878 	-0.293366 	1.03205 	-0.195126 	-0.00880344 	3.12905 	90.0545 	117.694 	-0.617481 	113.615 	360.844 	187.67 	539.707 	
30.9096 	-0.0159978 	-0.301518 	1.03353 	-0.163712 	-0.00922048 	3.12933 	90.0545 	117.677 	-0.617481 	113.617 	360.844 	185.627 	539.707 	
31.0126 	-0.0161172 	-0.310625 	1.03487 	-0.128807 	-0.00967316 	3.12966 	90.0545 	117.681 	-0.617383 	113.616 	360.844 	183.634 	539.707 	
31.1154 	-0.0162335 	-0.319774 	1.03589 	-0.0939018 	-0.0101141 	3.13001 	90.0545 	117.696 	-0.617578 	113.609 	360.844 	181.488 	539.707 	
31.2172 	-0.0163577 	-0.329871 	1.03665 	-0.055506 	-0.0105848 	3.13041 	90.0545 	117.695 	-0.617383 	113.607 	360.844 	179.481 	539.707 	
31.3196 	-0.0164562 	-0.33815 	1.03698 	-0.024091 	-0.0109584 	3.13074 	90.0545 	117.691 	-0.617578 	113.605 	360.844 	177.481 	539.707 	
31.4224 	-0.0165727 	-0.348275 	1.03702 	0.0143055 	-0.0114003 	3.13117 	90.0545 	117.689 	-0.617383 	113.605 	360.844 	175.47 	539.707 	
31.5256 	-0.0166648 	-0.356557 	1.03677 	0.0457211 	-0.0117493 	3.13154 	90.0546 	117.697 	-0.617676 	113.598 	360.844 	173.314 	539.707 	
31.6291 	-0.0167731 	-0.366661 	1.03612 	0.0841183 	-0.0121602 	3.132 	90.0545 	117.691 	-0.617383 	113.599 	360.844 	171.309 	539.707 	
31.7316 	-0.0168675 	-0.375819 	1.03518 	0.119025 	-0.0125181 	3.13243 	90.0545 	117.691 	-0.617578 	113.597 	360.844 	169.313 	539.707 	
31.8345 	-0.0169579 	-0.384939 	1.03393 	0.153932 	-0.0128608 	3.13287 	90.0545 	117.699 	-0.617676 	113.588 	360.844 	167.357 	539.707 	
31.9375 	-0.0170357 	-0.393105 	1.03253 	0.185349 	-0.0131559 	3.13328 	90.0544 	117.695 	-0.617285 	113.588 	360.844 	165.126 	539.707 	
32.0403 	-0.0171182 	-0.402122 	1.03067 	0.220257 	-0.0134685 	3.13374 	90.0546 	117.702 	-0.617676 	113.583 	360.844 	163.154 	539.707 	
32.1438 	-0.0171963 	-0.411068 	1.0285 	0.255165 	-0.0137647 	3.13422 	90.0545 	117.7 	-0.617383 	113.58 	360.844 	161.157 	539.707 	
32.2461 	-0.0172771 	-0.420815 	1.02576 	0.293564 	-0.0140711 	3.13475 	90.0545 	117.701 	-0.617676 	113.579 	360.844 	158.964 	539.707 	
32.349 	-0.0173392 	-0.428707 	1.02324 	0.324982 	-0.0143064 	3.1352 	90.0546 	117.701 	-0.617481 	113.579 	360.844 	156.981 	539.707 	
32.452 	-0.0174099 	-0.438239 	1.01982 	0.363381 	-0.0145749 	3.13575 	90.0545 	117.701 	-0.617481 	113.578 	360.844 	154.981 	539.707 	
32.5543 	-0.0174636 	-0.445936 	1.01675 	0.3948 	-0.0147785 	3.13621 	90.0545 	117.701 	-0.617676 	113.578 	360.844 	152.978 	539.707 	
32.6579 	-0.0175241 	-0.455207 	1.01268 	0.4332 	-0.0150076 	3.13679 	90.0545 	117.703 	-0.617285 	113.575 	360.844 	150.815 	539.707 	
32.7603 	-0.0175739 	-0.463493 	1.00867 	0.468109 	-0.0151966 	3.13731 	90.0546 	117.704 	-0.617676 	113.575 	360.844 	148.82 	539.707 	
32.8654 	-0.0176189 	-0.471634 	1.00437 	0.503019 	-0.0153671 	3.13785 	90.0544 	117.702 	-0.617188 	113.575 	360.844 	146.599 	539.707 	
32.9685 	-0.0176589 	-0.479621 	0.999792 	0.537929 	-0.015519 	3.13839 	90.0547 	117.705 	-0.617676 	113.574 	360.844 	144.659 	539.707 	
33.0733 	-0.017694 	-0.487443 	0.994937 	0.572839 	-0.0156519 	3.13893 	90.0543 	117.702 	-0.617383 	113.575 	360.844 	142.619 	539.707 	
33.1774 	-0.0177212 	-0.494334 	0.990337 	0.604258 	-0.0157552 	3.13942 	90.0545 	117.703 	-0.617383 	113.573 	360.844 	140.444 	539.707 	
33.2803 	-0.0177688 	-0.509827 	0.978779 	0.67757 	-0.0159356 	3.14059 	90.0545 	117.705 	-0.617676 	113.572 	360.844 	138.478 	539.707 	
33.3822 	-0.0177835 	-0.516897 	0.972883 	0.71248 	-0.0159915 	3.14114 	90.0544 	117.705 	-0.617383 	113.573 	360.844 	136.452 	539.707 	
33.4843 	-0.0177931 	-0.523758 	0.966744 	0.747391 	-0.0160279 	-3.14148 	90.0545 	117.706 	-0.617578 	113.571 	360.844 	134.457 	539.707 	
33.5873 	-0.0177974 	-0.529746 	0.961018 	0.77881 	-0.016044 	-3.14098 	90.0545 	117.714 	-0.617481 	113.566 	360.844 	132.289 	539.707 	
33.6891 	-0.0177972 	-0.536184 	0.954438 	0.813721 	-0.0160433 	-3.14042 	90.0545 	117.713 	-0.617578 	113.566 	360.844 	130.283 	539.707 	
33.7975 	-0.017791 	-0.542997 	0.946945 	0.852123 	-0.0160199 	-3.1398 	90.0546 	117.716 	-0.617578 	113.564 	360.844 	128.108 	539.707 	
33.9004 	-0.0177807 	-0.548645 	0.940268 	0.885288 	-0.0159807 	-3.13927 	90.0545 	117.723 	-0.617285 	113.56 	360.844 	126.205 	539.707 	
34.0032 	-0.017771 	-0.552381 	0.935593 	0.90798 	-0.0159438 	-3.13891 	90.0545 	117.72 	-0.617481 	113.551 	360.844 	124.778 	539.707 	
51.5931 	-0.0177646 	-0.554405 	0.932966 	0.920557 	-0.0159198 	-3.13871 	90.0539 	117.74 	-0.617188 	113.481 	360.844 	123.759 	539.707 	
51.697 	-0.0177709 	-0.55267 	0.935075 	0.910434 	-0.0159423 	-3.13887 	90.054 	117.743 	-0.617285 	113.479 	360.844 	124.209 	539.707 	
51.7992 	-0.0177862 	-0.546483 	0.942034 	0.87657 	-0.0159959 	-3.13941 	90.054 	117.744 	-0.617383 	113.478 	360.844 	126.021 	539.707 	
51.9012 	-0.0177952 	-0.540446 	0.949691 	0.838169 	-0.0160344 	-3.14002 	90.0539 	117.74 	-0.617481 	113.478 	360.844 	127.987 	539.707 	
52.0031 	-0.0177991 	-0.53417 	0.956426 	0.803258 	-0.016049 	-3.14053 	90.054 	117.744 	-0.617383 	113.478 	360.844 	130.007 	539.707 	
52.105 	-0.0177977 	-0.527663 	0.962938 	0.768347 	-0.016044 	-3.14114 	90.054 	117.744 	-0.617578 	113.478 	360.844 	132.186 	539.707 	
52.2076 	-0.0177921 	-0.521616 	0.968602 	0.736928 	-0.0160228 	3.14154 	90.054 	117.743 	-0.617188 	113.478 	360.844 	134.189 	539.707 	
52.3103 	-0.017781 	-0.514692 	0.974669 	0.702017 	-0.0159807 	3.14098 	90.054 	117.742 	-0.617481 	113.478 	360.844 	136.181 	539.707 	
52.4135 	-0.0177648 	-0.50756 	0.98049 	0.667107 	-0.0159191 	3.14042 	90.0539 	117.741 	-0.617285 	113.478 	360.844 	138.181 	539.707 	
52.5165 	-0.0177434 	-0.50023 	0.986059 	0.632197 	-0.0158381 	3.13987 	90.054 	117.735 	-0.617285 	113.48 	360.844 	140.354 	539.707 	
52.6195 	-0.017717 	-0.492709 	0.991369 	0.597286 	-0.0157378 	3.13932 	90.0541 	117.748 	-0.617481 	113.478 	360.844 	142.377 	539.707 	
52.7223 	-0.0176821 	-0.484229 	0.996903 	0.558885 	-0.0156054 	3.13872 	90.054 	117.74 	-0.617188 	113.478 	360.844 	144.347 	539.707 	
52.8253 	-0.017649 	-0.477136 	1.00119 	0.527466 	-0.0154799 	3.13823 	90.054 	117.739 	-0.617383 	113.479 	360.844 	146.548 	539.707 	
52.9284 	-0.0176075 	-0.469102 	1.00568 	0.492556 	-0.0153225 	3.13769 	90.054 	117.741 	-0.617285 	113.479 	360.844 	148.543 	539.707 	
53.0312 	-0.0175611 	-0.460916 	1.00989 	0.457647 	-0.0151465 	3.13716 	90.054 	117.739 	-0.617285 	113.479 	360.844 	150.512 	539.707 	
53.1345 	-0.0175098 	-0.452588 	1.01382 	0.422737 	-0.0149521 	3.13663 	90.054 	117.737 	-0.617481 	113.479 	360.844 	152.531 	539.707 	
53.2374 	-0.0174537 	-0.444128 	1.01745 	0.387828 	-0.0147394 	3.13611 	90.054 	117.742 	-0.617285 	113.478 	360.844 	154.755 	539.707 	
53.3404 	-0.0173929 	-0.435547 	1.02078 	0.352919 	-0.0145087 	3.1356 	90.054 	117.733 	-0.617383 	113.481 	360.844 	156.716 	539.707 	
53.4434 	-0.0173274 	-0.426855 	1.02381 	0.31801 	-0.0142604 	3.1351 	90.054 	117.735 	-0.617383 	113.481 	360.844 	158.702 	539.707 	
53.5466 	-0.0172573 	-0.418062 	1.02654 	0.283102 	-0.0139947 	3.13461 	90.054 	117.736 	-0.617383 	113.482 	360.844 	160.897 	539.707 	
53.6496 	-0.0171827 	-0.409179 	1.02895 	0.248193 	-0.013712 	3.13412 	90.054 	117.737 	-0.617285 	113.481 	360.844 	162.899 	539.707 	
53.7523 	-0.0171038 	-0.400218 	1.03106 	0.213285 	-0.0134125 	3.13365 	90.054 	117.733 	-0.617188 	113.482 	360.844 	164.893 	539.707 	
53.8553 	-0.0170205 	-0.391188 	1.03285 	0.178378 	-0.0130967 	3.13319 	90.054 	117.731 	-0.617285 	113.483 	360.844 	167.063 	539.707 	
53.9634 	-0.016933 	-0.382102 	1.03433 	0.14347 	-0.012765 	3.13274 	90.054 	117.736 	-0.617481 	113.482 	360.844 	169.084 	539.707 	
54.0663 	-0.016832 	-0.372054 	1.03559 	0.105073 	-0.0123821 	3.13225 	90.054 	117.731 	-0.617383 	113.483 	360.844 	171.274 	539.707 	
54.1689 	-0.0167458 	-0.363802 	1.03633 	0.0736565 	-0.0120553 	3.13187 	90.054 	117.729 	-0.617383 	113.484 	360.844 	173.246 	539.707 	
54.2736 	-0.0166362 	-0.353692 	1.03688 	0.0352595 	-0.0116397 	3.13142 	90.054 	117.728 	-0.617285 	113.484 	360.844 	175.225 	539.707 	
54.3788 	-0.0165432 	-0.345408 	1.03704 	0.00384394 	-0.0112868 	3.13105 	90.054 	117.721 	-0.617383 	113.485 	360.844 	177.248 	539.707 	
54.4811 	-0.016326 	-0.327009 	1.03647 	-0.0659674 	-0.0104634 	3.1303 	90.054 	117.71 	-0.617285 	113.486 	360.844 	179.427 	539.707 	
54.583 	-0.0162123 	-0.317836 	1.03571 	-0.100873 	-0.0100323 	3.12994 	90.054 	117.71 	-0.617285 	113.487 	360.844 	181.219 	539.707 	
54.6851 	-0.0160954 	-0.308695 	1.03462 	-0.135778 	-0.00958902 	3.1296 	90.054 	117.709 	-0.617383 	113.487 	360.844 	183.387 	539.707 	
54.7872 	-0.0159754 	-0.299597 	1.03322 	-0.170682 	-0.00913404 	3.12927 	90.054 	117.708 	-0.61709 	113.487 	360.844 	185.569 	539.707 	
54.8891 	-0.0158524 	-0.290554 	1.0315 	-0.205587 	-0.00866792 	3.12896 	90.054 	117.708 	-0.617285 	113.487 	360.844 	187.568 	539.707 	
54.9971 	-0.015714 	-0.280683 	1.02924 	-0.243981 	-0.00814302 	3.12863 	90.054 	117.707 	-0.617481 	113.487 	360.844 	189.756 	539.707 	
55.0992 	-0.0155984 	-0.272676 	1.02711 	-0.275394 	-0.0077046 	3.12839 	90.054 	117.699 	-0.61709 	113.488 	360.844 	191.772 	539.707 	
55.2013 	-0.0154676 	-0.263863 	1.02446 	-0.310298 	-0.00720856 	3.12813 	90.054 	117.702 	-0.617578 	113.491 	360.844 	193.751 	539.707 	
55.3046 	-0.0153344 	-0.255147 	1.0215 	-0.345201 	-0.00670375 	3.12788 	90.0541 	117.692 	-0.617481 	113.492 	360.844 	195.742 	539.707 	
55.4075 	-0.0151855 	-0.245686 	1.01789 	-0.383594 	-0.00613904 	3.12764 	90.054 	117.702 	-0.617188 	113.49 	360.844 	197.94 	539.707 	
55.5102 	-0.015048 	-0.237211 	1.0143 	-0.418497 	-0.0056178 	3.12743 	90.054 	117.689 	-0.617188 	113.493 	360.844 	199.91 	539.707 	
55.6134 	-0.0149227 	-0.229695 	1.01081 	-0.44991 	-0.00514281 	3.12726 	90.054 	117.69 	-0.617481 	113.493 	360.844 	201.912 	539.707 	
55.7164 	-0.014782 	-0.221477 	1.00666 	-0.484812 	-0.00460912 	3.12709 	90.054 	117.691 	-0.617383 	113.493 	360.844 	204.101 	539.707 	
55.8192 	-0.0146254 	-0.212611 	1.00178 	-0.523204 	-0.00401559 	3.12693 	90.054 	117.689 	-0.617285 	113.493 	360.844 	206.081 	539.707 	
55.9224 	-0.0144962 	-0.2055 	0.997524 	-0.554616 	-0.00352554 	3.12681 	90.0541 	117.689 	-0.617383 	113.494 	360.844 	208.081 	539.707 	
56.0252 	-0.014337 	-0.196996 	0.992028 	-0.593008 	-0.00292192 	3.12668 	90.054 	117.689 	-0.617285 	113.494 	360.844 	210.082 	539.707 	
56.1275 	-0.0142059 	-0.1902 	0.987291 	-0.62442 	-0.0024248 	3.1266 	90.054 	117.688 	-0.617383 	113.494 	360.844 	212.274 	539.707 	
56.2312 	-0.0140594 	-0.182827 	0.981781 	-0.659321 	-0.00186966 	3.12653 	90.054 	117.687 	-0.617285 	113.494 	360.844 	214.248 	539.707 	
56.3334 	-0.0139124 	-0.17565 	0.976016 	-0.694223 	-0.00131225 	3.12647 	90.0541 	117.688 	-0.617383 	113.494 	360.844 	216.246 	539.707 	
56.4365 	-0.013765 	-0.16868 	0.970004 	-0.729125 	-0.00075323 	3.12643 	90.054 	117.685 	-0.617188 	113.496 	360.844 	218.422 	539.707 	
56.5392 	-0.0136173 	-0.161923 	0.963753 	-0.764026 	-0.000193299 	3.12642 	90.0541 	117.695 	-0.617285 	113.495 	360.844 	220.444 	539.707 	
56.6425 	-0.0134696 	-0.155389 	0.95727 	-0.798928 	0.000366867 	3.12642 	90.0541 	117.713 	-0.617383 	113.493 	360.844 	222.457 	539.707 	
56.7454 	-0.0133219 	-0.149085 	0.950563 	-0.833829 	0.000926586 	3.12644 	90.054 	117.67 	-0.617383 	113.503 	360.844 	224.402 	539.707 	
56.848 	-0.0131599 	-0.142426 	0.942935 	-0.872221 	0.00154095 	3.12649 	90.054 	117.6 	-0.617188 	113.538 	360.844 	226.557 	539.707 	
56.9519 	-0.0130277 	-0.137198 	0.936508 	-0.903633 	0.00204196 	3.12655 	90.054 	117.597 	-0.617285 	113.541 	360.844 	228.57 	539.707 	
57.0547 	-0.0128815 	-0.13163 	0.929179 	-0.938535 	0.00259626 	3.12663 	90.054 	117.605 	-0.617383 	113.54 	360.844 	230.575 	539.707 	
57.1572 	-0.0127362 	-0.126321 	0.921659 	-0.973436 	0.00314739 	3.12673 	90.0541 	117.624 	-0.617481 	113.539 	360.844 	232.796 	539.707 	
57.2625 	-0.0125775 	-0.120788 	0.913179 	-1.01183 	0.00374919 	3.12686 	90.054 	117.637 	-0.617188 	113.54 	360.844 	234.777 	539.707 	
57.3655 	-0.0124344 	-0.116044 	0.905291 	-1.04673 	0.0042915 	3.127 	90.054 	117.633 	-0.61709 	113.542 	360.844 	236.765 	539.707 	
57.4694 	-0.0122928 	-0.111578 	0.897242 	-1.08163 	0.00482858 	3.12716 	90.054 	117.642 	-0.617383 	113.541 	360.844 	238.958 	539.707 	
57.5741 	-0.012028 	-0.103879 	0.881541 	-1.14795 	0.00583231 	3.12751 	90.054 	117.644 	-0.617481 	113.54 	360.844 	240.955 	539.707 	
57.6784 	-0.0118914 	-0.100249 	0.873082 	-1.18285 	0.00635056 	3.12773 	90.054 	117.649 	-0.617188 	113.541 	360.844 	243.153 	539.707 	
57.781 	-0.0117434 	-0.0966003 	0.863637 	-1.22124 	0.00691168 	3.12798 	90.054 	117.647 	-0.617285 	113.541 	360.844 	245.164 	539.707 	
57.8832 	-0.0116243 	-0.0938865 	0.85581 	-1.25266 	0.00736324 	3.1282 	90.054 	117.648 	-0.617481 	113.541 	360.844 	247.126 	539.707 	
57.985 	-0.0114942 	-0.091161 	0.847017 	-1.28756 	0.00785644 	3.12847 	90.054 	117.644 	-0.61709 	113.542 	360.844 	249.145 	539.707 	
58.087 	-0.0113666 	-0.0887442 	0.838135 	-1.32246 	0.00834006 	3.12875 	90.054 	117.642 	-0.617481 	113.542 	360.844 	251.327 	539.707 	
58.1892 	-0.0112418 	-0.0866388 	0.829174 	-1.35737 	0.00881352 	3.12905 	90.0541 	117.647 	-0.617285 	113.541 	360.844 	253.333 	539.707 	
58.2976 	-0.0111197 	-0.0848474 	0.820145 	-1.39227 	0.00927625 	3.12937 	90.054 	117.642 	-0.617285 	113.543 	360.844 	255.521 	539.707 	
58.4003 	-0.0110007 	-0.0833721 	0.811058 	-1.42718 	0.00972771 	3.1297 	90.054 	117.642 	-0.617383 	113.543 	360.844 	257.533 	539.707 	
58.5021 	-0.0108847 	-0.0822149 	0.801925 	-1.46209 	0.0101673 	3.13005 	90.0541 	117.64 	-0.617285 	113.543 	360.844 	259.528 	539.707 	
58.6044 	-0.0107721 	-0.0813771 	0.792757 	-1.497 	0.0105945 	3.13041 	90.054 	117.641 	-0.617481 	113.544 	360.844 	261.51 	539.707 	
58.707 	-0.0106628 	-0.0808598 	0.783565 	-1.5319 	0.0110089 	3.13079 	90.054 	117.647 	-0.617481 	113.543 	360.844 	263.717 	539.707 	
58.8089 	-0.0105571 	-0.0806637 	0.774361 	-1.56681 	0.0114098 	3.13118 	90.054 	117.643 	-0.617285 	113.543 	360.844 	265.715 	539.707 	
58.911 	-0.010455 	-0.0807889 	0.765156 	-1.60172 	0.0117968 	3.13158 	90.054 	117.638 	-0.616992 	113.544 	360.844 	267.718 	539.707 	
59.0132 	-0.0103471 	-0.0812976 	0.755042 	-1.64012 	0.0122058 	3.13204 	90.0541 	117.64 	-0.617481 	113.543 	360.844 	269.7 	539.707 	
59.1153 	-0.0102624 	-0.0820023 	0.746786 	-1.67154 	0.0125272 	3.13243 	90.054 	117.642 	-0.617285 	113.544 	360.844 	271.714 	539.707 	
59.2189 	-0.010172 	-0.0830891 	0.737645 	-1.70645 	0.0128697 	3.13288 	90.0541 	117.643 	-0.617481 	113.544 	360.844 	273.926 	539.707 	
59.3215 	-0.0100774 	-0.0846522 	0.727639 	-1.74485 	0.0132284 	3.13338 	90.054 	117.639 	-0.616895 	113.543 	360.844 	275.914 	539.707 	
59.4246 	-0.0100039 	-0.0862162 	0.719502 	-1.77627 	0.0135074 	3.1338 	90.054 	117.639 	-0.61709 	113.544 	360.844 	277.932 	539.707 	
59.5274 	-0.00992624 	-0.0882526 	0.710524 	-1.81118 	0.0138017 	3.13427 	90.054 	117.639 	-0.617188 	113.544 	360.844 	280.125 	539.707 	
59.6302 	-0.00985305 	-0.0906012 	0.701622 	-1.84609 	0.0140792 	3.13476 	90.0541 	117.644 	-0.617188 	113.543 	360.844 	282.129 	539.707 	
59.7337 	-0.0097844 	-0.093259 	0.692808 	-1.881 	0.0143395 	3.13526 	90.0541 	117.639 	-0.617481 	113.544 	360.844 	283.97 	539.707 	
59.7541 	-0.0097844 	-0.093259 	0.692808 	-1.881 	0.0143395 	3.13526 	90.0541 	117.641 	-0.617578 	113.543 	360.844 	284.203 	539.707 	
59.8563 	-0.009755 	-0.0946641 	0.688877 	-1.89672 	0.0144497 	3.13549 	90.054 	117.638 	-0.617188 	113.877 	360.844 	284.59 	539.707 	
59.9633 	-0.00978684 	-0.0985676 	0.693461 	-1.87962 	0.0142625 	3.1355 	90.054 	117.64 	-0.61709 	114.753 	360.844 	284.6 	539.707 	
60.0662 	-0.00981831 	-0.102631 	0.698069 	-1.86217 	0.0140718 	3.13551 	90.054 	117.641 	-0.617285 	115.833 	360.844 	284.608 	539.707 	
60.1703 	-0.00984574 	-0.106356 	0.702155 	-1.84646 	0.0139003 	3.13552 	90.054 	117.655 	-0.617481 	116.814 	360.844 	284.613 	539.707 	
60.2753 	-0.0098781 	-0.110996 	0.707069 	-1.82727 	0.013691 	3.13554 	90.054 	117.649 	-0.617285 	117.927 	360.844 	284.62 	539.707 	
60.3782 	-0.00990641 	-0.115295 	0.711458 	-1.80981 	0.0135011 	3.13556 	90.054 	117.659 	-0.617383 	118.919 	360.844 	284.622 	539.707 	
60.4799 	-0.00993098 	-0.119229 	0.715344 	-1.79411 	0.0133306 	3.13559 	90.0541 	117.661 	-0.617383 	119.908 	360.844 	284.625 	539.707 	
60.582 	-0.00998244 	-0.128186 	0.723754 	-1.7592 	0.0129529 	3.13564 	90.054 	117.659 	-0.617578 	120.912 	360.844 	284.63 	539.707 	
60.6841 	-0.0100065 	-0.132774 	0.72784 	-1.74175 	0.012765 	3.13568 	90.054 	117.658 	-0.616895 	121.91 	360.844 	284.632 	539.707 	
60.7861 	-0.0100318 	-0.137901 	0.732242 	-1.72256 	0.0125589 	3.13572 	90.0541 	117.646 	-0.617481 	123.005 	360.844 	284.637 	539.707 	
60.8882 	-0.0100514 	-0.142159 	0.73577 	-1.70685 	0.012391 	3.13576 	90.0541 	117.659 	-0.617676 	123.99 	360.844 	284.64 	539.707 	
60.9902 	-0.0100722 	-0.146954 	0.739611 	-1.6894 	0.0122051 	3.1358 	90.0538 	117.639 	-0.61709 	125.017 	360.844 	284.644 	539.707 	
61.0971 	-0.0100918 	-0.151816 	0.743367 	-1.67195 	0.01202 	3.13585 	90.054 	117.676 	-0.617481 	126.076 	360.844 	284.647 	539.707 	
61.1991 	-0.0101104 	-0.156742 	0.747039 	-1.6545 	0.0118357 	3.1359 	90.0541 	117.678 	-0.617676 	127.079 	360.844 	284.65 	539.707 	
61.3016 	-0.0101278 	-0.161731 	0.750623 	-1.63704 	0.0116524 	3.13595 	90.054 	117.678 	-0.617578 	128.079 	360.844 	284.651 	539.707 	
61.4045 	-0.0101456 	-0.167292 	0.754465 	-1.61785 	0.0114518 	3.13602 	90.054 	117.683 	-0.617481 	129.074 	360.844 	284.652 	539.707 	
61.5075 	-0.0101592 	-0.171895 	0.757529 	-1.60214 	0.0112886 	3.13607 	90.054 	117.682 	-0.617285 	130.174 	360.844 	284.652 	539.707 	
61.6102 	-0.0101731 	-0.177066 	0.760848 	-1.58469 	0.0111084 	3.13614 	90.0541 	117.684 	-0.617578 	131.179 	360.844 	284.653 	539.707 	
61.7134 	-0.0101859 	-0.182294 	0.764076 	-1.56723 	0.0109292 	3.1362 	90.0539 	117.685 	-0.617383 	132.177 	360.844 	284.653 	539.707 	
61.8161 	-0.0101976 	-0.187577 	0.767213 	-1.54978 	0.0107513 	3.13627 	90.0539 	117.688 	-0.617285 	133.272 	360.844 	284.652 	539.707 	
61.918 	-0.0102081 	-0.192914 	0.770256 	-1.53233 	0.0105746 	3.13635 	90.054 	117.688 	-0.617481 	134.256 	360.844 	284.653 	539.707 	
62.0205 	-0.0102175 	-0.198304 	0.773206 	-1.51488 	0.0103992 	3.13642 	90.0541 	117.691 	-0.617871 	135.251 	360.844 	284.653 	539.707 	
62.1236 	-0.0102257 	-0.203744 	0.776062 	-1.49742 	0.0102251 	3.1365 	90.054 	117.69 	-0.617481 	136.253 	360.844 	284.653 	539.707 	
62.2264 	-0.0102327 	-0.209233 	0.778822 	-1.47997 	0.0100525 	3.13658 	90.054 	117.691 	-0.617773 	137.345 	360.844 	284.653 	539.707 	
62.3295 	-0.0102385 	-0.21477 	0.781486 	-1.46252 	0.00988132 	3.13667 	90.0539 	117.691 	-0.617188 	138.341 	360.844 	284.654 	539.707 	
62.4327 	-0.0102432 	-0.220352 	0.784053 	-1.44507 	0.00971165 	3.13676 	90.0541 	117.693 	-0.617871 	139.333 	360.844 	284.654 	539.707 	
62.5357 	-0.0102467 	-0.225978 	0.786522 	-1.42761 	0.00954353 	3.13685 	90.0539 	117.693 	-0.617481 	140.438 	360.844 	284.654 	539.707 	
62.6385 	-0.010249 	-0.231647 	0.788893 	-1.41016 	0.00937704 	3.13694 	90.0539 	117.695 	-0.617188 	141.432 	360.844 	284.654 	539.707 	
62.7414 	-0.0102502 	-0.237356 	0.791164 	-1.39271 	0.0092122 	3.13704 	90.0542 	117.721 	-0.617773 	142.417 	360.844 	284.656 	539.707 	
62.8443 	-0.0102502 	-0.243104 	0.793335 	-1.37526 	0.00904908 	3.13714 	90.054 	117.718 	-0.617481 	143.436 	360.844 	284.656 	539.707 	
62.9475 	-0.010249 	-0.248888 	0.795406 	-1.3578 	0.00888772 	3.13724 	90.0539 	117.694 	-0.617871 	144.547 	360.844 	284.657 	539.707 	
63.0501 	-0.0102466 	-0.254708 	0.797375 	-1.34035 	0.00872817 	3.13734 	90.0538 	117.706 	-0.617383 	145.517 	360.844 	284.657 	539.707 	
63.1525 	-0.0102431 	-0.260562 	0.799243 	-1.3229 	0.00857048 	3.13745 	90.0541 	117.707 	-0.617578 	146.526 	360.844 	284.658 	539.707 	
63.2554 	-0.0102384 	-0.266447 	0.801008 	-1.30545 	0.00841471 	3.13756 	90.0541 	117.78 	-0.617578 	147.57 	360.844 	284.658 	539.707 	
63.3635 	-0.0102325 	-0.272362 	0.80267 	-1.28799 	0.00826089 	3.13768 	90.054 	117.779 	-0.617578 	148.583 	360.844 	284.658 	539.707 	
63.4661 	-0.0102247 	-0.278901 	0.804379 	-1.2688 	0.008094 	3.1378 	90.0538 	117.778 	-0.617285 	149.685 	360.844 	284.659 	539.707 	
63.5701 	-0.0102172 	-0.284275 	0.805683 	-1.25309 	0.00795931 	3.13791 	90.0541 	117.78 	-0.617578 	150.681 	360.844 	284.659 	539.707 	
63.6762 	-0.0102068 	-0.290869 	0.807163 	-1.23389 	0.00779699 	3.13805 	90.054 	117.778 	-0.617481 	151.796 	360.844 	284.659 	539.707 	
63.7802 	-0.0101856 	-0.302323 	0.809419 	-1.20073 	0.00752276 	3.13828 	90.054 	117.779 	-0.617578 	152.788 	360.844 	284.659 	539.707 	
63.8832 	-0.0101727 	-0.308379 	0.810454 	-1.18328 	0.00738164 	3.13841 	90.054 	117.779 	-0.617578 	153.783 	360.844 	284.659 	539.707 	
63.9852 	-0.0101587 	-0.314453 	0.811383 	-1.16583 	0.00724279 	3.13854 	90.054 	117.778 	-0.617578 	154.896 	360.844 	284.66 	539.707 	
64.0885 	-0.0101436 	-0.320542 	0.812205 	-1.14838 	0.00710626 	3.13868 	90.054 	117.778 	-0.617578 	155.889 	360.844 	284.66 	539.707 	
64.1911 	-0.0101273 	-0.326644 	0.812922 	-1.13092 	0.00697208 	3.13881 	90.0541 	117.779 	-0.617578 	156.869 	360.844 	284.66 	539.707 	
64.2972 	-0.0101098 	-0.332758 	0.813531 	-1.11347 	0.0068403 	3.13895 	90.054 	117.779 	-0.617578 	157.982 	360.844 	284.66 	539.707 	
64.3991 	-0.0100913 	-0.338881 	0.814034 	-1.09602 	0.00671096 	3.13909 	90.054 	117.78 	-0.617578 	158.965 	360.844 	284.661 	539.707 	
64.5013 	-0.0100716 	-0.345013 	0.81443 	-1.07857 	0.00658409 	3.13924 	90.054 	117.784 	-0.617481 	159.95 	360.844 	284.661 	539.707 	
64.6031 	-0.0100508 	-0.35115 	0.814719 	-1.06111 	0.00645973 	3.13938 	90.054 	117.778 	-0.617578 	160.97 	360.844 	284.663 	539.707 	
64.7051 	-0.0100288 	-0.357291 	0.814901 	-1.04366 	0.00633792 	3.13953 	90.0541 	117.782 	-0.617578 	162.054 	360.844 	284.665 	539.707 	
64.8074 	-0.0100058 	-0.363435 	0.814975 	-1.02621 	0.00621871 	3.13968 	90.0539 	117.782 	-0.617481 	163.047 	360.844 	284.667 	539.707 	
64.9104 	-0.00998169 	-0.369579 	0.814942 	-1.00876 	0.00610212 	3.13983 	90.054 	117.783 	-0.617481 	164.05 	360.844 	284.668 	539.707 	
65.0135 	-0.00995646 	-0.375722 	0.814803 	-0.991304 	0.00598819 	3.13998 	90.0541 	117.783 	-0.617676 	165.047 	360.844 	284.669 	539.707 	
65.1168 	-0.00993016 	-0.381861 	0.814555 	-0.973852 	0.00587696 	3.14014 	90.0541 	117.783 	-0.617578 	166.143 	360.844 	284.672 	539.707 	
65.2196 	-0.00990277 	-0.387995 	0.814201 	-0.956399 	0.00576846 	3.1403 	90.054 	117.785 	-0.617578 	167.145 	360.844 	284.675 	539.707 	
65.3224 	-0.00987141 	-0.394734 	0.813688 	-0.937202 	0.0056523 	3.14047 	90.0541 	117.786 	-0.617676 	168.134 	360.844 	284.677 	539.707 	
65.4255 	-0.0098448 	-0.400239 	0.813172 	-0.921494 	0.00555977 	3.14062 	90.054 	117.786 	-0.617578 	169.227 	360.844 	284.678 	539.707 	
65.5284 	-0.00981424 	-0.406346 	0.812497 	-0.904042 	0.00545965 	3.14078 	90.054 	117.789 	-0.617578 	170.208 	360.844 	284.682 	539.707 	
65.6312 	-0.00978263 	-0.41244 	0.811716 	-0.886589 	0.00536239 	3.14094 	90.054 	117.79 	-0.617578 	171.221 	360.844 	284.685 	539.707 	
65.7341 	-0.00975 	-0.41852 	0.810828 	-0.869137 	0.00526802 	3.14111 	90.0541 	117.791 	-0.617578 	172.216 	360.844 	284.687 	539.707 	
65.836 	-0.00971634 	-0.424583 	0.809835 	-0.851685 	0.00517655 	3.14128 	90.0539 	117.791 	-0.617578 	173.319 	360.844 	284.691 	539.707 	
65.9394 	-0.00968167 	-0.430628 	0.808736 	-0.834232 	0.00508804 	3.14145 	90.054 	117.792 	-0.617578 	174.308 	360.844 	284.699 	539.707 	
66.0425 	-0.00964237 	-0.437254 	0.807405 	-0.815035 	0.0049941 	-3.14155 	90.0542 	117.791 	-0.617676 	175.309 	360.844 	284.707 	539.707 	
66.1455 	-0.00960933 	-0.442656 	0.806222 	-0.799327 	0.00491994 	-3.1414 	90.054 	117.796 	-0.617578 	176.4 	360.844 	284.711 	539.707 	
66.2489 	-0.00957169 	-0.448635 	0.804808 	-0.781875 	0.00484041 	-3.14122 	90.054 	117.798 	-0.617481 	177.39 	360.844 	284.714 	539.707 	
66.3513 	-0.00953308 	-0.454589 	0.803289 	-0.764422 	0.00476392 	-3.14105 	90.054 	117.798 	-0.617676 	178.41 	360.844 	284.717 	539.707 	
66.4541 	-0.00949352 	-0.460515 	0.801668 	-0.74697 	0.0046905 	-3.14087 	90.0541 	117.798 	-0.617676 	179.398 	360.844 	284.721 	539.707 	
66.5562 	-0.00945301 	-0.466412 	0.799942 	-0.729517 	0.00462017 	-3.14069 	90.0541 	117.798 	-0.617578 	180.49 	360.844 	284.725 	539.707 	
66.6635 	-0.00940737 	-0.472863 	0.797926 	-0.71032 	0.00454641 	-3.1405 	90.054 	117.799 	-0.617578 	181.504 	360.844 	284.726 	539.707 	
66.7663 	-0.00936492 	-0.478692 	0.795987 	-0.692867 	0.00448265 	-3.14032 	90.0541 	117.8 	-0.617676 	182.589 	360.844 	284.727 	539.707 	
66.8691 	-0.00932594 	-0.483909 	0.794154 	-0.67716 	0.00442795 	-3.14015 	90.0541 	117.8 	-0.617773 	183.57 	360.844 	284.728 	539.707 	
66.9755 	-0.00927732 	-0.490246 	0.791803 	-0.657962 	0.00436459 	-3.13995 	90.0538 	117.799 	-0.617578 	184.692 	360.844 	284.729 	539.707 	
67.0793 	-0.00919084 	-0.50108 	0.787457 	-0.624802 	0.00426426 	-3.1396 	90.054 	117.808 	-0.617578 	185.674 	360.844 	284.731 	539.707 	
67.1811 	-0.00914409 	-0.506723 	0.785026 	-0.60735 	0.00421611 	-3.13942 	90.054 	117.81 	-0.617676 	186.669 	360.844 	284.733 	539.707 	
67.2842 	-0.0090965 	-0.512322 	0.782497 	-0.589897 	0.00417121 	-3.13923 	90.054 	117.81 	-0.617676 	187.672 	360.844 	284.734 	539.707 	
67.3871 	-0.00904808 	-0.517876 	0.779871 	-0.572445 	0.00412955 	-3.13905 	90.0541 	117.815 	-0.617676 	188.762 	360.844 	284.736 	539.707 	
67.4891 	-0.00899886 	-0.523384 	0.777148 	-0.554992 	0.00409115 	-3.13886 	90.0539 	117.816 	-0.617578 	189.763 	360.844 	284.739 	539.707 	
67.597 	-0.00894884 	-0.528843 	0.77433 	-0.537539 	0.00405603 	-3.13867 	90.0539 	117.816 	-0.617578 	190.864 	360.844 	284.74 	539.707 	
67.6991 	-0.00889805 	-0.534253 	0.771416 	-0.520087 	0.00402419 	-3.13848 	90.054 	117.818 	-0.617676 	191.862 	360.844 	284.743 	539.707 	
67.8011 	-0.00884649 	-0.53961 	0.768409 	-0.502635 	0.00399564 	-3.13829 	90.0541 	117.828 	-0.617676 	192.834 	360.844 	284.746 	539.707 	
67.9031 	-0.00879419 	-0.544915 	0.765309 	-0.485182 	0.0039704 	-3.1381 	90.0538 	117.826 	-0.617676 	193.857 	360.844 	284.747 	539.707 	
68.0051 	-0.00874116 	-0.550164 	0.762116 	-0.467729 	0.00394847 	-3.13791 	90.0538 	117.827 	-0.617578 	194.967 	360.844 	284.747 	539.707 	
68.1075 	-0.00868741 	-0.555357 	0.758833 	-0.450277 	0.00392985 	-3.13772 	90.0541 	117.832 	-0.617676 	195.942 	360.844 	284.751 	539.707 	
68.2103 	-0.00863296 	-0.560492 	0.755459 	-0.432824 	0.00391456 	-3.13753 	90.054 	117.833 	-0.617676 	196.939 	360.844 	284.757 	539.707 	
68.3136 	-0.00857228 	-0.566071 	0.751645 	-0.413626 	0.00390158 	-3.13732 	90.0539 	117.83 	-0.617676 	197.959 	360.844 	284.759 	539.707 	
68.4163 	-0.00852204 	-0.570581 	0.748445 	-0.397919 	0.00389396 	-3.13715 	90.054 	117.832 	-0.617676 	199.037 	360.844 	284.766 	539.707 	
68.5192 	-0.0084656 	-0.575532 	0.744807 	-0.380467 	0.00388866 	-3.13696 	90.054 	117.832 	-0.617676 	200.034 	360.844 	284.775 	539.707 	
68.6227 	-0.00840853 	-0.580419 	0.741083 	-0.363014 	0.00388669 	-3.13677 	90.054 	117.833 	-0.617676 	201.02 	360.844 	284.781 	539.707 	
68.7254 	-0.00835084 	-0.58524 	0.737275 	-0.345561 	0.00388806 	-3.13658 	90.0539 	117.837 	-0.617676 	202.134 	360.844 	284.785 	539.707 	
68.8288 	-0.0082867 	-0.590465 	0.732989 	-0.326364 	0.00389342 	-3.13637 	90.0541 	117.837 	-0.617676 	203.146 	360.844 	284.791 	539.707 	
68.9314 	-0.0082337 	-0.594679 	0.729408 	-0.310656 	0.00390081 	-3.1362 	90.054 	117.844 	-0.617773 	204.127 	360.844 	284.795 	539.707 	
69.0342 	-0.00816831 	-0.599752 	0.724943 	-0.291458 	0.0039135 	-3.13599 	90.0539 	117.845 	-0.617676 	205.112 	360.844 	284.796 	539.707 	
69.1373 	-0.00811432 	-0.603838 	0.721217 	-0.275751 	0.00392688 	-3.13581 	90.054 	117.846 	-0.617676 	206.208 	360.844 	284.798 	539.707 	
69.2402 	-0.00805384 	-0.608308 	0.717003 	-0.258298 	0.0039449 	-3.13562 	90.0539 	117.846 	-0.617773 	207.229 	360.844 	284.799 	539.707 	
69.3438 	-0.00799285 	-0.612705 	0.712712 	-0.240846 	0.00396624 	-3.13543 	90.054 	117.847 	-0.617773 	208.226 	360.844 	284.803 	539.707 	
69.446 	-0.00793137 	-0.617026 	0.708344 	-0.223394 	0.00399089 	-3.13524 	90.054 	117.848 	-0.617676 	209.322 	360.844 	284.806 	539.707 	
69.5486 	-0.00786943 	-0.62127 	0.703902 	-0.205941 	0.00401885 	-3.13506 	90.054 	117.848 	-0.617676 	210.321 	360.844 	284.807 	539.707 	
69.6511 	-0.00780703 	-0.625436 	0.699386 	-0.188488 	0.0040501 	-3.13487 	90.054 	117.848 	-0.617676 	211.319 	360.844 	284.81 	539.707 	
69.7544 	-0.00774421 	-0.629522 	0.694798 	-0.171036 	0.00408464 	-3.13468 	90.0541 	117.848 	-0.617676 	212.316 	360.844 	284.812 	539.707 	
69.8633 	-0.00768098 	-0.633528 	0.690139 	-0.153583 	0.00412246 	-3.13449 	90.0539 	117.848 	-0.617773 	213.426 	360.844 	284.813 	539.707 	
69.9664 	-0.00761097 	-0.63784 	0.684935 	-0.134386 	0.00416782 	-3.13429 	90.054 	117.849 	-0.617676 	214.504 	360.844 	284.815 	539.707 	
70.0691 	-0.00754693 	-0.641672 	0.680133 	-0.116933 	0.00421247 	-3.1341 	90.054 	117.849 	-0.617676 	215.506 	360.844 	284.822 	539.707 	
70.1743 	-0.00742432 	-0.64872 	0.670828 	-0.0837733 	0.00430622 	-3.13375 	90.054 	117.849 	-0.617773 	216.509 	360.844 	284.825 	539.707 	
70.277 	-0.00735932 	-0.652304 	0.665838 	-0.0663207 	0.00436022 	-3.13357 	90.0539 	117.848 	-0.617773 	217.617 	360.844 	284.832 	539.707 	
70.3802 	-0.00728748 	-0.656146 	0.660278 	-0.0471229 	0.0044233 	-3.13337 	90.054 	117.849 	-0.617676 	218.605 	360.844 	284.838 	539.707 	
70.4819 	-0.00722846 	-0.659209 	0.655675 	-0.0314156 	0.00447777 	-3.1332 	90.0541 	117.85 	-0.617676 	219.61 	360.844 	284.842 	539.707 	
70.5841 	-0.00716264 	-0.662527 	0.650504 	-0.0139631 	0.00454129 	-3.13302 	90.0539 	117.85 	-0.617773 	220.614 	360.844 	284.848 	539.707 	
70.686 	-0.00709659 	-0.665755 	0.645276 	0.00348938 	0.00460795 	-3.13284 	90.0539 	117.856 	-0.617773 	221.719 	360.844 	284.853 	539.707 	
70.7881 	-0.00703033 	-0.668891 	0.639993 	0.0209419 	0.00467772 	-3.13267 	90.0539 	117.857 	-0.617773 	222.716 	360.844 	284.858 	539.707 	
70.8901 	-0.00696387 	-0.671934 	0.634656 	0.0383944 	0.00475059 	-3.13249 	90.054 	117.859 	-0.617676 	223.698 	360.844 	284.861 	539.707 	
70.9971 	-0.00689056 	-0.675173 	0.628724 	0.057592 	0.00483429 	-3.1323 	90.054 	117.86 	-0.617773 	224.802 	360.844 	284.865 	539.707 	
71.0991 	-0.00683045 	-0.677738 	0.623826 	0.0732991 	0.00490552 	-3.13214 	90.0538 	117.86 	-0.617773 	225.816 	360.844 	284.867 	539.707 	
71.2012 	-0.00676353 	-0.680498 	0.618337 	0.0907516 	0.00498753 	-3.13197 	90.0541 	117.861 	-0.617676 	226.81 	360.844 	284.87 	539.707 	
71.3031 	-0.0066965 	-0.683161 	0.6128 	0.108204 	0.00507255 	-3.1318 	90.0539 	117.864 	-0.617773 	227.801 	360.844 	284.874 	539.707 	
71.4063 	-0.00662938 	-0.685728 	0.607218 	0.125657 	0.00516054 	-3.13163 	90.054 	117.865 	-0.617773 	228.912 	360.844 	284.877 	539.707 	
71.5091 	-0.00656219 	-0.688196 	0.601592 	0.143109 	0.00525148 	-3.13146 	90.0539 	117.866 	-0.617871 	229.899 	360.844 	284.881 	539.707 	
71.611 	-0.00649494 	-0.690566 	0.595924 	0.160561 	0.00534533 	-3.13129 	90.0541 	117.865 	-0.617773 	230.917 	360.844 	284.884 	539.707 	
71.7134 	-0.00642767 	-0.692837 	0.590215 	0.178014 	0.00544208 	-3.13113 	90.054 	117.867 	-0.617773 	231.911 	360.844 	284.892 	539.707 	
71.8162 	-0.00635365 	-0.695219 	0.58389 	0.197211 	0.00555181 	-3.13095 	90.054 	117.866 	-0.617676 	233.013 	360.844 	284.901 	539.707 	
71.9189 	-0.00628638 	-0.697279 	0.578102 	0.214664 	0.00565454 	-3.13079 	90.054 	117.867 	-0.617773 	234.009 	360.844 	284.918 	539.707 	
72.0214 	-0.00622586 	-0.699046 	0.572863 	0.230371 	0.00574938 	-3.13064 	90.054 	117.871 	-0.617676 	235.016 	360.844 	284.934 	539.707 	
72.1242 	-0.00615868 	-0.700913 	0.56701 	0.247823 	0.00585739 	-3.13048 	90.0539 	117.882 	-0.617871 	236.021 	360.844 	284.943 	539.707 	
72.2263 	-0.00608485 	-0.702848 	0.560534 	0.267021 	0.00597937 	-3.13031 	90.054 	117.883 	-0.617773 	237.121 	360.844 	284.945 	539.707 	
72.3294 	-0.00602453 	-0.704338 	0.55521 	0.282728 	0.00608159 	-3.13017 	90.054 	117.883 	-0.617871 	238.113 	360.844 	284.946 	539.707 	
72.4326 	-0.00595762 	-0.705896 	0.549267 	0.30018 	0.00619771 	-3.13002 	90.054 	117.883 	-0.617773 	239.113 	360.844 	284.947 	539.707 	
72.5356 	-0.00589084 	-0.70735 	0.543297 	0.317633 	0.00631646 	-3.12987 	90.054 	117.883 	-0.617773 	240.116 	360.844 	284.947 	539.707 	
72.6384 	-0.00582421 	-0.7087 	0.537303 	0.335085 	0.0064378 	-3.12973 	90.054 	117.883 	-0.617773 	241.209 	360.844 	284.95 	539.707 	
72.7411 	-0.00575776 	-0.709944 	0.531287 	0.352538 	0.0065617 	-3.12958 	90.0541 	117.883 	-0.617773 	242.223 	360.844 	284.95 	539.707 	
72.8431 	-0.0056915 	-0.711084 	0.52525 	0.36999 	0.00668813 	-3.12944 	90.054 	117.882 	-0.617871 	243.218 	360.844 	284.95 	539.707 	
72.9465 	-0.00562546 	-0.712118 	0.519193 	0.387443 	0.00681704 	-3.1293 	90.054 	117.883 	-0.617773 	244.308 	360.844 	284.952 	539.707 	
73.0497 	-0.00555965 	-0.713046 	0.51312 	0.404895 	0.00694839 	-3.12916 	90.054 	117.883 	-0.617871 	245.321 	360.844 	284.952 	539.707 	
73.1523 	-0.00549409 	-0.713868 	0.507032 	0.422347 	0.00708214 	-3.12902 	90.054 	117.883 	-0.617871 	246.321 	360.844 	284.955 	539.707 	
73.2554 	-0.0054223 	-0.714649 	0.500319 	0.441545 	0.00723199 	-3.12887 	90.054 	117.883 	-0.617773 	247.33 	360.844 	284.959 	539.707 	
73.3633 	-0.00536383 	-0.715192 	0.494816 	0.457252 	0.00735669 	-3.12875 	90.054 	117.883 	-0.617773 	248.433 	360.844 	284.963 	539.707 	
73.4664 	-0.00529271 	-0.715738 	0.48808 	0.476449 	0.0075116 	-3.12861 	90.054 	117.882 	-0.617871 	249.544 	360.844 	284.972 	539.707 	
73.5703 	-0.00523482 	-0.716089 	0.482562 	0.492156 	0.00764036 	-3.1285 	90.054 	117.882 	-0.617871 	250.526 	360.844 	284.995 	539.707 	
73.6733 	-0.00516446 	-0.7164 	0.475811 	0.511354 	0.00780013 	-3.12836 	90.054 	117.882 	-0.617871 	251.539 	360.844 	284.998 	539.707 	
73.7763 	-0.00510723 	-0.716558 	0.470283 	0.527061 	0.00793279 	-3.12825 	90.054 	117.883 	-0.617871 	252.643 	360.844 	285.002 	539.707 	
73.8802 	-0.00498121 	-0.716598 	0.457996 	0.561966 	0.00823364 	-3.12802 	90.054 	117.882 	-0.617773 	253.645 	360.844 	285.004 	539.707 	
73.982 	-0.00491262 	-0.716437 	0.45124 	0.581164 	0.00840257 	-3.12789 	90.0539 	117.881 	-0.617871 	254.641 	360.844 	285.009 	539.707 	
74.084 	-0.00485691 	-0.716209 	0.445715 	0.59687 	0.00854254 	-3.12779 	90.054 	117.882 	-0.617871 	255.644 	360.844 	285.014 	539.707 	
74.1861 	-0.00478933 	-0.715813 	0.438969 	0.616068 	0.00871572 	-3.12767 	90.054 	117.882 	-0.617871 	256.736 	360.844 	285.016 	539.707 	
74.2891 	-0.00473448 	-0.715392 	0.433455 	0.631775 	0.0088591 	-3.12758 	90.054 	117.882 	-0.617773 	257.735 	360.844 	285.026 	539.707 	
74.3974 	-0.004668 	-0.714761 	0.426726 	0.650973 	0.00903635 	-3.12746 	90.0539 	117.882 	-0.617871 	258.847 	360.844 	285.034 	539.707 	
74.5001 	-0.00461408 	-0.714148 	0.421231 	0.66668 	0.00918295 	-3.12737 	90.054 	117.877 	-0.617871 	259.861 	360.844 	285.037 	539.707 	
74.602 	-0.00455468 	-0.713365 	0.415137 	0.684133 	0.00934749 	-3.12728 	90.054 	117.879 	-0.617871 	260.852 	360.844 	285.056 	539.707 	
74.7041 	-0.00449585 	-0.712477 	0.409058 	0.701585 	0.0095137 	-3.12718 	90.054 	117.88 	-0.617871 	261.858 	360.844 	285.061 	539.707 	
74.8061 	-0.00443759 	-0.711483 	0.402995 	0.719037 	0.00968152 	-3.12709 	90.054 	117.88 	-0.618066 	262.961 	360.844 	285.063 	539.707 	
74.9085 	-0.00437993 	-0.710383 	0.39695 	0.73649 	0.00985092 	-3.127 	90.0541 	117.879 	-0.617773 	263.964 	360.844 	285.066 	539.707 	
75.0113 	-0.00431721 	-0.709051 	0.390324 	0.755688 	0.010039 	-3.12691 	90.054 	117.879 	-0.617969 	264.969 	360.844 	285.067 	539.707 	
75.1143 	-0.00426086 	-0.70773 	0.384324 	0.77314 	0.0102115 	-3.12683 	90.054 	117.875 	-0.617871 	265.97 	360.844 	285.07 	539.707 	
75.2174 	-0.00420516 	-0.706305 	0.378348 	0.790593 	0.0103855 	-3.12675 	90.0539 	117.875 	-0.618066 	267.077 	360.844 	285.072 	539.707 	
75.3205 	-0.0041556 	-0.704933 	0.372991 	0.8063 	0.0105432 	-3.12668 	90.054 	117.876 	-0.617871 	268.064 	360.844 	285.074 	539.707 	
75.4235 	-0.00410118 	-0.70331 	0.367065 	0.823752 	0.0107197 	-3.1266 	90.054 	117.878 	-0.617969 	269.069 	360.844 	285.078 	539.707 	
75.5264 	-0.00404746 	-0.701585 	0.361169 	0.841205 	0.0108974 	-3.12653 	90.054 	117.877 	-0.617871 	270.169 	360.844 	285.08 	539.707 	
75.6296 	-0.00399446 	-0.699756 	0.355303 	0.858657 	0.0110763 	-3.12647 	90.054 	117.871 	-0.617969 	271.198 	360.844 	285.08 	539.707 	
75.7319 	-0.00394219 	-0.697825 	0.34947 	0.87611 	0.0112564 	-3.1264 	90.054 	117.872 	-0.617969 	272.191 	360.844 	285.083 	539.707 	
75.8343 	-0.00389066 	-0.695793 	0.343672 	0.893563 	0.0114375 	-3.12634 	90.0541 	117.875 	-0.617969 	273.186 	360.844 	285.085 	539.707 	
75.936 	-0.0038399 	-0.69366 	0.337911 	0.911015 	0.0116197 	-3.12628 	90.054 	117.873 	-0.617969 	274.295 	360.844 	285.086 	539.707 	
76.0388 	-0.00378496 	-0.691198 	0.331617 	0.930213 	0.0118213 	-3.12622 	90.054 	117.873 	-0.617969 	275.3 	360.844 	285.086 	539.707 	
76.1415 	-0.00374072 	-0.689094 	0.326503 	0.945921 	0.011987 	-3.12618 	90.054 	117.871 	-0.618066 	276.309 	360.844 	285.088 	539.707 	
76.2446 	-0.00369234 	-0.686662 	0.320861 	0.963374 	0.012172 	-3.12613 	90.054 	117.869 	-0.617969 	277.306 	360.844 	285.095 	539.707 	
76.3476 	-0.00364479 	-0.684132 	0.315262 	0.980826 	0.0123578 	-3.12608 	90.0541 	117.87 	-0.617871 	278.411 	360.844 	285.098 	539.707 	
76.4501 	-0.00359344 	-0.681237 	0.309155 	1.00002 	0.012563 	-3.12604 	90.054 	117.87 	-0.618066 	279.412 	360.844 	285.102 	539.707 	
76.5533 	-0.0035522 	-0.678782 	0.3042 	1.01573 	0.0127316 	-3.126 	90.0541 	117.87 	-0.617871 	280.416 	360.844 	285.106 	539.707 	
76.6567 	-0.00350274 	-0.675675 	0.298198 	1.03493 	0.0129383 	-3.12597 	90.0539 	117.87 	-0.618066 	281.52 	360.844 	285.112 	539.707 	
76.7632 	-0.00345871 	-0.672751 	0.292794 	1.05238 	0.0131268 	-3.12593 	90.054 	117.869 	-0.617871 	282.527 	360.844 	285.116 	539.707 	
76.8663 	-0.00341557 	-0.669734 	0.287442 	1.06984 	0.0133158 	-3.12591 	90.0541 	117.869 	-0.617773 	283.628 	360.844 	285.122 	539.707 	
76.9693 	-0.00337334 	-0.666623 	0.282144 	1.08729 	0.0135053 	-3.12588 	90.054 	117.869 	-0.617871 	284.637 	360.844 	285.127 	539.707 	
77.0743 	-0.00329565 	-0.660461 	0.27223 	1.12045 	0.0138665 	-3.12584 	90.0539 	117.866 	-0.618262 	285.646 	360.844 	285.129 	539.707 	
77.1773 	-0.00325223 	-0.656744 	0.266585 	1.13965 	0.0140761 	-3.12583 	90.0539 	117.863 	-0.618262 	286.739 	360.844 	285.133 	539.707 	
77.2803 	-0.00321756 	-0.653622 	0.262021 	1.15536 	0.0142478 	-3.12582 	90.0541 	117.862 	-0.617969 	287.741 	360.844 	285.136 	539.707 	
77.3832 	-0.00317625 	-0.649711 	0.25651 	1.17455 	0.0144578 	-3.12581 	90.054 	117.862 	-0.617969 	288.744 	360.844 	285.139 	539.707 	
77.4849 	-0.00313972 	-0.646063 	0.251565 	1.19201 	0.0146489 	-3.1258 	90.054 	117.855 	-0.617871 	289.75 	360.844 	285.141 	539.707 	
77.5872 	-0.0031077 	-0.642707 	0.24717 	1.20772 	0.0148209 	-3.1258 	90.054 	117.856 	-0.618066 	290.853 	360.844 	285.143 	539.707 	
77.6893 	-0.00307307 	-0.638898 	0.24235 	1.22517 	0.015012 	-3.1258 	90.054 	117.85 	-0.618066 	291.859 	360.844 	285.144 	539.707 	
77.7971 	-0.00303945 	-0.635005 	0.237596 	1.24262 	0.0152031 	-3.12581 	90.054 	117.849 	-0.617969 	292.966 	360.844 	285.144 	539.707 	
77.8989 	-0.00300686 	-0.63103 	0.232912 	1.26008 	0.0153941 	-3.12581 	90.054 	117.847 	-0.618066 	293.97 	360.844 	285.144 	539.707 	
78.0013 	-0.0029753 	-0.626973 	0.228297 	1.27753 	0.0155849 	-3.12583 	90.054 	117.84 	-0.618066 	294.977 	360.844 	285.144 	539.707 	
78.1041 	-0.00294478 	-0.622837 	0.223754 	1.29498 	0.0157754 	-3.12584 	90.0541 	117.837 	-0.617773 	295.978 	360.844 	285.146 	539.707 	
78.206 	-0.00291242 	-0.618196 	0.21884 	1.31418 	0.0159847 	-3.12586 	90.0541 	117.837 	-0.618066 	297.081 	360.844 	285.147 	539.707 	
78.3089 	-0.0028869 	-0.61433 	0.214887 	1.32989 	0.0161557 	-3.12588 	90.054 	117.834 	-0.618164 	298.088 	360.844 	285.147 	539.707 	
78.4113 	-0.00285688 	-0.60952 	0.210139 	1.34909 	0.0163642 	-3.12591 	90.054 	117.833 	-0.617871 	299.079 	360.844 	285.148 	539.707 	
78.5133 	-0.00283329 	-0.605518 	0.206323 	1.3648 	0.0165343 	-3.12593 	90.0539 	117.832 	-0.618262 	300.094 	360.844 	285.149 	539.707 	
78.6151 	-0.00280811 	-0.601002 	0.202158 	1.38225 	0.0167229 	-3.12596 	90.0539 	117.825 	-0.618066 	301.096 	360.844 	285.149 	539.707 	
78.7175 	-0.00278403 	-0.596413 	0.198071 	1.39971 	0.0169109 	-3.126 	90.054 	117.826 	-0.618066 	302.199 	360.844 	285.149 	539.707 	
78.8205 	-0.00276104 	-0.591754 	0.194066 	1.41716 	0.0170982 	-3.12604 	90.054 	117.825 	-0.617969 	303.211 	360.844 	285.149 	539.707 	
78.9237 	-0.00273916 	-0.587025 	0.190143 	1.43461 	0.0172849 	-3.12608 	90.054 	117.821 	-0.617871 	304.208 	360.844 	285.15 	539.707 	
79.0263 	-0.0027184 	-0.582229 	0.186303 	1.45207 	0.0174708 	-3.12612 	90.054 	117.818 	-0.617871 	305.32 	360.844 	285.15 	539.707 	
79.1296 	-0.00269876 	-0.577367 	0.182547 	1.46952 	0.017656 	-3.12617 	90.054 	117.818 	-0.618359 	306.324 	360.844 	285.15 	539.707 	
79.2326 	-0.00268024 	-0.57244 	0.178876 	1.48698 	0.0178402 	-3.12622 	90.054 	117.817 	-0.618066 	307.33 	360.844 	285.151 	539.707 	
79.3358 	-0.00266285 	-0.567449 	0.175292 	1.50443 	0.0180236 	-3.12627 	90.0541 	117.814 	-0.618066 	308.327 	360.844 	285.151 	539.707 	
79.4386 	-0.00264661 	-0.562397 	0.171796 	1.52188 	0.018206 	-3.12633 	90.054 	117.814 	-0.617871 	309.439 	360.844 	285.152 	539.707 	
79.542 	-0.0026315 	-0.557284 	0.168388 	1.53934 	0.0183873 	-3.12639 	90.0541 	117.814 	-0.617871 	310.439 	360.844 	285.152 	539.707 	
79.6442 	-0.00261754 	-0.552113 	0.16507 	1.55679 	0.0185676 	-3.12645 	90.0541 	117.811 	-0.618066 	311.438 	360.844 	285.152 	539.707 	
79.7477 	-0.00260473 	-0.546884 	0.161843 	1.57425 	0.0187468 	-3.12652 	90.054 	117.807 	-0.617969 	312.541 	360.844 	285.152 	539.707 	
79.8503 	-0.00259307 	-0.5416 	0.158708 	1.5917 	0.0189247 	-3.12659 	90.0541 	117.802 	-0.618066 	313.548 	360.844 	285.152 	539.707 	
79.9535 	-0.00258258 	-0.536262 	0.155665 	1.60916 	0.0191014 	-3.12666 	90.0541 	117.801 	-0.617969 	314.551 	360.844 	285.152 	539.707 	
80.0566 	-0.00257324 	-0.530872 	0.152716 	1.62661 	0.0192768 	-3.12674 	90.0541 	117.799 	-0.617871 	315.66 	360.844 	285.152 	539.707 	
80.0962 	-0.00256432 	-0.524885 	0.149581 	1.64581 	0.0194682 	-3.12683 	90.054 	117.798 	-0.618262 	315.958 	360.844 	285.152 	539.707 	
80.1997 	-0.00256572 	-0.524981 	0.145705 	1.65035 	0.0194261 	-3.11841 	90.054 	117.529 	-0.617969 	316.327 	360.844 	285.153 	539.628 	
80.3025 	-0.0025703 	-0.527831 	0.13993 	1.65035 	0.0192707 	-3.10994 	90.054 	116.629 	-0.618066 	315.638 	360.844 	285.154 	539.302 	
80.4057 	-0.00257642 	-0.530891 	0.133461 	1.65035 	0.0190964 	-3.10949 	90.054 	115.558 	-0.618066 	314.701 	360.844 	285.154 	539.266 	
80.5091 	-0.00258439 	-0.534126 	0.126285 	1.65034 	0.0189027 	-3.10939 	90.054 	114.578 	-0.617871 	313.606 	360.844 	285.154 	539.261 	
80.6116 	-0.00259187 	-0.53667 	0.120369 	1.65034 	0.0187426 	-3.1093 	90.0541 	113.564 	-0.618164 	312.616 	360.844 	285.155 	539.258 	
80.714 	-0.00260121 	-0.539387 	0.11375 	1.65034 	0.0185633 	-3.10921 	90.054 	112.581 	-0.617969 	311.619 	360.844 	285.156 	539.256 	
80.8167 	-0.00261271 	-0.542242 	0.106414 	1.65034 	0.0183642 	-3.10911 	90.0541 	111.487 	-0.617871 	310.512 	360.844 	285.156 	539.254 	
80.9196 	-0.00262308 	-0.544473 	0.100373 	1.65034 	0.0182 	-3.10904 	90.0541 	110.497 	-0.618164 	309.51 	360.844 	285.156 	539.252 	
81.0222 	-0.00263692 	-0.54707 	0.0929428 	1.65033 	0.0179977 	-3.10895 	90.054 	109.484 	-0.618066 	308.514 	360.844 	285.156 	539.251 	
81.1256 	-0.0026492 	-0.549089 	0.0868273 	1.65033 	0.0178309 	-3.10888 	90.054 	108.392 	-0.617676 	307.512 	360.844 	285.156 	539.25 	
81.2282 	-0.00266537 	-0.551426 	0.0793108 	1.65033 	0.0176256 	-3.1088 	90.054 	107.399 	-0.618457 	306.415 	360.844 	285.156 	539.249 	
81.3315 	-0.00267954 	-0.553229 	0.0731286 	1.65033 	0.0174565 	-3.10873 	90.054 	106.419 	-0.617969 	305.416 	360.844 	285.157 	539.248 	
81.4345 	-0.00269801 	-0.555302 	0.0655351 	1.65033 	0.0172485 	-3.10866 	90.054 	105.422 	-0.618164 	304.416 	360.844 	285.157 	539.247 	
81.5375 	-0.00271589 	-0.557059 	0.0585986 	1.65033 	0.0170581 	-3.10859 	90.054 	104.314 	-0.618164 	303.317 	360.844 	285.157 	539.245 	
81.6405 	-0.00273286 	-0.558537 	0.0523305 	1.65033 	0.0168858 	-3.10854 	90.054 	103.292 	-0.617969 	302.318 	360.844 	285.157 	539.244 	
81.7436 	-0.0027527 	-0.560064 	0.0453395 	1.65032 	0.0166935 	-3.10848 	90.054 	102.308 	-0.618359 	301.32 	360.844 	285.157 	539.243 	
81.8461 	-0.0027757 	-0.561602 	0.0376201 	1.65032 	0.0164807 	-3.10842 	90.054 	101.192 	-0.618164 	300.214 	360.844 	285.157 	539.241 	
81.9494 	-0.00279544 	-0.56275 	0.0312831 	1.65032 	0.0163058 	-3.10837 	90.054 	100.219 	-0.618359 	299.207 	360.844 	285.157 	539.238 	
82.0522 	-0.00281833 	-0.563908 	0.0242219 	1.65032 	0.0161106 	-3.10832 	90.054 	99.2284 	-0.618164 	298.206 	360.844 	285.157 	539.234 	
82.1557 	-0.00284221 	-0.564943 	0.0171415 	1.65032 	0.0159146 	-3.10828 	90.054 	98.124 	-0.618164 	297.21 	360.844 	285.157 	539.23 	
82.2625 	-0.00286964 	-0.565939 	0.00933361 	1.65032 	0.0156981 	-3.10823 	90.0539 	97.1321 	-0.618262 	296.118 	360.844 	285.158 	539.226 	
82.3654 	-0.00289561 	-0.566714 	0.00222003 	1.65032 	0.0155006 	-3.1082 	90.054 	96.0305 	-0.618066 	295.108 	360.844 	285.158 	539.222 	
82.4684 	-0.00292256 	-0.567365 	-0.00490588 	1.65032 	0.0153025 	-3.10816 	90.054 	95.0223 	-0.618164 	294.02 	360.844 	285.158 	539.219 	
82.5743 	-0.00297643 	-0.568258 	-0.0184718 	1.65032 	0.0149245 	-3.10811 	90.054 	94.0178 	-0.618066 	293.015 	360.844 	285.158 	539.217 	
82.6782 	-0.00300617 	-0.568547 	-0.0256215 	1.65032 	0.0147249 	-3.10808 	90.054 	92.9299 	-0.618066 	291.912 	360.844 	285.158 	539.216 	
82.7811 	-0.00303685 	-0.568712 	-0.0327753 	1.65032 	0.0145249 	-3.10806 	90.054 	91.9413 	-0.618262 	290.917 	360.844 	285.158 	539.216 	
82.8832 	-0.00306847 	-0.568751 	-0.0399308 	1.65031 	0.0143246 	-3.10805 	90.054 	90.9318 	-0.617969 	289.913 	360.844 	285.158 	539.215 	
82.9852 	-0.00310432 	-0.56865 	-0.0478013 	1.65031 	0.014124 	-3.10803 	90.054 	89.856 	-0.618262 	288.912 	360.844 	285.158 	539.215 	
83.0882 	-0.00313448 	-0.568456 	-0.0542385 	1.65031 	0.0139232 	-3.10802 	90.054 	88.8362 	-0.618066 	287.805 	360.844 	285.159 	539.214 	
83.1902 	-0.00316885 	-0.568121 	-0.0613862 	1.65031 	0.0137222 	-3.10801 	90.054 	87.8087 	-0.618652 	286.807 	360.844 	285.159 	539.214 	
83.2973 	-0.00320411 	-0.567661 	-0.0685271 	1.65031 	0.0135212 	-3.10801 	90.0539 	86.7294 	-0.618262 	285.714 	360.844 	285.159 	539.214 	
83.4001 	-0.00324026 	-0.567077 	-0.0756588 	1.65031 	0.0133202 	-3.10801 	90.054 	85.7318 	-0.618164 	284.719 	360.844 	285.159 	539.214 	
83.5022 	-0.00327728 	-0.566368 	-0.0827792 	1.65031 	0.0131191 	-3.10802 	90.0541 	84.7469 	-0.617969 	283.707 	360.844 	285.159 	539.213 	
83.6054 	-0.00331517 	-0.565535 	-0.0898862 	1.65031 	0.0129182 	-3.10802 	90.0541 	83.6261 	-0.618164 	282.704 	360.844 	285.159 	539.213 	
83.7083 	-0.00335391 	-0.564578 	-0.0969776 	1.65031 	0.0127175 	-3.10803 	90.0541 	82.6377 	-0.618164 	281.606 	360.844 	285.159 	539.213 	
83.8111 	-0.00339348 	-0.563498 	-0.104051 	1.65031 	0.0125169 	-3.10805 	90.0539 	81.6374 	-0.618359 	280.607 	360.844 	285.159 	539.213 	
83.9131 	-0.00343388 	-0.562294 	-0.111105 	1.65031 	0.0123167 	-3.10807 	90.054 	80.6216 	-0.618359 	279.61 	360.844 	285.159 	539.213 	
84.0163 	-0.0034751 	-0.560968 	-0.118136 	1.65031 	0.0121168 	-3.10809 	90.054 	79.5151 	-0.618262 	278.512 	360.844 	285.159 	539.212 	
84.1193 	-0.00351712 	-0.559519 	-0.125144 	1.65031 	0.0119173 	-3.10811 	90.054 	78.5442 	-0.618164 	277.512 	360.844 	285.159 	539.212 	
84.2211 	-0.00355993 	-0.557948 	-0.132125 	1.65031 	0.0117183 	-3.10814 	90.054 	77.5238 	-0.617969 	276.505 	360.844 	285.159 	539.212 	
84.3231 	-0.00360351 	-0.556255 	-0.139077 	1.65031 	0.0115197 	-3.10817 	90.0541 	76.5383 	-0.618066 	275.505 	360.844 	285.16 	539.211 	
84.425 	-0.00364786 	-0.554441 	-0.145999 	1.65031 	0.0113218 	-3.10821 	90.054 	75.4331 	-0.617871 	274.503 	360.844 	285.16 	539.211 	
84.5274 	-0.00369296 	-0.552507 	-0.152888 	1.65031 	0.0111245 	-3.10825 	90.054 	74.4119 	-0.618164 	273.41 	360.844 	285.16 	539.21 	
84.6304 	-0.00373879 	-0.550452 	-0.159743 	1.65032 	0.010928 	-3.10829 	90.0541 	73.3433 	-0.617871 	272.424 	360.844 	285.16 	539.21 	
84.7335 	-0.00378535 	-0.548279 	-0.16656 	1.65032 	0.0107322 	-3.10834 	90.0538 	72.376 	-0.61875 	271.408 	360.844 	285.16 	539.21 	
84.8362 	-0.00383261 	-0.545986 	-0.173339 	1.65032 	0.0105372 	-3.10838 	90.0534 	71.2925 	-0.619043 	270.303 	360.844 	285.161 	539.21 	
84.9395 	-0.00387938 	-0.543466 	-0.180132 	1.65067 	0.010347 	-3.10844 	90.0538 	70.2948 	-0.61875 	269.405 	360.844 	285.161 	539.21 	
85.0423 	-0.00390277 	-0.538631 	-0.187981 	1.658 	0.0102357 	-3.10846 	90.0539 	69.318 	-0.618555 	268.988 	360.844 	285.164 	539.21 	
85.1455 	-0.00389256 	-0.530571 	-0.197258 	1.6751 	0.0102342 	-3.10843 	90.0539 	68.2945 	-0.618359 	268.913 	360.844 	285.17 	539.21 	
85.2485 	-0.00387975 	-0.521398 	-0.207356 	1.6943 	0.0102372 	-3.10841 	90.0539 	67.2111 	-0.618359 	268.899 	360.844 	285.173 	539.209 	
85.3516 	-0.00386907 	-0.513749 	-0.215486 	1.71001 	0.0102401 	-3.10839 	90.0539 	66.1961 	-0.618457 	268.887 	360.844 	285.177 	539.209 	
85.4548 	-0.00385699 	-0.505102 	-0.224378 	1.72746 	0.0102437 	-3.10836 	90.0538 	65.1802 	-0.618262 	268.88 	360.844 	285.178 	539.208 	
85.5603 	-0.0038447 	-0.496302 	-0.233117 	1.74491 	0.0102477 	-3.10834 	90.0542 	64.0601 	-0.617969 	268.876 	360.844 	285.181 	539.208 	
