RISC-NYUAD/HeavyPayloadDrone/projects/kinova-ros/devel/lib/ne_kinova_demo/VulcanTrajectory/Vulcan1_Vicon_y19m11d13h19min23.csv
time (NSec) 	Kinova Tip Position (t_x) 	t_y 	t_z 	Kinova Tip Angle (theta_x) 	Kinova Tip Angle (theta_y) 	Kinova Tip Angle (theta_z) 	Kinova Joint Angle (j1) 	(j2) 	(j3) 	(j4) 	Kinova Joint Angle (j5) 	(j6) 	(j7)
1.82471 	-0.00256513 	-0.52547 	0.149881 	1.64394 	0.0194497 	-3.12682 	90.0096 	116.657 	-0.550977 	316.27 	360.766 	285.035 	539.796 	
1.9265 	-0.0025665 	-0.525542 	0.149846 	1.6436 	0.0194414 	-3.12681 	90.0096 	116.467 	-0.550977 	316.073 	360.766 	285.035 	539.796 	
2.02862 	-0.00257093 	-0.528377 	0.144223 	1.64359 	0.0192896 	-3.12672 	90.0096 	115.659 	-0.550977 	315.243 	360.766 	285.035 	539.796 	
2.13117 	-0.00257699 	-0.531493 	0.137781 	1.64359 	0.0191155 	-3.12662 	90.0096 	114.687 	-0.550977 	314.28 	360.766 	285.035 	539.796 	
2.24146 	-0.00258412 	-0.534496 	0.131287 	1.64359 	0.0189396 	-3.12652 	90.0096 	113.579 	-0.550977 	313.174 	360.766 	285.035 	539.796 	
2.3435 	-0.00259232 	-0.537386 	0.12474 	1.64359 	0.0187621 	-3.12643 	90.0096 	112.587 	-0.550977 	312.182 	360.766 	285.035 	539.796 	
2.4454 	-0.0026016 	-0.540161 	0.118145 	1.64359 	0.0185829 	-3.12633 	90.0095 	111.482 	-0.550977 	311.083 	360.766 	285.035 	539.796 	
2.54716 	-0.00261195 	-0.54282 	0.111502 	1.64358 	0.0184022 	-3.12625 	90.0096 	110.474 	-0.550977 	310.087 	360.766 	285.035 	539.796 	
2.64985 	-0.00263583 	-0.547789 	0.0980813 	1.64358 	0.0180363 	-3.12608 	90.0096 	109.574 	-0.550977 	309.18 	360.766 	285.035 	539.796 	
2.7523 	-0.00264937 	-0.550097 	0.091308 	1.64358 	0.0178512 	-3.126 	90.0096 	108.456 	-0.550977 	308.078 	360.766 	285.035 	539.796 	
2.85456 	-0.00266396 	-0.552287 	0.0844957 	1.64358 	0.0176648 	-3.12593 	90.0096 	107.371 	-0.550977 	306.986 	360.766 	285.035 	539.796 	
2.95621 	-0.0026796 	-0.554357 	0.0776461 	1.64358 	0.0174771 	-3.12585 	90.0096 	106.363 	-0.550977 	305.982 	360.766 	285.035 	539.796 	
3.05796 	-0.00269628 	-0.556308 	0.0707615 	1.64357 	0.0172881 	-3.12579 	90.0095 	105.371 	-0.550977 	304.976 	360.766 	285.035 	539.796 	
3.16123 	-0.00271401 	-0.558138 	0.0638437 	1.64357 	0.017098 	-3.12572 	90.0096 	104.348 	-0.550977 	303.969 	360.766 	285.035 	539.796 	
3.26368 	-0.00273276 	-0.559847 	0.0568952 	1.64357 	0.0169068 	-3.12566 	90.0096 	103.358 	-0.550977 	302.977 	360.766 	285.035 	539.796 	
3.36617 	-0.00275255 	-0.561434 	0.0499178 	1.64357 	0.0167145 	-3.1256 	90.0096 	102.252 	-0.550977 	301.883 	360.766 	285.035 	539.796 	
3.46813 	-0.00277337 	-0.562899 	0.0429138 	1.64357 	0.0165212 	-3.12554 	90.0096 	101.248 	-0.550977 	300.88 	360.766 	285.035 	539.796 	
3.57179 	-0.00279519 	-0.564242 	0.0358854 	1.64357 	0.016327 	-3.12549 	90.0096 	100.246 	-0.550977 	299.878 	360.766 	285.035 	539.796 	
3.67442 	-0.00281803 	-0.565462 	0.0288345 	1.64357 	0.016132 	-3.12544 	90.0096 	99.1452 	-0.550977 	298.883 	360.766 	285.035 	539.796 	
3.77741 	-0.00284188 	-0.566559 	0.0217634 	1.64357 	0.015936 	-3.1254 	90.0096 	98.1329 	-0.550977 	297.764 	360.766 	285.035 	539.796 	
3.87919 	-0.00286672 	-0.567533 	0.0146744 	1.64356 	0.0157394 	-3.12536 	90.0096 	97.1265 	-0.550977 	296.768 	360.766 	285.035 	539.796 	
3.98095 	-0.00289254 	-0.568382 	0.0075693 	1.64356 	0.015542 	-3.12532 	90.0096 	96.1252 	-0.550977 	295.767 	360.766 	285.035 	539.796 	
4.08313 	-0.00291935 	-0.569107 	0.00045055 	1.64356 	0.015344 	-3.12528 	90.0096 	95.1261 	-0.550977 	294.768 	360.766 	285.035 	539.796 	
4.18553 	-0.00294713 	-0.569708 	-0.00667975 	1.64356 	0.0151454 	-3.12525 	90.0096 	94.0344 	-0.550977 	293.675 	360.766 	285.035 	539.796 	
4.2882 	-0.00297296 	-0.570143 	-0.0131052 	1.64356 	0.0149662 	-3.12523 	90.0096 	93.0404 	-0.550977 	292.681 	360.766 	285.035 	539.796 	
4.39095 	-0.00300256 	-0.570507 	-0.0202516 	1.64356 	0.0147667 	-3.1252 	90.0096 	92.0404 	-0.550977 	291.679 	360.766 	285.035 	539.796 	
4.49295 	-0.00303622 	-0.570763 	-0.0281186 	1.64356 	0.0145468 	-3.12518 	90.0096 	91.029 	-0.550977 	290.676 	360.766 	285.035 	539.796 	
4.59514 	-0.0030678 	-0.570865 	-0.0352734 	1.64356 	0.0143465 	-3.12516 	90.0096 	89.9368 	-0.550977 	289.685 	360.766 	285.035 	539.796 	
4.69768 	-0.00310031 	-0.570842 	-0.0424291 	1.64356 	0.0141459 	-3.12515 	90.0096 	88.9268 	-0.551074 	288.576 	360.766 	285.035 	539.796 	
4.80021 	-0.00313374 	-0.570694 	-0.0495832 	1.64356 	0.0139452 	-3.12514 	90.0097 	87.9308 	-0.550977 	287.574 	360.766 	285.035 	539.796 	
4.90302 	-0.00316807 	-0.570422 	-0.0567336 	1.64356 	0.0137442 	-3.12513 	90.01 	86.9354 	-0.550977 	286.581 	360.766 	285.035 	539.796 	
5.00523 	-0.0032033 	-0.570024 	-0.0638782 	1.64356 	0.0135432 	-3.12513 	90.0101 	85.8301 	-0.550977 	285.581 	360.766 	285.035 	539.796 	
5.10746 	-0.00323942 	-0.569502 	-0.0710147 	1.64356 	0.0133422 	-3.12513 	90.0102 	84.8346 	-0.551074 	284.482 	360.766 	285.035 	539.796 	
5.21051 	-0.00327641 	-0.568856 	-0.0781411 	1.64356 	0.0131411 	-3.12513 	90.0111 	83.8346 	-0.550977 	283.485 	360.766 	285.035 	539.796 	
5.31349 	-0.00331427 	-0.568085 	-0.0852551 	1.64356 	0.0129402 	-3.12514 	90.0114 	82.8371 	-0.550977 	282.483 	360.766 	285.035 	539.796 	
5.41586 	-0.00335297 	-0.56719 	-0.0923545 	1.64356 	0.0127394 	-3.12515 	90.0114 	81.7381 	-0.550977 	281.378 	360.766 	285.035 	539.796 	
5.5178 	-0.00339252 	-0.566172 	-0.0994373 	1.64356 	0.0125389 	-3.12516 	90.0113 	80.7415 	-0.551074 	280.381 	360.766 	285.035 	539.796 	
5.61988 	-0.0034329 	-0.56503 	-0.106501 	1.64356 	0.0123386 	-3.12518 	90.0119 	79.7419 	-0.551074 	279.376 	360.766 	285.035 	539.796 	
5.72297 	-0.00347409 	-0.563765 	-0.113544 	1.64356 	0.0121386 	-3.1252 	90.0125 	78.7425 	-0.550977 	278.376 	360.766 	285.035 	539.796 	
5.82581 	-0.00351608 	-0.562377 	-0.120564 	1.64356 	0.0119391 	-3.12522 	90.0127 	77.6387 	-0.550977 	277.373 	360.766 	285.035 	539.796 	
5.92785 	-0.00355887 	-0.560866 	-0.127558 	1.64356 	0.01174 	-3.12525 	90.0126 	76.6382 	-0.550977 	276.283 	360.766 	285.035 	539.796 	
6.02985 	-0.00359804 	-0.559403 	-0.13383 	1.64356 	0.0115613 	-3.12528 	90.0127 	75.6479 	-0.550977 	275.275 	360.766 	285.035 	539.796 	
6.13198 	-0.00364676 	-0.557481 	-0.141463 	1.64356 	0.0113434 	-3.12532 	90.013 	74.6551 	-0.550977 	274.283 	360.766 	285.035 	539.796 	
6.24162 	-0.00369184 	-0.555607 	-0.148369 	1.64356 	0.0111461 	-3.12536 	90.0131 	73.553 	-0.550977 	273.178 	360.766 	285.035 	539.796 	
6.34354 	-0.00373766 	-0.553612 	-0.155241 	1.64356 	0.0109494 	-3.1254 	90.013 	72.5561 	-0.550977 	272.18 	360.766 	285.035 	539.796 	
6.44533 	-0.00378419 	-0.551498 	-0.162077 	1.64356 	0.0107535 	-3.12544 	90.0131 	71.464 	-0.550977 	271.176 	360.766 	285.035 	539.796 	
6.54975 	-0.00383144 	-0.549265 	-0.168875 	1.64356 	0.0105585 	-3.12549 	90.0131 	70.4632 	-0.550977 	270.072 	360.766 	285.035 	539.796 	
6.65268 	-0.00387938 	-0.546914 	-0.175633 	1.64356 	0.0103643 	-3.12554 	90.0131 	69.472 	-0.550977 	269.235 	360.766 	285.035 	539.796 	
6.75478 	-0.00389865 	-0.535421 	-0.191711 	1.66486 	0.0102353 	-3.12555 	90.0132 	68.4802 	-0.550977 	268.947 	360.766 	285.035 	539.796 	
6.85715 	-0.00388599 	-0.526353 	-0.201904 	1.68405 	0.010238 	-3.12553 	90.0134 	67.3912 	-0.551074 	268.904 	360.766 	285.035 	539.796 	
6.95924 	-0.00387424 	-0.517941 	-0.211017 	1.70151 	0.010241 	-3.1255 	90.0135 	66.3936 	-0.550977 	268.877 	360.766 	285.035 	539.796 	
7.06116 	-0.00386228 	-0.509372 	-0.219982 	1.71896 	0.0102444 	-3.12548 	90.0136 	65.3785 	-0.550977 	268.872 	360.766 	285.035 	539.796 	
7.16374 	-0.00385009 	-0.500647 	-0.228796 	1.73641 	0.0102482 	-3.12545 	90.0136 	64.4063 	-0.550977 	268.87 	360.766 	285.035 	539.796 	
7.17615 	-0.00385009 	-0.500647 	-0.228796 	1.73641 	0.0102482 	-3.12545 	90.0136 	64.3028 	-0.550977 	268.87 	360.766 	285.035 	539.796 	
7.27821 	-0.0038464 	-0.498 	-0.231411 	1.74165 	0.0102494 	-3.12545 	90.0138 	63.7479 	-0.550977 	268.868 	360.766 	285.035 	539.796 	
7.37992 	-0.0038464 	-0.498 	-0.231411 	1.74165 	0.0102494 	-3.12545 	90.0138 	63.7258 	-0.550977 	268.865 	360.766 	285.035 	539.796 	
7.48319 	-0.0038464 	-0.498 	-0.231411 	1.74165 	0.0102494 	-3.12545 	90.0138 	63.7182 	-0.550977 	268.865 	360.766 	285.035 	539.796 	
7.58606 	-0.0038464 	-0.498 	-0.231411 	1.74165 	0.0102494 	-3.12545 	90.0139 	63.7111 	-0.550977 	268.865 	360.766 	285.035 	539.796 	
7.68779 	-0.0038464 	-0.498 	-0.231411 	1.74165 	0.0102494 	-3.12545 	90.0139 	63.7088 	-0.550977 	268.865 	360.766 	285.035 	539.796 	
7.76867 	-0.0038464 	-0.498 	-0.231411 	1.74165 	0.0102494 	-3.12545 	90.0139 	63.708 	-0.550977 	268.865 	360.766 	285.035 	539.796 	
7.87408 	-0.00388133 	-0.505231 	-0.22597 	1.72455 	0.0101544 	-3.1255 	90.0139 	63.849 	-0.550977 	268.56 	360.766 	285.035 	539.796 	
7.97611 	-0.00395432 	-0.519515 	-0.21457 	1.68964 	0.00995566 	-3.12561 	90.0138 	64.6231 	-0.550977 	267.672 	360.766 	285.035 	539.796 	
8.07821 	-0.00402772 	-0.533507 	-0.202728 	1.65474 	0.0097597 	-3.12572 	90.0139 	65.6987 	-0.550977 	266.582 	360.766 	285.035 	539.796 	
8.18006 	-0.00410148 	-0.547193 	-0.190453 	1.61983 	0.00956656 	-3.12584 	90.0139 	66.6691 	-0.550977 	265.598 	360.766 	285.035 	539.796 	
8.28328 	-0.00416815 	-0.559237 	-0.179042 	1.58842 	0.00939519 	-3.12594 	90.0138 	67.6557 	-0.550977 	264.61 	360.766 	285.035 	539.796 	
8.38619 	-0.00424251 	-0.572302 	-0.165969 	1.55351 	0.00920758 	-3.12606 	90.0138 	68.7466 	-0.550977 	263.614 	360.766 	285.035 	539.796 	
8.48807 	-0.0043246 	-0.586273 	-0.15112 	1.51512 	0.00900465 	-3.1262 	90.0139 	69.7268 	-0.550977 	262.522 	360.766 	285.035 	539.796 	
8.59003 	-0.00439946 	-0.598595 	-0.137205 	1.48021 	0.00882338 	-3.12633 	90.0138 	70.7172 	-0.550977 	261.528 	360.766 	285.035 	539.796 	
8.69209 	-0.00447451 	-0.610543 	-0.122907 	1.44531 	0.0086452 	-3.12646 	90.0138 	71.7036 	-0.550977 	260.537 	360.766 	285.035 	539.796 	
8.79549 	-0.00454971 	-0.622104 	-0.108235 	1.4104 	0.00847018 	-3.12659 	90.0138 	72.6741 	-0.550977 	259.548 	360.766 	285.035 	539.796 	
8.89804 	-0.00462502 	-0.633267 	-0.0932029 	1.3755 	0.00829836 	-3.12673 	90.0139 	73.7689 	-0.550977 	258.457 	360.766 	285.035 	539.796 	
9.00035 	-0.00470042 	-0.644019 	-0.0778213 	1.34059 	0.00812978 	-3.12687 	90.0138 	74.7543 	-0.550977 	257.457 	360.766 	285.035 	539.796 	
9.10115 	-0.00476831 	-0.653336 	-0.0636895 	1.30918 	0.00798087 	-3.127 	90.0138 	75.7347 	-0.550977 	256.467 	360.766 	285.035 	539.796 	
9.20346 	-0.00484376 	-0.663277 	-0.0476788 	1.27427 	0.00781856 	-3.12714 	90.0138 	76.731 	-0.550977 	255.475 	360.766 	285.035 	539.796 	
9.30702 	-0.00492674 	-0.673701 	-0.0297073 	1.23588 	0.00764391 	-3.1273 	90.0138 	77.8217 	-0.550977 	254.379 	360.766 	285.035 	539.796 	
9.41035 	-0.00500211 	-0.682701 	-0.013057 	1.20097 	0.0074887 	-3.12745 	90.0138 	78.8108 	-0.550977 	253.397 	360.766 	285.035 	539.796 	
9.51226 	-0.0050774 	-0.691237 	0.00387675 	1.16607 	0.00733693 	-3.1276 	90.0138 	79.798 	-0.550977 	252.4 	360.766 	285.035 	539.796 	
9.61398 	-0.00515257 	-0.699301 	0.0210798 	1.13116 	0.0071886 	-3.12776 	90.0138 	80.7965 	-0.550977 	251.406 	360.766 	285.035 	539.796 	
9.71605 	-0.00522759 	-0.706884 	0.0385373 	1.09626 	0.00704376 	-3.12792 	90.0138 	81.8691 	-0.550977 	250.415 	360.766 	285.035 	539.796 	
9.81884 	-0.00529495 	-0.71329 	0.0544548 	1.06484 	0.00691641 	-3.12806 	90.0138 	82.8625 	-0.550977 	249.317 	360.766 	285.035 	539.796 	
9.9214 	-0.00536959 	-0.719935 	0.0723554 	1.02994 	0.00677825 	-3.12822 	90.0139 	83.8479 	-0.550977 	248.324 	360.766 	285.035 	539.796 	
10.0241 	-0.005444 	-0.726076 	0.0904669 	0.995031 	0.00664365 	-3.12838 	90.0138 	84.8369 	-0.550977 	247.338 	360.766 	285.035 	539.796 	
10.1266 	-0.00552553 	-0.73224 	0.110615 	0.956636 	0.0064997 	-3.12856 	90.0138 	85.9231 	-0.550977 	246.342 	360.766 	285.035 	539.796 	
10.2284 	-0.00559933 	-0.7373 	0.129119 	0.921731 	0.00637261 	-3.12873 	90.0138 	86.9191 	-0.550977 	245.247 	360.766 	285.035 	539.796 	
10.332 	-0.0056728 	-0.741837 	0.147785 	0.886825 	0.0062491 	-3.1289 	90.0138 	87.9154 	-0.550977 	244.257 	360.766 	285.035 	539.796 	
10.4408 	-0.00574592 	-0.745843 	0.166596 	0.851921 	0.0061292 	-3.12907 	90.0138 	88.9958 	-0.550977 	243.157 	360.766 	285.035 	539.796 	
10.5426 	-0.00581864 	-0.749316 	0.185538 	0.817015 	0.00601291 	-3.12924 	90.0138 	90.013 	-0.550977 	242.161 	360.766 	285.035 	539.796 	
10.6447 	-0.00589096 	-0.75225 	0.204592 	0.78211 	0.00590025 	-3.12941 	90.0138 	91.0012 	-0.550977 	241.161 	360.766 	285.035 	539.796 	
10.7487 	-0.00602713 	-0.75633 	0.241046 	0.71579 	0.00569616 	-3.12974 	90.0138 	92.088 	-0.550977 	240.066 	360.766 	285.035 	539.796 	
10.8513 	-0.00609811 	-0.757684 	0.260333 	0.680885 	0.005594 	-3.12992 	90.0138 	93.0747 	-0.550977 	239.076 	360.766 	285.035 	539.796 	
10.9529 	-0.00617559 	-0.758539 	0.281603 	0.642489 	0.0054858 	-3.13011 	90.0138 	94.0718 	-0.550977 	238.076 	360.766 	285.035 	539.796 	
11.0544 	-0.00624547 	-0.758738 	0.30097 	0.607584 	0.00539123 	-3.13029 	90.0138 	95.0543 	-0.550977 	237.092 	360.766 	285.035 	539.796 	
11.1564 	-0.00631479 	-0.758384 	0.320348 	0.572678 	0.00530026 	-3.13047 	90.0138 	96.1501 	-0.550977 	236.1 	360.766 	285.035 	539.796 	
11.2584 	-0.00638353 	-0.757477 	0.33972 	0.537773 	0.0052129 	-3.13065 	90.0138 	97.1367 	-0.550977 	234.997 	360.766 	285.035 	539.796 	
11.3617 	-0.00645167 	-0.756018 	0.35907 	0.502868 	0.00512911 	-3.13083 	90.0138 	98.1448 	-0.550977 	234.009 	360.766 	285.035 	539.796 	
11.4642 	-0.00651247 	-0.754234 	0.376451 	0.471453 	0.00505676 	-3.13099 	90.0138 	99.1378 	-0.550977 	233.018 	360.766 	285.035 	539.796 	
11.5663 	-0.00657941 	-0.751728 	0.395711 	0.436548 	0.00497976 	-3.13118 	90.0138 	100.233 	-0.550977 	232.023 	360.766 	285.035 	539.796 	
11.6684 	-0.00665229 	-0.748338 	0.416812 	0.398152 	0.00489914 	-3.13138 	90.0138 	101.232 	-0.550977 	230.916 	360.766 	285.035 	539.796 	
11.7738 	-0.00671784 	-0.744683 	0.435899 	0.363246 	0.00482955 	-3.13156 	90.0137 	102.232 	-0.550977 	229.927 	360.766 	285.035 	539.796 	
11.8772 	-0.00678269 	-0.740485 	0.454879 	0.328341 	0.00476346 	-3.13174 	90.0138 	103.228 	-0.550977 	228.935 	360.766 	285.035 	539.796 	
11.979 	-0.00684682 	-0.735747 	0.473734 	0.293436 	0.00470085 	-3.13193 	90.0138 	104.317 	-0.550977 	227.831 	360.766 	285.035 	539.796 	
12.0808 	-0.00690392 	-0.731026 	0.490584 	0.262021 	0.00464746 	-3.13209 	90.0138 	105.331 	-0.550977 	226.839 	360.766 	285.035 	539.796 	
12.1831 	-0.0069729 	-0.72467 	0.511004 	0.223625 	0.00458598 	-3.1323 	90.0138 	106.315 	-0.550977 	225.846 	360.766 	285.035 	539.796 	
12.286 	-0.00702865 	-0.718997 	0.527556 	0.19221 	0.00453875 	-3.13246 	90.0138 	107.325 	-0.550977 	224.837 	360.766 	285.035 	539.796 	
12.3888 	-0.00708987 	-0.7122 	0.545767 	0.157305 	0.00448948 	-3.13265 	90.0138 	108.419 	-0.550977 	223.736 	360.766 	285.035 	539.796 	
12.4908 	-0.0071503 	-0.704887 	0.563774 	0.122399 	0.00444356 	-3.13283 	90.0138 	109.423 	-0.550977 	222.737 	360.766 	285.035 	539.796 	
12.5925 	-0.00720995 	-0.697068 	0.581559 	0.0874937 	0.00440096 	-3.13301 	90.0138 	110.422 	-0.550977 	221.744 	360.766 	285.035 	539.796 	
12.6945 	-0.00726878 	-0.688747 	0.599109 	0.0525883 	0.00436165 	-3.1332 	90.0138 	111.433 	-0.550977 	220.746 	360.766 	285.035 	539.796 	
12.7971 	-0.00733256 	-0.679026 	0.618123 	0.0141921 	0.00432218 	-3.1334 	90.0138 	112.539 	-0.550977 	219.748 	360.766 	285.035 	539.796 	
12.8997 	-0.00738967 	-0.66968 	0.635127 	-0.0207135 	0.00428967 	-3.13359 	90.0137 	113.544 	-0.550977 	218.641 	360.766 	285.036 	539.796 	
13.0018 	-0.00744035 	-0.660863 	0.65019 	-0.0521285 	0.00426315 	-3.13375 	90.0138 	114.55 	-0.550977 	217.643 	360.766 	285.036 	539.796 	
13.104 	-0.00749587 	-0.650622 	0.666644 	-0.0870341 	0.00423667 	-3.13393 	90.0137 	115.552 	-0.550977 	216.638 	360.766 	285.036 	539.796 	
13.2063 	-0.00755251 	-0.641342 	0.680553 	-0.118449 	0.00420847 	-3.13412 	90.0138 	116.207 	-0.550977 	215.623 	360.766 	285.036 	539.796 	
13.3093 	-0.00762289 	-0.637114 	0.685825 	-0.137647 	0.00415984 	-3.13432 	90.0138 	116.349 	-0.550977 	214.513 	360.766 	285.037 	539.796 	
13.4124 	-0.00768648 	-0.633183 	0.690547 	-0.155099 	0.00411904 	-3.13451 	90.0138 	116.349 	-0.550977 	213.538 	360.766 	285.037 	539.796 	
13.5143 	-0.00774968 	-0.629171 	0.695199 	-0.172552 	0.00408151 	-3.1347 	90.0138 	116.349 	-0.550977 	212.534 	360.766 	285.037 	539.796 	
13.6162 	-0.00781247 	-0.625077 	0.699781 	-0.190004 	0.00404726 	-3.13488 	90.0138 	116.35 	-0.550977 	211.519 	360.766 	285.037 	539.797 	
13.7184 	-0.00787483 	-0.620904 	0.70429 	-0.207457 	0.00401629 	-3.13507 	90.0139 	116.35 	-0.550977 	210.428 	360.766 	285.037 	539.797 	
13.8215 	-0.00793056 	-0.617082 	0.708286 	-0.223164 	0.00399124 	-3.13524 	90.0138 	116.35 	-0.550977 	209.429 	360.766 	285.037 	539.797 	
13.9242 	-0.00799204 	-0.612762 	0.712655 	-0.240617 	0.00396655 	-3.13543 	90.0138 	116.35 	-0.550977 	208.421 	360.766 	285.037 	539.797 	
14.0263 	-0.00805304 	-0.608367 	0.716947 	-0.258069 	0.00394516 	-3.13562 	90.0138 	116.35 	-0.550977 	207.428 	360.766 	285.037 	539.797 	
14.1285 	-0.00811955 	-0.603446 	0.72158 	-0.277267 	0.00392547 	-3.13583 	90.0138 	116.35 	-0.550977 	206.326 	360.766 	285.037 	539.797 	
14.2303 	-0.00817947 	-0.598896 	0.725708 	-0.29472 	0.00391106 	-3.13602 	90.0138 	116.35 	-0.550977 	205.325 	360.766 	285.038 	539.797 	
14.3397 	-0.00823884 	-0.594275 	0.729757 	-0.312172 	0.00389998 	-3.13621 	90.0138 	116.35 	-0.551074 	204.323 	360.766 	285.038 	539.797 	
14.442 	-0.00829765 	-0.589583 	0.733724 	-0.329625 	0.00389223 	-3.1364 	90.0138 	116.35 	-0.551074 	203.224 	360.766 	285.038 	539.797 	
14.5438 	-0.00835588 	-0.584824 	0.737609 	-0.347077 	0.00388781 	-3.13659 	90.0138 	116.35 	-0.551074 	202.215 	360.766 	285.038 	539.797 	
14.6493 	-0.00846485 	-0.575596 	0.744759 	-0.380237 	0.00388861 	-3.13696 	90.0138 	116.35 	-0.551074 	201.106 	360.766 	285.038 	539.797 	
14.7519 	-0.0085213 	-0.570646 	0.748398 	-0.39769 	0.00389387 	-3.13715 	90.0138 	116.35 	-0.551074 	200.112 	360.766 	285.038 	539.797 	
14.8542 	-0.00858265 	-0.565128 	0.7523 	-0.416888 	0.0039035 	-3.13736 	90.0138 	116.35 	-0.551074 	199.1 	360.766 	285.038 	539.797 	
14.9559 	-0.00863772 	-0.560048 	0.755755 	-0.43434 	0.00391576 	-3.13755 	90.0138 	116.35 	-0.551074 	198.106 	360.766 	285.038 	539.797 	
15.0576 	-0.0086921 	-0.554908 	0.759121 	-0.451793 	0.00393134 	-3.13774 	90.0138 	116.35 	-0.551074 	197.02 	360.766 	285.038 	539.797 	
15.1593 	-0.00874579 	-0.54971 	0.762397 	-0.469245 	0.00395024 	-3.13793 	90.0138 	116.35 	-0.551074 	196.003 	360.766 	285.038 	539.797 	
15.2613 	-0.00879876 	-0.544456 	0.765582 	-0.486698 	0.00397246 	-3.13812 	90.0138 	116.35 	-0.551074 	195.013 	360.766 	285.038 	539.797 	
15.3643 	-0.008851 	-0.539147 	0.768674 	-0.504151 	0.00399799 	-3.13831 	90.0138 	116.35 	-0.551074 	194.014 	360.766 	285.038 	539.797 	
15.4662 	-0.00889738 	-0.534323 	0.771378 	-0.519858 	0.00402379 	-3.13848 	90.0138 	116.35 	-0.551074 	193 	360.766 	285.039 	539.797 	
15.568 	-0.00894818 	-0.528915 	0.774292 	-0.53731 	0.00405559 	-3.13867 	90.0138 	116.35 	-0.551074 	191.902 	360.766 	285.039 	539.797 	
15.6718 	-0.00899821 	-0.523456 	0.777112 	-0.554763 	0.00409067 	-3.13886 	90.0138 	116.35 	-0.551074 	190.904 	360.766 	285.039 	539.797 	
15.7752 	-0.00905232 	-0.517396 	0.780103 	-0.573961 	0.00413304 	-3.13906 	90.0138 	116.35 	-0.551074 	189.903 	360.766 	285.039 	539.797 	
15.8784 	-0.00910066 	-0.511837 	0.782721 	-0.591413 	0.00417498 	-3.13925 	90.0138 	116.35 	-0.551074 	188.793 	360.766 	285.039 	539.797 	
15.9803 	-0.00914818 	-0.506234 	0.785241 	-0.608866 	0.00422017 	-3.13943 	90.0138 	116.35 	-0.551074 	187.8 	360.766 	285.039 	539.797 	
16.0822 	-0.00919487 	-0.500588 	0.787664 	-0.626318 	0.00426859 	-3.13962 	90.0138 	116.35 	-0.551074 	186.786 	360.766 	285.039 	539.797 	
16.184 	-0.00923615 	-0.495471 	0.789759 	-0.642026 	0.00431493 	-3.13978 	90.0138 	116.35 	-0.551074 	185.787 	360.766 	285.039 	539.797 	
16.2869 	-0.0092812 	-0.489747 	0.791993 	-0.659478 	0.00436945 	-3.13997 	90.0138 	116.35 	-0.551074 	184.792 	360.766 	285.039 	539.797 	
16.3901 	-0.00932537 	-0.483985 	0.794127 	-0.676931 	0.00442717 	-3.14015 	90.0138 	116.35 	-0.551074 	183.681 	360.766 	285.04 	539.797 	
16.4921 	-0.00936865 	-0.478187 	0.796159 	-0.694383 	0.00448806 	-3.14033 	90.0138 	116.351 	-0.551074 	182.679 	360.766 	285.04 	539.797 	
16.5939 	-0.00941102 	-0.472355 	0.79809 	-0.711836 	0.0045521 	-3.14051 	90.0138 	116.351 	-0.551074 	181.676 	360.766 	285.04 	539.797 	
16.6958 	-0.00945247 	-0.466489 	0.799919 	-0.729288 	0.00461927 	-3.14069 	90.0138 	116.351 	-0.551074 	180.671 	360.766 	285.04 	539.797 	
16.7993 	-0.00949699 	-0.460001 	0.801813 	-0.748486 	0.00469675 	-3.14089 	90.0138 	116.351 	-0.551074 	179.565 	360.766 	285.04 	539.797 	
16.9018 	-0.00953647 	-0.454073 	0.803425 	-0.765938 	0.00477044 	-3.14106 	90.0138 	116.351 	-0.551074 	178.57 	360.766 	285.04 	539.797 	
17.004 	-0.00957119 	-0.448714 	0.804788 	-0.781645 	0.00483938 	-3.14122 	90.0138 	116.352 	-0.551074 	177.566 	360.766 	285.04 	539.797 	
17.1057 	-0.00960885 	-0.442735 	0.806204 	-0.799098 	0.00491887 	-3.14139 	90.0138 	116.352 	-0.551074 	176.56 	360.766 	285.04 	539.797 	
17.2079 	-0.00964552 	-0.436732 	0.807515 	-0.81655 	0.00500138 	-3.14157 	90.0138 	116.353 	-0.551074 	175.566 	360.766 	285.04 	539.797 	
17.3113 	-0.00968472 	-0.430104 	0.808835 	-0.835748 	0.00509561 	3.14143 	90.0138 	116.354 	-0.551074 	174.461 	360.766 	285.04 	539.797 	
17.4139 	-0.0097193 	-0.424057 	0.809925 	-0.8532 	0.00518438 	3.14126 	90.0138 	116.362 	-0.551074 	173.452 	360.766 	285.04 	539.797 	
17.5159 	-0.00975287 	-0.417993 	0.81091 	-0.870653 	0.0052761 	3.14109 	90.0138 	116.381 	-0.551074 	172.456 	360.766 	285.041 	539.797 	
17.618 	-0.00978542 	-0.411912 	0.811788 	-0.888105 	0.00537073 	3.14093 	90.0137 	116.388 	-0.551074 	171.448 	360.766 	285.041 	539.797 	
17.7199 	-0.00981694 	-0.405816 	0.81256 	-0.905558 	0.00546824 	3.14076 	90.0137 	116.39 	-0.551074 	170.343 	360.766 	285.041 	539.797 	
17.8224 	-0.00984441 	-0.40032 	0.813164 	-0.921265 	0.00555844 	3.14062 	90.0137 	116.39 	-0.551074 	169.336 	360.766 	285.041 	539.797 	
17.9251 	-0.00987394 	-0.394202 	0.813733 	-0.938717 	0.00566135 	3.14046 	90.0137 	116.391 	-0.551074 	168.331 	360.766 	285.041 	539.797 	
18.0272 	-0.0099024 	-0.388075 	0.814196 	-0.95617 	0.00576705 	3.1403 	90.0137 	116.391 	-0.551074 	167.329 	360.766 	285.041 	539.797 	
18.1295 	-0.00993248 	-0.381328 	0.814581 	-0.975368 	0.00588652 	3.14012 	90.0137 	116.392 	-0.551074 	166.226 	360.766 	285.041 	539.797 	
18.2313 	-0.0099587 	-0.375188 	0.814819 	-0.99282 	0.00599799 	3.13997 	90.0137 	116.393 	-0.551074 	165.224 	360.766 	285.041 	539.797 	
18.3413 	-0.00998382 	-0.369046 	0.81495 	-1.01027 	0.00611214 	3.13982 	90.0137 	116.395 	-0.551074 	164.106 	360.766 	285.041 	539.797 	
18.4458 	-0.0100079 	-0.362901 	0.814973 	-1.02772 	0.00622896 	3.13966 	90.0137 	116.406 	-0.551074 	163.109 	360.766 	285.041 	539.797 	
18.5469 	-0.0100505 	-0.351231 	0.814722 	-1.06088 	0.00645811 	3.13938 	90.0137 	116.412 	-0.551074 	162.107 	360.766 	285.041 	539.797 	
18.6489 	-0.0100713 	-0.345093 	0.814435 	-1.07834 	0.00658243 	3.13924 	90.0137 	116.425 	-0.551074 	161.1 	360.766 	285.041 	539.797 	
18.7509 	-0.010091 	-0.338962 	0.81404 	-1.09579 	0.00670927 	3.13909 	90.0137 	116.43 	-0.551074 	159.992 	360.766 	285.041 	539.797 	
18.8532 	-0.0101096 	-0.332838 	0.813539 	-1.11324 	0.00683858 	3.13895 	90.0137 	116.433 	-0.551074 	158.987 	360.766 	285.041 	539.797 	
18.9547 	-0.0101096 	-0.332838 	0.813539 	-1.11324 	0.00683858 	3.13895 	90.0137 	116.434 	-0.551074 	157.985 	360.766 	285.041 	539.797 	
19.0566 	-0.010127 	-0.326724 	0.81293 	-1.13069 	0.00697034 	3.13881 	90.0137 	116.436 	-0.551074 	156.982 	360.766 	285.041 	539.797 	
19.1583 	-0.01016 	-0.313925 	0.811306 	-1.16734 	0.00725476 	3.13853 	90.0137 	116.442 	-0.551074 	155.892 	360.766 	285.041 	539.797 	
19.2613 	-0.0101739 	-0.307853 	0.810368 	-1.1848 	0.00739381 	3.1384 	90.0137 	116.443 	-0.551074 	154.892 	360.766 	285.041 	539.797 	
19.364 	-0.0101854 	-0.302402 	0.809433 	-1.2005 	0.00752089 	3.13828 	90.0137 	116.444 	-0.551074 	153.885 	360.766 	285.041 	539.797 	
19.4661 	-0.0101971 	-0.296365 	0.808295 	-1.21796 	0.00766421 	3.13816 	90.0137 	116.444 	-0.551074 	152.885 	360.766 	285.041 	539.797 	
19.568 	-0.0102077 	-0.290348 	0.807051 	-1.23541 	0.00780971 	3.13803 	90.0137 	116.445 	-0.551074 	151.876 	360.766 	285.041 	539.797 	
19.6725 	-0.0102171 	-0.284353 	0.805702 	-1.25286 	0.00795735 	3.13791 	90.0137 	116.447 	-0.551074 	150.779 	360.766 	285.041 	539.797 	
19.7744 	-0.0102253 	-0.278384 	0.804248 	-1.27031 	0.00810709 	3.13779 	90.0137 	116.471 	-0.551074 	149.767 	360.766 	285.041 	539.797 	
19.8763 	-0.0102324 	-0.27244 	0.802691 	-1.28776 	0.00825888 	3.13768 	90.0137 	116.483 	-0.551074 	148.759 	360.766 	285.041 	539.797 	
19.978 	-0.0102383 	-0.266524 	0.80103 	-1.30522 	0.00841268 	3.13756 	90.0137 	116.485 	-0.551074 	147.765 	360.766 	285.041 	539.797 	
20.0795 	-0.010243 	-0.260639 	0.799267 	-1.32267 	0.00856843 	3.13745 	90.0137 	116.485 	-0.551074 	146.658 	360.766 	285.042 	539.797 	
20.1808 	-0.0102466 	-0.254785 	0.797401 	-1.34012 	0.00872609 	3.13735 	90.0137 	116.487 	-0.551074 	145.649 	360.766 	285.042 	539.797 	
20.2832 	-0.010249 	-0.248965 	0.795433 	-1.35757 	0.00888561 	3.13724 	90.0137 	116.487 	-0.551074 	144.644 	360.766 	285.042 	539.797 	
20.3852 	-0.0102502 	-0.243179 	0.793363 	-1.37503 	0.00904695 	3.13714 	90.0137 	116.492 	-0.551074 	143.642 	360.766 	285.042 	539.797 	
20.4881 	-0.0102502 	-0.237431 	0.791193 	-1.39248 	0.00921005 	3.13704 	90.0137 	116.497 	-0.551074 	142.648 	360.766 	285.042 	539.797 	
20.5896 	-0.0102491 	-0.231722 	0.788923 	-1.40993 	0.00937486 	3.13694 	90.0137 	116.501 	-0.551074 	141.534 	360.766 	285.042 	539.797 	
20.6909 	-0.0102467 	-0.226053 	0.786554 	-1.42738 	0.00954134 	3.13685 	90.0137 	116.521 	-0.551074 	140.534 	360.766 	285.042 	539.797 	
20.7922 	-0.0102432 	-0.220426 	0.784086 	-1.44484 	0.00970943 	3.13676 	90.0137 	116.532 	-0.551074 	139.524 	360.766 	285.042 	539.797 	
20.8941 	-0.0102386 	-0.214843 	0.78152 	-1.46229 	0.00987908 	3.13667 	90.0137 	116.534 	-0.551074 	138.524 	360.766 	285.042 	539.797 	
20.9969 	-0.0102328 	-0.209306 	0.778858 	-1.47974 	0.0100502 	3.13658 	90.0137 	116.535 	-0.551074 	137.517 	360.766 	285.042 	539.797 	
21.0993 	-0.0102258 	-0.203816 	0.776099 	-1.49719 	0.0102229 	3.1365 	90.0137 	116.536 	-0.551074 	136.417 	360.766 	285.042 	539.797 	
21.2012 	-0.0102176 	-0.198375 	0.773245 	-1.51465 	0.0103969 	3.13642 	90.0137 	116.537 	-0.551074 	135.417 	360.766 	285.042 	539.797 	
21.3033 	-0.0102083 	-0.192985 	0.770296 	-1.5321 	0.0105723 	3.13635 	90.0137 	116.544 	-0.551074 	134.405 	360.766 	285.042 	539.797 	
21.406 	-0.0101978 	-0.187647 	0.767253 	-1.54955 	0.010749 	3.13627 	90.0137 	116.548 	-0.551074 	133.408 	360.766 	285.042 	539.797 	
21.5091 	-0.0101861 	-0.182362 	0.764118 	-1.567 	0.0109269 	3.1362 	90.0137 	116.571 	-0.551074 	132.398 	360.766 	285.042 	539.797 	
21.6112 	-0.010172 	-0.176614 	0.760563 	-1.5862 	0.011124 	3.13613 	90.0137 	116.578 	-0.551074 	131.296 	360.766 	285.042 	539.797 	
21.7132 	-0.0101579 	-0.171449 	0.757237 	-1.60365 	0.0113044 	3.13607 	90.0137 	116.579 	-0.551074 	130.288 	360.766 	285.042 	539.797 	
21.8153 	-0.0101427 	-0.166342 	0.75382 	-1.62111 	0.0114858 	3.13601 	90.0137 	116.58 	-0.551074 	129.282 	360.766 	285.042 	539.797 	
21.9183 	-0.010128 	-0.161797 	0.75067 	-1.63681 	0.01165 	3.13596 	90.0137 	116.581 	-0.551074 	128.286 	360.766 	285.042 	539.797 	
22.0212 	-0.0101106 	-0.156807 	0.747086 	-1.65427 	0.0118333 	3.1359 	90.0137 	116.583 	-0.551074 	127.175 	360.766 	285.042 	539.797 	
22.1231 	-0.0100921 	-0.15188 	0.743416 	-1.67172 	0.0120175 	3.13585 	90.0137 	116.589 	-0.551074 	126.175 	360.766 	285.042 	539.797 	
22.2249 	-0.0100725 	-0.147018 	0.739661 	-1.68917 	0.0122026 	3.1358 	90.0137 	116.593 	-0.551074 	125.173 	360.766 	285.042 	539.797 	
22.3271 	-0.0100496 	-0.141746 	0.735432 	-1.70837 	0.0124072 	3.13575 	90.0137 	116.603 	-0.551074 	124.162 	360.766 	285.042 	539.797 	
22.4305 	-0.0100276 	-0.137024 	0.731501 	-1.72582 	0.0125939 	3.13571 	90.0137 	116.622 	-0.551074 	123.06 	360.766 	285.042 	539.797 	
22.54 	-0.0100045 	-0.132372 	0.727488 	-1.74327 	0.0127813 	3.13568 	90.0137 	116.625 	-0.551074 	121.952 	360.766 	285.042 	539.797 	
22.6417 	-0.00998276 	-0.128246 	0.723808 	-1.75897 	0.0129505 	3.13564 	90.0137 	116.627 	-0.551074 	120.951 	360.766 	285.042 	539.797 	
22.7444 	-0.00995759 	-0.12373 	0.719643 	-1.77643 	0.013139 	3.13561 	90.0137 	116.627 	-0.551074 	119.943 	360.766 	285.042 	539.797 	
22.8478 	-0.009904 	-0.114918 	0.71108 	-1.81133 	0.0135176 	3.13556 	90.0137 	116.628 	-0.551074 	118.939 	360.766 	285.042 	539.797 	
22.9503 	-0.00987269 	-0.110201 	0.706241 	-1.83053 	0.0137265 	3.13554 	90.0137 	116.629 	-0.551074 	117.944 	360.766 	285.042 	539.797 	
23.0523 	-0.00984312 	-0.105994 	0.701764 	-1.84798 	0.0139168 	3.13552 	90.0137 	116.634 	-0.551074 	116.829 	360.766 	285.042 	539.797 	
23.1538 	-0.00984312 	-0.105994 	0.701764 	-1.84798 	0.0139168 	3.13552 	90.0137 	116.637 	-0.551074 	115.822 	360.766 	285.042 	539.797 	
23.2556 	-0.00978406 	-0.0982184 	0.693058 	-1.88114 	0.0142791 	3.1355 	90.0137 	116.641 	-0.551074 	114.817 	360.766 	285.042 	539.797 	
23.2646 	-0.00978406 	-0.0982184 	0.693058 	-1.88114 	0.0142791 	3.1355 	90.0137 	116.642 	-0.551074 	114.737 	360.766 	285.042 	539.797 	
23.3673 	-0.00975938 	-0.0951898 	0.689504 	-1.8944 	0.0144242 	3.13549 	90.0137 	116.659 	-0.551074 	113.882 	360.766 	285.042 	539.797 	
23.4724 	-0.00975411 	-0.0945583 	0.688751 	-1.89719 	0.0144548 	3.13549 	90.0137 	116.671 	-0.551074 	113.528 	360.766 	285.042 	539.797 	
23.5743 	-0.00975411 	-0.0945583 	0.688751 	-1.89719 	0.0144548 	3.13549 	90.0137 	116.671 	-0.551074 	113.505 	360.766 	285.042 	539.797 	
23.6776 	-0.00975411 	-0.0945583 	0.688751 	-1.89719 	0.0144548 	3.13549 	90.0137 	116.671 	-0.551074 	113.473 	360.766 	285.042 	539.797 	
23.78 	-0.00975411 	-0.0945583 	0.688751 	-1.89719 	0.0144548 	3.13549 	90.0137 	116.671 	-0.551074 	113.472 	360.766 	285.042 	539.797 	
23.8825 	-0.00975411 	-0.0945583 	0.688751 	-1.89719 	0.0144548 	3.13549 	90.0137 	116.671 	-0.551074 	113.472 	360.766 	285.042 	539.797 	
23.9846 	-0.00975411 	-0.0945583 	0.688751 	-1.89719 	0.0144548 	3.13549 	90.0137 	116.671 	-0.551074 	113.472 	360.766 	285.042 	539.797 	
24.0611 	-0.00975411 	-0.0945583 	0.688751 	-1.89719 	0.0144548 	3.13549 	90.0137 	116.671 	-0.551074 	113.471 	360.766 	285.042 	539.797 	
24.1639 	-0.00977162 	-0.0936638 	0.691102 	-1.88777 	0.0143897 	3.13535 	90.0137 	116.671 	-0.551074 	113.471 	360.766 	284.843 	539.797 	
24.2668 	-0.00983735 	-0.0910235 	0.699633 	-1.8539 	0.0141405 	3.13486 	90.0137 	116.671 	-0.551074 	113.47 	360.766 	283.167 	539.797 	
24.3723 	-0.0099096 	-0.0886055 	0.708516 	-1.81899 	0.0138665 	3.13437 	90.0137 	116.671 	-0.551074 	113.469 	360.766 	280.986 	539.797 	
24.4737 	-0.0099863 	-0.086499 	0.717478 	-1.78408 	0.0135757 	3.1339 	90.0137 	116.671 	-0.551074 	113.469 	360.766 	278.988 	539.797 	
24.5768 	-0.0100674 	-0.0847065 	0.726508 	-1.74917 	0.0132683 	3.13343 	90.0137 	116.671 	-0.551074 	113.468 	360.766 	276.975 	539.797 	
24.6801 	-0.0101527 	-0.0832304 	0.735595 	-1.71426 	0.0129448 	3.13297 	90.0137 	116.671 	-0.551074 	113.467 	360.766 	274.995 	539.797 	
24.782 	-0.0102513 	-0.0819739 	0.745644 	-1.67586 	0.0125707 	3.13248 	90.0137 	116.671 	-0.551074 	113.464 	360.766 	272.796 	539.797 	
24.8838 	-0.0103453 	-0.0811673 	0.754815 	-1.64095 	0.0122145 	3.13205 	90.0137 	116.671 	-0.551074 	113.461 	360.766 	270.779 	539.797 	
24.9856 	-0.0104332 	-0.0807153 	0.763088 	-1.60953 	0.0118812 	3.13167 	90.0137 	116.671 	-0.551074 	113.455 	360.766 	268.807 	539.797 	
25.0886 	-0.0105345 	-0.0805182 	0.772292 	-1.57462 	0.0114971 	3.13126 	90.0137 	116.672 	-0.551074 	113.441 	360.766 	266.796 	539.797 	
25.1921 	-0.0106395 	-0.0806425 	0.781497 	-1.53971 	0.011099 	3.13087 	90.0137 	116.672 	-0.551074 	113.438 	360.766 	264.585 	539.797 	
25.2936 	-0.010748 	-0.0810879 	0.790693 	-1.50481 	0.0106874 	3.13049 	90.0137 	116.672 	-0.551074 	113.438 	360.766 	262.583 	539.797 	
25.3955 	-0.01086 	-0.0818541 	0.799867 	-1.4699 	0.0102628 	3.13012 	90.0137 	116.672 	-0.551074 	113.438 	360.766 	260.591 	539.797 	
25.4976 	-0.0109753 	-0.08294 	0.809008 	-1.43499 	0.00982567 	3.12977 	90.0137 	116.672 	-0.551074 	113.437 	360.766 	258.598 	539.797 	
25.6013 	-0.0111058 	-0.0845021 	0.819014 	-1.39659 	0.00933102 	3.1294 	90.0137 	116.672 	-0.551074 	113.437 	360.766 	256.382 	539.797 	
25.704 	-0.0112152 	-0.0860651 	0.82715 	-1.36518 	0.00891607 	3.12911 	90.0137 	116.672 	-0.551074 	113.437 	360.766 	254.376 	539.797 	
25.806 	-0.0113395 	-0.0881004 	0.836127 	-1.33027 	0.00844472 	3.12881 	90.0137 	116.672 	-0.551074 	113.437 	360.766 	252.372 	539.797 	
25.908 	-0.0114665 	-0.0904479 	0.845028 	-1.29537 	0.00796308 	3.12853 	90.0137 	116.672 	-0.551074 	113.437 	360.766 	250.382 	539.797 	
26.0101 	-0.0115961 	-0.0931045 	0.853841 	-1.26047 	0.00747174 	3.12826 	90.0137 	116.672 	-0.551074 	113.437 	360.766 	248.367 	539.797 	
26.1131 	-0.0117281 	-0.0960671 	0.862557 	-1.22556 	0.0069713 	3.128 	90.0137 	116.672 	-0.551074 	113.437 	360.766 	246.157 	539.797 	
26.2155 	-0.0118623 	-0.0993321 	0.871163 	-1.19066 	0.00646237 	3.12777 	90.0137 	116.672 	-0.551074 	113.437 	360.766 	244.174 	539.797 	
26.3178 	-0.0119986 	-0.102895 	0.87965 	-1.15576 	0.00594556 	3.12755 	90.0137 	116.672 	-0.551074 	113.437 	360.766 	242.171 	539.797 	
26.4198 	-0.0121369 	-0.106753 	0.888008 	-1.12085 	0.00542152 	3.12735 	90.0137 	116.672 	-0.551074 	113.437 	360.766 	240.168 	539.797 	
26.522 	-0.0122768 	-0.1109 	0.896226 	-1.08595 	0.00489088 	3.12717 	90.0137 	116.672 	-0.551074 	113.437 	360.766 	237.941 	539.797 	
26.6253 	-0.0124183 	-0.115331 	0.904294 	-1.05105 	0.00435427 	3.12701 	90.0137 	116.672 	-0.551074 	113.437 	360.766 	235.969 	539.797 	
26.7279 	-0.0125613 	-0.120041 	0.912203 	-1.01615 	0.00381236 	3.12687 	90.0137 	116.672 	-0.551074 	113.437 	360.766 	233.952 	539.797 	
26.8299 	-0.0127054 	-0.125024 	0.919942 	-0.981245 	0.00326581 	3.12675 	90.0137 	116.672 	-0.551074 	113.437 	360.766 	231.94 	539.797 	
26.9321 	-0.0128506 	-0.130274 	0.927503 	-0.946343 	0.00271528 	3.12664 	90.0137 	116.672 	-0.551074 	113.437 	360.766 	229.739 	539.797 	
27.0384 	-0.0129967 	-0.135785 	0.934876 	-0.911441 	0.00216144 	3.12656 	90.0137 	116.672 	-0.551074 	113.437 	360.766 	227.747 	539.797 	
27.1427 	-0.0131435 	-0.141549 	0.942052 	-0.87654 	0.00160497 	3.12649 	90.0137 	116.672 	-0.551074 	113.437 	360.766 	225.54 	539.797 	
27.2446 	-0.0133055 	-0.148176 	0.949708 	-0.838148 	0.000990619 	3.12644 	90.0137 	116.672 	-0.551074 	113.437 	360.766 	223.489 	539.797 	
27.3479 	-0.0134531 	-0.154451 	0.956443 	-0.803246 	0.000430828 	3.12642 	90.0137 	116.671 	-0.551074 	113.437 	360.766 	221.522 	539.797 	
27.4491 	-0.0135862 	-0.160296 	0.962313 	-0.771835 	-7.34512e-05 	3.12641 	90.0137 	116.671 	-0.551074 	113.437 	360.766 	219.506 	539.797 	
27.5525 	-0.0137339 	-0.167004 	0.968617 	-0.736933 	-0.000633652 	3.12642 	90.0137 	116.671 	-0.551074 	113.437 	360.766 	217.289 	539.797 	
27.6547 	-0.0140286 	-0.181058 	0.980503 	-0.66713 	-0.00175106 	3.12651 	90.0137 	116.671 	-0.551074 	113.437 	360.766 	215.287 	539.797 	
27.7566 	-0.0141752 	-0.188388 	0.986071 	-0.632228 	-0.00230691 	3.12658 	90.0137 	116.671 	-0.551074 	113.437 	360.766 	213.287 	539.797 	
27.8582 	-0.0143356 	-0.19667 	0.991896 	-0.593836 	-0.00291507 	3.12668 	90.0137 	116.671 	-0.551074 	113.438 	360.766 	211.307 	539.797 	
27.9602 	-0.0144805 	-0.204388 	0.996913 	-0.558934 	-0.00346423 	3.12679 	90.0137 	116.671 	-0.551074 	113.438 	360.766 	209.281 	539.797 	
28.0635 	-0.0146242 	-0.212276 	1.00166 	-0.524033 	-0.00400918 	3.12692 	90.0137 	116.671 	-0.551074 	113.438 	360.766 	207.085 	539.797 	
28.166 	-0.0147525 	-0.219513 	1.00569 	-0.492621 	-0.00449548 	3.12705 	90.0137 	116.671 	-0.551074 	113.438 	360.766 	205.089 	539.797 	
28.268 	-0.0148936 	-0.227699 	1.0099 	-0.457718 	-0.00503058 	3.12722 	90.0137 	116.671 	-0.551074 	113.438 	360.766 	203.074 	539.797 	
28.372 	-0.0150331 	-0.236026 	1.01382 	-0.422816 	-0.00555957 	3.1274 	90.0137 	116.671 	-0.551074 	113.438 	360.766 	200.839 	539.797 	
28.4738 	-0.0151708 	-0.244485 	1.01745 	-0.387913 	-0.00608177 	3.12761 	90.0137 	116.671 	-0.551074 	113.438 	360.766 	198.855 	539.797 	
28.5765 	-0.0153066 	-0.253066 	1.02078 	-0.35301 	-0.00659657 	3.12783 	90.0137 	116.671 	-0.551074 	113.438 	360.766 	196.846 	539.797 	
28.6788 	-0.0154403 	-0.261758 	1.02381 	-0.318107 	-0.00710334 	3.12807 	90.0137 	116.671 	-0.551074 	113.438 	360.766 	194.835 	539.797 	
28.7809 	-0.0155846 	-0.271435 	1.02679 	-0.279713 	-0.00765076 	3.12835 	90.0137 	116.671 	-0.551074 	113.438 	360.766 	193.039 	539.797 	
28.883 	-0.0157133 	-0.280326 	1.02918 	-0.244809 	-0.00813865 	3.12863 	90.0137 	116.671 	-0.551074 	113.438 	360.766 	190.629 	539.797 	
28.9848 	-0.0158269 	-0.288394 	1.03106 	-0.213396 	-0.0085693 	3.12889 	90.0137 	116.671 	-0.551074 	113.438 	360.766 	188.634 	539.797 	
29.0879 	-0.0159505 	-0.297423 	1.03285 	-0.178491 	-0.00903786 	3.1292 	90.0137 	116.671 	-0.551074 	113.438 	360.766 	186.634 	539.797 	
29.1905 	-0.0160712 	-0.30651 	1.03433 	-0.143587 	-0.00949541 	3.12952 	90.0137 	116.671 	-0.551074 	113.439 	360.766 	184.594 	539.797 	
29.2924 	-0.0161888 	-0.315642 	1.03548 	-0.108682 	-0.00994139 	3.12986 	90.0137 	116.671 	-0.551074 	113.439 	360.766 	182.397 	539.797 	
29.3943 	-0.0163032 	-0.324809 	1.03632 	-0.0737767 	-0.0103753 	3.13021 	90.0137 	116.671 	-0.551074 	113.439 	360.766 	180.41 	539.797 	
29.4963 	-0.0164143 	-0.334 	1.03684 	-0.0388714 	-0.0107965 	3.13058 	90.0137 	116.671 	-0.551074 	113.439 	360.766 	178.39 	539.797 	
29.5986 	-0.0165219 	-0.343203 	1.03703 	-0.00396549 	-0.0112046 	3.13097 	90.0137 	116.671 	-0.551074 	113.439 	360.766 	176.374 	539.797 	
29.7017 	-0.0166259 	-0.352408 	1.03691 	0.0309405 	-0.011599 	3.13137 	90.0137 	116.671 	-0.551074 	113.439 	360.766 	174.373 	539.797 	
29.8041 	-0.0167262 	-0.361602 	1.03646 	0.065847 	-0.0119793 	3.13178 	90.0137 	116.671 	-0.551074 	113.44 	360.766 	172.173 	539.797 	
29.9061 	-0.0168227 	-0.370776 	1.03569 	0.100754 	-0.012345 	3.1322 	90.0137 	116.671 	-0.551074 	113.44 	360.766 	170.15 	539.797 	
30.008 	-0.0169152 	-0.379917 	1.03461 	0.135661 	-0.0126957 	3.13264 	90.0137 	116.671 	-0.551172 	113.44 	360.766 	168.139 	539.797 	
30.111 	-0.0170036 	-0.389015 	1.0332 	0.170568 	-0.0130309 	3.13309 	90.0137 	116.671 	-0.551074 	113.44 	360.766 	166.151 	539.797 	
30.2138 	-0.0170878 	-0.398058 	1.03148 	0.205476 	-0.0133502 	3.13355 	90.0137 	116.671 	-0.551172 	113.441 	360.766 	163.945 	539.797 	
30.3164 	-0.0171677 	-0.407035 	1.02944 	0.240384 	-0.0136533 	3.13402 	90.0137 	116.671 	-0.551172 	113.441 	360.766 	161.917 	539.797 	
30.4182 	-0.0172433 	-0.415936 	1.0271 	0.275292 	-0.0139397 	3.1345 	90.0137 	116.671 	-0.551172 	113.441 	360.766 	159.926 	539.797 	
30.5201 	-0.0173143 	-0.42475 	1.02444 	0.3102 	-0.0142092 	3.13499 	90.0137 	116.671 	-0.551172 	113.441 	360.766 	157.921 	539.797 	
30.6233 	-0.0173808 	-0.433466 	1.02147 	0.345109 	-0.0144613 	3.13549 	90.0137 	116.671 	-0.551172 	113.442 	360.766 	155.718 	539.797 	
30.7266 	-0.0174427 	-0.442073 	1.01821 	0.380018 	-0.0146958 	3.136 	90.0137 	116.671 	-0.551172 	113.442 	360.766 	153.695 	539.797 	
30.8285 	-0.0174998 	-0.450561 	1.01464 	0.414927 	-0.0149124 	3.13652 	90.0137 	116.671 	-0.551172 	113.442 	360.766 	151.703 	539.797 	
30.9309 	-0.0175521 	-0.458919 	1.01079 	0.449836 	-0.0151109 	3.13704 	90.0137 	116.671 	-0.551172 	113.443 	360.766 	149.707 	539.797 	
31.0356 	-0.0175996 	-0.467138 	1.00664 	0.484746 	-0.0152909 	3.13757 	90.0137 	116.671 	-0.551172 	113.443 	360.766 	147.463 	539.797 	
31.14 	-0.0176422 	-0.475207 	1.00221 	0.519656 	-0.0154523 	3.13811 	90.0137 	116.671 	-0.551172 	113.443 	360.766 	145.466 	539.797 	
31.2428 	-0.0176798 	-0.483116 	0.997496 	0.554566 	-0.0155949 	3.13865 	90.0137 	116.671 	-0.551172 	113.443 	360.766 	143.48 	539.797 	
31.3444 	-0.0177124 	-0.490856 	0.992512 	0.589476 	-0.0157185 	3.1392 	90.0137 	116.671 	-0.551172 	113.444 	360.766 	141.249 	539.797 	
31.4469 	-0.0177399 	-0.498418 	0.987261 	0.624386 	-0.0158229 	3.13975 	90.0137 	116.671 	-0.551172 	113.444 	360.766 	139.252 	539.797 	
31.5506 	-0.0177623 	-0.505791 	0.981749 	0.659297 	-0.015908 	3.1403 	90.0137 	116.671 	-0.551172 	113.445 	360.766 	137.247 	539.797 	
31.6527 	-0.0177919 	-0.51994 	0.969971 	0.729118 	-0.0160201 	3.14142 	90.0137 	116.671 	-0.551172 	113.445 	360.766 	135.075 	539.797 	
31.7551 	-0.017799 	-0.526697 	0.963719 	0.764028 	-0.0160469 	-3.14121 	90.0137 	116.671 	-0.551172 	113.446 	360.766 	133.029 	539.797 	
31.8572 	-0.0178009 	-0.533232 	0.957235 	0.798939 	-0.0160541 	-3.14065 	90.0137 	116.671 	-0.551172 	113.446 	360.766 	131.026 	539.797 	
31.9586 	-0.0177976 	-0.539537 	0.950526 	0.833849 	-0.0160418 	-3.14009 	90.0137 	116.671 	-0.551172 	113.446 	360.766 	129.017 	539.797 	
32.0605 	-0.0177892 	-0.545604 	0.943602 	0.86876 	-0.0160099 	-3.13953 	90.0137 	116.671 	-0.551172 	113.447 	360.766 	127.038 	539.797 	
32.1631 	-0.0177786 	-0.550339 	0.937841 	0.897038 	-0.0159698 	-3.13908 	90.0137 	116.671 	-0.551172 	113.448 	360.766 	125.149 	539.797 	
33.9706 	-0.0177677 	-0.554021 	0.933121 	0.919739 	-0.0159283 	-3.13871 	90.0138 	116.671 	-0.551172 	113.449 	360.766 	123.503 	539.797 	
34.0722 	-0.0177452 	-0.556132 	0.933329 	0.919389 	-0.0158694 	-3.13881 	90.0137 	116.671 	-0.551172 	113.74 	360.766 	123.755 	539.797 	
34.1745 	-0.0176879 	-0.559331 	0.937187 	0.902281 	-0.0157286 	-3.13932 	90.0137 	116.671 	-0.551172 	114.723 	360.766 	125.648 	539.797 	
34.2767 	-0.0176313 	-0.561872 	0.940941 	0.884823 	-0.0155873 	-3.13981 	90.0137 	116.67 	-0.551172 	115.719 	360.766 	127.614 	539.797 	
34.3791 	-0.0175696 	-0.564354 	0.944551 	0.867366 	-0.0154302 	-3.14029 	90.0137 	116.67 	-0.551172 	116.701 	360.766 	129.6 	539.797 	
34.4807 	-0.0175029 	-0.566775 	0.948013 	0.849909 	-0.0152576 	-3.14076 	90.0137 	116.67 	-0.551172 	117.718 	360.766 	131.626 	539.797 	
34.5827 	-0.0174312 	-0.569134 	0.951328 	0.832452 	-0.01507 	-3.14122 	90.0138 	116.67 	-0.551172 	118.808 	360.766 	133.634 	539.797 	
34.6842 	-0.0173546 	-0.571431 	0.954494 	0.814995 	-0.0148677 	3.14152 	90.0138 	116.67 	-0.551172 	119.812 	360.766 	135.781 	539.797 	
34.7862 	-0.0172734 	-0.573665 	0.95751 	0.797538 	-0.0146511 	3.14108 	90.0137 	116.67 	-0.551172 	120.814 	360.766 	137.815 	539.797 	
34.8891 	-0.0171875 	-0.575835 	0.960376 	0.780082 	-0.0144207 	3.14065 	90.0138 	116.67 	-0.551172 	121.813 	360.766 	139.824 	539.797 	
34.991 	-0.0170972 	-0.577941 	0.96309 	0.762625 	-0.0141769 	3.14023 	90.0137 	116.67 	-0.551172 	122.822 	360.766 	141.817 	539.797 	
35.093 	-0.0170025 	-0.579982 	0.965652 	0.745169 	-0.0139201 	3.13982 	90.0138 	116.67 	-0.551172 	123.919 	360.766 	144.014 	539.797 	
35.1945 	-0.0169037 	-0.581957 	0.96806 	0.727713 	-0.0136508 	3.13943 	90.0137 	116.67 	-0.551172 	124.925 	360.766 	146.035 	539.797 	
35.2977 	-0.0168007 	-0.583866 	0.970315 	0.710257 	-0.0133696 	3.13905 	90.0138 	116.67 	-0.551172 	125.931 	360.766 	148.043 	539.797 	
35.4004 	-0.0166938 	-0.585709 	0.972415 	0.692801 	-0.0130768 	3.13868 	90.0137 	116.67 	-0.551172 	126.935 	360.766 	150.02 	539.797 	
35.5026 	-0.0165832 	-0.587484 	0.97436 	0.675346 	-0.0127731 	3.13832 	90.0137 	116.67 	-0.551172 	128.041 	360.766 	152.004 	539.797 	
35.6045 	-0.0164688 	-0.589192 	0.976149 	0.657892 	-0.0124589 	3.13798 	90.0137 	116.67 	-0.551172 	129.05 	360.766 	154.254 	539.797 	
35.7064 	-0.016351 	-0.590831 	0.977781 	0.640438 	-0.0121347 	3.13766 	90.0138 	116.67 	-0.551172 	130.041 	360.766 	156.247 	539.797 	
35.8087 	-0.0162298 	-0.592402 	0.979257 	0.622984 	-0.0118012 	3.13734 	90.0137 	116.67 	-0.551172 	131.05 	360.766 	158.237 	539.797 	
35.9118 	-0.0161055 	-0.593903 	0.980575 	0.605531 	-0.0114588 	3.13704 	90.0138 	116.67 	-0.551172 	132.056 	360.766 	160.231 	539.797 	
36.0139 	-0.0159781 	-0.595335 	0.981736 	0.588078 	-0.0111081 	3.13676 	90.0137 	116.67 	-0.551172 	133.153 	360.766 	162.45 	539.797 	
36.1159 	-0.0158478 	-0.596696 	0.982739 	0.570625 	-0.0107497 	3.13649 	90.0138 	116.67 	-0.551172 	134.161 	360.766 	164.454 	539.797 	
36.2178 	-0.0157149 	-0.597986 	0.983583 	0.553172 	-0.0103842 	3.13624 	90.0137 	116.67 	-0.551172 	135.159 	360.766 	166.451 	539.797 	
36.3209 	-0.0155794 	-0.599206 	0.984268 	0.535719 	-0.0100122 	3.136 	90.0138 	116.669 	-0.551172 	136.172 	360.766 	168.449 	539.797 	
36.4242 	-0.0154415 	-0.600354 	0.984795 	0.518267 	-0.00963414 	3.13578 	90.0137 	116.669 	-0.551172 	137.272 	360.766 	170.667 	539.797 	
36.5263 	-0.0153014 	-0.60143 	0.985163 	0.500814 	-0.00925077 	3.13557 	90.0138 	116.669 	-0.551172 	138.28 	360.766 	172.653 	539.797 	
36.6279 	-0.0151593 	-0.602434 	0.985372 	0.483362 	-0.00886264 	3.13538 	90.0137 	116.669 	-0.551172 	139.279 	360.766 	174.647 	539.797 	
36.7299 	-0.0150153 	-0.603365 	0.985421 	0.46591 	-0.00847036 	3.1352 	90.0138 	116.669 	-0.551172 	140.288 	360.766 	176.681 	539.797 	
36.8398 	-0.0148697 	-0.604224 	0.985312 	0.448458 	-0.00807452 	3.13505 	90.0137 	116.668 	-0.551172 	141.388 	360.766 	178.888 	539.797 	
36.9418 	-0.0147225 	-0.60501 	0.985043 	0.431007 	-0.00767576 	3.1349 	90.0137 	116.668 	-0.551172 	142.386 	360.766 	180.88 	539.797 	
37.0444 	-0.014574 	-0.605722 	0.984615 	0.413555 	-0.00727466 	3.13478 	90.0137 	116.667 	-0.551172 	143.494 	360.766 	183.081 	539.797 	
37.1476 	-0.0144243 	-0.606362 	0.984028 	0.396103 	-0.00687186 	3.13467 	90.0137 	116.667 	-0.551172 	144.498 	360.766 	185.102 	539.797 	
37.2497 	-0.0141221 	-0.607419 	0.982378 	0.3612 	-0.00606355 	3.1345 	90.0137 	116.666 	-0.551172 	145.503 	360.766 	187.106 	539.797 	
37.3528 	-0.01397 	-0.607836 	0.981316 	0.343749 	-0.00565927 	3.13444 	90.0137 	116.665 	-0.551172 	146.496 	360.766 	189.093 	539.797 	
37.4542 	-0.0138174 	-0.60818 	0.980096 	0.326298 	-0.00525571 	3.1344 	90.0137 	116.663 	-0.551172 	147.612 	360.766 	191.308 	539.797 	
37.5561 	-0.0136645 	-0.608449 	0.978718 	0.308846 	-0.00485349 	3.13437 	90.0137 	116.662 	-0.551172 	148.621 	360.766 	193.324 	539.797 	
37.6578 	-0.0135114 	-0.608644 	0.977183 	0.291395 	-0.00445318 	3.13436 	90.0137 	116.662 	-0.551172 	149.62 	360.766 	195.318 	539.797 	
37.7602 	-0.0133584 	-0.608765 	0.975491 	0.273944 	-0.00405541 	3.13436 	90.0137 	116.662 	-0.551172 	150.621 	360.766 	197.318 	539.797 	
37.8632 	-0.0132057 	-0.608811 	0.973643 	0.256493 	-0.00366075 	3.13438 	90.0137 	116.662 	-0.551172 	151.724 	360.766 	199.299 	539.797 	
37.9657 	-0.0130533 	-0.608783 	0.97164 	0.239041 	-0.00326978 	3.13442 	90.0137 	116.662 	-0.551172 	152.728 	360.766 	201.52 	539.797 	
38.0677 	-0.0129015 	-0.608681 	0.969481 	0.22159 	-0.00288309 	3.13447 	90.0137 	116.661 	-0.551172 	153.733 	360.766 	203.499 	539.797 	
38.1722 	-0.0127504 	-0.608504 	0.967168 	0.204139 	-0.00250123 	3.13454 	90.0137 	116.661 	-0.551172 	154.731 	360.766 	205.509 	539.797 	
38.2755 	-0.0126001 	-0.608253 	0.964702 	0.186687 	-0.00212478 	3.13462 	90.0137 	116.661 	-0.551172 	155.837 	360.766 	207.747 	539.797 	
38.3785 	-0.012451 	-0.607927 	0.962083 	0.169236 	-0.00175428 	3.13471 	90.0137 	116.661 	-0.551172 	156.841 	360.766 	209.738 	539.797 	
38.4805 	-0.012303 	-0.607528 	0.959311 	0.151784 	-0.00139027 	3.13482 	90.0138 	116.661 	-0.551172 	157.841 	360.766 	211.74 	539.797 	
38.5826 	-0.0121563 	-0.607054 	0.956389 	0.134333 	-0.00103329 	3.13495 	90.0137 	116.661 	-0.551172 	158.849 	360.766 	213.728 	539.797 	
38.6848 	-0.0120112 	-0.606507 	0.953316 	0.116881 	-0.000683841 	3.13509 	90.0137 	116.661 	-0.551172 	159.939 	360.766 	215.935 	539.797 	
38.7873 	-0.0118678 	-0.605885 	0.950094 	0.0994292 	-0.00034245 	3.13524 	90.0137 	116.661 	-0.551172 	160.942 	360.766 	217.922 	539.797 	
38.8903 	-0.0117261 	-0.605191 	0.946723 	0.0819776 	-9.60372e-06 	3.13541 	90.0137 	116.661 	-0.551172 	161.933 	360.766 	219.927 	539.797 	
38.9923 	-0.0115864 	-0.604423 	0.943205 	0.0645256 	0.000314217 	3.13559 	90.0137 	116.661 	-0.551172 	162.939 	360.766 	221.941 	539.797 	
39.0944 	-0.0114488 	-0.603582 	0.939541 	0.0470737 	0.000628541 	3.13578 	90.0137 	116.661 	-0.551172 	164.038 	360.766 	224.146 	539.797 	
39.1964 	-0.0113134 	-0.602668 	0.935731 	0.0296216 	0.00093292 	3.13598 	90.0137 	116.66 	-0.551172 	165.049 	360.766 	226.145 	539.797 	
39.2989 	-0.0111804 	-0.601681 	0.931777 	0.0121693 	0.00122691 	3.13619 	90.0137 	116.66 	-0.551172 	166.05 	360.766 	228.121 	539.797 	
39.4015 	-0.0110499 	-0.600622 	0.927681 	-0.00528324 	0.00151009 	3.13642 	90.0137 	116.66 	-0.551172 	167.052 	360.766 	230.132 	539.797 	
39.5038 	-0.0109219 	-0.599492 	0.923443 	-0.0227355 	0.00178205 	3.13666 	90.0137 	116.66 	-0.551172 	168.15 	360.766 	232.15 	539.797 	
39.6059 	-0.0107967 	-0.59829 	0.919064 	-0.0401879 	0.0020424 	3.13691 	90.0137 	116.66 	-0.551172 	169.15 	360.766 	234.35 	539.797 	
39.7079 	-0.0106744 	-0.597016 	0.914547 	-0.0576407 	0.00229077 	3.13716 	90.0137 	116.66 	-0.551172 	170.154 	360.766 	236.34 	539.797 	
39.8108 	-0.010555 	-0.595672 	0.909892 	-0.0750938 	0.0025268 	3.13743 	90.0137 	116.66 	-0.551172 	171.146 	360.766 	238.358 	539.797 	
39.9137 	-0.0104387 	-0.594257 	0.905101 	-0.0925466 	0.00275015 	3.13771 	90.0137 	116.66 	-0.551172 	172.254 	360.766 	240.377 	539.797 	
40.0161 	-0.0103255 	-0.592773 	0.900176 	-0.109999 	0.00296051 	3.13799 	90.0137 	116.66 	-0.551172 	173.252 	360.766 	242.561 	539.797 	
40.1178 	-0.0102156 	-0.591219 	0.895117 	-0.127453 	0.00315756 	3.13828 	90.0137 	116.66 	-0.551172 	174.258 	360.766 	244.566 	539.797 	
40.2199 	-0.0101091 	-0.589595 	0.889926 	-0.144906 	0.00334104 	3.13858 	90.0137 	116.66 	-0.551172 	175.255 	360.766 	246.575 	539.797 	
40.3231 	-0.010006 	-0.587904 	0.884605 	-0.162359 	0.00351067 	3.13889 	90.0137 	116.66 	-0.551172 	176.259 	360.766 	248.597 	539.797 	
40.4257 	-0.00990642 	-0.586144 	0.879156 	-0.179813 	0.00366622 	3.1392 	90.0137 	116.66 	-0.551172 	177.363 	360.766 	250.768 	539.797 	
40.5279 	-0.00981046 	-0.584317 	0.87358 	-0.197266 	0.00380745 	3.13952 	90.0137 	116.66 	-0.551172 	178.365 	360.766 	252.77 	539.797 	
40.6295 	-0.00971817 	-0.582422 	0.86788 	-0.21472 	0.00393418 	3.13985 	90.0137 	116.66 	-0.551172 	179.367 	360.766 	254.796 	539.797 	
40.7314 	-0.00962961 	-0.580462 	0.862055 	-0.232174 	0.00404621 	3.14017 	90.0137 	116.66 	-0.551172 	180.362 	360.766 	256.804 	539.797 	
40.8416 	-0.00954486 	-0.578435 	0.856109 	-0.24963 	0.0041434 	3.14051 	90.0137 	116.66 	-0.551172 	181.463 	360.766 	258.983 	539.797 	
40.9436 	-0.00946396 	-0.576342 	0.850043 	-0.267087 	0.00422559 	3.14084 	90.0137 	116.66 	-0.551172 	182.469 	360.766 	261.007 	539.797 	
41.0459 	-0.00938696 	-0.574186 	0.843859 	-0.284543 	0.00429267 	3.14118 	90.0137 	116.66 	-0.551172 	183.569 	360.766 	263.199 	539.797 	
41.1502 	-0.00931391 	-0.571965 	0.83756 	-0.302 	0.00434454 	3.14152 	90.0137 	116.66 	-0.551172 	184.566 	360.766 	265.189 	539.797 	
41.2525 	-0.00924484 	-0.569681 	0.831146 	-0.319456 	0.00438113 	-3.14132 	90.0137 	116.66 	-0.551172 	185.568 	360.766 	267.197 	539.797 	
41.3555 	-0.00911879 	-0.564927 	0.817983 	-0.35437 	0.00440826 	-3.14063 	90.0137 	116.66 	-0.551172 	186.665 	360.766 	269.417 	539.797 	
41.4574 	-0.00906185 	-0.562458 	0.811239 	-0.371826 	0.00439876 	-3.14028 	90.0137 	116.66 	-0.551172 	187.661 	360.766 	271.425 	539.797 	
41.5593 	-0.00900899 	-0.559929 	0.804388 	-0.389283 	0.00437389 	-3.13994 	90.0137 	116.66 	-0.551172 	188.673 	360.766 	273.436 	539.797 	
41.6609 	-0.00896022 	-0.55734 	0.797433 	-0.406739 	0.00433369 	-3.1396 	90.0137 	116.66 	-0.551172 	189.679 	360.766 	275.435 	539.797 	
41.7642 	-0.00891554 	-0.554693 	0.790377 	-0.424196 	0.00427822 	-3.13926 	90.0137 	116.66 	-0.551172 	190.772 	360.766 	277.428 	539.797 	
41.8671 	-0.00887495 	-0.551988 	0.783221 	-0.441652 	0.00420754 	-3.13892 	90.0137 	116.66 	-0.551172 	191.773 	360.766 	279.612 	539.797 	
41.9686 	-0.00883844 	-0.549225 	0.775967 	-0.459108 	0.00412175 	-3.13858 	90.0137 	116.66 	-0.551172 	192.77 	360.766 	281.616 	539.797 	
42.0719 	-0.008806 	-0.546407 	0.768618 	-0.476565 	0.00402099 	-3.13825 	90.0137 	116.66 	-0.551172 	193.765 	360.766 	283.6 	539.797 	
42.1738 	-0.00876388 	-0.54793 	0.76349 	-0.47518 	0.00395743 	-3.138 	90.0137 	116.659 	-0.551172 	194.768 	360.766 	284.713 	539.797 	
42.2766 	-0.00871044 	-0.553147 	0.760245 	-0.457727 	0.00393739 	-3.1378 	90.0137 	116.659 	-0.551172 	195.876 	360.766 	284.846 	539.797 	
42.3793 	-0.00865629 	-0.558307 	0.75691 	-0.440274 	0.00392068 	-3.13761 	90.0137 	116.659 	-0.551172 	196.882 	360.766 	284.871 	539.797 	
42.4811 	-0.00860145 	-0.563408 	0.753485 	-0.422822 	0.00390729 	-3.13742 	90.0137 	116.659 	-0.551172 	197.874 	360.766 	284.879 	539.797 	
42.5833 	-0.00854594 	-0.568448 	0.749971 	-0.405369 	0.00389724 	-3.13723 	90.0137 	116.659 	-0.551172 	198.887 	360.766 	284.885 	539.797 	
42.6855 	-0.00848977 	-0.573426 	0.74637 	-0.387917 	0.00389052 	-3.13704 	90.0137 	116.659 	-0.551172 	199.978 	360.766 	284.888 	539.797 	
42.7881 	-0.00843296 	-0.57834 	0.742683 	-0.370464 	0.00388712 	-3.13685 	90.0137 	116.659 	-0.551172 	200.977 	360.766 	284.891 	539.797 	
42.891 	-0.00837554 	-0.58319 	0.738911 	-0.353011 	0.00388707 	-3.13666 	90.0137 	116.659 	-0.551172 	201.98 	360.766 	284.893 	539.797 	
42.9927 	-0.00831751 	-0.587973 	0.735054 	-0.335559 	0.00389035 	-3.13647 	90.0137 	116.659 	-0.551172 	202.982 	360.766 	284.894 	539.797 	
43.0948 	-0.0082589 	-0.592687 	0.731115 	-0.318106 	0.00389697 	-3.13628 	90.0137 	116.659 	-0.551172 	204.081 	360.766 	284.894 	539.797 	
43.1968 	-0.00819971 	-0.597333 	0.727094 	-0.300654 	0.00390692 	-3.13609 	90.0137 	116.659 	-0.551172 	205.081 	360.766 	284.895 	539.797 	
43.2992 	-0.00813998 	-0.601907 	0.722992 	-0.283201 	0.0039202 	-3.1359 	90.0137 	116.659 	-0.551172 	206.084 	360.766 	284.895 	539.797 	
43.4022 	-0.00807972 	-0.606409 	0.718812 	-0.265749 	0.0039368 	-3.13571 	90.0137 	116.659 	-0.551172 	207.085 	360.766 	284.895 	539.797 	
43.5043 	-0.00801894 	-0.610837 	0.714553 	-0.248296 	0.00395673 	-3.13552 	90.0137 	116.659 	-0.551172 	208.183 	360.766 	284.895 	539.797 	
43.6062 	-0.00795767 	-0.615191 	0.710217 	-0.230843 	0.00397997 	-3.13533 	90.0137 	116.659 	-0.551172 	209.181 	360.766 	284.895 	539.797 	
43.7082 	-0.00789593 	-0.619468 	0.705807 	-0.213391 	0.00400651 	-3.13514 	90.0137 	116.659 	-0.551172 	210.181 	360.766 	284.895 	539.797 	
43.8116 	-0.00783372 	-0.623667 	0.701322 	-0.195938 	0.00403636 	-3.13495 	90.0137 	116.659 	-0.551172 	211.188 	360.766 	284.895 	539.797 	
43.9145 	-0.00777108 	-0.627788 	0.696765 	-0.178486 	0.0040695 	-3.13476 	90.0137 	116.659 	-0.551172 	212.288 	360.766 	284.895 	539.797 	
44.0165 	-0.00770802 	-0.631828 	0.692137 	-0.161033 	0.00410592 	-3.13457 	90.0137 	116.659 	-0.551172 	213.283 	360.766 	284.895 	539.797 	
44.1184 	-0.00764456 	-0.635787 	0.687438 	-0.143581 	0.0041456 	-3.13438 	90.0137 	116.659 	-0.551172 	214.282 	360.766 	284.895 	539.797 	
44.2202 	-0.00758071 	-0.639663 	0.682672 	-0.126128 	0.00418854 	-3.1342 	90.0137 	116.659 	-0.551172 	215.285 	360.766 	284.895 	539.797 	
44.323 	-0.00751651 	-0.643456 	0.677838 	-0.108676 	0.00423473 	-3.13401 	90.0137 	116.659 	-0.551172 	216.293 	360.766 	284.895 	539.797 	
44.4258 	-0.00745197 	-0.647163 	0.672939 	-0.0912231 	0.00428415 	-3.13383 	90.0137 	116.659 	-0.551172 	217.391 	360.766 	284.895 	539.797 	
44.5276 	-0.0073871 	-0.650785 	0.667976 	-0.0737705 	0.00433678 	-3.13364 	90.0137 	116.659 	-0.551172 	218.394 	360.766 	284.895 	539.797 	
44.6301 	-0.00732193 	-0.654319 	0.66295 	-0.056318 	0.00439261 	-3.13346 	90.0137 	116.659 	-0.551172 	219.393 	360.766 	284.895 	539.797 	
44.7382 	-0.00725648 	-0.657765 	0.657864 	-0.0388654 	0.00445162 	-3.13328 	90.0137 	116.659 	-0.551172 	220.499 	360.766 	284.895 	539.797 	
44.8415 	-0.00719077 	-0.661122 	0.652718 	-0.0214131 	0.00451379 	-3.1331 	90.0137 	116.659 	-0.551172 	221.488 	360.766 	284.895 	539.797 	
44.9432 	-0.00712482 	-0.664388 	0.647515 	-0.00396064 	0.00457911 	-3.13292 	90.0137 	116.659 	-0.551172 	222.49 	360.766 	284.895 	539.797 	
45.0455 	-0.00705864 	-0.667563 	0.642255 	0.0134919 	0.00464756 	-3.13274 	90.0137 	116.659 	-0.551172 	223.591 	360.766 	284.895 	539.797 	
45.1498 	-0.00699226 	-0.670646 	0.63694 	0.0309444 	0.00471911 	-3.13256 	90.0137 	116.659 	-0.551172 	224.585 	360.766 	284.895 	539.797 	
45.2525 	-0.0069257 	-0.673636 	0.631573 	0.0483969 	0.00479374 	-3.13239 	90.0137 	116.659 	-0.551172 	225.599 	360.766 	284.895 	539.797 	
45.3557 	-0.00679211 	-0.679332 	0.620686 	0.0833019 	0.00495216 	-3.13204 	90.0137 	116.659 	-0.551172 	226.688 	360.766 	284.895 	539.797 	
45.4576 	-0.00672513 	-0.682036 	0.615169 	0.100754 	0.00503589 	-3.13187 	90.0137 	116.659 	-0.551172 	227.686 	360.766 	284.895 	539.797 	
45.5592 	-0.00665804 	-0.684644 	0.609607 	0.118207 	0.00512262 	-3.1317 	90.0137 	116.659 	-0.551172 	228.702 	360.766 	284.895 	539.797 	
45.6611 	-0.00659087 	-0.687154 	0.603999 	0.135659 	0.0052123 	-3.13153 	90.0137 	116.659 	-0.551172 	229.702 	360.766 	284.895 	539.797 	
45.7638 	-0.00652365 	-0.689566 	0.598348 	0.153112 	0.00530491 	-3.13136 	90.0137 	116.659 	-0.551172 	230.69 	360.766 	284.895 	539.797 	
45.8669 	-0.00645639 	-0.69188 	0.592657 	0.170564 	0.00540043 	-3.1312 	90.0137 	116.659 	-0.551172 	231.788 	360.766 	284.895 	539.797 	
45.9725 	-0.0063891 	-0.694093 	0.586925 	0.188016 	0.00549882 	-3.13103 	90.0137 	116.659 	-0.551172 	232.792 	360.766 	284.895 	539.797 	
46.0743 	-0.00632182 	-0.696206 	0.581156 	0.205469 	0.00560007 	-3.13087 	90.0137 	116.659 	-0.551172 	233.784 	360.766 	284.895 	539.797 	
46.177 	-0.00625456 	-0.698218 	0.575351 	0.222921 	0.00570412 	-3.13071 	90.0137 	116.659 	-0.551172 	234.891 	360.766 	284.895 	539.797 	
46.2799 	-0.00618735 	-0.700128 	0.569512 	0.240374 	0.00581095 	-3.13055 	90.0137 	116.659 	-0.551172 	235.896 	360.766 	284.895 	539.797 	
46.3826 	-0.0061202 	-0.701936 	0.56364 	0.257826 	0.00592053 	-3.13039 	90.0137 	116.659 	-0.551172 	236.897 	360.766 	284.895 	539.797 	
46.4849 	-0.00605313 	-0.703642 	0.557738 	0.275279 	0.00603284 	-3.13024 	90.0137 	116.659 	-0.551172 	237.895 	360.766 	284.895 	539.797 	
46.5866 	-0.00598617 	-0.705244 	0.551807 	0.292731 	0.00614782 	-3.13009 	90.0137 	116.659 	-0.551172 	238.98 	360.766 	284.895 	539.797 	
46.6893 	-0.00591932 	-0.706742 	0.545848 	0.310183 	0.00626545 	-3.12994 	90.0137 	116.659 	-0.551172 	239.976 	360.766 	284.895 	539.797 	
46.7918 	-0.00585263 	-0.708136 	0.539865 	0.327636 	0.00638569 	-3.12979 	90.0137 	116.659 	-0.551172 	240.979 	360.766 	284.895 	539.797 	
46.8949 	-0.00579275 	-0.709302 	0.53446 	0.343343 	0.00649611 	-3.12966 	90.0137 	116.659 	-0.551172 	241.975 	360.766 	284.895 	539.797 	
46.9968 	-0.00572639 	-0.710497 	0.528433 	0.360795 	0.00662121 	-3.12951 	90.0137 	116.659 	-0.551172 	243.08 	360.766 	284.895 	539.797 	
47.0988 	-0.00565362 	-0.711689 	0.521781 	0.379992 	0.00676171 	-3.12936 	90.0137 	116.659 	-0.551172 	244.085 	360.766 	284.895 	539.797 	
47.2012 	-0.00558771 	-0.712663 	0.515715 	0.397445 	0.00689202 	-3.12922 	90.0137 	116.659 	-0.551172 	245.074 	360.766 	284.895 	539.797 	
47.3041 	-0.00552205 	-0.71353 	0.509632 	0.414897 	0.00702475 	-3.12908 	90.0137 	116.659 	-0.551172 	246.076 	360.766 	284.895 	539.797 	
47.4071 	-0.00545665 	-0.714291 	0.503536 	0.43235 	0.00715987 	-3.12894 	90.0137 	116.659 	-0.551172 	247.175 	360.766 	284.895 	539.797 	
47.5088 	-0.00539153 	-0.714945 	0.497427 	0.449802 	0.00729731 	-3.12881 	90.0136 	116.659 	-0.551172 	248.177 	360.766 	284.894 	539.797 	
47.6109 	-0.00532673 	-0.715493 	0.491307 	0.467255 	0.00743706 	-3.12868 	90.0136 	116.659 	-0.551172 	249.176 	360.766 	284.894 	539.797 	
47.7134 	-0.00526224 	-0.715934 	0.48518 	0.484707 	0.00757906 	-3.12855 	90.0137 	116.659 	-0.551172 	250.166 	360.766 	284.894 	539.797 	
47.8167 	-0.00519811 	-0.716267 	0.479045 	0.502159 	0.00772328 	-3.12843 	90.0136 	116.659 	-0.551172 	251.273 	360.766 	284.894 	539.797 	
47.9199 	-0.00513434 	-0.716494 	0.472905 	0.519611 	0.00786966 	-3.1283 	90.0137 	116.659 	-0.551172 	252.269 	360.766 	284.894 	539.797 	
48.0218 	-0.00507095 	-0.716613 	0.466762 	0.537064 	0.00801816 	-3.12818 	90.0137 	116.659 	-0.551172 	253.266 	360.766 	284.894 	539.797 	
48.1234 	-0.00500796 	-0.716626 	0.460619 	0.554516 	0.00816875 	-3.12807 	90.0136 	116.659 	-0.551172 	254.262 	360.766 	284.894 	539.797 	
48.2271 	-0.0049454 	-0.716531 	0.454476 	0.571968 	0.00832136 	-3.12795 	90.0137 	116.659 	-0.551172 	255.368 	360.766 	284.894 	539.797 	
48.3302 	-0.00488328 	-0.716328 	0.448335 	0.589421 	0.00847596 	-3.12784 	90.0136 	116.659 	-0.551172 	256.365 	360.766 	284.894 	539.797 	
48.4365 	-0.00482162 	-0.716019 	0.442199 	0.606873 	0.00863249 	-3.12773 	90.0136 	116.659 	-0.551172 	257.361 	360.766 	284.894 	539.797 	
48.5381 	-0.00476044 	-0.715603 	0.436069 	0.624326 	0.00879092 	-3.12762 	90.0137 	116.659 	-0.551172 	258.477 	360.766 	284.894 	539.797 	
48.6399 	-0.00469976 	-0.715079 	0.429948 	0.641778 	0.00895118 	-3.12752 	90.0137 	116.659 	-0.551172 	259.465 	360.766 	284.894 	539.797 	
48.7452 	-0.0046396 	-0.714449 	0.423836 	0.65923 	0.00911324 	-3.12742 	90.0136 	116.659 	-0.551172 	260.47 	360.766 	284.894 	539.797 	
48.8478 	-0.00457997 	-0.713712 	0.417736 	0.676683 	0.00927705 	-3.12732 	90.0136 	116.659 	-0.551172 	261.559 	360.766 	284.894 	539.797 	
48.9507 	-0.00446238 	-0.71192 	0.405581 	0.711588 	0.00960969 	-3.12713 	90.0137 	116.659 	-0.551172 	262.55 	360.766 	284.894 	539.797 	
49.0521 	-0.00440447 	-0.710865 	0.399528 	0.72904 	0.00977843 	-3.12704 	90.0136 	116.659 	-0.551172 	263.548 	360.766 	284.894 	539.797 	
49.1541 	-0.00434716 	-0.709705 	0.393495 	0.746493 	0.00994871 	-3.12695 	90.0137 	116.659 	-0.551172 	264.548 	360.766 	284.894 	539.797 	
49.2578 	-0.00429611 	-0.70857 	0.388083 	0.7622 	0.0101032 	-3.12688 	90.0136 	116.659 	-0.551172 	265.639 	360.766 	284.894 	539.797 	
49.3605 	-0.00423443 	-0.707069 	0.381493 	0.781397 	0.0102937 	-3.12679 	90.0136 	116.659 	-0.551172 	266.638 	360.766 	284.894 	539.797 	
49.4624 	-0.00417904 	-0.705594 	0.375529 	0.79885 	0.0104683 	-3.12671 	90.0136 	116.659 	-0.551172 	267.638 	360.766 	284.894 	539.797 	
49.5643 	-0.00412433 	-0.704016 	0.369591 	0.816302 	0.0106442 	-3.12664 	90.0136 	116.659 	-0.551172 	268.641 	360.766 	284.894 	539.797 	
49.6672 	-0.00407031 	-0.702334 	0.363682 	0.833755 	0.0108214 	-3.12656 	90.0136 	116.659 	-0.551172 	269.74 	360.766 	284.893 	539.797 	
49.7748 	-0.004017 	-0.700549 	0.357803 	0.851208 	0.0109998 	-3.12649 	90.0136 	116.659 	-0.551172 	270.736 	360.766 	284.893 	539.797 	
49.877 	-0.00396441 	-0.698662 	0.351956 	0.868661 	0.0111794 	-3.12643 	90.0137 	116.659 	-0.551172 	271.839 	360.766 	284.893 	539.797 	
49.979 	-0.00391256 	-0.696673 	0.346143 	0.886113 	0.0113601 	-3.12637 	90.0136 	116.659 	-0.551172 	272.826 	360.766 	284.893 	539.797 	
50.0819 	-0.00386655 	-0.694796 	0.340941 	0.90182 	0.0115236 	-3.12631 	90.0136 	116.659 	-0.551172 	273.819 	360.766 	284.893 	539.797 	
50.1846 	-0.00381615 	-0.692616 	0.335197 	0.919273 	0.0117063 	-3.12626 	90.0137 	116.659 	-0.551172 	274.815 	360.766 	284.893 	539.797 	
50.2877 	-0.00376162 	-0.690102 	0.328924 	0.938471 	0.0119083 	-3.1262 	90.0137 	116.659 	-0.551172 	275.914 	360.766 	284.893 	539.797 	
50.3899 	-0.00371289 	-0.687712 	0.323264 	0.955924 	0.0120929 	-3.12615 	90.0136 	116.659 	-0.551172 	276.897 	360.766 	284.893 	539.797 	
50.4918 	-0.00366498 	-0.685224 	0.317646 	0.973376 	0.0122784 	-3.1261 	90.0136 	116.659 	-0.551172 	277.912 	360.766 	284.893 	539.797 	
50.5951 	-0.0036179 	-0.682639 	0.312073 	0.990829 	0.0124646 	-3.12606 	90.0136 	116.659 	-0.551172 	278.91 	360.766 	284.893 	539.797 	
50.6979 	-0.00357167 	-0.679956 	0.306545 	1.00828 	0.0126516 	-3.12602 	90.0137 	116.659 	-0.551172 	280 	360.766 	284.893 	539.797 	
50.8004 	-0.0035263 	-0.677177 	0.301066 	1.02574 	0.0128392 	-3.12598 	90.0136 	116.659 	-0.551172 	280.988 	360.766 	284.893 	539.797 	
50.9024 	-0.00348621 	-0.674595 	0.296176 	1.04144 	0.0130085 	-3.12595 	90.0136 	116.659 	-0.551172 	281.991 	360.766 	284.893 	539.797 	
51.0043 	-0.00344251 	-0.671636 	0.290791 	1.0589 	0.0131973 	-3.12592 	90.0137 	116.659 	-0.551172 	282.987 	360.766 	284.893 	539.797 	
51.1075 	-0.00339548 	-0.668274 	0.284929 	1.07809 	0.0134054 	-3.12589 	90.0136 	116.659 	-0.551172 	284.076 	360.766 	284.893 	539.797 	
51.2099 	-0.00335368 	-0.665119 	0.279656 	1.09555 	0.0135951 	-3.12587 	90.0136 	116.659 	-0.551172 	285.084 	360.766 	284.893 	539.797 	
51.3125 	-0.00331281 	-0.661874 	0.274439 	1.113 	0.0137852 	-3.12585 	90.0136 	116.659 	-0.551172 	286.072 	360.766 	284.893 	539.797 	
51.4148 	-0.00327288 	-0.658537 	0.26928 	1.13045 	0.0139756 	-3.12583 	90.0137 	116.659 	-0.551172 	287.072 	360.766 	284.893 	539.797 	
51.5171 	-0.0032339 	-0.655112 	0.26418 	1.14791 	0.0141663 	-3.12582 	90.0136 	116.659 	-0.551172 	288.168 	360.766 	284.893 	539.797 	
51.6202 	-0.00319589 	-0.651597 	0.25914 	1.16536 	0.0143572 	-3.12581 	90.0136 	116.659 	-0.551172 	289.164 	360.766 	284.893 	539.797 	
51.723 	-0.00315884 	-0.647996 	0.254162 	1.18281 	0.0145482 	-3.1258 	90.0137 	116.659 	-0.551172 	290.163 	360.766 	284.893 	539.797 	
51.8251 	-0.00312635 	-0.64468 	0.249737 	1.19852 	0.0147202 	-3.1258 	90.0137 	116.659 	-0.551172 	291.156 	360.766 	284.893 	539.797 	
51.9275 	-0.00308773 	-0.640534 	0.244399 	1.21772 	0.0149304 	-3.1258 	90.0137 	116.659 	-0.551172 	292.258 	360.766 	284.892 	539.797 	
52.0297 	-0.00305368 	-0.636677 	0.239617 	1.23517 	0.0151216 	-3.1258 	90.0136 	116.659 	-0.551172 	293.243 	360.766 	284.892 	539.797 	
52.1325 	-0.00302065 	-0.632737 	0.234903 	1.25263 	0.0153126 	-3.12581 	90.0136 	116.659 	-0.551172 	294.25 	360.766 	284.892 	539.797 	
52.2401 	-0.00298864 	-0.628715 	0.230258 	1.27008 	0.0155035 	-3.12582 	90.0137 	116.659 	-0.551172 	295.351 	360.766 	284.892 	539.797 	
52.342 	-0.00295768 	-0.624612 	0.225684 	1.28753 	0.0156941 	-3.12583 	90.0137 	116.659 	-0.551172 	296.344 	360.766 	284.892 	539.797 	
52.4444 	-0.00292776 	-0.620431 	0.221182 	1.30499 	0.0158846 	-3.12585 	90.0137 	116.659 	-0.551172 	297.338 	360.766 	284.892 	539.797 	
52.5468 	-0.00290173 	-0.616601 	0.217194 	1.32069 	0.0160557 	-3.12587 	90.0137 	116.659 	-0.551172 	298.336 	360.766 	284.892 	539.797 	
52.6514 	-0.00284437 	-0.607424 	0.208125 	1.35735 	0.0164537 	-3.12592 	90.0137 	116.659 	-0.551172 	299.422 	360.766 	284.892 	539.797 	
52.7529 	-0.00281873 	-0.602938 	0.203926 	1.3748 	0.0166424 	-3.12595 	90.0137 	116.659 	-0.551172 	300.428 	360.766 	284.892 	539.797 	
52.8549 	-0.00279418 	-0.59838 	0.199806 	1.39225 	0.0168307 	-3.12598 	90.0137 	116.66 	-0.551172 	301.42 	360.766 	284.892 	539.797 	
52.9571 	-0.00277072 	-0.593751 	0.195766 	1.40971 	0.0170183 	-3.12602 	90.0137 	116.66 	-0.551172 	302.508 	360.766 	284.892 	539.797 	
53.0603 	-0.00274837 	-0.589052 	0.191807 	1.42716 	0.0172053 	-3.12606 	90.0137 	116.66 	-0.551172 	303.51 	360.766 	284.892 	539.797 	
53.1631 	-0.00272713 	-0.584285 	0.187932 	1.44462 	0.0173916 	-3.1261 	90.0137 	116.66 	-0.551172 	304.498 	360.766 	284.892 	539.797 	
53.2649 	-0.00270897 	-0.579937 	0.184515 	1.46033 	0.0175585 	-3.12614 	90.0137 	116.66 	-0.551172 	305.499 	360.766 	284.892 	539.797 	
53.3676 	-0.00268986 	-0.575043 	0.180799 	1.47778 	0.0177433 	-3.12619 	90.0137 	116.66 	-0.551172 	306.592 	360.766 	284.892 	539.797 	
53.4721 	-0.00267014 	-0.569587 	0.176811 	1.49698 	0.0179454 	-3.12625 	90.0136 	116.66 	-0.551172 	307.586 	360.766 	284.892 	539.797 	
53.5752 	-0.0026534 	-0.564561 	0.173277 	1.51443 	0.0181282 	-3.12631 	90.0137 	116.66 	-0.551172 	308.582 	360.766 	284.892 	539.797 	
53.6778 	-0.00263781 	-0.559474 	0.169832 	1.53189 	0.01831 	-3.12636 	90.0137 	116.66 	-0.551172 	309.68 	360.766 	284.892 	539.797 	
53.7795 	-0.00262336 	-0.554327 	0.166476 	1.54934 	0.0184908 	-3.12643 	90.0137 	116.66 	-0.551172 	310.673 	360.766 	284.892 	539.797 	
53.8817 	-0.00261005 	-0.549123 	0.16321 	1.5668 	0.0186704 	-3.12649 	90.0137 	116.661 	-0.551172 	311.677 	360.766 	284.892 	539.797 	
53.9837 	-0.00259791 	-0.543862 	0.160035 	1.58425 	0.0188489 	-3.12656 	90.0137 	116.661 	-0.551172 	312.672 	360.766 	284.892 	539.797 	
54.0868 	-0.00258796 	-0.539081 	0.157257 	1.59996 	0.0190085 	-3.12663 	90.0137 	116.661 	-0.551172 	313.667 	360.766 	284.892 	539.797 	
54.1895 	-0.00257802 	-0.533718 	0.154258 	1.61742 	0.0191846 	-3.1267 	90.0137 	116.661 	-0.551172 	314.76 	360.766 	284.892 	539.797 	
54.2915 	-0.00256923 	-0.528304 	0.151354 	1.63487 	0.0193593 	-3.12678 	90.0137 	116.661 	-0.551172 	315.765 	360.766 	284.892 	539.797 	
54.3103 	-0.00256923 	-0.528304 	0.151354 	1.63487 	0.0193593 	-3.12678 	90.0137 	116.661 	-0.551172 	315.959 	360.766 	284.892 	539.797 	
54.4126 	-0.00256305 	-0.523937 	0.149098 	1.64883 	0.0194982 	-3.12684 	90.0137 	116.661 	-0.551172 	316.479 	360.766 	284.892 	539.797 	
54.5144 	-0.00256305 	-0.523937 	0.149098 	1.64883 	0.0194982 	-3.12684 	90.0137 	116.661 	-0.551172 	316.55 	360.766 	284.892 	539.797 	
54.6165 	-0.00256305 	-0.523937 	0.149098 	1.64883 	0.0194982 	-3.12684 	90.0137 	116.661 	-0.551172 	316.552 	360.766 	284.892 	539.797 	
54.7186 	-0.00256305 	-0.523937 	0.149098 	1.64883 	0.0194982 	-3.12684 	90.0137 	116.661 	-0.551172 	316.553 	360.766 	284.892 	539.797 	
54.822 	-0.00256305 	-0.523937 	0.149098 	1.64883 	0.0194982 	-3.12684 	90.0137 	116.661 	-0.551172 	316.553 	360.766 	284.892 	539.797 	
