RISC-NYUAD/HeavyPayloadDrone/projects/kinova-ros/devel/lib/ne_kinova_demo/VulcanTrajectory/Vulcan1_Vicon_y19m11d27h13min59.csv
time (NSec) 	Kinova Tip Position (t_x) 	t_y 	t_z 	Kinova Tip Angle (theta_x) 	Kinova Tip Angle (theta_y) 	Kinova Tip Angle (theta_z) 	Kinova Joint Angle (j1) 	(j2) 	(j3) 	(j4) 	Kinova Joint Angle (j5) 	(j6) 	(j7)
0.0336347 	-0.120373 	0.0872392 	1.22081 	-0.448374 	-0.278731 	-0.485358 	108.191 	174.377 	121.107 	189.362 	198.893 	204.703 	44.1207 	
0.136705 	-0.122183 	0.0863261 	1.22028 	-0.449617 	-0.282204 	-0.487254 	107.873 	174.05 	120.846 	189.593 	199.174 	205.013 	44.3624 	
0.239758 	-0.136469 	0.0812311 	1.21456 	-0.471332 	-0.309148 	-0.526839 	106.995 	173.171 	119.894 	190.5 	201.075 	206.875 	46.206 	
0.342864 	-0.150332 	0.0771478 	1.20747 	-0.500992 	-0.33486 	-0.584157 	106.015 	172.197 	118.919 	191.486 	203.044 	208.871 	48.1646 	
0.44632 	-0.163619 	0.072433 	1.19994 	-0.530575 	-0.35942 	-0.643345 	104.92 	171.088 	117.919 	192.488 	205.053 	210.835 	50.1571 	
0.548923 	-0.176282 	0.0671083 	1.192 	-0.560083 	-0.382692 	-0.704347 	103.919 	170.098 	116.822 	193.559 	207.256 	213.045 	52.3651 	
0.657404 	-0.188273 	0.0611974 	1.18369 	-0.589494 	-0.404541 	-0.767085 	102.806 	169.001 	115.83 	194.554 	209.248 	215.041 	54.3709 	
0.759964 	-0.199549 	0.0547263 	1.17506 	-0.618772 	-0.424845 	-0.831462 	101.821 	168.013 	114.714 	195.672 	211.472 	217.256 	56.5953 	
0.86297 	-0.210072 	0.0477222 	1.16612 	-0.647853 	-0.443486 	-0.897358 	100.813 	167.041 	113.717 	196.675 	213.489 	219.248 	58.603 	
0.965812 	-0.219806 	0.0402131 	1.15693 	-0.676653 	-0.460362 	-0.964628 	99.7298 	165.961 	112.733 	197.668 	215.503 	221.23 	60.5974 	
1.06969 	-0.228723 	0.0322286 	1.14753 	-0.705065 	-0.475382 	-1.03311 	98.7255 	164.967 	111.639 	198.739 	217.675 	223.407 	62.7597 	
1.17365 	-0.243998 	0.0149496 	1.12823 	-0.760192 	-0.499566 	-1.17292 	97.7297 	163.955 	110.635 	199.758 	219.675 	225.399 	64.7724 	
1.27569 	-0.250318 	0.00571367 	1.1184 	-0.786596 	-0.508631 	-1.24381 	96.6339 	162.896 	109.636 	200.754 	221.701 	227.408 	66.8011 	
1.37778 	-0.25574 	-0.00388174 	1.10851 	-0.811998 	-0.515643 	-1.31504 	95.6342 	161.918 	108.553 	201.849 	223.889 	229.587 	68.9676 	
1.47977 	-0.260254 	-0.0138095 	1.09859 	-0.836215 	-0.520599 	-1.38638 	94.6357 	160.93 	107.556 	202.832 	225.887 	231.593 	70.9526 	
1.58172 	-0.263854 	-0.0240429 	1.08866 	-0.859067 	-0.523515 	-1.45755 	93.6508 	159.949 	106.557 	203.848 	227.891 	233.594 	72.9585 	
1.68368 	-0.266539 	-0.0345573 	1.07876 	-0.880377 	-0.524427 	-1.52833 	92.6368 	158.938 	105.561 	204.824 	229.907 	235.574 	74.9651 	
1.78572 	-0.268308 	-0.0453287 	1.06891 	-0.899981 	-0.523385 	-1.59846 	91.5361 	157.855 	104.569 	205.829 	231.89 	237.588 	76.969 	
1.89294 	-0.269361 	-0.0553952 	1.05914 	-0.91894 	-0.517681 	-1.67017 	90.6763 	156.866 	103.466 	206.937 	234.101 	239.794 	78.9516 	
1.99604 	-0.27028 	-0.0627545 	1.04947 	-0.939373 	-0.501376 	-1.74799 	90.2943 	155.855 	102.472 	207.919 	236.122 	241.79 	81.1678 	
2.0992 	-0.270795 	-0.0694695 	1.0399 	-0.958191 	-0.480519 	-1.82604 	90.2439 	154.78 	101.373 	209.023 	238.31 	243.979 	83.3839 	
2.20239 	-0.270754 	-0.0764056 	1.03046 	-0.974242 	-0.457786 	-1.90205 	90.2338 	153.769 	100.371 	210.018 	240.333 	245.999 	85.3785 	
2.30502 	-0.270181 	-0.0835812 	1.02115 	-0.987503 	-0.433355 	-1.976 	90.2332 	152.805 	99.3814 	211.01 	242.34 	247.995 	87.376 	
2.40823 	-0.269101 	-0.0910148 	1.01197 	-0.997979 	-0.407401 	-2.04788 	90.2332 	151.72 	98.2815 	212.132 	244.526 	250.193 	89.5696 	
2.51117 	-0.267541 	-0.098724 	1.00292 	-1.0057 	-0.380098 	-2.11771 	90.2328 	150.772 	97.3029 	213.106 	246.541 	252.201 	91.5759 	
2.614 	-0.265531 	-0.106725 	0.993996 	-1.01073 	-0.351609 	-2.18555 	90.233 	149.766 	96.2944 	214.129 	248.525 	254.2 	93.5679 	
2.71708 	-0.263099 	-0.115033 	0.985189 	-1.01314 	-0.32209 	-2.25143 	90.2329 	148.66 	95.1961 	215.216 	250.75 	256.19 	95.5791 	
2.8202 	-0.260275 	-0.12366 	0.976485 	-1.01299 	-0.29169 	-2.31544 	90.2329 	147.643 	94.1913 	216.217 	252.733 	258.381 	97.7862 	
2.92305 	-0.257091 	-0.132618 	0.967865 	-1.0104 	-0.260549 	-2.37764 	90.2324 	146.668 	93.2085 	217.202 	254.749 	260.398 	99.7838 	
3.02624 	-0.253576 	-0.141915 	0.959308 	-1.00545 	-0.228795 	-2.43811 	90.2324 	145.582 	92.2087 	218.21 	256.756 	262.393 	101.762 	
3.12916 	-0.24976 	-0.151555 	0.950789 	-0.998238 	-0.196551 	-2.49693 	90.2326 	144.607 	91.1079 	219.321 	258.953 	264.604 	103.986 	
3.23229 	-0.245676 	-0.161541 	0.942279 	-0.988871 	-0.163932 	-2.55415 	90.2327 	143.614 	90.1089 	220.332 	260.925 	266.612 	105.977 	
3.33515 	-0.241351 	-0.171871 	0.933746 	-0.977451 	-0.13104 	-2.60986 	90.2326 	142.628 	89.117 	221.318 	262.947 	268.608 	107.971 	
3.43821 	-0.236814 	-0.182539 	0.925158 	-0.96408 	-0.0979742 	-2.66412 	90.2325 	141.518 	88.0162 	222.421 	265.146 	270.802 	110.188 	
3.54115 	-0.232093 	-0.193536 	0.916477 	-0.948861 	-0.064823 	-2.71699 	90.2316 	140.547 	87.0306 	223.406 	267.163 	272.817 	112.187 	
3.64395 	-0.227215 	-0.204848 	0.907668 	-0.931896 	-0.0316684 	-2.76852 	90.2321 	139.568 	86.0193 	224.426 	269.134 	274.813 	114.184 	
3.74691 	-0.222203 	-0.216457 	0.89869 	-0.913286 	0.00141482 	-2.81876 	90.2317 	138.498 	84.9278 	225.517 	271.339 	276.813 	116.174 	
3.84997 	-0.217082 	-0.22834 	0.889506 	-0.893133 	0.0343577 	-2.86774 	90.232 	137.48 	83.9222 	226.528 	273.328 	279.003 	118.366 	
3.95828 	-0.211874 	-0.24047 	0.880076 	-0.871537 	0.0670971 	-2.9155 	90.2318 	136.371 	82.8069 	227.628 	275.554 	281.015 	120.377 	
4.0612 	-0.206597 	-0.252816 	0.870364 	-0.8486 	0.0995764 	-2.96207 	90.2318 	135.396 	81.8277 	228.634 	277.529 	283.232 	122.601 	
4.16402 	-0.201475 	-0.265446 	0.860484 	-0.823726 	0.130959 	-3.00755 	90.2319 	134.423 	80.8362 	229.633 	279.522 	284.518 	124.572 	
4.26999 	-0.202504 	-0.296864 	0.84773 	-0.733126 	0.148883 	-3.10152 	90.2319 	133.367 	79.7524 	230.72 	281.712 	284.691 	126.78 	
4.37393 	-0.204128 	-0.313329 	0.841249 	-0.683464 	0.152633 	3.13488 	90.2319 	132.351 	78.7449 	231.722 	283.708 	284.711 	128.777 	
4.47594 	-0.205798 	-0.329919 	0.834153 	-0.633283 	0.155549 	3.08862 	90.2319 	131.354 	77.7371 	232.733 	285.709 	284.713 	130.785 	
4.57798 	-0.207504 	-0.346602 	0.826415 	-0.582625 	0.157656 	3.04294 	90.2319 	130.266 	76.6462 	233.817 	287.878 	284.715 	132.968 	
4.67988 	-0.209234 	-0.363346 	0.818015 	-0.531529 	0.158989 	2.99789 	90.2317 	129.29 	75.6616 	234.813 	289.883 	284.721 	134.979 	
4.78232 	-0.210977 	-0.380117 	0.808929 	-0.480036 	0.159583 	2.95354 	90.2319 	128.301 	74.6621 	235.821 	291.887 	284.724 	136.98 	
4.88515 	-0.212718 	-0.39688 	0.799141 	-0.428183 	0.159481 	2.90992 	90.232 	127.319 	73.6646 	236.823 	293.848 	284.727 	138.963 	
4.99299 	-0.214445 	-0.413596 	0.788631 	-0.376005 	0.158729 	2.8671 	90.2329 	126.237 	72.5675 	237.929 	296.036 	284.729 	141.157 	
5.09494 	-0.216142 	-0.430226 	0.777386 	-0.323535 	0.157374 	2.82512 	90.232 	125.249 	71.5835 	238.904 	298.037 	284.751 	143.187 	
5.19688 	-0.217795 	-0.44673 	0.765393 	-0.270805 	0.15547 	2.78403 	90.2322 	124.164 	70.4799 	240.008 	300.236 	284.763 	145.174 	
5.29886 	-0.219388 	-0.463064 	0.752644 	-0.217843 	0.153075 	2.74386 	90.2328 	123.181 	69.4775 	241.025 	302.223 	284.767 	147.376 	
5.40149 	-0.220903 	-0.479185 	0.739132 	-0.164676 	0.150248 	2.70464 	90.2327 	122.184 	68.4907 	242.022 	304.215 	284.772 	149.37 	
5.50444 	-0.222326 	-0.495049 	0.724853 	-0.111327 	0.14705 	2.66642 	90.2327 	121.188 	67.4895 	243.022 	306.221 	284.775 	151.378 	
5.60714 	-0.223637 	-0.51061 	0.709808 	-0.0578201 	0.143548 	2.62923 	90.2327 	120.108 	66.3973 	244.114 	308.397 	284.78 	153.372 	
5.71029 	-0.224819 	-0.525821 	0.694 	-0.00417473 	0.139807 	2.59307 	90.2327 	119.106 	65.3917 	245.116 	310.385 	284.784 	155.56 	
5.81319 	-0.225854 	-0.540637 	0.677435 	0.0495903 	0.135897 	2.55798 	90.2327 	118.127 	64.4066 	246.111 	312.36 	284.788 	157.563 	
5.91632 	-0.226725 	-0.555011 	0.660123 	0.103458 	0.131887 	2.52396 	90.2327 	117.13 	63.3966 	247.118 	314.355 	284.802 	159.583 	
6.01963 	-0.227412 	-0.568895 	0.642077 	0.157411 	0.127849 	2.49104 	90.2327 	116.04 	62.2974 	248.213 	316.557 	284.837 	161.774 	
6.12253 	-0.227898 	-0.582244 	0.623315 	0.211434 	0.123856 	2.4592 	90.2327 	115.042 	61.3011 	249.214 	318.545 	284.843 	163.747 	
6.22549 	-0.228164 	-0.59501 	0.603858 	0.265512 	0.119979 	2.42847 	90.2327 	114.035 	60.3035 	250.217 	320.526 	284.847 	165.79 	
6.32846 	-0.228192 	-0.607149 	0.583729 	0.319629 	0.116291 	2.39882 	90.2327 	112.949 	59.2153 	251.326 	322.719 	284.852 	167.964 	
6.43151 	-0.227965 	-0.618353 	0.563522 	0.372855 	0.112866 	2.37026 	90.2327 	112.007 	58.2155 	252.314 	324.724 	284.857 	169.968 	
6.53449 	-0.227464 	-0.628575 	0.543442 	0.424946 	0.109776 	2.34277 	90.2328 	111.186 	57.2182 	253.327 	326.694 	284.86 	171.966 	
6.63726 	-0.226672 	-0.637246 	0.525089 	0.473475 	0.107096 	2.31633 	90.2329 	110.497 	56.1064 	254.425 	328.887 	284.866 	173.962 	
6.74032 	-0.225572 	-0.644292 	0.509244 	0.5174 	0.104895 	2.29092 	90.2327 	110.049 	55.1143 	255.423 	330.869 	284.875 	176.163 	
6.8434 	-0.224151 	-0.6507 	0.493659 	0.560338 	0.103235 	2.26652 	90.2326 	109.685 	54.1083 	256.421 	332.887 	284.891 	178.17 	
6.94672 	-0.222394 	-0.656391 	0.47871 	0.601759 	0.102181 	2.2431 	90.2327 	109.469 	53.1105 	257.427 	334.886 	284.907 	180.172 	
7.04974 	-0.220286 	-0.661077 	0.465591 	0.639904 	0.101801 	2.22062 	90.2327 	109.4 	52.0027 	258.527 	337.077 	284.918 	182.385 	
7.17607 	-0.214969 	-0.66887 	0.44102 	0.712362 	0.103286 	2.17837 	90.2327 	109.39 	50.7999 	259.726 	339.488 	284.925 	184.786 	
7.27809 	-0.211738 	-0.672293 	0.428487 	0.748328 	0.10526 	2.15852 	90.2325 	109.387 	49.7016 	260.818 	341.675 	284.938 	186.965 	
7.38059 	-0.208112 	-0.675377 	0.415819 	0.784075 	0.108124 	2.13946 	90.2325 	109.387 	48.7048 	261.823 	343.665 	284.964 	188.972 	
7.48316 	-0.204083 	-0.678109 	0.403042 	0.819569 	0.111925 	2.12115 	90.2327 	109.386 	47.7094 	262.825 	345.663 	284.968 	190.975 	
7.58524 	-0.199643 	-0.680474 	0.390182 	0.854772 	0.116705 	2.10354 	90.2327 	109.386 	46.7071 	263.819 	347.664 	284.973 	192.975 	
7.69307 	-0.194786 	-0.682458 	0.377266 	0.889645 	0.122503 	2.08658 	90.2325 	109.386 	45.5943 	264.913 	349.852 	284.981 	195.194 	
7.79538 	-0.18951 	-0.684047 	0.364322 	0.924148 	0.129353 	2.07022 	90.2324 	109.385 	44.5868 	265.914 	351.857 	284.986 	197.18 	
7.89811 	-0.18381 	-0.68523 	0.351379 	0.958241 	0.137285 	2.05443 	90.2325 	109.385 	43.4985 	267.011 	354.045 	285.002 	199.387 	
8.00036 	-0.177686 	-0.685994 	0.338467 	0.991881 	0.146324 	2.03914 	90.2326 	109.385 	42.4964 	268.011 	356.052 	285.023 	201.383 	
8.10353 	-0.169103 	-0.688313 	0.328756 	1.01566 	0.164192 	2.0261 	90.2326 	109.383 	41.485 	268.475 	358.051 	285.043 	203.388 	
8.20677 	-0.159732 	-0.691028 	0.320935 	1.03308 	0.184813 	2.01342 	90.2325 	109.382 	40.4757 	268.548 	359.897 	285.049 	205.375 	
8.30917 	-0.155171 	-0.692261 	0.317219 	1.03431 	0.186677 	1.99694 	90.2323 	109.376 	39.3611 	268.554 	360.484 	285.051 	207.572 	
8.41263 	-0.151992 	-0.693113 	0.314699 	1.03109 	0.182967 	1.97939 	90.2323 	109.367 	38.362 	268.555 	360.528 	285.053 	209.588 	
8.51552 	-0.148768 	-0.693947 	0.312233 	1.02794 	0.179204 	1.96181 	90.2323 	109.358 	37.3722 	268.557 	360.543 	285.055 	211.601 	
8.61858 	-0.145498 	-0.694763 	0.30982 	1.02486 	0.175386 	1.9442 	90.2323 	109.358 	36.2687 	268.557 	360.55 	285.056 	213.791 	
8.72159 	-0.142185 	-0.695561 	0.307461 	1.02184 	0.171517 	1.92657 	90.2323 	109.358 	35.2703 	268.557 	360.556 	285.058 	215.796 	
8.82465 	-0.138829 	-0.696341 	0.305158 	1.0189 	0.167598 	1.90892 	90.2322 	109.358 	34.2657 	268.557 	360.56 	285.06 	217.79 	
8.92767 	-0.13543 	-0.697102 	0.302911 	1.01603 	0.163629 	1.89125 	90.2323 	109.358 	33.1637 	268.557 	360.562 	285.061 	219.786 	
9.03069 	-0.131991 	-0.697844 	0.30072 	1.01323 	0.159611 	1.87355 	90.2323 	109.358 	32.1614 	268.557 	360.564 	285.063 	221.991 	
9.13362 	-0.128512 	-0.698567 	0.298587 	1.0105 	0.155547 	1.85583 	90.2323 	109.357 	31.1498 	268.557 	360.566 	285.063 	223.988 	
9.23657 	-0.124994 	-0.69927 	0.296511 	1.00785 	0.151437 	1.83809 	90.2323 	109.357 	30.1507 	268.558 	360.57 	285.064 	225.99 	
9.33959 	-0.121439 	-0.699954 	0.294494 	1.00526 	0.147283 	1.82033 	90.2323 	109.357 	29.045 	268.558 	360.574 	285.064 	228.184 	
9.44272 	-0.117847 	-0.700618 	0.292537 	1.00275 	0.143085 	1.80254 	90.2323 	109.356 	28.038 	268.558 	360.576 	285.065 	230.19 	
9.54569 	-0.114219 	-0.701262 	0.290639 	1.00032 	0.138846 	1.78474 	90.2323 	109.356 	27.0326 	268.558 	360.578 	285.066 	232.181 	
9.64858 	-0.110557 	-0.701886 	0.288801 	0.997962 	0.134566 	1.76691 	90.2323 	109.356 	25.9331 	268.558 	360.579 	285.067 	234.403 	
9.75178 	-0.106862 	-0.702489 	0.287024 	0.995679 	0.130247 	1.74906 	90.2323 	109.356 	24.9277 	268.558 	360.58 	285.074 	236.382 	
9.85758 	-0.103134 	-0.703072 	0.285309 	0.993471 	0.12589 	1.7312 	90.2323 	109.356 	23.9299 	268.558 	360.582 	285.083 	238.38 	
9.96054 	-0.0993753 	-0.703635 	0.283655 	0.99134 	0.121496 	1.71331 	90.2322 	109.357 	22.8124 	268.558 	360.585 	285.093 	240.623 	
10.0635 	-0.0955867 	-0.704176 	0.282064 	0.989286 	0.117067 	1.69541 	90.2322 	109.356 	21.8197 	268.558 	360.586 	285.101 	242.594 	
10.1697 	-0.0879245 	-0.705195 	0.279071 	0.985408 	0.108108 	1.65955 	90.2322 	109.356 	20.7178 	268.558 	360.589 	285.109 	244.787 	
10.2724 	-0.0840532 	-0.705673 	0.27767 	0.983586 	0.103581 	1.6416 	90.2322 	109.356 	19.7073 	268.558 	360.593 	285.114 	246.799 	
10.3764 	-0.0801566 	-0.706129 	0.276334 	0.981843 	0.0990236 	1.62362 	90.2322 	109.356 	18.707 	268.558 	360.6 	285.116 	248.797 	
10.4785 	-0.076236 	-0.706563 	0.275062 	0.980177 	0.0944376 	1.60564 	90.2322 	109.356 	17.6028 	268.558 	360.605 	285.119 	250.799 	
10.5815 	-0.0722925 	-0.706976 	0.273855 	0.978591 	0.0898243 	1.58764 	90.2322 	109.356 	16.6055 	268.558 	360.608 	285.12 	252.983 	
10.6847 	-0.0683274 	-0.707366 	0.272714 	0.977084 	0.0851849 	1.56962 	90.2322 	109.356 	15.5985 	268.558 	360.619 	285.122 	254.98 	
10.7926 	-0.0643418 	-0.707735 	0.271638 	0.975656 	0.0805208 	1.55159 	90.2322 	109.356 	14.5023 	268.558 	360.628 	285.122 	257.192 	
10.8957 	-0.060337 	-0.708081 	0.270629 	0.974308 	0.0758334 	1.53354 	90.2322 	109.356 	13.4911 	268.558 	360.634 	285.123 	259.19 	
10.9987 	-0.0563142 	-0.708406 	0.269686 	0.97304 	0.071124 	1.51548 	90.2322 	109.356 	12.3818 	268.558 	360.64 	285.123 	261.184 	
11.1017 	-0.0522745 	-0.708708 	0.268809 	0.971851 	0.066394 	1.49742 	90.2322 	109.357 	11.379 	268.558 	360.642 	285.123 	263.392 	
11.2047 	-0.0482194 	-0.708987 	0.268 	0.970744 	0.0616447 	1.47934 	90.2321 	109.356 	10.3738 	268.558 	360.644 	285.124 	265.392 	
11.3064 	-0.0441498 	-0.709244 	0.267258 	0.969716 	0.0568774 	1.46125 	90.2322 	109.356 	9.37148 	268.558 	360.646 	285.124 	267.402 	
11.4088 	-0.0400673 	-0.709478 	0.266583 	0.96877 	0.0520936 	1.44315 	90.2321 	109.356 	8.279 	268.558 	360.649 	285.124 	269.391 	
11.5116 	-0.0359728 	-0.709689 	0.265976 	0.967904 	0.0472946 	1.42504 	90.2321 	109.357 	7.26719 	268.558 	360.65 	285.125 	271.6 	
11.615 	-0.0318678 	-0.709878 	0.265437 	0.967119 	0.0424818 	1.40693 	90.2321 	109.357 	6.26191 	268.558 	360.653 	285.125 	273.583 	
11.7179 	-0.0277535 	-0.710044 	0.264966 	0.966416 	0.0376565 	1.3888 	90.2321 	109.357 	5.16406 	268.558 	360.655 	285.125 	275.586 	
11.8209 	-0.023631 	-0.710187 	0.264563 	0.965793 	0.03282 	1.37067 	90.2321 	109.357 	4.16221 	268.558 	360.658 	285.125 	277.806 	
11.9239 	-0.0195018 	-0.710307 	0.264228 	0.965252 	0.0279738 	1.35254 	90.2321 	109.357 	3.15957 	268.558 	360.662 	285.125 	279.803 	
12.0268 	-0.0153669 	-0.710404 	0.263962 	0.964793 	0.0231192 	1.3344 	90.2321 	109.357 	2.15264 	268.558 	360.668 	285.125 	281.79 	
12.1299 	-0.0112277 	-0.710479 	0.263764 	0.964415 	0.0182576 	1.31626 	90.2321 	109.357 	1.04619 	268.558 	360.681 	285.125 	284 	
12.233 	-0.00716838 	-0.710529 	0.263637 	0.964124 	0.0134878 	1.29778 	90.2321 	109.357 	0.106934 	268.558 	360.696 	285.125 	285.998 	
12.3358 	-0.00459923 	-0.71055 	0.26359 	0.96398 	0.0104679 	1.27326 	90.2314 	109.357 	-0.395996 	268.558 	360.705 	285.125 	287.982 	
12.439 	-0.00451635 	-0.71055 	0.263589 	0.963976 	0.0103704 	1.23869 	90.2314 	109.357 	-0.496875 	268.558 	360.707 	285.126 	290.002 	
12.5419 	-0.00451635 	-0.71055 	0.263589 	0.963976 	0.0103704 	1.20378 	90.2314 	109.357 	-0.521582 	268.558 	360.709 	285.126 	292.197 	
12.6448 	-0.00451635 	-0.71055 	0.263589 	0.963976 	0.0103704 	1.16887 	90.2315 	109.357 	-0.525781 	268.558 	360.71 	285.126 	294.191 	
12.748 	-0.00451635 	-0.71055 	0.263589 	0.963976 	0.0103704 	1.13396 	90.2315 	109.357 	-0.526367 	268.558 	360.71 	285.126 	296.197 	
12.8512 	-0.00451635 	-0.71055 	0.263589 	0.963976 	0.0103704 	1.09905 	90.2315 	109.357 	-0.526465 	268.558 	360.711 	285.126 	298.388 	
12.9603 	-0.00451635 	-0.71055 	0.263589 	0.963976 	0.0103704 	1.06414 	90.2314 	109.357 	-0.526758 	268.558 	360.711 	285.126 	300.608 	
13.0629 	-0.00451635 	-0.71055 	0.263589 	0.963976 	0.0103704 	1.02924 	90.2315 	109.357 	-0.526953 	268.558 	360.712 	285.126 	302.594 	
13.1656 	-0.00451635 	-0.71055 	0.263589 	0.963976 	0.0103704 	0.994327 	90.2315 	109.357 	-0.526953 	268.558 	360.712 	285.126 	304.591 	
13.2687 	-0.00451635 	-0.71055 	0.263589 	0.963976 	0.0103704 	0.959418 	90.2314 	109.357 	-0.527148 	268.558 	360.712 	285.126 	306.585 	
13.3719 	-0.00451635 	-0.71055 	0.263589 	0.963976 	0.0103704 	0.92451 	90.2315 	109.357 	-0.527148 	268.558 	360.712 	285.126 	308.802 	
13.4757 	-0.00451635 	-0.71055 	0.263589 	0.963976 	0.0103704 	0.854692 	90.2314 	109.357 	-0.527246 	268.558 	360.712 	285.126 	310.795 	
13.5776 	-0.00451635 	-0.71055 	0.263589 	0.963976 	0.0103704 	0.819783 	90.2314 	109.357 	-0.527246 	268.558 	360.713 	285.126 	312.803 	
13.68 	-0.00451635 	-0.71055 	0.263589 	0.963976 	0.0103704 	0.784874 	90.2314 	109.357 	-0.527246 	268.558 	360.713 	285.126 	314.992 	
13.7825 	-0.00451635 	-0.71055 	0.263589 	0.963976 	0.0103704 	0.749966 	90.2314 	109.357 	-0.527344 	268.558 	360.713 	285.126 	317.009 	
13.8845 	-0.00451635 	-0.71055 	0.263589 	0.963976 	0.0103704 	0.715057 	90.2314 	109.357 	-0.527344 	268.558 	360.713 	285.126 	318.991 	
13.9926 	-0.00451635 	-0.71055 	0.263589 	0.963976 	0.0103704 	0.680148 	90.2315 	109.357 	-0.527344 	268.558 	360.713 	285.126 	321.209 	
14.0946 	-0.00451635 	-0.71055 	0.263589 	0.963976 	0.0103704 	0.645239 	90.2315 	109.357 	-0.527344 	268.558 	360.713 	285.126 	323.215 	
14.1965 	-0.00451635 	-0.71055 	0.263589 	0.963976 	0.0103704 	0.610331 	90.2315 	109.357 	-0.527441 	268.558 	360.713 	285.126 	325.202 	
14.2987 	-0.00451635 	-0.71055 	0.263589 	0.963976 	0.0103704 	0.575422 	90.2315 	109.357 	-0.527441 	268.558 	360.713 	285.126 	327.192 	
14.4008 	-0.00451635 	-0.71055 	0.263589 	0.963976 	0.0103704 	0.540514 	90.2315 	109.357 	-0.527441 	268.558 	360.713 	285.126 	329.403 	
14.5037 	-0.00451635 	-0.71055 	0.263589 	0.963976 	0.0103704 	0.505605 	90.2315 	109.357 	-0.527441 	268.558 	360.713 	285.126 	331.401 	
14.6074 	-0.00451635 	-0.71055 	0.263589 	0.963976 	0.0103704 	0.470696 	90.2315 	109.357 	-0.527441 	268.558 	360.713 	285.126 	333.393 	
14.71 	-0.00451635 	-0.71055 	0.263589 	0.963976 	0.0103704 	0.435787 	90.2314 	109.357 	-0.527441 	268.558 	360.713 	285.126 	335.594 	
14.813 	-0.00451635 	-0.71055 	0.263589 	0.963976 	0.0103704 	0.400878 	90.2315 	109.357 	-0.527441 	268.558 	360.713 	285.126 	337.598 	
14.9159 	-0.00451635 	-0.71055 	0.263589 	0.963976 	0.0103704 	0.36597 	90.2315 	109.357 	-0.527441 	268.558 	360.714 	285.126 	339.611 	
15.0191 	-0.00451635 	-0.71055 	0.263589 	0.963976 	0.0103704 	0.331061 	90.2315 	109.357 	-0.527539 	268.558 	360.714 	285.126 	341.601 	
15.1218 	-0.00451635 	-0.71055 	0.263589 	0.963976 	0.0103704 	0.296153 	90.2315 	109.357 	-0.527539 	268.558 	360.714 	285.126 	343.79 	
15.2249 	-0.00451635 	-0.71055 	0.263589 	0.963976 	0.0103704 	0.261244 	90.2315 	109.357 	-0.527539 	268.558 	360.714 	285.126 	345.795 	
15.3282 	-0.00451635 	-0.71055 	0.263589 	0.963976 	0.0103704 	0.226335 	90.2315 	109.357 	-0.527539 	268.558 	360.714 	285.126 	347.81 	
15.431 	-0.00451635 	-0.71055 	0.263589 	0.963976 	0.0103704 	0.191426 	90.2314 	109.357 	-0.527637 	268.558 	360.714 	285.126 	349.996 	
15.5339 	-0.00451635 	-0.71055 	0.263589 	0.963976 	0.0103704 	0.156518 	90.2314 	109.357 	-0.527637 	268.558 	360.714 	285.126 	352.006 	
15.637 	-0.00451635 	-0.71055 	0.263589 	0.963976 	0.0103704 	0.121609 	90.2315 	109.357 	-0.527637 	268.558 	360.714 	285.126 	354.004 	
15.7402 	-0.00451635 	-0.71055 	0.263589 	0.963976 	0.0103704 	0.0867 	90.2315 	109.357 	-0.527637 	268.558 	360.714 	285.126 	356.201 	
15.8431 	-0.00451635 	-0.71055 	0.263589 	0.963976 	0.0103704 	0.0517913 	90.2315 	109.357 	-0.527637 	268.558 	360.714 	285.126 	358.203 	
15.9459 	-0.00451635 	-0.71055 	0.263589 	0.963976 	0.0103704 	0.016883 	90.2314 	109.357 	-0.527637 	268.558 	360.714 	285.126 	360.191 	
16.0493 	-0.00451635 	-0.71055 	0.263589 	0.963976 	0.0103703 	-0.0180258 	90.2314 	109.357 	-0.527637 	268.558 	360.714 	285.126 	362.208 	
16.176 	-0.00451635 	-0.71055 	0.263589 	0.963976 	0.0103703 	-0.0878434 	90.2315 	109.357 	-0.527637 	268.558 	360.714 	285.126 	364.593 	
16.2779 	-0.00451635 	-0.71055 	0.263589 	0.963976 	0.0103703 	-0.122752 	90.2314 	109.357 	-0.527637 	268.558 	360.714 	285.126 	366.792 	
16.3802 	-0.00451635 	-0.71055 	0.263589 	0.963976 	0.0103703 	-0.157661 	90.2314 	109.357 	-0.527734 	268.558 	360.714 	285.126 	368.996 	
16.4828 	-0.00451635 	-0.71055 	0.263589 	0.963976 	0.0103703 	-0.19257 	90.2314 	109.357 	-0.527734 	268.558 	360.714 	285.126 	370.988 	
16.5848 	-0.00451635 	-0.71055 	0.263589 	0.963976 	0.0103703 	-0.227478 	90.2315 	109.357 	-0.527734 	268.558 	360.714 	285.126 	372.993 	
16.6932 	-0.00451635 	-0.71055 	0.263589 	0.963976 	0.0103703 	-0.262387 	90.2315 	109.357 	-0.527734 	268.558 	360.714 	285.126 	375.211 	
16.7962 	-0.00451635 	-0.71055 	0.263589 	0.963976 	0.0103703 	-0.297295 	90.2315 	109.357 	-0.527734 	268.558 	360.714 	285.126 	377.177 	
16.899 	-0.00451635 	-0.71055 	0.263589 	0.963976 	0.0103703 	-0.332204 	90.2315 	109.357 	-0.527734 	268.558 	360.714 	285.126 	379.202 	
17.0021 	-0.00451635 	-0.71055 	0.263589 	0.963976 	0.0103703 	-0.367113 	90.2315 	109.357 	-0.527734 	268.558 	360.714 	285.126 	381.393 	
17.1051 	-0.00451635 	-0.71055 	0.263589 	0.963976 	0.0103703 	-0.402022 	90.2315 	109.357 	-0.527734 	268.558 	360.714 	285.126 	383.404 	
17.2082 	-0.00451635 	-0.71055 	0.263589 	0.963976 	0.0103703 	-0.436931 	90.2315 	109.357 	-0.527734 	268.558 	360.714 	285.126 	385.388 	
17.3113 	-0.00451635 	-0.71055 	0.263589 	0.963976 	0.0103703 	-0.471839 	90.2315 	109.357 	-0.527734 	268.558 	360.714 	285.126 	387.597 	
17.4143 	-0.00451635 	-0.71055 	0.263589 	0.963976 	0.0103703 	-0.506748 	90.2315 	109.357 	-0.527734 	268.558 	360.714 	285.126 	389.594 	
17.5171 	-0.00451635 	-0.71055 	0.263589 	0.963976 	0.0103703 	-0.541657 	90.2314 	109.357 	-0.527734 	268.558 	360.714 	285.126 	391.605 	
17.6204 	-0.00451635 	-0.71055 	0.263589 	0.963976 	0.0103703 	-0.576565 	90.2314 	109.357 	-0.527832 	268.558 	360.714 	285.126 	393.793 	
17.7232 	-0.00451635 	-0.71055 	0.263589 	0.963976 	0.0103703 	-0.611474 	90.2314 	109.357 	-0.527832 	268.558 	360.714 	285.126 	395.799 	
17.826 	-0.00451635 	-0.71055 	0.263589 	0.963976 	0.0103703 	-0.646383 	90.2309 	109.357 	-0.528418 	268.558 	360.714 	285.126 	397.803 	
17.9294 	-0.00451635 	-0.71055 	0.263589 	0.963976 	0.0103703 	-0.681292 	90.2307 	109.357 	-0.528516 	268.558 	360.714 	285.126 	399.8 	
18.0324 	-0.00451635 	-0.71055 	0.263589 	0.963976 	0.0103703 	-0.7162 	90.2307 	109.357 	-0.528516 	268.558 	360.714 	285.126 	401.993 	
18.1352 	-0.00451635 	-0.71055 	0.263589 	0.963976 	0.0103703 	-0.751109 	90.2312 	109.357 	-0.528418 	268.558 	360.714 	285.126 	403.992 	
18.2384 	-0.00451635 	-0.71055 	0.263589 	0.963976 	0.0103703 	-0.786018 	90.2307 	109.357 	-0.528613 	268.558 	360.714 	285.126 	405.991 	
18.3413 	-0.00451635 	-0.71055 	0.263589 	0.963976 	0.0103703 	-0.820927 	90.2302 	109.357 	-0.528809 	268.558 	360.714 	285.126 	408.185 	
18.4445 	-0.00451635 	-0.71055 	0.263589 	0.963976 	0.0103703 	-0.855835 	90.23 	109.357 	-0.529004 	268.558 	360.714 	285.126 	410.189 	
18.5472 	-0.00451635 	-0.71055 	0.263589 	0.963976 	0.0103703 	-0.890744 	90.2298 	109.357 	-0.529102 	268.558 	360.714 	285.127 	412.186 	
18.6505 	-0.00451635 	-0.71055 	0.263589 	0.963976 	0.0103703 	-0.925652 	90.2298 	109.357 	-0.529102 	268.558 	360.714 	285.127 	414.408 	
18.7585 	-0.00451635 	-0.71055 	0.263589 	0.963976 	0.0103703 	-0.960561 	90.2294 	109.357 	-0.529492 	268.558 	360.714 	285.127 	416.384 	
18.862 	-0.00451635 	-0.71055 	0.263589 	0.963976 	0.0103703 	-0.99547 	90.2294 	109.357 	-0.529395 	268.558 	360.714 	285.127 	418.591 	
18.9663 	-0.00451635 	-0.71055 	0.263589 	0.963976 	0.0103703 	-1.03038 	90.2294 	109.357 	-0.529395 	268.558 	360.714 	285.127 	420.583 	
19.0691 	-0.00451635 	-0.71055 	0.263589 	0.963976 	0.0103703 	-1.06529 	90.2294 	109.357 	-0.529395 	268.558 	360.714 	285.127 	422.582 	
19.172 	-0.00451635 	-0.71055 	0.263589 	0.963976 	0.0103703 	-1.1002 	90.2294 	109.357 	-0.529492 	268.558 	360.715 	285.127 	424.789 	
19.2763 	-0.00451635 	-0.71055 	0.263589 	0.963976 	0.0103703 	-1.13511 	90.2295 	109.357 	-0.529492 	268.558 	360.715 	285.127 	426.817 	
19.3791 	-0.00451635 	-0.71055 	0.263589 	0.963976 	0.0103703 	-1.20492 	90.2295 	109.357 	-0.529492 	268.558 	360.715 	285.127 	428.804 	
19.481 	-0.00451635 	-0.71055 	0.263589 	0.963976 	0.0103703 	-1.23983 	90.2295 	109.357 	-0.529492 	268.558 	360.715 	285.127 	430.992 	
19.5831 	-0.00451635 	-0.71055 	0.263589 	0.963976 	0.0103703 	-1.27474 	90.2294 	109.357 	-0.529688 	268.558 	360.715 	285.127 	433.002 	
19.6852 	-0.00451635 	-0.71055 	0.263589 	0.963976 	0.0103703 	-1.30965 	90.2295 	109.357 	-0.52959 	268.558 	360.715 	285.127 	435.01 	
19.7933 	-0.00451635 	-0.71055 	0.263589 	0.963976 	0.0103703 	-1.34456 	90.2295 	109.357 	-0.52959 	268.558 	360.715 	285.127 	437.197 	
19.896 	-0.00451635 	-0.71055 	0.263589 	0.963976 	0.0103703 	-1.37947 	90.2296 	109.357 	-0.52959 	268.558 	360.715 	285.127 	439.194 	
19.998 	-0.00451635 	-0.71055 	0.263589 	0.963976 	0.0103703 	-1.41437 	90.2294 	109.357 	-0.529785 	268.558 	360.715 	285.127 	441.194 	
20.1005 	-0.00451635 	-0.71055 	0.263589 	0.963976 	0.0103703 	-1.44928 	90.2277 	109.357 	-0.530469 	268.558 	360.715 	285.127 	443.402 	
20.2033 	-0.00451635 	-0.71055 	0.263589 	0.963976 	0.0103703 	-1.48419 	90.2232 	109.357 	-0.531348 	268.558 	360.715 	285.127 	445.376 	
20.3065 	-0.00451635 	-0.71055 	0.263589 	0.963976 	0.0103703 	-1.5191 	90.2196 	109.357 	-0.531445 	268.558 	360.715 	285.127 	447.382 	
20.4095 	-0.00451635 	-0.71055 	0.263589 	0.963976 	0.0103703 	-1.55401 	90.2197 	109.355 	-0.531348 	268.558 	360.715 	285.127 	449.389 	
20.5122 	-0.00451635 	-0.71055 	0.263589 	0.963976 	0.0103703 	-1.58892 	90.2196 	109.353 	-0.531348 	268.558 	360.715 	285.127 	451.604 	
20.6155 	-0.00451635 	-0.71055 	0.263589 	0.963976 	0.0103703 	-1.62383 	90.2196 	109.354 	-0.53125 	268.558 	360.715 	285.127 	453.579 	
20.7189 	-0.00451635 	-0.71055 	0.263589 	0.963976 	0.0103703 	-1.65874 	90.2182 	109.353 	-0.531641 	268.558 	360.715 	285.127 	455.592 	
20.8214 	-0.00451635 	-0.71055 	0.263589 	0.963976 	0.0103703 	-1.69364 	90.205 	109.353 	-0.531836 	268.558 	360.715 	285.127 	457.797 	
20.9245 	-0.00451635 	-0.71055 	0.263589 	0.963976 	0.0103703 	-1.72855 	90.2001 	109.353 	-0.531738 	268.558 	360.715 	285.127 	459.814 	
21.0275 	-0.00451635 	-0.71055 	0.263589 	0.963976 	0.0103703 	-1.76346 	90.2002 	109.353 	-0.531641 	268.558 	360.715 	285.127 	461.783 	
21.1302 	-0.00451635 	-0.71055 	0.263589 	0.963976 	0.0103703 	-1.79837 	90.2 	109.353 	-0.531641 	268.558 	360.715 	285.127 	464.012 	
21.2332 	-0.00451635 	-0.71055 	0.263589 	0.963976 	0.0103703 	-1.83328 	90.1937 	109.353 	-0.532031 	268.558 	360.715 	285.127 	466.007 	
21.3365 	-0.00451635 	-0.71055 	0.263589 	0.963976 	0.0103703 	-1.86819 	90.1929 	109.353 	-0.532031 	268.558 	360.715 	285.127 	467.992 	
21.4397 	-0.00451635 	-0.71055 	0.263589 	0.963976 	0.0103703 	-1.9031 	90.1931 	109.353 	-0.531836 	268.559 	360.715 	285.127 	469.99 	
21.5425 	-0.00451635 	-0.71055 	0.263589 	0.963976 	0.0103703 	-1.938 	90.1934 	109.353 	-0.531738 	268.559 	360.715 	285.127 	472.198 	
21.6457 	-0.00451635 	-0.71055 	0.263589 	0.963976 	0.0103703 	-1.97291 	90.1935 	109.352 	-0.531836 	268.559 	360.715 	285.127 	474.203 	
21.7486 	-0.00451635 	-0.71055 	0.263589 	0.963976 	0.0103703 	-2.00782 	90.1933 	109.352 	-0.531934 	268.559 	360.715 	285.127 	476.21 	
21.8518 	-0.00451635 	-0.71055 	0.263589 	0.963976 	0.0103703 	-2.04273 	90.193 	109.352 	-0.531934 	268.559 	360.715 	285.127 	478.401 	
21.9609 	-0.00451635 	-0.71055 	0.263589 	0.963976 	0.0103703 	-2.07764 	90.1932 	109.352 	-0.531836 	268.559 	360.715 	285.127 	480.611 	
22.0635 	-0.00451635 	-0.71055 	0.263589 	0.963976 	0.0103703 	-2.11255 	90.1929 	109.352 	-0.532031 	268.559 	360.715 	285.127 	482.601 	
22.1665 	-0.00451635 	-0.71055 	0.263589 	0.963976 	0.0103703 	-2.14746 	90.1924 	109.352 	-0.532129 	268.559 	360.715 	285.127 	484.586 	
22.2693 	-0.00451635 	-0.71055 	0.263589 	0.963976 	0.0103703 	-2.18237 	90.1914 	109.352 	-0.532031 	268.559 	360.715 	285.127 	486.597 	
22.3735 	-0.00451635 	-0.71055 	0.263589 	0.963976 	0.0103703 	-2.25218 	90.1914 	109.352 	-0.532031 	268.559 	360.715 	285.127 	488.797 	
22.4765 	-0.00451635 	-0.71055 	0.263589 	0.963976 	0.0103703 	-2.28709 	90.1913 	109.352 	-0.532031 	268.559 	360.715 	285.127 	490.801 	
22.5793 	-0.00451635 	-0.71055 	0.263589 	0.963976 	0.0103703 	-2.322 	90.1913 	109.352 	-0.532129 	268.559 	360.715 	285.127 	492.81 	
22.6822 	-0.00451635 	-0.71055 	0.263589 	0.963976 	0.0103703 	-2.35691 	90.1913 	109.352 	-0.532129 	268.559 	360.715 	285.127 	494.99 	
22.7858 	-0.00451635 	-0.71055 	0.263589 	0.963976 	0.0103703 	-2.39182 	90.1912 	109.352 	-0.532129 	268.559 	360.715 	285.127 	497.008 	
22.8926 	-0.00451635 	-0.71055 	0.263589 	0.963976 	0.0103703 	-2.42673 	90.1912 	109.352 	-0.532129 	268.559 	360.715 	285.127 	499.188 	
22.9956 	-0.00451635 	-0.71055 	0.263589 	0.963976 	0.0103703 	-2.46164 	90.1913 	109.352 	-0.532031 	268.559 	360.715 	285.127 	501.199 	
23.0983 	-0.00451635 	-0.71055 	0.263589 	0.963976 	0.0103703 	-2.49654 	90.1913 	109.352 	-0.532129 	268.559 	360.715 	285.127 	503.21 	
23.2004 	-0.00451635 	-0.71055 	0.263589 	0.963976 	0.0103703 	-2.53145 	90.1912 	109.353 	-0.532129 	268.559 	360.715 	285.128 	505.401 	
23.3023 	-0.00451635 	-0.71055 	0.263589 	0.963976 	0.0103703 	-2.56636 	90.1913 	109.353 	-0.532129 	268.559 	360.715 	285.128 	507.388 	
23.4056 	-0.00451635 	-0.71055 	0.263589 	0.963976 	0.0103703 	-2.60127 	90.1913 	109.353 	-0.532129 	268.559 	360.715 	285.128 	509.402 	
23.5087 	-0.00451635 	-0.71055 	0.263589 	0.963976 	0.0103703 	-2.63618 	90.1911 	109.353 	-0.532227 	268.559 	360.715 	285.128 	511.399 	
23.6117 	-0.00451635 	-0.71055 	0.263589 	0.963976 	0.0103703 	-2.67109 	90.1911 	109.352 	-0.532227 	268.559 	360.715 	285.128 	513.608 	
23.715 	-0.00451635 	-0.71055 	0.263589 	0.963976 	0.0103703 	-2.706 	90.1911 	109.352 	-0.532227 	268.559 	360.715 	285.128 	515.603 	
23.8177 	-0.00451635 	-0.71055 	0.263589 	0.963976 	0.0103703 	-2.74091 	90.1911 	109.352 	-0.532227 	268.559 	360.715 	285.128 	517.594 	
23.9207 	-0.00451635 	-0.71055 	0.263589 	0.963976 	0.0103703 	-2.77581 	90.1912 	109.352 	-0.532129 	268.559 	360.715 	285.128 	519.794 	
24.0237 	-0.00451635 	-0.71055 	0.263589 	0.963976 	0.0103703 	-2.81072 	90.1912 	109.352 	-0.532129 	268.559 	360.715 	285.128 	521.798 	
24.1266 	-0.00451635 	-0.71055 	0.263589 	0.963976 	0.0103703 	-2.84563 	90.1912 	109.353 	-0.532129 	268.559 	360.715 	285.128 	523.802 	
24.2297 	-0.00451635 	-0.71055 	0.263589 	0.963976 	0.0103703 	-2.88054 	90.1912 	109.352 	-0.532227 	268.559 	360.715 	285.128 	525.807 	
24.3329 	-0.00451635 	-0.71055 	0.263589 	0.963976 	0.0103703 	-2.91545 	90.1912 	109.352 	-0.532129 	268.559 	360.715 	285.128 	528.001 	
24.4357 	-0.00451635 	-0.71055 	0.263589 	0.963976 	0.0103703 	-2.95036 	90.1913 	109.352 	-0.532129 	268.559 	360.715 	285.128 	529.994 	
24.5389 	-0.00451635 	-0.71055 	0.263589 	0.963976 	0.0103703 	-2.98527 	90.1912 	109.352 	-0.532129 	268.559 	360.715 	285.128 	531.993 	
24.6419 	-0.00451635 	-0.71055 	0.263589 	0.963976 	0.0103703 	-3.02018 	90.1912 	109.352 	-0.532129 	268.559 	360.715 	285.128 	534.216 	
24.7448 	-0.00451635 	-0.71055 	0.263589 	0.963976 	0.0103703 	-3.05508 	90.1912 	109.352 	-0.532129 	268.559 	360.715 	285.128 	536.213 	
24.8478 	-0.00451635 	-0.71055 	0.263589 	0.963976 	0.0103703 	-3.08999 	90.1912 	109.352 	-0.532129 	268.559 	360.715 	285.128 	538.205 	
24.951 	-0.00451635 	-0.71055 	0.263589 	0.963976 	0.0103703 	-3.12141 	90.1912 	109.352 	-0.532129 	268.559 	360.715 	285.128 	539.53 	
25.058 	-0.00451635 	-0.71055 	0.263589 	0.963976 	0.0103703 	-3.12745 	90.1912 	109.352 	-0.532129 	268.559 	360.715 	285.128 	539.677 	
25.1607 	-0.00451635 	-0.71055 	0.263589 	0.963976 	0.0103703 	-3.12745 	90.1912 	109.352 	-0.532129 	268.559 	360.715 	285.128 	539.691 	
25.2654 	-0.00451635 	-0.71055 	0.263589 	0.963976 	0.0103703 	-3.12745 	90.1912 	109.352 	-0.532129 	268.559 	360.715 	285.128 	539.696 	
25.3697 	-0.00451635 	-0.71055 	0.263589 	0.963976 	0.0103703 	-3.12745 	90.1912 	109.352 	-0.532129 	268.559 	360.715 	285.128 	539.698 	
25.4736 	-0.00451635 	-0.71055 	0.263589 	0.963976 	0.0103703 	-3.12745 	90.1912 	109.352 	-0.532227 	268.559 	360.715 	285.128 	539.699 	
25.5575 	-0.00451635 	-0.71055 	0.263589 	0.963976 	0.0103703 	-3.12745 	90.1912 	109.352 	-0.532129 	268.559 	360.715 	285.128 	539.7 	
25.6607 	-0.00424063 	-0.710549 	0.26334 	0.964321 	0.0103627 	-3.12663 	90.1901 	109.188 	-0.534668 	268.559 	360.715 	285.128 	539.7 	
25.7636 	-0.00424052 	-0.710478 	0.259735 	0.969395 	0.0103583 	-3.12662 	90.1901 	109.081 	-0.534961 	268.56 	360.715 	285.128 	539.7 	
25.8695 	-0.00424052 	-0.710478 	0.259735 	0.969395 	0.0103583 	-3.12662 	90.1899 	109.07 	-0.535156 	268.56 	360.715 	285.128 	539.7 	
25.9736 	-0.00424052 	-0.710478 	0.259735 	0.969395 	0.0103583 	-3.12662 	90.1898 	109.07 	-0.535254 	268.56 	360.715 	285.128 	539.7 	
26.0756 	-0.00424052 	-0.710478 	0.259735 	0.969395 	0.0103583 	-3.12662 	90.1898 	109.07 	-0.535254 	268.56 	360.715 	285.128 	539.7 	
26.1576 	-0.00424052 	-0.710478 	0.259735 	0.969395 	0.0103583 	-3.12662 	90.1898 	109.07 	-0.535254 	268.56 	360.715 	285.128 	539.7 	
26.2607 	-0.00399011 	-0.710487 	0.259795 	0.969741 	0.010655 	-3.12608 	90.1869 	109.287 	-0.535449 	268.969 	360.715 	285.128 	539.7 	
26.3637 	-0.00394209 	-0.708467 	0.26576 	0.96974 	0.0108253 	-3.12603 	90.1851 	110.122 	-0.535742 	269.862 	360.715 	285.128 	539.7 	
26.4697 	-0.00388818 	-0.706062 	0.272499 	0.96974 	0.0110197 	-3.12598 	90.1838 	111.177 	-0.535937 	270.93 	360.715 	285.128 	539.7 	
26.5742 	-0.00378256 	-0.7009 	0.285846 	0.96974 	0.011411 	-3.12588 	90.1838 	112.161 	-0.535937 	271.931 	360.715 	285.128 	539.7 	
26.6765 	-0.00373088 	-0.698145 	0.29245 	0.969739 	0.0116078 	-3.12584 	90.1833 	113.171 	-0.536133 	272.925 	360.715 	285.128 	539.7 	
26.7786 	-0.00367997 	-0.695276 	0.299005 	0.969739 	0.0118053 	-3.1258 	90.1832 	114.257 	-0.536231 	273.935 	360.715 	285.128 	539.7 	
26.8804 	-0.00362984 	-0.692292 	0.305509 	0.969739 	0.0120034 	-3.12577 	90.1832 	115.276 	-0.536231 	275.03 	360.715 	285.128 	539.7 	
26.9826 	-0.00358052 	-0.689195 	0.31196 	0.969739 	0.0122021 	-3.12574 	90.1832 	116.262 	-0.536231 	276.03 	360.715 	285.128 	539.7 	
27.0847 	-0.00353204 	-0.686001 	0.318116 	0.970088 	0.0124011 	-3.12571 	90.1831 	117.264 	-0.536328 	277.026 	360.715 	285.128 	539.7 	
27.1924 	-0.00348519 	-0.683374 	0.31363 	0.985937 	0.0125903 	-3.12567 	90.1831 	117.703 	-0.536328 	278.127 	360.715 	285.128 	539.7 	
27.2946 	-0.00343928 	-0.680718 	0.308089 	1.00339 	0.0127791 	-3.12564 	90.1831 	117.726 	-0.536328 	279.134 	360.715 	285.128 	539.7 	
27.3967 	-0.00339426 	-0.677966 	0.302596 	1.02084 	0.0129685 	-3.1256 	90.1831 	117.734 	-0.536328 	280.135 	360.715 	285.128 	539.7 	
27.4994 	-0.00335012 	-0.675119 	0.297152 	1.0383 	0.0131584 	-3.12557 	90.1831 	117.737 	-0.536328 	281.241 	360.715 	285.128 	539.7 	
27.6018 	-0.00330689 	-0.672177 	0.291758 	1.05575 	0.0133489 	-3.12554 	90.1831 	117.737 	-0.536426 	282.242 	360.715 	285.128 	539.7 	
27.7047 	-0.00326457 	-0.669141 	0.286416 	1.0732 	0.0135399 	-3.12552 	90.1831 	117.737 	-0.536426 	283.242 	360.715 	285.128 	539.7 	
27.8079 	-0.00322318 	-0.666013 	0.281128 	1.09065 	0.0137312 	-3.1255 	90.1831 	117.737 	-0.536426 	284.252 	360.715 	285.128 	539.7 	
27.9111 	-0.00318274 	-0.662793 	0.275895 	1.10811 	0.0139229 	-3.12548 	90.1831 	117.737 	-0.536426 	285.358 	360.715 	285.128 	539.7 	
28.0138 	-0.00314325 	-0.659482 	0.27072 	1.12556 	0.0141148 	-3.12547 	90.1831 	117.737 	-0.536426 	286.354 	360.715 	285.128 	539.7 	
28.117 	-0.00310473 	-0.656081 	0.265603 	1.14301 	0.014307 	-3.12545 	90.1831 	117.737 	-0.536523 	287.364 	360.715 	285.128 	539.7 	
28.2201 	-0.00306719 	-0.652591 	0.260546 	1.16047 	0.0144993 	-3.12545 	90.183 	117.737 	-0.536523 	288.468 	360.715 	285.128 	539.7 	
28.3233 	-0.00303063 	-0.649014 	0.255551 	1.17792 	0.0146918 	-3.12544 	90.183 	117.737 	-0.536523 	289.47 	360.715 	285.128 	539.7 	
28.4263 	-0.00299508 	-0.64535 	0.250619 	1.19537 	0.0148843 	-3.12544 	90.1829 	117.737 	-0.536621 	290.473 	360.715 	285.128 	539.7 	
28.5291 	-0.00296055 	-0.641601 	0.245751 	1.21283 	0.0150767 	-3.12544 	90.1829 	117.737 	-0.536621 	291.481 	360.715 	285.128 	539.7 	
28.6317 	-0.00292703 	-0.637767 	0.24095 	1.23028 	0.0152691 	-3.12545 	90.1829 	117.737 	-0.536621 	292.581 	360.715 	285.128 	539.7 	
28.735 	-0.00289775 	-0.634245 	0.236687 	1.24599 	0.0154422 	-3.12546 	90.1829 	117.737 	-0.536621 	293.591 	360.715 	285.128 	539.7 	
28.8379 	-0.00286311 	-0.629851 	0.231552 	1.26519 	0.0156535 	-3.12547 	90.1829 	117.737 	-0.536621 	294.59 	360.715 	285.128 	539.7 	
28.9412 	-0.00283272 	-0.625771 	0.226958 	1.28264 	0.0158453 	-3.12549 	90.1829 	117.737 	-0.536719 	295.695 	360.715 	285.128 	539.7 	
29.0443 	-0.00280339 	-0.621611 	0.222436 	1.30009 	0.0160368 	-3.12551 	90.1829 	117.737 	-0.536719 	296.703 	360.715 	285.128 	539.7 	
29.1471 	-0.00277791 	-0.617801 	0.218429 	1.3158 	0.0162089 	-3.12553 	90.1829 	117.737 	-0.536816 	297.704 	360.715 	285.128 	539.7 	
29.2504 	-0.00274796 	-0.613058 	0.213614 	1.335 	0.0164187 	-3.12556 	90.1828 	117.737 	-0.536914 	298.807 	360.715 	285.128 	539.7 	
29.3582 	-0.00272187 	-0.608668 	0.209315 	1.35246 	0.016609 	-3.12558 	90.1829 	117.737 	-0.536914 	299.811 	360.715 	285.128 	539.7 	
29.461 	-0.00269688 	-0.604203 	0.205095 	1.36991 	0.0167987 	-3.12562 	90.1829 	117.737 	-0.536914 	300.914 	360.715 	285.128 	539.7 	
29.5639 	-0.00267299 	-0.599665 	0.200952 	1.38736 	0.0169878 	-3.12565 	90.1828 	117.737 	-0.537012 	301.917 	360.715 	285.128 	539.7 	
29.6709 	-0.00262854 	-0.590376 	0.192908 	1.42227 	0.017364 	-3.12573 	90.1828 	117.737 	-0.537012 	303.021 	360.715 	285.128 	539.7 	
29.7739 	-0.002608 	-0.585628 	0.189009 	1.43973 	0.017551 	-3.12578 	90.1828 	117.737 	-0.537012 	304.023 	360.715 	285.128 	539.7 	
29.876 	-0.00258859 	-0.580812 	0.185194 	1.45718 	0.0177372 	-3.12583 	90.1828 	117.737 	-0.537012 	305.035 	360.715 	285.128 	539.7 	
29.9789 	-0.00257032 	-0.57593 	0.181462 	1.47463 	0.0179224 	-3.12588 	90.1828 	117.737 	-0.537012 	306.034 	360.715 	285.128 	539.7 	
30.0818 	-0.00255319 	-0.570985 	0.177817 	1.49209 	0.0181068 	-3.12594 	90.1828 	117.737 	-0.537012 	307.144 	360.715 	285.128 	539.7 	
30.1837 	-0.00253721 	-0.565976 	0.174259 	1.50954 	0.0182901 	-3.126 	90.1828 	117.737 	-0.537012 	308.149 	360.715 	285.128 	539.7 	
30.2857 	-0.00252237 	-0.560906 	0.170788 	1.527 	0.0184724 	-3.12606 	90.1828 	117.737 	-0.537012 	309.147 	360.715 	285.128 	539.7 	
30.3927 	-0.0025087 	-0.555776 	0.167407 	1.54445 	0.0186536 	-3.12612 	90.1828 	117.737 	-0.537012 	310.259 	360.715 	285.128 	539.7 	
30.4947 	-0.00249618 	-0.550587 	0.164116 	1.56191 	0.0188336 	-3.12619 	90.1828 	117.737 	-0.537012 	311.266 	360.715 	285.128 	539.7 	
30.5968 	-0.00248483 	-0.545343 	0.160915 	1.57936 	0.0190124 	-3.12626 	90.1828 	117.737 	-0.537012 	312.256 	360.715 	285.128 	539.7 	
30.6988 	-0.00247464 	-0.540043 	0.157807 	1.59682 	0.0191899 	-3.12634 	90.1828 	117.737 	-0.537012 	313.26 	360.715 	285.128 	539.7 	
30.8008 	-0.00246563 	-0.534689 	0.154792 	1.61427 	0.0193661 	-3.12641 	90.1828 	117.737 	-0.537109 	314.366 	360.715 	285.128 	539.7 	
30.9027 	-0.00245779 	-0.529284 	0.15187 	1.63173 	0.0195409 	-3.12649 	90.1828 	117.736 	-0.537109 	315.37 	360.715 	285.128 	539.7 	
31.0051 	-0.00245113 	-0.523829 	0.149043 	1.64918 	0.0197143 	-3.12658 	90.1828 	117.736 	-0.537109 	316.376 	360.715 	285.128 	539.7 	
31.0289 	-0.00245113 	-0.523829 	0.149043 	1.64918 	0.0197143 	-3.12658 	90.1828 	117.736 	-0.537207 	316.583 	360.715 	285.128 	539.7 	
31.1321 	-0.00255863 	-0.520421 	0.147339 	1.66 	0.0196086 	-3.12689 	90.1829 	117.736 	-0.537207 	316.954 	360.715 	285.128 	539.7 	
31.2352 	-0.00256605 	-0.526125 	0.150219 	1.64185 	0.0194288 	-3.12681 	90.1829 	117.735 	-0.537207 	316.254 	360.715 	285.128 	539.7 	
31.3382 	-0.00257348 	-0.531018 	0.152794 	1.62614 	0.0192721 	-3.12674 	90.1829 	117.735 	-0.537207 	315.315 	360.715 	285.128 	539.7 	
31.4411 	-0.00258385 	-0.536943 	0.156046 	1.60694 	0.019079 	-3.12665 	90.1829 	117.735 	-0.537207 	314.221 	360.715 	285.128 	539.7 	
31.5442 	-0.00259449 	-0.542274 	0.159101 	1.58949 	0.0189022 	-3.12658 	90.1829 	117.735 	-0.537207 	313.217 	360.715 	285.128 	539.7 	
31.6474 	-0.00260629 	-0.547551 	0.162248 	1.57203 	0.0187241 	-3.12651 	90.1829 	117.735 	-0.537207 	312.22 	360.715 	285.128 	539.7 	
31.7507 	-0.0026179 	-0.552253 	0.165159 	1.55632 	0.0185628 	-3.12645 	90.1829 	117.736 	-0.537207 	311.106 	360.715 	285.128 	539.7 	
31.8591 	-0.00263189 	-0.557423 	0.168479 	1.53887 	0.0183824 	-3.12639 	90.1829 	117.736 	-0.537207 	310.109 	360.715 	285.128 	539.7 	
31.9612 	-0.00264861 	-0.563042 	0.172235 	1.51967 	0.0182011 	-3.12633 	90.1829 	117.736 	-0.537207 	309.002 	360.715 	285.128 	539.7 	
32.065 	-0.002665 	-0.568086 	0.175743 	1.50221 	0.0180003 	-3.12627 	90.1829 	117.736 	-0.537207 	307.995 	360.715 	285.128 	539.7 	
32.17 	-0.00268253 	-0.573069 	0.179338 	1.48476 	0.0178169 	-3.12621 	90.1828 	117.736 	-0.537305 	306.883 	360.715 	285.128 	539.7 	
32.2729 	-0.00270119 	-0.577988 	0.183019 	1.4673 	0.0176325 	-3.12616 	90.1828 	117.736 	-0.537305 	305.879 	360.715 	285.128 	539.7 	
32.3762 	-0.00274188 	-0.58763 	0.190637 	1.4324 	0.0172612 	-3.12607 	90.1828 	117.736 	-0.537305 	304.882 	360.715 	285.128 	539.7 	
32.4789 	-0.00276165 	-0.59188 	0.194173 	1.41669 	0.0170932 	-3.12603 	90.1828 	117.736 	-0.537402 	303.874 	360.715 	285.128 	539.7 	
32.581 	-0.00278703 	-0.597 	0.198586 	1.39749 	0.016887 	-3.12599 	90.1828 	117.736 	-0.537402 	302.765 	360.715 	285.128 	539.7 	
32.6827 	-0.00280878 	-0.601124 	0.202269 	1.38178 	0.0167178 	-3.12596 	90.1828 	117.736 	-0.537402 	301.769 	360.715 	285.128 	539.7 	
32.7852 	-0.00283657 	-0.606086 	0.206858 	1.36258 	0.0165103 	-3.12593 	90.1828 	117.736 	-0.5375 	300.757 	360.715 	285.128 	539.7 	
32.8932 	-0.00286297 	-0.61052 	0.211111 	1.34513 	0.0163212 	-3.1259 	90.1828 	117.736 	-0.537598 	299.649 	360.715 	285.128 	539.7 	
32.9958 	-0.00288765 	-0.614447 	0.215005 	1.32942 	0.0161506 	-3.12588 	90.1828 	117.736 	-0.537598 	298.653 	360.715 	285.128 	539.7 	
33.0993 	-0.00291899 	-0.619162 	0.219847 	1.31022 	0.0159416 	-3.12586 	90.1828 	117.736 	-0.537598 	297.655 	360.715 	285.128 	539.7 	
33.2021 	-0.00294859 	-0.623367 	0.224327 	1.29277 	0.0157513 	-3.12584 	90.1828 	117.736 	-0.537695 	296.545 	360.715 	285.128 	539.7 	
33.3051 	-0.00297613 	-0.627084 	0.22842 	1.27706 	0.0155797 	-3.12582 	90.1828 	117.736 	-0.537793 	295.535 	360.715 	285.128 	539.7 	
33.4073 	-0.00301094 	-0.631539 	0.233503 	1.25786 	0.0153698 	-3.12581 	90.1828 	117.736 	-0.537793 	294.54 	360.715 	285.128 	539.7 	
33.5099 	-0.00304367 	-0.635504 	0.238196 	1.24041 	0.0151788 	-3.12581 	90.1828 	117.736 	-0.537793 	293.428 	360.715 	285.128 	539.7 	
33.6123 	-0.00307741 	-0.639386 	0.242958 	1.22295 	0.0149877 	-3.1258 	90.1828 	117.737 	-0.537793 	292.436 	360.715 	285.128 	539.7 	
33.715 	-0.00311217 	-0.643185 	0.247787 	1.2055 	0.0147966 	-3.1258 	90.1828 	117.737 	-0.537793 	291.422 	360.715 	285.128 	539.7 	
33.8174 	-0.00314431 	-0.646531 	0.25219 	1.18979 	0.0146246 	-3.1258 	90.1828 	117.737 	-0.537793 	290.416 	360.715 	285.128 	539.7 	
33.9203 	-0.00318468 	-0.650526 	0.257641 	1.17059 	0.0144144 	-3.12581 	90.1828 	117.737 	-0.537793 	289.313 	360.715 	285.128 	539.7 	
34.0234 	-0.0032224 	-0.654067 	0.262662 	1.15314 	0.0142235 	-3.12582 	90.1828 	117.737 	-0.537891 	288.308 	360.715 	285.128 	539.7 	
34.1267 	-0.00325718 	-0.657178 	0.267233 	1.13743 	0.0140518 	-3.12583 	90.1828 	117.737 	-0.537891 	287.311 	360.715 	285.128 	539.7 	
34.2293 	-0.00330074 	-0.660883 	0.272886 	1.11823 	0.0138423 	-3.12585 	90.1828 	117.737 	-0.537891 	286.299 	360.715 	285.128 	539.7 	
34.3325 	-0.00334133 	-0.664156 	0.278086 	1.10078 	0.0136521 	-3.12586 	90.1828 	117.737 	-0.537891 	285.2 	360.715 	285.128 	539.7 	
34.4354 	-0.00338285 	-0.667337 	0.283342 	1.08333 	0.0134623 	-3.12589 	90.1828 	117.737 	-0.537988 	284.192 	360.715 	285.128 	539.7 	
34.5387 	-0.003421 	-0.670122 	0.288119 	1.06762 	0.0132918 	-3.12591 	90.1828 	117.737 	-0.537988 	283.186 	360.715 	285.128 	539.7 	
34.6415 	-0.00346426 	-0.673128 	0.293478 	1.05017 	0.0131028 	-3.12594 	90.1828 	117.737 	-0.537988 	282.085 	360.715 	285.128 	539.7 	
34.7445 	-0.0035084 	-0.67604 	0.298888 	1.03271 	0.0129144 	-3.12597 	90.1828 	117.738 	-0.537988 	281.085 	360.715 	285.128 	539.7 	
34.8476 	-0.00355343 	-0.678856 	0.304348 	1.01526 	0.0127265 	-3.12601 	90.1828 	117.738 	-0.537988 	280.08 	360.715 	285.128 	539.7 	
34.9505 	-0.00359932 	-0.681577 	0.309857 	0.997808 	0.0125393 	-3.12604 	90.1828 	117.738 	-0.537988 	278.974 	360.715 	285.128 	539.7 	
35.0586 	-0.00364606 	-0.684202 	0.315412 	0.980355 	0.0123528 	-3.12609 	90.1828 	117.738 	-0.537988 	277.959 	360.715 	285.128 	539.7 	
35.1613 	-0.00369844 	-0.686977 	0.321575 	0.961157 	0.0121485 	-3.12614 	90.1828 	117.738 	-0.537988 	276.868 	360.715 	285.128 	539.7 	
35.2653 	-0.00374693 	-0.689396 	0.327223 	0.943704 	0.0119636 	-3.12618 	90.1828 	117.739 	-0.538086 	275.858 	360.715 	285.128 	539.7 	
35.3703 	-0.00379622 	-0.691716 	0.332912 	0.926251 	0.0117796 	-3.12624 	90.1828 	117.739 	-0.538086 	274.753 	360.715 	285.128 	539.7 	
35.4744 	-0.00389716 	-0.696057 	0.344407 	0.891346 	0.0114145 	-3.12635 	90.1828 	117.739 	-0.538086 	273.743 	360.715 	285.128 	539.7 	
35.5773 	-0.00394878 	-0.698076 	0.350209 	0.873893 	0.0112334 	-3.12641 	90.1828 	117.744 	-0.538086 	272.74 	360.715 	285.128 	539.7 	
35.6804 	-0.00400115 	-0.699994 	0.356046 	0.856441 	0.0110535 	-3.12647 	90.1828 	117.748 	-0.538086 	271.641 	360.715 	285.128 	539.7 	
35.7835 	-0.00405425 	-0.701809 	0.361916 	0.838989 	0.0108747 	-3.12654 	90.1828 	117.749 	-0.538086 	270.638 	360.715 	285.128 	539.7 	
35.887 	-0.00410806 	-0.703522 	0.367816 	0.821536 	0.0106972 	-3.12661 	90.1827 	117.751 	-0.538281 	269.629 	360.715 	285.128 	539.7 	
35.992 	-0.00415708 	-0.704975 	0.373152 	0.805828 	0.0105384 	-3.12668 	90.1776 	117.757 	-0.538867 	268.518 	360.715 	285.128 	539.7 	
36.0944 	-0.0042122 	-0.706492 	0.379105 	0.788376 	0.0103633 	-3.12676 	90.1756 	117.758 	-0.539062 	267.517 	360.715 	285.128 	539.7 	
36.1974 	-0.00426798 	-0.707904 	0.385085 	0.770923 	0.0101896 	-3.12684 	90.1748 	117.758 	-0.538867 	266.519 	360.715 	285.128 	539.7 	
36.3005 	-0.00432441 	-0.709211 	0.391088 	0.753471 	0.0100172 	-3.12692 	90.1744 	117.758 	-0.53916 	265.425 	360.715 	285.128 	539.7 	
36.4034 	-0.00438148 	-0.710414 	0.397113 	0.736018 	0.00984633 	-3.127 	90.1747 	117.76 	-0.538965 	264.419 	360.715 	285.128 	539.7 	
36.5065 	-0.00444496 	-0.711615 	0.403764 	0.71682 	0.00966012 	-3.1271 	90.1738 	117.776 	-0.539062 	263.404 	360.715 	285.128 	539.7 	
36.6096 	-0.00449743 	-0.712503 	0.409222 	0.701113 	0.00950918 	-3.12718 	90.1735 	117.797 	-0.53916 	262.395 	360.715 	285.128 	539.7 	
36.7124 	-0.00455628 	-0.713388 	0.415301 	0.683661 	0.00934302 	-3.12728 	90.1727 	117.797 	-0.539355 	261.313 	360.715 	285.128 	539.7 	
36.8156 	-0.00461569 	-0.714167 	0.421396 	0.666209 	0.00917854 	-3.12738 	90.1664 	117.797 	-0.539648 	260.307 	360.715 	285.128 	539.7 	
36.9187 	-0.00468167 	-0.714901 	0.428114 	0.647011 	0.00899959 	-3.12749 	90.1652 	117.797 	-0.539648 	259.3 	360.715 	285.128 	539.7 	
37.0217 	-0.00473612 	-0.715406 	0.43362 	0.631304 	0.00885478 	-3.12758 	90.1644 	117.797 	-0.539746 	258.21 	360.715 	285.128 	539.7 	
37.1247 	-0.00480323 	-0.715905 	0.44036 	0.612106 	0.0086798 	-3.1277 	90.1602 	117.797 	-0.539746 	257.185 	360.715 	285.128 	539.7 	
37.2276 	-0.00485857 	-0.716218 	0.445881 	0.596399 	0.00853832 	-3.12779 	90.1596 	117.798 	-0.539746 	256.193 	360.715 	285.128 	539.7 	
37.3308 	-0.00492673 	-0.716481 	0.452634 	0.577202 	0.00836751 	-3.12792 	90.1596 	117.798 	-0.539746 	255.095 	360.715 	285.128 	539.7 	
37.4335 	-0.00498916 	-0.716608 	0.458776 	0.559749 	0.0082143 	-3.12803 	90.1597 	117.798 	-0.539648 	254.091 	360.715 	285.127 	539.7 	
37.5366 	-0.00505202 	-0.716628 	0.46492 	0.542297 	0.0080631 	-3.12815 	90.1596 	117.798 	-0.539746 	253.082 	360.715 	285.127 	539.7 	
37.6396 	-0.00510894 	-0.716555 	0.470449 	0.52659 	0.00792879 	-3.12826 	90.1594 	117.798 	-0.539746 	252.073 	360.715 	285.127 	539.7 	
37.7425 	-0.00517256 	-0.716371 	0.47659 	0.509138 	0.00778155 	-3.12838 	90.1593 	117.798 	-0.539746 	250.977 	360.715 	285.127 	539.7 	
37.8457 	-0.00524298 	-0.716045 	0.483341 	0.48994 	0.00762208 	-3.12851 	90.1591 	117.798 	-0.539746 	249.98 	360.715 	285.127 	539.7 	
37.9486 	-0.0053009 	-0.715682 	0.488858 	0.474233 	0.00749358 	-3.12863 	90.159 	117.799 	-0.539746 	248.975 	360.715 	285.127 	539.7 	
38.0518 	-0.00536558 	-0.715177 	0.494981 	0.45678 	0.00735292 	-3.12876 	90.159 	117.799 	-0.539746 	247.872 	360.715 	285.127 	539.7 	
38.1545 	-0.00543709 	-0.714498 	0.501705 	0.437583 	0.00720083 	-3.1289 	90.159 	117.799 	-0.539746 	246.882 	360.715 	285.127 	539.7 	
38.2579 	-0.00550241 	-0.713769 	0.507806 	0.42013 	0.00706502 	-3.12904 	90.159 	117.799 	-0.539746 	245.873 	360.715 	285.127 	539.7 	
38.3605 	-0.00556799 	-0.712934 	0.513892 	0.402678 	0.00693157 	-3.12917 	90.159 	117.799 	-0.539746 	244.775 	360.715 	285.127 	539.7 	
38.4634 	-0.00563383 	-0.711992 	0.519964 	0.385226 	0.00680053 	-3.12931 	90.1589 	117.799 	-0.539746 	243.762 	360.715 	285.126 	539.7 	
38.5694 	-0.00569991 	-0.710945 	0.526018 	0.367773 	0.00667193 	-3.12945 	90.1588 	117.799 	-0.539746 	242.764 	360.715 	285.126 	539.7 	
38.6726 	-0.00575955 	-0.709912 	0.53145 	0.352066 	0.00655833 	-3.12958 	90.1586 	117.8 	-0.539746 	241.658 	360.715 	285.126 	539.7 	
38.7763 	-0.00589931 	-0.707171 	0.544057 	0.315416 	0.00630123 	-3.12989 	90.1585 	117.8 	-0.539746 	240.659 	360.715 	285.126 	539.7 	
38.8786 	-0.00595942 	-0.705856 	0.549428 	0.299709 	0.00619454 	-3.13003 	90.1586 	117.8 	-0.539746 	239.666 	360.715 	285.126 	539.7 	
38.9808 	-0.00602634 	-0.704295 	0.55537 	0.282257 	0.00607849 	-3.13018 	90.1585 	117.8 	-0.539746 	238.562 	360.715 	285.126 	539.7 	
39.0837 	-0.00610008 	-0.702459 	0.561874 	0.263059 	0.00595392 	-3.13035 	90.1585 	117.8 	-0.539746 	237.56 	360.715 	285.126 	539.7 	
39.1869 	-0.00616049 	-0.700864 	0.567168 	0.247352 	0.00585444 	-3.13049 	90.1585 	117.8 	-0.539746 	236.552 	360.715 	285.126 	539.7 	
39.2927 	-0.0062344 	-0.698801 	0.573604 	0.228154 	0.00573586 	-3.13066 	90.1585 	117.8 	-0.539746 	235.452 	360.715 	285.125 	539.7 	
39.3956 	-0.00629493 	-0.697023 	0.578839 	0.212447 	0.00564133 	-3.13081 	90.1585 	117.8 	-0.539746 	234.458 	360.715 	285.125 	539.7 	
39.4986 	-0.0063622 	-0.69495 	0.584623 	0.194995 	0.00553897 	-3.13097 	90.1585 	117.8 	-0.539746 	233.457 	360.715 	285.125 	539.7 	
39.6016 	-0.00642949 	-0.692777 	0.59037 	0.177542 	0.00543943 	-3.13113 	90.1585 	117.801 	-0.539746 	232.355 	360.715 	285.125 	539.7 	
39.7045 	-0.00650348 	-0.69027 	0.596646 	0.158344 	0.00533325 	-3.13131 	90.1585 	117.801 	-0.539746 	231.35 	360.715 	285.125 	539.7 	
39.8068 	-0.006564 	-0.688131 	0.601745 	0.142637 	0.00524898 	-3.13146 	90.1585 	117.801 	-0.539746 	230.357 	360.715 	285.125 	539.7 	
39.9096 	-0.00663791 	-0.685407 	0.60793 	0.12344 	0.0051492 	-3.13165 	90.1585 	117.801 	-0.539746 	229.348 	360.715 	285.125 	539.7 	
40.0131 	-0.00669831 	-0.683091 	0.61295 	0.107733 	0.00507021 	-3.1318 	90.1584 	117.801 	-0.539746 	228.245 	360.715 	285.125 	539.7 	
40.1157 	-0.00677204 	-0.680153 	0.619037 	0.0885348 	0.00497695 	-3.13199 	90.1584 	117.801 	-0.539746 	227.247 	360.715 	285.124 	539.7 	
40.219 	-0.00683225 	-0.677662 	0.623974 	0.0728276 	0.00490334 	-3.13214 	90.1583 	117.801 	-0.539746 	226.258 	360.715 	285.124 	539.7 	
40.3216 	-0.00690571 	-0.674514 	0.629954 	0.0536299 	0.00481671 	-3.13234 	90.1582 	117.801 	-0.539746 	225.146 	360.715 	285.124 	539.7 	
40.425 	-0.00696566 	-0.671853 	0.634801 	0.0379226 	0.00474858 	-3.13249 	90.158 	117.801 	-0.539746 	224.155 	360.715 	285.124 	539.7 	
40.5276 	-0.00703875 	-0.668498 	0.640667 	0.018725 	0.00466869 	-3.13269 	90.1579 	117.801 	-0.539746 	223.152 	360.715 	285.124 	539.7 	
40.6308 	-0.00709838 	-0.665669 	0.645418 	0.00301784 	0.00460611 	-3.13285 	90.1579 	117.801 	-0.539746 	222.053 	360.715 	285.124 	539.7 	
40.7337 	-0.00716443 	-0.662439 	0.650644 	-0.0144346 	0.00453953 	-3.13303 	90.1579 	117.802 	-0.539746 	221.041 	360.715 	285.123 	539.7 	
40.8369 	-0.00723024 	-0.659118 	0.655814 	-0.0318872 	0.0044761 	-3.13321 	90.1576 	117.802 	-0.539746 	220.056 	360.715 	285.123 	539.7 	
40.9398 	-0.0072958 	-0.655708 	0.660924 	-0.0493397 	0.00441582 	-3.13339 	90.1572 	117.802 	-0.539746 	219.049 	360.715 	285.123 	539.7 	
41.0429 	-0.00736108 	-0.652209 	0.665974 	-0.0667923 	0.00435872 	-3.13357 	90.1571 	117.802 	-0.539746 	217.948 	360.715 	285.122 	539.7 	
41.1458 	-0.00742607 	-0.648622 	0.670962 	-0.0842448 	0.00430481 	-3.13375 	90.1566 	117.802 	-0.539746 	216.948 	360.715 	285.122 	539.7 	
41.2488 	-0.00749074 	-0.644948 	0.675887 	-0.101697 	0.0042541 	-3.13394 	90.1566 	117.802 	-0.539746 	215.952 	360.715 	285.122 	539.7 	
41.352 	-0.00755509 	-0.64119 	0.680747 	-0.11915 	0.00420662 	-3.13412 	90.1565 	117.802 	-0.539746 	214.845 	360.715 	285.121 	539.7 	
41.4592 	-0.00762545 	-0.636958 	0.686016 	-0.138348 	0.00415813 	-3.13433 	90.1565 	117.802 	-0.539746 	213.846 	360.715 	285.119 	539.7 	
41.5618 	-0.00768903 	-0.633024 	0.690735 	-0.1558 	0.00411747 	-3.13452 	90.1565 	117.802 	-0.539746 	212.75 	360.715 	285.079 	539.7 	
41.6646 	-0.00774591 	-0.629413 	0.694923 	-0.171507 	0.00408367 	-3.13468 	90.1565 	117.802 	-0.539746 	211.748 	360.715 	285.061 	539.7 	
41.7686 	-0.00787111 	-0.621156 	0.704023 	-0.206413 	0.00401805 	-3.13506 	90.1565 	117.802 	-0.539746 	210.755 	360.715 	285.056 	539.7 	
41.8718 	-0.00793304 	-0.61691 	0.708463 	-0.223865 	0.00399019 	-3.13525 	90.1565 	117.802 	-0.539746 	209.651 	360.715 	285.054 	539.7 	
41.9757 	-0.0079945 	-0.612587 	0.712829 	-0.241318 	0.00396562 	-3.13544 	90.1562 	117.802 	-0.539746 	208.648 	360.715 	285.053 	539.7 	
42.0775 	-0.00806155 	-0.607745 	0.717543 	-0.260515 	0.00394243 	-3.13565 	90.1562 	117.802 	-0.539746 	207.656 	360.715 	285.053 	539.7 	
42.1798 	-0.00811595 	-0.603716 	0.72133 	-0.276223 	0.00392644 	-3.13582 	90.1562 	117.802 	-0.539746 	206.653 	360.715 	285.052 	539.7 	
42.2825 	-0.0081759 	-0.59917 	0.725463 	-0.293675 	0.00391183 	-3.13601 	90.1562 	117.802 	-0.539746 	205.558 	360.715 	285.05 	539.7 	
42.3852 	-0.0082353 	-0.594553 	0.729517 	-0.311128 	0.00390055 	-3.1362 	90.1562 	117.802 	-0.539746 	204.555 	360.715 	285.049 	539.7 	
42.4925 	-0.00829414 	-0.589866 	0.733489 	-0.32858 	0.0038926 	-3.13639 	90.156 	117.802 	-0.539746 	203.454 	360.715 	285.048 	539.7 	
42.5946 	-0.00835241 	-0.58511 	0.737379 	-0.346033 	0.00388798 	-3.13658 	90.156 	117.802 	-0.539746 	202.454 	360.715 	285.047 	539.7 	
42.6967 	-0.00841008 	-0.580287 	0.741185 	-0.363486 	0.0038867 	-3.13677 	90.156 	117.802 	-0.539746 	201.458 	360.715 	285.043 	539.7 	
42.7997 	-0.00846713 	-0.575399 	0.744907 	-0.380938 	0.00388876 	-3.13697 	90.156 	117.802 	-0.539746 	200.46 	360.715 	285.036 	539.7 	
42.9028 	-0.00852356 	-0.570446 	0.748542 	-0.398391 	0.00389415 	-3.13716 	90.156 	117.802 	-0.539746 	199.365 	360.715 	285.033 	539.7 	
43.0062 	-0.00857933 	-0.56543 	0.752091 	-0.415843 	0.00390287 	-3.13735 	90.156 	117.802 	-0.539746 	198.352 	360.715 	285.032 	539.7 	
43.1089 	-0.00863444 	-0.560354 	0.755551 	-0.433296 	0.00391493 	-3.13754 	90.1561 	117.802 	-0.539746 	197.371 	360.715 	285.031 	539.7 	
43.2118 	-0.00868887 	-0.555217 	0.758922 	-0.450748 	0.00393031 	-3.13773 	90.1561 	117.802 	-0.539746 	196.263 	360.715 	285.03 	539.7 	
43.3148 	-0.0087426 	-0.550023 	0.762204 	-0.468201 	0.00394902 	-3.13792 	90.1561 	117.802 	-0.539746 	195.268 	360.715 	285.028 	539.7 	
43.4179 	-0.00879561 	-0.544772 	0.765394 	-0.485654 	0.00397104 	-3.13811 	90.1552 	117.802 	-0.539746 	194.266 	360.715 	285.027 	539.7 	
43.5207 	-0.0088479 	-0.539466 	0.768492 	-0.503106 	0.00399637 	-3.1383 	90.156 	117.802 	-0.539746 	193.184 	360.715 	285.025 	539.7 	
43.6238 	-0.00889943 	-0.534107 	0.771496 	-0.520559 	0.00402501 	-3.13849 	90.1526 	117.802 	-0.539746 	192.167 	360.715 	285.02 	539.7 	
43.7271 	-0.00895021 	-0.528697 	0.774407 	-0.538011 	0.00405693 	-3.13868 	90.1525 	117.802 	-0.539746 	191.17 	360.715 	284.998 	539.7 	
43.8298 	-0.0090002 	-0.523236 	0.777223 	-0.555464 	0.00409215 	-3.13886 	90.1525 	117.802 	-0.539746 	190.172 	360.715 	284.99 	539.7 	
43.9329 	-0.0090494 	-0.517727 	0.779943 	-0.572916 	0.00413063 	-3.13905 	90.1523 	117.802 	-0.539746 	189.076 	360.715 	284.984 	539.7 	
44.0359 	-0.00909779 	-0.512171 	0.782567 	-0.590369 	0.00417238 	-3.13924 	90.1524 	117.802 	-0.539746 	188.071 	360.715 	284.979 	539.7 	
44.1389 	-0.00914536 	-0.506571 	0.785093 	-0.607821 	0.00421737 	-3.13942 	90.1523 	117.802 	-0.539746 	187.073 	360.715 	284.975 	539.7 	
44.242 	-0.0091921 	-0.500927 	0.787522 	-0.625274 	0.0042656 	-3.13961 	90.1523 	117.802 	-0.539746 	185.976 	360.715 	284.97 	539.7 	
44.3451 	-0.00923798 	-0.495242 	0.789851 	-0.642726 	0.00431705 	-3.13979 	90.1523 	117.802 	-0.539746 	184.979 	360.715 	284.965 	539.701 	
44.448 	-0.00928299 	-0.489516 	0.792081 	-0.660179 	0.00437171 	-3.13998 	90.1524 	117.802 	-0.539746 	183.985 	360.715 	284.957 	539.701 	
44.5512 	-0.00932712 	-0.483753 	0.79421 	-0.677631 	0.00442955 	-3.14016 	90.1524 	117.802 	-0.539746 	182.891 	360.715 	284.948 	539.701 	
44.6581 	-0.00937037 	-0.477954 	0.796239 	-0.695084 	0.00449057 	-3.14034 	90.1523 	117.802 	-0.539746 	181.891 	360.715 	284.943 	539.701 	
44.7613 	-0.00941688 	-0.471534 	0.798353 	-0.714282 	0.00456132 	-3.14054 	90.1523 	117.802 	-0.539746 	180.8 	360.715 	284.937 	539.701 	
44.8659 	-0.0094582 	-0.465665 	0.800167 	-0.731734 	0.00462894 	-3.14072 	90.1523 	117.802 	-0.539746 	179.795 	360.715 	284.928 	539.701 	
44.9699 	-0.00949859 	-0.459764 	0.801879 	-0.749187 	0.00469966 	-3.14089 	90.1523 	117.802 	-0.539746 	178.796 	360.715 	284.92 	539.701 	
45.0727 	-0.00953414 	-0.454428 	0.803332 	-0.764894 	0.00476594 	-3.14105 	90.1523 	117.802 	-0.539746 	177.698 	360.715 	284.913 	539.701 	
45.1757 	-0.00961034 	-0.442494 	0.806258 	-0.799799 	0.00492213 	-3.1414 	90.1522 	117.802 	-0.539746 	176.697 	360.715 	284.909 	539.701 	
45.2777 	-0.00964697 	-0.436491 	0.807565 	-0.817251 	0.00500476 	-3.14157 	90.1523 	117.802 	-0.539746 	175.698 	360.715 	284.907 	539.701 	
45.3798 	-0.00968262 	-0.430465 	0.808767 	-0.834704 	0.00509039 	3.14144 	90.1524 	117.802 	-0.539746 	174.706 	360.715 	284.904 	539.701 	
45.4818 	-0.00971726 	-0.42442 	0.809863 	-0.852156 	0.00517899 	3.14127 	90.1523 	117.802 	-0.539746 	173.606 	360.715 	284.901 	539.701 	
45.5838 	-0.00975089 	-0.418356 	0.810854 	-0.869609 	0.00527053 	3.1411 	90.1523 	117.802 	-0.539746 	172.611 	360.715 	284.899 	539.701 	
45.6859 	-0.0097835 	-0.412276 	0.811738 	-0.887061 	0.00536498 	3.14094 	90.1523 	117.802 	-0.539844 	171.627 	360.715 	284.898 	539.701 	
45.793 	-0.00981508 	-0.406181 	0.812517 	-0.904513 	0.00546232 	3.14077 	90.1523 	117.802 	-0.539844 	170.532 	360.715 	284.896 	539.701 	
45.896 	-0.00984561 	-0.400074 	0.813188 	-0.921966 	0.00556252 	3.14061 	90.1523 	117.802 	-0.539844 	169.529 	360.715 	284.893 	539.701 	
45.9988 	-0.0098751 	-0.393956 	0.813754 	-0.939418 	0.00566554 	3.14045 	90.1523 	117.802 	-0.539844 	168.538 	360.715 	284.887 	539.701 	
46.101 	-0.00990352 	-0.387829 	0.814212 	-0.956871 	0.00577135 	3.14029 	90.1523 	117.802 	-0.539844 	167.434 	360.715 	284.881 	539.701 	
46.204 	-0.00993088 	-0.381695 	0.814563 	-0.974323 	0.00587993 	3.14013 	90.1523 	117.802 	-0.539844 	166.436 	360.715 	284.872 	539.701 	
46.3071 	-0.00995716 	-0.375556 	0.814808 	-0.991776 	0.00599124 	3.13998 	90.1523 	117.802 	-0.539844 	165.435 	360.715 	284.864 	539.701 	
46.4103 	-0.00998235 	-0.369413 	0.814945 	-1.00923 	0.00610524 	3.13982 	90.1523 	117.802 	-0.539844 	164.439 	360.715 	284.858 	539.701 	
46.5131 	-0.0100065 	-0.363269 	0.814975 	-1.02668 	0.0062219 	3.13967 	90.1523 	117.802 	-0.539844 	163.345 	360.715 	284.855 	539.701 	
46.6161 	-0.0100295 	-0.357125 	0.814897 	-1.04413 	0.00634118 	3.13952 	90.1523 	117.802 	-0.539844 	162.349 	360.715 	284.853 	539.701 	
46.7191 	-0.0100513 	-0.350984 	0.814713 	-1.06158 	0.00646306 	3.13938 	90.1523 	117.802 	-0.539844 	161.361 	360.715 	284.852 	539.701 	
46.8223 	-0.0100721 	-0.344847 	0.814421 	-1.07904 	0.00658748 	3.13923 	90.1523 	117.802 	-0.539844 	160.255 	360.716 	284.851 	539.701 	
46.9253 	-0.0100918 	-0.338716 	0.814022 	-1.09649 	0.00671442 	3.13909 	90.1524 	117.802 	-0.539844 	159.273 	360.715 	284.85 	539.701 	
47.0282 	-0.0101103 	-0.332592 	0.813516 	-1.11394 	0.00684383 	3.13895 	90.1523 	117.802 	-0.539844 	158.269 	360.716 	284.849 	539.701 	
47.1312 	-0.0101277 	-0.326479 	0.812904 	-1.13139 	0.00697568 	3.13881 	90.1523 	117.802 	-0.539844 	157.18 	360.716 	284.849 	539.701 	
47.2341 	-0.010144 	-0.320377 	0.812185 	-1.14885 	0.00710992 	3.13867 	90.1523 	117.802 	-0.539941 	156.187 	360.716 	284.848 	539.701 	
47.3372 	-0.0101591 	-0.314288 	0.811359 	-1.1663 	0.00724651 	3.13854 	90.1523 	117.802 	-0.539941 	155.196 	360.716 	284.848 	539.701 	
47.44 	-0.0101731 	-0.308215 	0.810427 	-1.18375 	0.00738542 	3.13841 	90.1523 	117.801 	-0.539941 	154.185 	360.716 	284.848 	539.701 	
47.5431 	-0.0101859 	-0.302159 	0.80939 	-1.2012 	0.0075266 	3.13828 	90.1523 	117.801 	-0.539941 	153.105 	360.716 	284.847 	539.701 	
47.6463 	-0.0101976 	-0.296123 	0.808247 	-1.21866 	0.00767001 	3.13815 	90.1522 	117.801 	-0.539941 	152.101 	360.716 	284.847 	539.701 	
47.7494 	-0.0102081 	-0.290106 	0.806998 	-1.23611 	0.0078156 	3.13803 	90.1523 	117.801 	-0.539941 	151.105 	360.716 	284.846 	539.701 	
47.8584 	-0.0102174 	-0.284113 	0.805645 	-1.25356 	0.00796333 	3.13791 	90.1523 	117.801 	-0.539941 	150.014 	360.716 	284.846 	539.701 	
47.9613 	-0.0102264 	-0.277549 	0.804036 	-1.27276 	0.00812825 	3.13778 	90.1523 	117.801 	-0.539941 	148.903 	360.716 	284.845 	539.701 	
48.064 	-0.0102327 	-0.272202 	0.802626 	-1.28847 	0.00826502 	3.13767 	90.1522 	117.801 	-0.539941 	147.906 	360.716 	284.845 	539.701 	
48.1701 	-0.0102385 	-0.266288 	0.800962 	-1.30592 	0.00841889 	3.13756 	90.1524 	117.801 	-0.540332 	146.914 	360.716 	284.845 	539.701 	
48.2748 	-0.0102467 	-0.254551 	0.797324 	-1.34082 	0.00873246 	3.13734 	90.1523 	117.801 	-0.540332 	145.83 	360.716 	284.844 	539.701 	
48.3769 	-0.010249 	-0.248731 	0.795351 	-1.35828 	0.00889205 	3.13724 	90.1523 	117.801 	-0.540332 	144.833 	360.716 	284.844 	539.701 	
48.4789 	-0.0102502 	-0.242948 	0.793278 	-1.37573 	0.00905346 	3.13713 	90.1523 	117.801 	-0.540332 	143.843 	360.716 	284.843 	539.701 	
48.5809 	-0.0102502 	-0.237201 	0.791104 	-1.39318 	0.00921663 	3.13703 	90.1523 	117.801 	-0.540332 	142.735 	360.716 	284.843 	539.701 	
48.6828 	-0.010249 	-0.231493 	0.78883 	-1.41063 	0.00938151 	3.13694 	90.1523 	117.801 	-0.540527 	141.751 	360.716 	284.843 	539.701 	
48.7852 	-0.0102466 	-0.225826 	0.786457 	-1.42808 	0.00954806 	3.13684 	90.1523 	117.801 	-0.540527 	140.745 	360.716 	284.842 	539.701 	
48.8931 	-0.0102431 	-0.220201 	0.783985 	-1.44554 	0.00971622 	3.13675 	90.1522 	117.801 	-0.540527 	139.651 	360.716 	284.841 	539.701 	
48.995 	-0.0102384 	-0.21462 	0.781415 	-1.46299 	0.00988593 	3.13666 	90.1522 	117.801 	-0.540527 	138.651 	360.716 	284.84 	539.701 	
49.0972 	-0.0102325 	-0.209084 	0.778749 	-1.48044 	0.0100572 	3.13658 	90.1523 	117.801 	-0.540527 	137.648 	360.716 	284.837 	539.701 	
49.2003 	-0.0102254 	-0.203596 	0.775986 	-1.49789 	0.0102298 	3.1365 	90.152 	117.8 	-0.540527 	136.655 	360.716 	284.829 	539.701 	
49.303 	-0.0102172 	-0.198157 	0.773128 	-1.51535 	0.0104039 	3.13642 	90.1518 	117.8 	-0.54082 	135.557 	360.716 	284.827 	539.701 	
49.4064 	-0.0102079 	-0.192769 	0.770175 	-1.5328 	0.0105794 	3.13634 	90.1518 	117.794 	-0.543164 	134.572 	360.716 	284.827 	539.701 	
49.5093 	-0.0101973 	-0.187433 	0.767129 	-1.55025 	0.0107561 	3.13627 	90.1514 	117.794 	-0.543164 	133.564 	360.716 	284.826 	539.701 	
49.6119 	-0.0101856 	-0.182151 	0.76399 	-1.5677 	0.0109341 	3.1362 	90.1514 	117.794 	-0.543457 	132.47 	360.716 	284.826 	539.701 	
49.7153 	-0.0101728 	-0.176925 	0.76076 	-1.58516 	0.0111132 	3.13613 	90.1513 	117.794 	-0.543359 	131.484 	360.716 	284.826 	539.701 	
49.8188 	-0.0101588 	-0.171756 	0.757438 	-1.60261 	0.0112935 	3.13607 	90.1511 	117.794 	-0.543359 	130.487 	360.716 	284.825 	539.701 	
49.9214 	-0.0101436 	-0.166646 	0.754027 	-1.62006 	0.0114749 	3.13601 	90.1512 	117.794 	-0.543457 	129.39 	360.716 	284.825 	539.701 	
50.0245 	-0.0101273 	-0.161596 	0.750528 	-1.63752 	0.0116573 	3.13595 	90.1512 	117.794 	-0.54375 	128.394 	360.716 	284.825 	539.701 	
50.1273 	-0.0101099 	-0.156608 	0.74694 	-1.65497 	0.0118407 	3.1359 	90.1512 	117.794 	-0.543945 	127.392 	360.716 	284.824 	539.701 	
50.2303 	-0.0100913 	-0.151683 	0.743267 	-1.67242 	0.012025 	3.13585 	90.1512 	117.794 	-0.543945 	126.398 	360.716 	284.824 	539.701 	
50.3334 	-0.0100716 	-0.146824 	0.739508 	-1.68987 	0.0122101 	3.1358 	90.1512 	117.794 	-0.544043 	125.308 	360.716 	284.824 	539.701 	
50.4363 	-0.0100508 	-0.14203 	0.735665 	-1.70732 	0.012396 	3.13576 	90.1512 	117.793 	-0.544043 	124.316 	360.716 	284.824 	539.701 	
50.5394 	-0.0100289 	-0.137305 	0.731739 	-1.72477 	0.0125827 	3.13572 	90.1512 	117.793 	-0.544043 	123.319 	360.716 	284.824 	539.701 	
50.6422 	-0.0100059 	-0.132649 	0.727731 	-1.74222 	0.01277 	3.13568 	90.1512 	117.793 	-0.544141 	122.217 	360.716 	284.824 	539.701 	
50.7441 	-0.00998177 	-0.128063 	0.723642 	-1.75968 	0.012958 	3.13564 	90.1512 	117.793 	-0.544434 	121.224 	360.716 	284.824 	539.701 	
50.8467 	-0.00995656 	-0.12355 	0.719474 	-1.77713 	0.0131466 	3.13561 	90.1512 	117.793 	-0.544434 	120.218 	360.716 	284.824 	539.701 	
50.9493 	-0.00993026 	-0.11911 	0.715228 	-1.79458 	0.0133357 	3.13558 	90.1512 	117.792 	-0.544434 	119.225 	360.716 	284.824 	539.701 	
51.0582 	-0.00990288 	-0.114744 	0.710905 	-1.81203 	0.0135252 	3.13556 	90.1512 	117.791 	-0.544629 	118.137 	360.716 	284.824 	539.701 	
51.1614 	-0.00987153 	-0.11003 	0.706062 	-1.83123 	0.0137342 	3.13554 	90.1512 	117.788 	-0.544531 	117.139 	360.716 	284.824 	539.701 	
51.2654 	-0.00984492 	-0.106243 	0.702033 	-1.84693 	0.0139054 	3.13552 	90.1512 	117.788 	-0.544531 	116.042 	360.716 	284.824 	539.701 	
51.3704 	-0.00978277 	-0.0980573 	0.692871 	-1.88184 	0.0142868 	3.13549 	90.1512 	117.782 	-0.544629 	115.048 	360.716 	284.824 	539.701 	
51.3951 	-0.00978277 	-0.0980573 	0.692871 	-1.88184 	0.0142868 	3.13549 	90.1512 	117.779 	-0.544629 	114.751 	360.716 	284.824 	539.701 	
51.4981 	-0.00977428 	-0.0947405 	0.691527 	-1.88637 	0.0143651 	3.13538 	90.1512 	117.778 	-0.544629 	114.023 	360.716 	284.451 	539.701 	
51.6015 	-0.00983169 	-0.0914463 	0.698939 	-1.8567 	0.0141593 	3.13491 	90.1512 	117.778 	-0.544727 	113.728 	360.716 	282.704 	539.701 	
51.7045 	-0.00990348 	-0.0890035 	0.707816 	-1.82179 	0.0138871 	3.13442 	90.1512 	117.776 	-0.544824 	113.669 	360.716 	280.492 	539.701 	
51.8074 	-0.00997973 	-0.086872 	0.716772 	-1.78688 	0.013598 	3.13394 	90.1512 	117.775 	-0.544727 	113.666 	360.716 	278.487 	539.701 	
51.9107 	-0.0100603 	-0.0850543 	0.725797 	-1.75197 	0.0132923 	3.13347 	90.1512 	117.775 	-0.544727 	113.666 	360.716 	276.499 	539.701 	
52.0134 	-0.0101452 	-0.0835527 	0.73488 	-1.71706 	0.0129704 	3.13302 	90.1512 	117.774 	-0.544824 	113.665 	360.716 	274.321 	539.701 	
52.1165 	-0.0102343 	-0.082369 	0.74401 	-1.68215 	0.0126327 	3.13257 	90.1512 	117.774 	-0.544824 	113.664 	360.716 	272.297 	539.701 	
52.2196 	-0.0103274 	-0.0815047 	0.753175 	-1.64724 	0.0122796 	3.13213 	90.1512 	117.774 	-0.544824 	113.664 	360.716 	270.291 	539.701 	
52.3225 	-0.0104245 	-0.0809608 	0.762366 	-1.61233 	0.0119116 	3.13171 	90.1512 	117.773 	-0.54502 	113.663 	360.716 	268.106 	539.701 	
52.4256 	-0.0105254 	-0.080738 	0.771569 	-1.57742 	0.011529 	3.1313 	90.1512 	117.773 	-0.54502 	113.662 	360.716 	266.117 	539.701 	
52.5284 	-0.01063 	-0.0808366 	0.780775 	-1.54251 	0.0111324 	3.13091 	90.1512 	117.773 	-0.54502 	113.662 	360.716 	264.092 	539.701 	
52.6315 	-0.0107381 	-0.0812563 	0.789971 	-1.5076 	0.0107222 	3.13053 	90.1512 	117.773 	-0.545117 	113.662 	360.716 	262.096 	539.701 	
52.7346 	-0.0108498 	-0.0819968 	0.799147 	-1.47269 	0.010299 	3.13016 	90.1512 	117.773 	-0.545117 	113.661 	360.716 	259.912 	539.701 	
52.8376 	-0.0109647 	-0.0830571 	0.808292 	-1.43779 	0.00986322 	3.12981 	90.1512 	117.773 	-0.545117 	113.659 	360.716 	257.915 	539.701 	
52.9406 	-0.0110828 	-0.0844359 	0.817394 	-1.40288 	0.00941543 	3.12947 	90.1512 	117.773 	-0.545117 	113.659 	360.716 	255.923 	539.701 	
53.0434 	-0.0112039 	-0.0861315 	0.826442 	-1.36797 	0.00895618 	3.12915 	90.1512 	117.773 	-0.545215 	113.658 	360.716 	253.723 	539.701 	
53.1466 	-0.0113279 	-0.0881418 	0.835425 	-1.33307 	0.00848603 	3.12885 	90.1512 	117.773 	-0.545215 	113.658 	360.716 	251.723 	539.701 	
53.2496 	-0.0114546 	-0.0904643 	0.844332 	-1.29816 	0.00800555 	3.12856 	90.1512 	117.773 	-0.545215 	113.657 	360.716 	249.726 	539.701 	
53.3574 	-0.0115839 	-0.0930963 	0.853153 	-1.26326 	0.00751532 	3.12829 	90.1512 	117.773 	-0.545215 	113.656 	360.716 	247.501 	539.701 	
53.4605 	-0.0117157 	-0.0960345 	0.861877 	-1.22836 	0.00701593 	3.12803 	90.1512 	117.773 	-0.545215 	113.656 	360.716 	245.526 	539.701 	
53.5634 	-0.0118496 	-0.0992754 	0.870492 	-1.19345 	0.006508 	3.1278 	90.1512 	117.773 	-0.545215 	113.655 	360.716 	243.343 	539.701 	
53.6666 	-0.0119994 	-0.103185 	0.879832 	-1.15506 	0.00594013 	3.12756 	90.1512 	117.773 	-0.545215 	113.653 	360.716 	241.333 	539.701 	
53.7703 	-0.0122634 	-0.110773 	0.895588 	-1.08875 	0.00493915 	3.1272 	90.1512 	117.773 	-0.54541 	113.652 	360.716 	239.328 	539.701 	
53.8755 	-0.0124047 	-0.115181 	0.903668 	-1.05384 	0.00440332 	3.12703 	90.1512 	117.773 	-0.54541 	113.652 	360.716 	237.148 	539.701 	
53.9789 	-0.0125475 	-0.119869 	0.91159 	-1.01894 	0.00386212 	3.12689 	90.1512 	117.773 	-0.54541 	113.65 	360.716 	235.145 	539.701 	
54.0812 	-0.0126914 	-0.124831 	0.919343 	-0.98404 	0.00331621 	3.12676 	90.1512 	117.773 	-0.54541 	113.649 	360.716 	233.173 	539.701 	
54.1832 	-0.0128365 	-0.13006 	0.926919 	-0.949138 	0.00276627 	3.12666 	90.1512 	117.773 	-0.54541 	113.647 	360.716 	230.955 	539.701 	
54.2853 	-0.0129824 	-0.13555 	0.934307 	-0.914236 	0.00221295 	3.12657 	90.1512 	117.773 	-0.54541 	113.644 	360.716 	228.971 	539.701 	
54.392 	-0.0131291 	-0.141294 	0.941499 	-0.879335 	0.00165695 	3.1265 	90.1512 	117.773 	-0.54541 	113.641 	360.716 	226.767 	539.701 	
54.4941 	-0.0132762 	-0.147287 	0.948486 	-0.844433 	0.00109892 	3.12646 	90.1512 	117.773 	-0.545508 	113.639 	360.716 	224.773 	539.701 	
54.5966 	-0.0134238 	-0.153519 	0.95526 	-0.809531 	0.000539552 	3.12643 	90.1512 	117.773 	-0.54541 	113.634 	360.716 	222.759 	539.701 	
54.6998 	-0.0135715 	-0.159984 	0.961812 	-0.77463 	-2.04719e-05 	3.12642 	90.1512 	117.773 	-0.54541 	113.632 	360.716 	220.783 	539.701 	
54.8028 	-0.0137192 	-0.166674 	0.968135 	-0.739728 	-0.000580472 	3.12643 	90.1512 	117.773 	-0.545508 	113.63 	360.716 	218.586 	539.701 	
54.9058 	-0.0138667 	-0.173581 	0.97422 	-0.704827 	-0.00113976 	3.12646 	90.1512 	117.773 	-0.545508 	113.629 	360.716 	216.603 	539.701 	
55.0087 	-0.0140138 	-0.180695 	0.98006 	-0.669925 	-0.00169766 	3.12651 	90.1512 	117.773 	-0.54541 	113.626 	360.716 	214.592 	539.701 	
55.1116 	-0.0141604 	-0.18801 	0.985649 	-0.635023 	-0.0022535 	3.12658 	90.1512 	117.773 	-0.546094 	113.625 	360.716 	212.615 	539.701 	
55.2149 	-0.0143063 	-0.195514 	0.990979 	-0.600121 	-0.00280659 	3.12667 	90.1511 	117.773 	-0.546387 	113.624 	360.716 	210.425 	539.701 	
55.3176 	-0.0144513 	-0.203201 	0.996043 	-0.565219 	-0.00335626 	3.12677 	90.1511 	117.773 	-0.546484 	113.624 	360.716 	208.436 	539.701 	
55.4196 	-0.0145952 	-0.211059 	1.00084 	-0.530318 	-0.00390184 	3.1269 	90.1512 	117.773 	-0.546484 	113.623 	360.716 	206.431 	539.701 	
55.5229 	-0.0147378 	-0.21908 	1.00535 	-0.495415 	-0.00444268 	3.12705 	90.1512 	117.773 	-0.546582 	113.622 	360.716 	204.237 	539.701 	
55.6259 	-0.0148791 	-0.227254 	1.00959 	-0.460513 	-0.00497809 	3.12721 	90.1512 	117.773 	-0.546582 	113.621 	360.716 	202.255 	539.701 	
55.7287 	-0.0150187 	-0.23557 	1.01353 	-0.425611 	-0.00550745 	3.12739 	90.1512 	117.773 	-0.546484 	113.621 	360.716 	200.248 	539.701 	
55.8318 	-0.0151565 	-0.244019 	1.01718 	-0.390708 	-0.0060301 	3.12759 	90.1512 	117.773 	-0.54668 	113.619 	360.716 	198.27 	539.701 	
55.9348 	-0.0152924 	-0.252591 	1.02054 	-0.355805 	-0.0065454 	3.12781 	90.1512 	117.773 	-0.54668 	113.618 	360.716 	196.06 	539.701 	
56.0376 	-0.0154262 	-0.261274 	1.0236 	-0.320902 	-0.00705273 	3.12805 	90.1512 	117.773 	-0.546777 	113.617 	360.716 	194.072 	539.701 	
56.1407 	-0.0155578 	-0.270059 	1.02634 	-0.285998 	-0.00755147 	3.12831 	90.1512 	117.774 	-0.546973 	113.616 	360.716 	192.086 	539.701 	
56.2437 	-0.0156869 	-0.278934 	1.02879 	-0.251095 	-0.00804101 	3.12858 	90.1511 	117.774 	-0.546777 	113.615 	360.716 	189.881 	539.701 	
56.3469 	-0.0158134 	-0.28789 	1.03092 	-0.216191 	-0.00852076 	3.12887 	90.1512 	117.774 	-0.546973 	113.615 	360.716 	187.888 	539.701 	
56.4497 	-0.0159372 	-0.296914 	1.03273 	-0.181286 	-0.00899013 	3.12917 	90.1512 	117.773 	-0.546973 	113.615 	360.716 	185.907 	539.701 	
56.558 	-0.0160581 	-0.305996 	1.03423 	-0.146382 	-0.00944854 	3.12949 	90.1512 	117.773 	-0.54707 	113.614 	360.716 	183.691 	539.701 	
56.6607 	-0.016176 	-0.315125 	1.03542 	-0.111477 	-0.00989545 	3.12983 	90.1512 	117.774 	-0.546973 	113.612 	360.716 	181.703 	539.701 	
56.7636 	-0.0162907 	-0.32429 	1.03628 	-0.0765719 	-0.0103303 	3.13019 	90.1512 	117.774 	-0.546973 	113.61 	360.716 	179.528 	539.701 	
56.8696 	-0.016413 	-0.334399 	1.03686 	-0.038176 	-0.0107941 	3.13059 	90.1512 	117.774 	-0.546973 	113.606 	360.716 	177.523 	539.701 	
56.9736 	-0.0166143 	-0.351887 	1.03694 	0.0281454 	-0.0115573 	3.13133 	90.1512 	117.774 	-0.54707 	113.602 	360.716 	175.332 	539.701 	
57.0754 	-0.0167149 	-0.361082 	1.03652 	0.0630516 	-0.0119388 	3.13174 	90.1512 	117.774 	-0.546973 	113.592 	360.716 	173.342 	539.701 	
57.1775 	-0.0168116 	-0.370258 	1.03578 	0.0979584 	-0.0123058 	3.13217 	90.1511 	117.774 	-0.546777 	113.578 	360.716 	171.361 	539.701 	
57.2795 	-0.0169045 	-0.379402 	1.03472 	0.132865 	-0.0126577 	3.1326 	90.1512 	117.774 	-0.546973 	113.576 	360.716 	169.363 	539.701 	
57.3815 	-0.0169932 	-0.388504 	1.03334 	0.167773 	-0.0129942 	3.13305 	90.1512 	117.774 	-0.547656 	113.574 	360.716 	167.374 	539.701 	
57.4834 	-0.0170778 	-0.397552 	1.03164 	0.20268 	-0.013315 	3.13351 	90.1511 	117.774 	-0.547461 	113.574 	360.716 	165.196 	539.701 	
57.5859 	-0.0171581 	-0.406535 	1.02963 	0.237588 	-0.0136194 	3.13398 	90.1512 	117.774 	-0.547559 	113.573 	360.716 	163.19 	539.701 	
57.693 	-0.017234 	-0.415443 	1.02731 	0.272496 	-0.0139073 	3.13446 	90.1511 	117.774 	-0.547461 	113.573 	360.716 	160.997 	539.701 	
57.7957 	-0.0173055 	-0.424264 	1.02468 	0.307405 	-0.0141783 	3.13495 	90.1511 	117.774 	-0.547461 	113.573 	360.716 	158.995 	539.701 	
57.899 	-0.0173724 	-0.432988 	1.02174 	0.342313 	-0.014432 	3.13545 	90.1511 	117.774 	-0.547461 	113.572 	360.716 	157.013 	539.701 	
58.0018 	-0.0174346 	-0.441604 	1.0185 	0.377223 	-0.0146681 	3.13596 	90.1512 	117.774 	-0.547461 	113.571 	360.716 	155.025 	539.701 	
58.105 	-0.0174922 	-0.450102 	1.01495 	0.412132 	-0.0148863 	3.13647 	90.1512 	117.774 	-0.547461 	113.569 	360.716 	152.843 	539.701 	
58.2081 	-0.017545 	-0.458471 	1.01112 	0.447041 	-0.0150864 	3.137 	90.1512 	117.774 	-0.547559 	113.567 	360.716 	150.852 	539.701 	
58.3109 	-0.0175929 	-0.466701 	1.007 	0.481951 	-0.0152681 	3.13753 	90.1512 	117.774 	-0.547559 	113.565 	360.716 	148.858 	539.701 	
58.4138 	-0.0176359 	-0.474782 	1.00259 	0.51686 	-0.0154312 	3.13806 	90.1512 	117.774 	-0.547656 	113.562 	360.716 	146.654 	539.701 	
58.517 	-0.0176739 	-0.482705 	0.997897 	0.551771 	-0.0155755 	3.1386 	90.1512 	117.774 	-0.547656 	113.555 	360.716 	144.687 	539.701 	
58.6197 	-0.017707 	-0.490459 	0.992935 	0.58668 	-0.0157008 	3.13915 	90.1512 	117.774 	-0.547559 	113.545 	360.716 	142.688 	539.701 	
58.7228 	-0.017735 	-0.498035 	0.987705 	0.621591 	-0.015807 	3.1397 	90.1512 	117.774 	-0.547656 	113.529 	360.716 	140.487 	539.701 	
58.826 	-0.0177579 	-0.505424 	0.982214 	0.656501 	-0.0158939 	3.14025 	90.1512 	117.774 	-0.547656 	113.528 	360.716 	138.486 	539.701 	
58.9288 	-0.0177757 	-0.512617 	0.976468 	0.691411 	-0.0159615 	3.14081 	90.1512 	117.774 	-0.547559 	113.528 	360.716 	136.509 	539.701 	
59.0319 	-0.0177884 	-0.519605 	0.970475 	0.726322 	-0.0160096 	3.14137 	90.1512 	117.774 	-0.547656 	113.527 	360.716 	134.511 	539.701 	
59.135 	-0.017796 	-0.52638 	0.964242 	0.761232 	-0.0160382 	-3.14126 	90.1512 	117.774 	-0.547656 	113.527 	360.716 	132.339 	539.701 	
59.2379 	-0.0177984 	-0.532933 	0.957776 	0.796143 	-0.0160473 	-3.1407 	90.1512 	117.774 	-0.547656 	113.527 	360.716 	130.329 	539.701 	
59.3411 	-0.0177956 	-0.539256 	0.951086 	0.831053 	-0.0160368 	-3.14014 	90.1512 	117.774 	-0.547656 	113.525 	360.716 	128.351 	539.701 	
59.4439 	-0.0177877 	-0.545343 	0.944179 	0.865964 	-0.0160068 	-3.13958 	90.1512 	117.774 	-0.547656 	113.525 	360.716 	126.233 	539.701 	
59.5475 	-0.0177769 	-0.550324 	0.938143 	0.895639 	-0.015966 	-3.13911 	90.1512 	117.774 	-0.547656 	113.525 	360.716 	124.834 	539.701 	
65.1416 	-0.0177651 	-0.554347 	0.932989 	0.920435 	-0.015921 	-3.13871 	90.1447 	117.796 	-0.584375 	113.44 	360.717 	123.831 	539.701 	
65.2442 	-0.0177669 	-0.554016 	0.933275 	0.919039 	-0.0159268 	-3.13873 	90.145 	117.796 	-0.584766 	113.44 	360.717 	124.225 	539.701 	
65.3475 	-0.0177788 	-0.549929 	0.938493 	0.893903 	-0.0159718 	-3.13913 	90.1446 	117.796 	-0.584277 	113.438 	360.717 	125.993 	539.701 	
65.4501 	-0.0177909 	-0.544038 	0.945568 	0.858992 	-0.0160176 	-3.13969 	90.1442 	117.796 	-0.584375 	113.437 	360.717 	127.988 	539.701 	
65.5602 	-0.0177978 	-0.537904 	0.952432 	0.824082 	-0.0160439 	-3.14025 	90.1444 	117.796 	-0.584473 	113.436 	360.717 	130.207 	539.701 	
65.6632 	-0.0177996 	-0.531534 	0.959079 	0.789171 	-0.0160506 	-3.14081 	90.1446 	117.796 	-0.58457 	113.436 	360.717 	131.993 	539.701 	
65.7663 	-0.0177962 	-0.524936 	0.965499 	0.754261 	-0.0160377 	-3.14137 	90.1445 	117.796 	-0.584473 	113.436 	360.717 	134.36 	539.701 	
65.869 	-0.0177877 	-0.518118 	0.971685 	0.71935 	-0.0160054 	3.14126 	90.1445 	117.796 	-0.58457 	113.436 	360.717 	136.363 	539.701 	
65.972 	-0.0177552 	-0.503855 	0.983324 	0.649529 	-0.0158822 	3.14014 	90.1445 	117.796 	-0.58457 	113.436 	360.717 	138.369 	539.701 	
66.0762 	-0.0177313 	-0.496428 	0.988763 	0.614619 	-0.0157915 	3.13959 	90.1445 	117.796 	-0.584375 	113.436 	360.717 	140.552 	539.701 	
66.178 	-0.0177023 	-0.488816 	0.99394 	0.579709 	-0.0156816 	3.13904 	90.1446 	117.796 	-0.584668 	113.436 	360.717 	142.353 	539.701 	
66.2801 	-0.0176683 	-0.481027 	0.998848 	0.544799 	-0.0155526 	3.1385 	90.1446 	117.796 	-0.58457 	113.436 	360.717 	144.561 	539.701 	
66.3831 	-0.0176292 	-0.473072 	1.00348 	0.509889 	-0.0154046 	3.13796 	90.145 	117.796 	-0.584863 	113.436 	360.717 	146.568 	539.701 	
66.485 	-0.0175853 	-0.46496 	1.00783 	0.474979 	-0.0152379 	3.13742 	90.1449 	117.796 	-0.584766 	113.435 	360.717 	148.753 	539.701 	
66.5933 	-0.0175364 	-0.456702 	1.0119 	0.440069 	-0.0150526 	3.13689 	90.1449 	117.796 	-0.584668 	113.436 	360.717 	150.741 	539.701 	
66.6963 	-0.0174827 	-0.448306 	1.01568 	0.40516 	-0.0148489 	3.13637 	90.1451 	117.796 	-0.585156 	113.436 	360.717 	152.938 	539.701 	
66.7993 	-0.0174242 	-0.439784 	1.01916 	0.370251 	-0.0146272 	3.13586 	90.1448 	117.796 	-0.584668 	113.436 	360.717 	154.928 	539.701 	
66.9019 	-0.017361 	-0.431145 	1.02234 	0.335342 	-0.0143876 	3.13535 	90.1447 	117.796 	-0.584473 	113.436 	360.717 	156.917 	539.701 	
67.0042 	-0.0172932 	-0.422401 	1.02522 	0.300433 	-0.0141306 	3.13485 	90.1447 	117.795 	-0.58457 	113.436 	360.717 	159.086 	539.701 	
67.1076 	-0.0172209 	-0.413562 	1.02779 	0.265525 	-0.0138563 	3.13436 	90.1447 	117.795 	-0.584668 	113.436 	360.717 	161.087 	539.701 	
67.2105 	-0.0171441 	-0.404638 	1.03005 	0.230617 	-0.0135651 	3.13389 	90.1448 	117.795 	-0.584863 	113.436 	360.717 	163.089 	539.701 	
67.3132 	-0.017063 	-0.395641 	1.032 	0.195709 	-0.0132574 	3.13342 	90.1447 	117.795 	-0.58457 	113.436 	360.717 	165.102 	539.701 	
67.4153 	-0.0169776 	-0.386582 	1.03363 	0.160802 	-0.0129335 	3.13296 	90.1449 	117.795 	-0.585156 	113.436 	360.717 	167.273 	539.701 	
67.5185 	-0.016888 	-0.377471 	1.03495 	0.125894 	-0.0125939 	3.13251 	90.1449 	117.795 	-0.585059 	113.436 	360.717 	169.26 	539.701 	
67.6215 	-0.0167944 	-0.368319 	1.03595 	0.0909872 	-0.012239 	3.13208 	90.1448 	117.795 	-0.584863 	113.436 	360.717 	171.268 	539.701 	
67.7244 	-0.0166968 	-0.359139 	1.03663 	0.0560807 	-0.0118691 	3.13166 	90.1449 	117.795 	-0.584961 	113.436 	360.717 	173.459 	539.701 	
67.8277 	-0.0165955 	-0.34994 	1.03698 	0.0211743 	-0.0114848 	3.13125 	90.1447 	117.795 	-0.58457 	113.437 	360.717 	175.447 	539.701 	
67.9302 	-0.0164904 	-0.340735 	1.03702 	-0.0137315 	-0.0110865 	3.13086 	90.1448 	117.795 	-0.584863 	113.438 	360.717 	177.44 	539.701 	
68.0336 	-0.0163818 	-0.331534 	1.03673 	-0.0486373 	-0.0106746 	3.13048 	90.1447 	117.794 	-0.584668 	113.438 	360.717 	179.438 	539.701 	
68.1365 	-0.0162698 	-0.322349 	1.03612 	-0.0835428 	-0.0102498 	3.13011 	90.1445 	117.789 	-0.58457 	113.441 	360.717 	181.587 	539.701 	
68.2396 	-0.0161544 	-0.31319 	1.0352 	-0.118448 	-0.0098125 	3.12976 	90.1446 	117.789 	-0.584863 	113.441 	360.717 	183.587 	539.701 	
68.3425 	-0.016036 	-0.30407 	1.03395 	-0.153353 	-0.00936324 	3.12943 	90.1446 	117.789 	-0.584863 	113.441 	360.717 	185.584 	539.701 	
68.4455 	-0.0159145 	-0.294998 	1.03239 	-0.188257 	-0.00890257 	3.12911 	90.1446 	117.789 	-0.584863 	113.441 	360.717 	187.786 	539.701 	
68.5486 	-0.0157901 	-0.285987 	1.03051 	-0.223161 	-0.00843106 	3.12881 	90.1447 	117.789 	-0.585059 	113.441 	360.717 	189.786 	539.701 	
68.6513 	-0.015663 	-0.277047 	1.02832 	-0.258065 	-0.00794927 	3.12852 	90.1446 	117.789 	-0.584766 	113.441 	360.717 	191.77 	539.701 	
68.7575 	-0.0155334 	-0.268189 	1.02581 	-0.292969 	-0.00745781 	3.12825 	90.1448 	117.789 	-0.585254 	113.441 	360.717 	193.951 	539.701 	
68.8604 	-0.0154014 	-0.259423 	1.023 	-0.327872 	-0.00695726 	3.128 	90.1448 	117.789 	-0.585156 	113.441 	360.717 	195.946 	539.701 	
68.9624 	-0.0152671 	-0.250761 	1.01989 	-0.362775 	-0.00644824 	3.12777 	90.1448 	117.787 	-0.585059 	113.443 	360.717 	197.926 	539.701 	
69.0664 	-0.0151308 	-0.242213 	1.01647 	-0.397678 	-0.00593136 	3.12755 	90.1448 	117.779 	-0.585059 	113.446 	360.717 	200.111 	539.701 	
69.1703 	-0.0149926 	-0.23379 	1.01276 	-0.432581 	-0.00540725 	3.12735 	90.1449 	117.745 	-0.585742 	113.449 	360.717 	202.106 	539.701 	
69.2745 	-0.0148526 	-0.225501 	1.00876 	-0.467483 	-0.00487657 	3.12717 	90.1449 	117.743 	-0.585547 	113.449 	360.717 	204.302 	539.701 	
69.3771 	-0.0145682 	-0.209368 	0.999894 	-0.537288 	-0.00379802 	3.12687 	90.1449 	117.744 	-0.585547 	113.449 	360.717 	206.28 	539.701 	
69.4792 	-0.014424 	-0.201543 	0.995046 	-0.57219 	-0.00325148 	3.12675 	90.1449 	117.743 	-0.585645 	113.45 	360.717 	208.288 	539.701 	
69.5811 	-0.0142788 	-0.193893 	0.989928 	-0.607092 	-0.00270098 	3.12664 	90.1449 	117.743 	-0.585742 	113.45 	360.717 	210.28 	539.701 	
69.6833 	-0.0141328 	-0.186425 	0.984546 	-0.641993 	-0.00214719 	3.12656 	90.1449 	117.744 	-0.585547 	113.45 	360.717 	212.257 	539.701 	
69.7853 	-0.013986 	-0.17915 	0.978907 	-0.676895 	-0.00159078 	3.12649 	90.1451 	117.744 	-0.586719 	113.45 	360.717 	214.444 	539.701 	
69.8926 	-0.0138387 	-0.172076 	0.973017 	-0.711797 	-0.00103244 	3.12645 	90.145 	117.744 	-0.586621 	113.45 	360.717 	216.429 	539.701 	
69.9958 	-0.0136911 	-0.165212 	0.966884 	-0.746698 	-0.000472833 	3.12642 	90.1449 	117.744 	-0.58623 	113.45 	360.717 	218.647 	539.701 	
70.0986 	-0.0135434 	-0.158567 	0.960515 	-0.7816 	8.73417e-05 	3.12642 	90.1449 	117.744 	-0.58623 	113.451 	360.717 	220.626 	539.701 	
70.2017 	-0.0133957 	-0.152147 	0.953918 	-0.816501 	0.000647415 	3.12643 	90.1449 	117.743 	-0.58623 	113.457 	360.717 	222.623 	539.701 	
70.3048 	-0.0132482 	-0.145962 	0.947101 	-0.851403 	0.0012067 	3.12646 	90.1449 	117.736 	-0.58623 	113.464 	360.717 	224.804 	539.701 	
70.4077 	-0.013101 	-0.140019 	0.940072 	-0.886304 	0.00176451 	3.12651 	90.1449 	117.734 	-0.58623 	113.474 	360.717 	226.792 	539.701 	
70.5107 	-0.0129545 	-0.134324 	0.93284 	-0.921206 	0.00232018 	3.12658 	90.1449 	117.733 	-0.58623 	113.476 	360.717 	228.778 	539.701 	
70.6135 	-0.0128087 	-0.128886 	0.925413 	-0.956108 	0.00287301 	3.12667 	90.1449 	117.733 	-0.58623 	113.476 	360.717 	230.786 	539.701 	
70.7166 	-0.0126638 	-0.12371 	0.917802 	-0.99101 	0.00342236 	3.12678 	90.1449 	117.733 	-0.586328 	113.477 	360.717 	232.985 	539.701 	
70.8196 	-0.01252 	-0.118803 	0.910014 	-1.02591 	0.00396752 	3.12691 	90.145 	117.733 	-0.586426 	113.477 	360.717 	234.976 	539.701 	
70.9227 	-0.0123775 	-0.11417 	0.90206 	-1.06081 	0.00450786 	3.12706 	90.1449 	117.733 	-0.586328 	113.477 	360.717 	236.958 	539.701 	
71.0257 	-0.0122364 	-0.109818 	0.893949 	-1.09572 	0.0050427 	3.12723 	90.1449 	117.732 	-0.586426 	113.479 	360.717 	239.161 	539.701 	
71.1289 	-0.012097 	-0.105752 	0.88569 	-1.13062 	0.00557141 	3.12741 	90.1449 	117.732 	-0.586328 	113.48 	360.717 	241.142 	539.701 	
71.2317 	-0.0119593 	-0.101976 	0.877295 	-1.16552 	0.00609333 	3.12762 	90.1449 	117.732 	-0.58623 	113.481 	360.717 	243.133 	539.701 	
71.335 	-0.0118236 	-0.0984959 	0.868774 	-1.20042 	0.00660782 	3.12784 	90.1449 	117.732 	-0.586328 	113.482 	360.717 	245.324 	539.701 	
71.4377 	-0.0116901 	-0.0953151 	0.860136 	-1.23533 	0.00711428 	3.12808 	90.1449 	117.732 	-0.586426 	113.482 	360.717 	247.314 	539.701 	
71.5407 	-0.0115588 	-0.0924378 	0.851392 	-1.27023 	0.00761206 	3.12833 	90.1449 	117.732 	-0.586328 	113.483 	360.717 	249.321 	539.701 	
71.6437 	-0.0114299 	-0.0898674 	0.842553 	-1.30514 	0.00810056 	3.12861 	90.1449 	117.73 	-0.586328 	113.484 	360.717 	251.326 	539.701 	
71.7468 	-0.0113037 	-0.0876069 	0.83363 	-1.34004 	0.00857921 	3.1289 	90.1449 	117.73 	-0.586328 	113.484 	360.717 	253.514 	539.701 	
71.85 	-0.0111802 	-0.0856594 	0.824633 	-1.37494 	0.0090474 	3.12921 	90.1449 	117.73 	-0.58623 	113.484 	360.717 	255.515 	539.701 	
71.958 	-0.0110596 	-0.0840269 	0.815573 	-1.40985 	0.00950459 	3.12953 	90.1449 	117.73 	-0.58623 	113.485 	360.717 	257.719 	539.701 	
72.0607 	-0.0109421 	-0.0827116 	0.806462 	-1.44476 	0.00995021 	3.12987 	90.1449 	117.73 	-0.586328 	113.485 	360.717 	259.696 	539.701 	
72.1637 	-0.0108278 	-0.081715 	0.79731 	-1.47966 	0.0103837 	3.13023 	90.1449 	117.73 	-0.586426 	113.485 	360.717 	261.69 	539.701 	
72.2695 	-0.0107168 	-0.0810385 	0.788129 	-1.51457 	0.0108046 	3.1306 	90.1449 	117.73 	-0.586328 	113.486 	360.717 	263.893 	539.701 	
72.3735 	-0.0105053 	-0.0806485 	0.769723 	-1.58439 	0.0116063 	3.13138 	90.1449 	117.73 	-0.586328 	113.486 	360.717 	265.881 	539.701 	
72.4756 	-0.0104052 	-0.0809355 	0.760522 	-1.6193 	0.0119862 	3.13179 	90.1449 	117.729 	-0.586328 	113.486 	360.717 	268.086 	539.701 	
72.5774 	-0.0103088 	-0.0815435 	0.751336 	-1.65421 	0.0123515 	3.13221 	90.1449 	117.729 	-0.586328 	113.487 	360.717 	270.106 	539.701 	
72.6794 	-0.0102165 	-0.0824716 	0.742176 	-1.68912 	0.0127017 	3.13265 	90.1449 	117.726 	-0.586328 	113.487 	360.717 	272.102 	539.701 	
72.7815 	-0.0101282 	-0.0837189 	0.733055 	-1.72403 	0.0130364 	3.1331 	90.1449 	117.718 	-0.58623 	113.487 	360.717 	274.098 	539.701 	
72.8834 	-0.0100441 	-0.0852838 	0.723983 	-1.75894 	0.0133553 	3.13356 	90.1449 	117.713 	-0.58623 	113.487 	360.717 	276.106 	539.701 	
72.986 	-0.00996427 	-0.0871644 	0.71497 	-1.79385 	0.0136579 	3.13403 	90.1449 	117.706 	-0.586328 	113.488 	360.717 	278.298 	539.701 	
73.0927 	-0.00988886 	-0.0893583 	0.706029 	-1.82876 	0.0139439 	3.13452 	90.1449 	117.706 	-0.586328 	113.488 	360.717 	280.313 	539.701 	
73.1957 	-0.00981792 	-0.0918629 	0.69717 	-1.86367 	0.0142128 	3.13501 	90.1449 	117.706 	-0.586328 	113.488 	360.717 	282.495 	539.701 	
73.2991 	-0.00976122 	-0.0942339 	0.689712 	-1.89335 	0.0144279 	3.13543 	90.1449 	117.706 	-0.586328 	113.488 	360.717 	284.18 	539.701 	
73.3194 	-0.00976122 	-0.0942339 	0.689712 	-1.89335 	0.0144279 	3.13543 	90.1449 	117.706 	-0.586328 	113.488 	360.717 	284.343 	539.701 	
73.422 	-0.00976065 	-0.0953491 	0.689686 	-1.89372 	0.0144168 	3.13549 	90.1449 	117.705 	-0.586133 	113.769 	360.717 	284.576 	539.701 	
73.5247 	-0.00979295 	-0.0993471 	0.694351 	-1.87627 	0.0142259 	3.1355 	90.1449 	117.704 	-0.58623 	114.747 	360.717 	284.607 	539.701 	
73.6279 	-0.00982422 	-0.103426 	0.698945 	-1.85882 	0.0140351 	3.13551 	90.1449 	117.704 	-0.58623 	115.733 	360.717 	284.624 	539.701 	
73.7308 	-0.00985444 	-0.107584 	0.703468 	-1.84137 	0.0138447 	3.13553 	90.1449 	117.704 	-0.58623 	116.726 	360.717 	284.628 	539.701 	
73.8339 	-0.00988361 	-0.111821 	0.707917 	-1.82392 	0.0136545 	3.13555 	90.1449 	117.704 	-0.586328 	117.812 	360.717 	284.63 	539.701 	
73.9369 	-0.00991172 	-0.116134 	0.712291 	-1.80647 	0.0134647 	3.13557 	90.1449 	117.704 	-0.58623 	118.811 	360.717 	284.63 	539.701 	
74.04 	-0.00993875 	-0.120524 	0.71659 	-1.78901 	0.0132753 	3.13559 	90.1449 	117.704 	-0.58623 	119.802 	360.717 	284.63 	539.701 	
74.1429 	-0.00996471 	-0.124987 	0.720811 	-1.77156 	0.0130863 	3.13562 	90.1449 	117.704 	-0.58623 	120.8 	360.717 	284.631 	539.701 	
74.246 	-0.00998958 	-0.129524 	0.724954 	-1.75411 	0.012898 	3.13565 	90.1449 	117.704 	-0.586328 	121.896 	360.717 	284.631 	539.701 	
74.349 	-0.0100134 	-0.134132 	0.729017 	-1.73666 	0.0127102 	3.13569 	90.1449 	117.704 	-0.586133 	122.904 	360.717 	284.631 	539.701 	
74.4524 	-0.010036 	-0.13881 	0.732999 	-1.71921 	0.012523 	3.13573 	90.1448 	117.704 	-0.586133 	123.9 	360.717 	284.631 	539.701 	
74.5568 	-0.0100576 	-0.143558 	0.736899 	-1.70176 	0.0123366 	3.13577 	90.1448 	117.704 	-0.586035 	124.998 	360.717 	284.631 	539.701 	
74.6597 	-0.010078 	-0.148372 	0.740715 	-1.68431 	0.0121509 	3.13582 	90.1448 	117.704 	-0.586133 	125.992 	360.717 	284.632 	539.701 	
74.7626 	-0.0100974 	-0.153253 	0.744447 	-1.66685 	0.011966 	3.13586 	90.1448 	117.704 	-0.586133 	126.992 	360.717 	284.632 	539.701 	
74.8658 	-0.0101156 	-0.158197 	0.748093 	-1.6494 	0.011782 	3.13592 	90.1448 	117.704 	-0.586133 	128.084 	360.717 	284.632 	539.701 	
74.9696 	-0.0101326 	-0.163205 	0.751652 	-1.63195 	0.011599 	3.13597 	90.1448 	117.705 	-0.586133 	129.082 	360.717 	284.632 	539.701 	
75.0736 	-0.0101485 	-0.168275 	0.755123 	-1.6145 	0.0114169 	3.13603 	90.1449 	117.705 	-0.586328 	130.166 	360.717 	284.632 	539.701 	
75.1756 	-0.010177 	-0.178591 	0.761798 	-1.57959 	0.0110559 	3.13616 	90.1448 	117.705 	-0.586035 	131.171 	360.717 	284.632 	539.701 	
75.2786 	-0.0101895 	-0.183836 	0.764999 	-1.56214 	0.0108771 	3.13622 	90.1448 	117.704 	-0.586035 	132.171 	360.717 	284.632 	539.701 	
75.3805 	-0.0102008 	-0.189135 	0.768109 	-1.54469 	0.0106995 	3.13629 	90.1447 	117.704 	-0.586035 	133.174 	360.717 	284.632 	539.701 	
75.4827 	-0.010211 	-0.194488 	0.771125 	-1.52723 	0.0105232 	3.13637 	90.1447 	117.705 	-0.586035 	134.164 	360.717 	284.632 	539.701 	
75.5848 	-0.01022 	-0.199892 	0.774048 	-1.50978 	0.0103482 	3.13644 	90.1447 	117.705 	-0.586133 	135.255 	360.717 	284.632 	539.701 	
75.6928 	-0.0102278 	-0.205347 	0.776875 	-1.49233 	0.0101745 	3.13652 	90.1447 	117.705 	-0.586133 	136.251 	360.717 	284.632 	539.701 	
75.796 	-0.0102345 	-0.21085 	0.779607 	-1.47488 	0.0100023 	3.13661 	90.1447 	117.705 	-0.586035 	137.331 	360.717 	284.633 	539.701 	
75.8989 	-0.01024 	-0.2164 	0.782243 	-1.45742 	0.00983157 	3.13669 	90.1447 	117.705 	-0.586133 	138.348 	360.717 	284.633 	539.701 	
76.0019 	-0.0102443 	-0.221995 	0.784781 	-1.43997 	0.00966234 	3.13678 	90.1445 	117.705 	-0.585938 	139.341 	360.717 	284.633 	539.701 	
76.1051 	-0.0102475 	-0.227634 	0.787222 	-1.42252 	0.0094947 	3.13687 	90.1446 	117.705 	-0.586035 	140.443 	360.717 	284.633 	539.701 	
76.2081 	-0.0102495 	-0.233314 	0.789563 	-1.40507 	0.00932868 	3.13697 	90.1446 	117.705 	-0.586035 	141.443 	360.717 	284.633 	539.701 	
76.3111 	-0.0102503 	-0.239035 	0.791805 	-1.38762 	0.00916434 	3.13707 	90.1445 	117.705 	-0.586035 	142.428 	360.717 	284.633 	539.701 	
76.414 	-0.0102499 	-0.244794 	0.793947 	-1.37016 	0.00900172 	3.13717 	90.1446 	117.705 	-0.586035 	143.529 	360.717 	284.633 	539.701 	
76.5171 	-0.0102484 	-0.250589 	0.795988 	-1.35271 	0.00884089 	3.13727 	90.1446 	117.705 	-0.586035 	144.523 	360.717 	284.633 	539.701 	
76.6203 	-0.0102457 	-0.256419 	0.797928 	-1.33526 	0.00868188 	3.13738 	90.1446 	117.705 	-0.586035 	145.518 	360.717 	284.633 	539.701 	
76.7231 	-0.0102418 	-0.262282 	0.799766 	-1.31781 	0.00852474 	3.13748 	90.1446 	117.706 	-0.586035 	146.499 	360.717 	284.633 	539.701 	
76.8262 	-0.0102367 	-0.268176 	0.8015 	-1.30035 	0.00836953 	3.1376 	90.1445 	117.706 	-0.586035 	147.604 	360.717 	284.633 	539.701 	
76.9291 	-0.0102305 	-0.274099 	0.803132 	-1.2829 	0.0082163 	3.13771 	90.1445 	117.706 	-0.586035 	148.603 	360.717 	284.633 	539.701 	
77.032 	-0.0102231 	-0.28005 	0.804661 	-1.26545 	0.00806507 	3.13783 	90.1445 	117.706 	-0.585938 	149.604 	360.717 	284.633 	539.701 	
77.135 	-0.0102146 	-0.286027 	0.806085 	-1.248 	0.00791592 	3.13795 	90.1446 	117.706 	-0.586035 	150.702 	360.717 	284.633 	539.701 	
77.2381 	-0.0102048 	-0.292028 	0.807404 	-1.23054 	0.00776886 	3.13807 	90.1445 	117.706 	-0.586035 	151.703 	360.717 	284.633 	539.701 	
77.3411 	-0.010194 	-0.29805 	0.808619 	-1.21309 	0.00762397 	3.13819 	90.1445 	117.706 	-0.586035 	152.693 	360.717 	284.634 	539.701 	
77.4443 	-0.0101819 	-0.304093 	0.809728 	-1.19564 	0.00748126 	3.13832 	90.1445 	117.706 	-0.586035 	153.784 	360.717 	284.634 	539.701 	
77.5473 	-0.0101687 	-0.310155 	0.810732 	-1.17819 	0.00734081 	3.13845 	90.1445 	117.707 	-0.585938 	154.784 	360.717 	284.634 	539.701 	
77.6504 	-0.0101544 	-0.316233 	0.81163 	-1.16073 	0.00720263 	3.13858 	90.1445 	117.714 	-0.586035 	155.773 	360.717 	284.634 	539.701 	
77.7602 	-0.0101389 	-0.322326 	0.812421 	-1.14328 	0.00706678 	3.13872 	90.1445 	117.714 	-0.586035 	156.871 	360.717 	284.634 	539.701 	
77.8639 	-0.0101223 	-0.328432 	0.813107 	-1.12583 	0.0069333 	3.13885 	90.1445 	117.715 	-0.586035 	157.956 	360.717 	284.634 	539.701 	
77.9708 	-0.0101045 	-0.334549 	0.813685 	-1.10838 	0.00680222 	3.13899 	90.1446 	117.715 	-0.586035 	158.96 	360.717 	284.634 	539.701 	
78.0738 	-0.0100856 	-0.340674 	0.814157 	-1.09092 	0.00667359 	3.13913 	90.1446 	117.715 	-0.586035 	160.059 	360.717 	284.634 	539.701 	
78.176 	-0.0100444 	-0.352946 	0.814779 	-1.05602 	0.00642384 	3.13942 	90.1445 	117.715 	-0.585938 	161.055 	360.717 	284.635 	539.701 	
78.2788 	-0.0100222 	-0.359089 	0.814929 	-1.03857 	0.00630279 	3.13957 	90.1445 	117.715 	-0.586035 	162.054 	360.717 	284.635 	539.701 	
78.3808 	-0.00999885 	-0.365233 	0.814972 	-1.02112 	0.00618433 	3.13972 	90.1446 	117.715 	-0.586035 	163.054 	360.717 	284.635 	539.701 	
78.483 	-0.00997189 	-0.371991 	0.814896 	-1.00192 	0.00605708 	3.13989 	90.1445 	117.716 	-0.586035 	164.045 	360.717 	284.635 	539.701 	
78.5848 	-0.00994885 	-0.377518 	0.814737 	-0.986211 	0.00595537 	3.14003 	90.1445 	117.716 	-0.586035 	165.142 	360.717 	284.635 	539.701 	
78.6929 	-0.00992223 	-0.383656 	0.814458 	-0.968758 	0.00584493 	3.14018 	90.1446 	117.716 	-0.586035 	166.138 	360.717 	284.636 	539.701 	
78.7949 	-0.00989453 	-0.389788 	0.814073 	-0.951306 	0.00573724 	3.14034 	90.1446 	117.716 	-0.585938 	167.232 	360.717 	284.636 	539.701 	
78.8983 	-0.00986577 	-0.395912 	0.81358 	-0.933854 	0.00563231 	3.1405 	90.1446 	117.716 	-0.586035 	168.233 	360.717 	284.637 	539.701 	
79.0012 	-0.00983595 	-0.402027 	0.812981 	-0.916401 	0.00553018 	3.14066 	90.1446 	117.716 	-0.586035 	169.235 	360.717 	284.638 	539.701 	
79.1037 	-0.00980508 	-0.40813 	0.812275 	-0.898949 	0.00543089 	3.14083 	90.1446 	117.717 	-0.586035 	170.315 	360.717 	284.644 	539.701 	
79.2075 	-0.00977317 	-0.41422 	0.811463 	-0.881496 	0.00533447 	3.14099 	90.1446 	117.717 	-0.586035 	171.312 	360.717 	284.65 	539.701 	
79.3103 	-0.00974023 	-0.420295 	0.810544 	-0.864044 	0.00524094 	3.14116 	90.1445 	117.717 	-0.585938 	172.322 	360.717 	284.652 	539.701 	
79.4133 	-0.00970628 	-0.426353 	0.80952 	-0.846591 	0.00515034 	3.14133 	90.1446 	117.718 	-0.586035 	173.313 	360.717 	284.653 	539.701 	
79.5161 	-0.00967131 	-0.432392 	0.80839 	-0.829139 	0.00506268 	3.1415 	90.1447 	117.738 	-0.586035 	174.412 	360.717 	284.655 	539.701 	
79.6192 	-0.00963535 	-0.438411 	0.807154 	-0.811687 	0.00497801 	-3.14152 	90.1446 	117.747 	-0.586035 	175.4 	360.717 	284.657 	539.701 	
79.7222 	-0.0095984 	-0.444407 	0.805814 	-0.794234 	0.00489633 	-3.14135 	90.1446 	117.75 	-0.586035 	176.401 	360.717 	284.659 	539.701 	
79.8253 	-0.00956048 	-0.450378 	0.80437 	-0.776781 	0.00481769 	-3.14117 	90.1445 	117.75 	-0.586035 	177.508 	360.717 	284.661 	539.701 	
79.9285 	-0.00952159 	-0.456324 	0.802821 	-0.759329 	0.00474209 	-3.141 	90.1444 	117.75 	-0.585938 	178.497 	360.717 	284.667 	539.701 	
80.0313 	-0.00948174 	-0.462242 	0.801169 	-0.741877 	0.00466958 	-3.14082 	90.1445 	117.75 	-0.586035 	179.493 	360.717 	284.676 	539.701 	
80.1342 	-0.00944096 	-0.46813 	0.799414 	-0.724424 	0.00460016 	-3.14064 	90.1446 	117.751 	-0.586035 	180.59 	360.717 	284.684 	539.701 	
